gracetata/LocomotionHEC/legged_lab/Reference Data/ArmHack/StandPerturb/TestData/ArmOnly/poses/randomized/randomized_arm_pose_08_seed20260715_hold20s_50hz.csv
time_s,left_shoulder_pitch_joint,left_shoulder_roll_joint,left_shoulder_yaw_joint,left_elbow_joint,left_wrist_roll_joint,left_wrist_pitch_joint,left_wrist_yaw_joint,right_shoulder_pitch_joint,right_shoulder_roll_joint,right_shoulder_yaw_joint,right_elbow_joint,right_wrist_roll_joint,right_wrist_pitch_joint,right_wrist_yaw_joint
0.00000000,0.27753161,0.77758616,-0.22961554,-0.47548138,0.84739762,0.40011700,0.04636700,-0.43622848,-0.69897836,0.04247138,0.39589081,-0.83718471,-0.20819107,0.22208044
0.02000000,0.27753161,0.77758616,-0.22961554,-0.47548138,0.84739762,0.40011700,0.04636700,-0.43622848,-0.69897836,0.04247138,0.39589081,-0.83718471,-0.20819107,0.22208044
0.04000000,0.27753161,0.77758616,-0.22961554,-0.47548138,0.84739762,0.40011700,0.04636700,-0.43622848,-0.69897836,0.04247138,0.39589081,-0.83718471,-0.20819107,0.22208044
0.06000000,0.27753161,0.77758616,-0.22961554,-0.47548138,0.84739762,0.40011700,0.04636700,-0.43622848,-0.69897836,0.04247138,0.39589081,-0.83718471,-0.20819107,0.22208044
0.08000000,0.27753161,0.77758616,-0.22961554,-0.47548138,0.84739762,0.40011700,0.04636700,-0.43622848,-0.69897836,0.04247138,0.39589081,-0.83718471,-0.20819107,0.22208044
0.10000000,0.27753161,0.77758616,-0.22961554,-0.47548138,0.84739762,0.40011700,0.04636700,-0.43622848,-0.69897836,0.04247138,0.39589081,-0.83718471,-0.20819107,0.22208044
0.12000000,0.27753161,0.77758616,-0.22961554,-0.47548138,0.84739762,0.40011700,0.04636700,-0.43622848,-0.69897836,0.04247138,0.39589081,-0.83718471,-0.20819107,0.22208044
0.14000000,0.27753161,0.77758616,-0.22961554,-0.47548138,0.84739762,0.40011700,0.04636700,-0.43622848,-0.69897836,0.04247138,0.39589081,-0.83718471,-0.20819107,0.22208044
0.16000000,0.27753161,0.77758616,-0.22961554,-0.47548138,0.84739762,0.40011700,0.04636700,-0.43622848,-0.69897836,0.04247138,0.39589081,-0.83718471,-0.20819107,0.22208044
0.18000000,0.27753161,0.77758616,-0.22961554,-0.47548138,0.84739762,0.40011700,0.04636700,-0.43622848,-0.69897836,0.04247138,0.39589081,-0.83718471,-0.20819107,0.22208044
0.20000000,0.27753161,0.77758616,-0.22961554,-0.47548138,0.84739762,0.40011700,0.04636700,-0.43622848,-0.69897836,0.04247138,0.39589081,-0.83718471,-0.20819107,0.22208044
0.22000000,0.27753161,0.77758616,-0.22961554,-0.47548138,0.84739762,0.40011700,0.04636700,-0.43622848,-0.69897836,0.04247138,0.39589081,-0.83718471,-0.20819107,0.22208044
0.24000000,0.27753161,0.77758616,-0.22961554,-0.47548138,0.84739762,0.40011700,0.04636700,-0.43622848,-0.69897836,0.04247138,0.39589081,-0.83718471,-0.20819107,0.22208044
0.26000000,0.27753161,0.77758616,-0.22961554,-0.47548138,0.84739762,0.40011700,0.04636700,-0.43622848,-0.69897836,0.04247138,0.39589081,-0.83718471,-0.20819107,0.22208044
0.28000000,0.27753161,0.77758616,-0.22961554,-0.47548138,0.84739762,0.40011700,0.04636700,-0.43622848,-0.69897836,0.04247138,0.39589081,-0.83718471,-0.20819107,0.22208044
0.30000000,0.27753161,0.77758616,-0.22961554,-0.47548138,0.84739762,0.40011700,0.04636700,-0.43622848,-0.69897836,0.04247138,0.39589081,-0.83718471,-0.20819107,0.22208044
0.32000000,0.27753161,0.77758616,-0.22961554,-0.47548138,0.84739762,0.40011700,0.04636700,-0.43622848,-0.69897836,0.04247138,0.39589081,-0.83718471,-0.20819107,0.22208044
0.34000000,0.27753161,0.77758616,-0.22961554,-0.47548138,0.84739762,0.40011700,0.04636700,-0.43622848,-0.69897836,0.04247138,0.39589081,-0.83718471,-0.20819107,0.22208044
0.36000000,0.27753161,0.77758616,-0.22961554,-0.47548138,0.84739762,0.40011700,0.04636700,-0.43622848,-0.69897836,0.04247138,0.39589081,-0.83718471,-0.20819107,0.22208044
0.38000000,0.27753161,0.77758616,-0.22961554,-0.47548138,0.84739762,0.40011700,0.04636700,-0.43622848,-0.69897836,0.04247138,0.39589081,-0.83718471,-0.20819107,0.22208044
0.40000000,0.27753161,0.77758616,-0.22961554,-0.47548138,0.84739762,0.40011700,0.04636700,-0.43622848,-0.69897836,0.04247138,0.39589081,-0.83718471,-0.20819107,0.22208044
0.42000000,0.27753161,0.77758616,-0.22961554,-0.47548138,0.84739762,0.40011700,0.04636700,-0.43622848,-0.69897836,0.04247138,0.39589081,-0.83718471,-0.20819107,0.22208044
0.44000000,0.27753161,0.77758616,-0.22961554,-0.47548138,0.84739762,0.40011700,0.04636700,-0.43622848,-0.69897836,0.04247138,0.39589081,-0.83718471,-0.20819107,0.22208044
0.46000000,0.27753161,0.77758616,-0.22961554,-0.47548138,0.84739762,0.40011700,0.04636700,-0.43622848,-0.69897836,0.04247138,0.39589081,-0.83718471,-0.20819107,0.22208044
0.48000000,0.27753161,0.77758616,-0.22961554,-0.47548138,0.84739762,0.40011700,0.04636700,-0.43622848,-0.69897836,0.04247138,0.39589081,-0.83718471,-0.20819107,0.22208044
0.50000000,0.27753161,0.77758616,-0.22961554,-0.47548138,0.84739762,0.40011700,0.04636700,-0.43622848,-0.69897836,0.04247138,0.39589081,-0.83718471,-0.20819107,0.22208044
0.52000000,0.27753161,0.77758616,-0.22961554,-0.47548138,0.84739762,0.40011700,0.04636700,-0.43622848,-0.69897836,0.04247138,0.39589081,-0.83718471,-0.20819107,0.22208044
0.54000000,0.27753161,0.77758616,-0.22961554,-0.47548138,0.84739762,0.40011700,0.04636700,-0.43622848,-0.69897836,0.04247138,0.39589081,-0.83718471,-0.20819107,0.22208044
0.56000000,0.27753161,0.77758616,-0.22961554,-0.47548138,0.84739762,0.40011700,0.04636700,-0.43622848,-0.69897836,0.04247138,0.39589081,-0.83718471,-0.20819107,0.22208044
0.58000000,0.27753161,0.77758616,-0.22961554,-0.47548138,0.84739762,0.40011700,0.04636700,-0.43622848,-0.69897836,0.04247138,0.39589081,-0.83718471,-0.20819107,0.22208044
0.60000000,0.27753161,0.77758616,-0.22961554,-0.47548138,0.84739762,0.40011700,0.04636700,-0.43622848,-0.69897836,0.04247138,0.39589081,-0.83718471,-0.20819107,0.22208044
0.62000000,0.27753161,0.77758616,-0.22961554,-0.47548138,0.84739762,0.40011700,0.04636700,-0.43622848,-0.69897836,0.04247138,0.39589081,-0.83718471,-0.20819107,0.22208044
0.64000000,0.27753161,0.77758616,-0.22961554,-0.47548138,0.84739762,0.40011700,0.04636700,-0.43622848,-0.69897836,0.04247138,0.39589081,-0.83718471,-0.20819107,0.22208044
0.66000000,0.27753161,0.77758616,-0.22961554,-0.47548138,0.84739762,0.40011700,0.04636700,-0.43622848,-0.69897836,0.04247138,0.39589081,-0.83718471,-0.20819107,0.22208044
0.68000000,0.27753161,0.77758616,-0.22961554,-0.47548138,0.84739762,0.40011700,0.04636700,-0.43622848,-0.69897836,0.04247138,0.39589081,-0.83718471,-0.20819107,0.22208044
0.70000000,0.27753161,0.77758616,-0.22961554,-0.47548138,0.84739762,0.40011700,0.04636700,-0.43622848,-0.69897836,0.04247138,0.39589081,-0.83718471,-0.20819107,0.22208044
0.72000000,0.27753161,0.77758616,-0.22961554,-0.47548138,0.84739762,0.40011700,0.04636700,-0.43622848,-0.69897836,0.04247138,0.39589081,-0.83718471,-0.20819107,0.22208044
0.74000000,0.27753161,0.77758616,-0.22961554,-0.47548138,0.84739762,0.40011700,0.04636700,-0.43622848,-0.69897836,0.04247138,0.39589081,-0.83718471,-0.20819107,0.22208044
0.76000000,0.27753161,0.77758616,-0.22961554,-0.47548138,0.84739762,0.40011700,0.04636700,-0.43622848,-0.69897836,0.04247138,0.39589081,-0.83718471,-0.20819107,0.22208044
0.78000000,0.27753161,0.77758616,-0.22961554,-0.47548138,0.84739762,0.40011700,0.04636700,-0.43622848,-0.69897836,0.04247138,0.39589081,-0.83718471,-0.20819107,0.22208044
0.80000000,0.27753161,0.77758616,-0.22961554,-0.47548138,0.84739762,0.40011700,0.04636700,-0.43622848,-0.69897836,0.04247138,0.39589081,-0.83718471,-0.20819107,0.22208044
0.82000000,0.27753161,0.77758616,-0.22961554,-0.47548138,0.84739762,0.40011700,0.04636700,-0.43622848,-0.69897836,0.04247138,0.39589081,-0.83718471,-0.20819107,0.22208044
0.84000000,0.27753161,0.77758616,-0.22961554,-0.47548138,0.84739762,0.40011700,0.04636700,-0.43622848,-0.69897836,0.04247138,0.39589081,-0.83718471,-0.20819107,0.22208044
0.86000000,0.27753161,0.77758616,-0.22961554,-0.47548138,0.84739762,0.40011700,0.04636700,-0.43622848,-0.69897836,0.04247138,0.39589081,-0.83718471,-0.20819107,0.22208044
0.88000000,0.27753161,0.77758616,-0.22961554,-0.47548138,0.84739762,0.40011700,0.04636700,-0.43622848,-0.69897836,0.04247138,0.39589081,-0.83718471,-0.20819107,0.22208044
0.90000000,0.27753161,0.77758616,-0.22961554,-0.47548138,0.84739762,0.40011700,0.04636700,-0.43622848,-0.69897836,0.04247138,0.39589081,-0.83718471,-0.20819107,0.22208044
0.92000000,0.27753161,0.77758616,-0.22961554,-0.47548138,0.84739762,0.40011700,0.04636700,-0.43622848,-0.69897836,0.04247138,0.39589081,-0.83718471,-0.20819107,0.22208044
0.94000000,0.27753161,0.77758616,-0.22961554,-0.47548138,0.84739762,0.40011700,0.04636700,-0.43622848,-0.69897836,0.04247138,0.39589081,-0.83718471,-0.20819107,0.22208044
0.96000000,0.27753161,0.77758616,-0.22961554,-0.47548138,0.84739762,0.40011700,0.04636700,-0.43622848,-0.69897836,0.04247138,0.39589081,-0.83718471,-0.20819107,0.22208044
0.98000000,0.27753161,0.77758616,-0.22961554,-0.47548138,0.84739762,0.40011700,0.04636700,-0.43622848,-0.69897836,0.04247138,0.39589081,-0.83718471,-0.20819107,0.22208044
1.00000000,0.27753161,0.77758616,-0.22961554,-0.47548138,0.84739762,0.40011700,0.04636700,-0.43622848,-0.69897836,0.04247138,0.39589081,-0.83718471,-0.20819107,0.22208044
1.02000000,0.27753161,0.77758616,-0.22961554,-0.47548138,0.84739762,0.40011700,0.04636700,-0.43622848,-0.69897836,0.04247138,0.39589081,-0.83718471,-0.20819107,0.22208044
1.04000000,0.27753161,0.77758616,-0.22961554,-0.47548138,0.84739762,0.40011700,0.04636700,-0.43622848,-0.69897836,0.04247138,0.39589081,-0.83718471,-0.20819107,0.22208044
1.06000000,0.27753161,0.77758616,-0.22961554,-0.47548138,0.84739762,0.40011700,0.04636700,-0.43622848,-0.69897836,0.04247138,0.39589081,-0.83718471,-0.20819107,0.22208044
1.08000000,0.27753161,0.77758616,-0.22961554,-0.47548138,0.84739762,0.40011700,0.04636700,-0.43622848,-0.69897836,0.04247138,0.39589081,-0.83718471,-0.20819107,0.22208044
1.10000000,0.27753161,0.77758616,-0.22961554,-0.47548138,0.84739762,0.40011700,0.04636700,-0.43622848,-0.69897836,0.04247138,0.39589081,-0.83718471,-0.20819107,0.22208044
1.12000000,0.27753161,0.77758616,-0.22961554,-0.47548138,0.84739762,0.40011700,0.04636700,-0.43622848,-0.69897836,0.04247138,0.39589081,-0.83718471,-0.20819107,0.22208044
1.14000000,0.27753161,0.77758616,-0.22961554,-0.47548138,0.84739762,0.40011700,0.04636700,-0.43622848,-0.69897836,0.04247138,0.39589081,-0.83718471,-0.20819107,0.22208044
1.16000000,0.27753161,0.77758616,-0.22961554,-0.47548138,0.84739762,0.40011700,0.04636700,-0.43622848,-0.69897836,0.04247138,0.39589081,-0.83718471,-0.20819107,0.22208044
1.18000000,0.27753161,0.77758616,-0.22961554,-0.47548138,0.84739762,0.40011700,0.04636700,-0.43622848,-0.69897836,0.04247138,0.39589081,-0.83718471,-0.20819107,0.22208044
1.20000000,0.27753161,0.77758616,-0.22961554,-0.47548138,0.84739762,0.40011700,0.04636700,-0.43622848,-0.69897836,0.04247138,0.39589081,-0.83718471,-0.20819107,0.22208044
1.22000000,0.27753161,0.77758616,-0.22961554,-0.47548138,0.84739762,0.40011700,0.04636700,-0.43622848,-0.69897836,0.04247138,0.39589081,-0.83718471,-0.20819107,0.22208044
1.24000000,0.27753161,0.77758616,-0.22961554,-0.47548138,0.84739762,0.40011700,0.04636700,-0.43622848,-0.69897836,0.04247138,0.39589081,-0.83718471,-0.20819107,0.22208044
1.26000000,0.27753161,0.77758616,-0.22961554,-0.47548138,0.84739762,0.40011700,0.04636700,-0.43622848,-0.69897836,0.04247138,0.39589081,-0.83718471,-0.20819107,0.22208044
1.28000000,0.27753161,0.77758616,-0.22961554,-0.47548138,0.84739762,0.40011700,0.04636700,-0.43622848,-0.69897836,0.04247138,0.39589081,-0.83718471,-0.20819107,0.22208044
1.30000000,0.27753161,0.77758616,-0.22961554,-0.47548138,0.84739762,0.40011700,0.04636700,-0.43622848,-0.69897836,0.04247138,0.39589081,-0.83718471,-0.20819107,0.22208044
1.32000000,0.27753161,0.77758616,-0.22961554,-0.47548138,0.84739762,0.40011700,0.04636700,-0.43622848,-0.69897836,0.04247138,0.39589081,-0.83718471,-0.20819107,0.22208044
1.34000000,0.27753161,0.77758616,-0.22961554,-0.47548138,0.84739762,0.40011700,0.04636700,-0.43622848,-0.69897836,0.04247138,0.39589081,-0.83718471,-0.20819107,0.22208044
1.36000000,0.27753161,0.77758616,-0.22961554,-0.47548138,0.84739762,0.40011700,0.04636700,-0.43622848,-0.69897836,0.04247138,0.39589081,-0.83718471,-0.20819107,0.22208044
1.38000000,0.27753161,0.77758616,-0.22961554,-0.47548138,0.84739762,0.40011700,0.04636700,-0.43622848,-0.69897836,0.04247138,0.39589081,-0.83718471,-0.20819107,0.22208044
1.40000000,0.27753161,0.77758616,-0.22961554,-0.47548138,0.84739762,0.40011700,0.04636700,-0.43622848,-0.69897836,0.04247138,0.39589081,-0.83718471,-0.20819107,0.22208044
1.42000000,0.27753161,0.77758616,-0.22961554,-0.47548138,0.84739762,0.40011700,0.04636700,-0.43622848,-0.69897836,0.04247138,0.39589081,-0.83718471,-0.20819107,0.22208044
1.44000000,0.27753161,0.77758616,-0.22961554,-0.47548138,0.84739762,0.40011700,0.04636700,-0.43622848,-0.69897836,0.04247138,0.39589081,-0.83718471,-0.20819107,0.22208044
1.46000000,0.27753161,0.77758616,-0.22961554,-0.47548138,0.84739762,0.40011700,0.04636700,-0.43622848,-0.69897836,0.04247138,0.39589081,-0.83718471,-0.20819107,0.22208044
1.48000000,0.27753161,0.77758616,-0.22961554,-0.47548138,0.84739762,0.40011700,0.04636700,-0.43622848,-0.69897836,0.04247138,0.39589081,-0.83718471,-0.20819107,0.22208044
1.50000000,0.27753161,0.77758616,-0.22961554,-0.47548138,0.84739762,0.40011700,0.04636700,-0.43622848,-0.69897836,0.04247138,0.39589081,-0.83718471,-0.20819107,0.22208044
1.52000000,0.27753161,0.77758616,-0.22961554,-0.47548138,0.84739762,0.40011700,0.04636700,-0.43622848,-0.69897836,0.04247138,0.39589081,-0.83718471,-0.20819107,0.22208044
1.54000000,0.27753161,0.77758616,-0.22961554,-0.47548138,0.84739762,0.40011700,0.04636700,-0.43622848,-0.69897836,0.04247138,0.39589081,-0.83718471,-0.20819107,0.22208044
1.56000000,0.27753161,0.77758616,-0.22961554,-0.47548138,0.84739762,0.40011700,0.04636700,-0.43622848,-0.69897836,0.04247138,0.39589081,-0.83718471,-0.20819107,0.22208044
1.58000000,0.27753161,0.77758616,-0.22961554,-0.47548138,0.84739762,0.40011700,0.04636700,-0.43622848,-0.69897836,0.04247138,0.39589081,-0.83718471,-0.20819107,0.22208044
1.60000000,0.27753161,0.77758616,-0.22961554,-0.47548138,0.84739762,0.40011700,0.04636700,-0.43622848,-0.69897836,0.04247138,0.39589081,-0.83718471,-0.20819107,0.22208044
1.62000000,0.27753161,0.77758616,-0.22961554,-0.47548138,0.84739762,0.40011700,0.04636700,-0.43622848,-0.69897836,0.04247138,0.39589081,-0.83718471,-0.20819107,0.22208044
1.64000000,0.27753161,0.77758616,-0.22961554,-0.47548138,0.84739762,0.40011700,0.04636700,-0.43622848,-0.69897836,0.04247138,0.39589081,-0.83718471,-0.20819107,0.22208044
1.66000000,0.27753161,0.77758616,-0.22961554,-0.47548138,0.84739762,0.40011700,0.04636700,-0.43622848,-0.69897836,0.04247138,0.39589081,-0.83718471,-0.20819107,0.22208044
1.68000000,0.27753161,0.77758616,-0.22961554,-0.47548138,0.84739762,0.40011700,0.04636700,-0.43622848,-0.69897836,0.04247138,0.39589081,-0.83718471,-0.20819107,0.22208044
1.70000000,0.27753161,0.77758616,-0.22961554,-0.47548138,0.84739762,0.40011700,0.04636700,-0.43622848,-0.69897836,0.04247138,0.39589081,-0.83718471,-0.20819107,0.22208044
1.72000000,0.27753161,0.77758616,-0.22961554,-0.47548138,0.84739762,0.40011700,0.04636700,-0.43622848,-0.69897836,0.04247138,0.39589081,-0.83718471,-0.20819107,0.22208044
1.74000000,0.27753161,0.77758616,-0.22961554,-0.47548138,0.84739762,0.40011700,0.04636700,-0.43622848,-0.69897836,0.04247138,0.39589081,-0.83718471,-0.20819107,0.22208044
1.76000000,0.27753161,0.77758616,-0.22961554,-0.47548138,0.84739762,0.40011700,0.04636700,-0.43622848,-0.69897836,0.04247138,0.39589081,-0.83718471,-0.20819107,0.22208044
1.78000000,0.27753161,0.77758616,-0.22961554,-0.47548138,0.84739762,0.40011700,0.04636700,-0.43622848,-0.69897836,0.04247138,0.39589081,-0.83718471,-0.20819107,0.22208044
1.80000000,0.27753161,0.77758616,-0.22961554,-0.47548138,0.84739762,0.40011700,0.04636700,-0.43622848,-0.69897836,0.04247138,0.39589081,-0.83718471,-0.20819107,0.22208044
1.82000000,0.27753161,0.77758616,-0.22961554,-0.47548138,0.84739762,0.40011700,0.04636700,-0.43622848,-0.69897836,0.04247138,0.39589081,-0.83718471,-0.20819107,0.22208044
1.84000000,0.27753161,0.77758616,-0.22961554,-0.47548138,0.84739762,0.40011700,0.04636700,-0.43622848,-0.69897836,0.04247138,0.39589081,-0.83718471,-0.20819107,0.22208044
1.86000000,0.27753161,0.77758616,-0.22961554,-0.47548138,0.84739762,0.40011700,0.04636700,-0.43622848,-0.69897836,0.04247138,0.39589081,-0.83718471,-0.20819107,0.22208044
1.88000000,0.27753161,0.77758616,-0.22961554,-0.47548138,0.84739762,0.40011700,0.04636700,-0.43622848,-0.69897836,0.04247138,0.39589081,-0.83718471,-0.20819107,0.22208044
1.90000000,0.27753161,0.77758616,-0.22961554,-0.47548138,0.84739762,0.40011700,0.04636700,-0.43622848,-0.69897836,0.04247138,0.39589081,-0.83718471,-0.20819107,0.22208044
1.92000000,0.27753161,0.77758616,-0.22961554,-0.47548138,0.84739762,0.40011700,0.04636700,-0.43622848,-0.69897836,0.04247138,0.39589081,-0.83718471,-0.20819107,0.22208044
1.94000000,0.27753161,0.77758616,-0.22961554,-0.47548138,0.84739762,0.40011700,0.04636700,-0.43622848,-0.69897836,0.04247138,0.39589081,-0.83718471,-0.20819107,0.22208044
1.96000000,0.27753161,0.77758616,-0.22961554,-0.47548138,0.84739762,0.40011700,0.04636700,-0.43622848,-0.69897836,0.04247138,0.39589081,-0.83718471,-0.20819107,0.22208044
1.98000000,0.27753161,0.77758616,-0.22961554,-0.47548138,0.84739762,0.40011700,0.04636700,-0.43622848,-0.69897836,0.04247138,0.39589081,-0.83718471,-0.20819107,0.22208044
2.00000000,0.27753161,0.77758616,-0.22961554,-0.47548138,0.84739762,0.40011700,0.04636700,-0.43622848,-0.69897836,0.04247138,0.39589081,-0.83718471,-0.20819107,0.22208044
2.02000000,0.27753161,0.77758616,-0.22961554,-0.47548138,0.84739762,0.40011700,0.04636700,-0.43622848,-0.69897836,0.04247138,0.39589081,-0.83718471,-0.20819107,0.22208044
2.04000000,0.27753161,0.77758616,-0.22961554,-0.47548138,0.84739762,0.40011700,0.04636700,-0.43622848,-0.69897836,0.04247138,0.39589081,-0.83718471,-0.20819107,0.22208044
2.06000000,0.27753161,0.77758616,-0.22961554,-0.47548138,0.84739762,0.40011700,0.04636700,-0.43622848,-0.69897836,0.04247138,0.39589081,-0.83718471,-0.20819107,0.22208044
2.08000000,0.27753161,0.77758616,-0.22961554,-0.47548138,0.84739762,0.40011700,0.04636700,-0.43622848,-0.69897836,0.04247138,0.39589081,-0.83718471,-0.20819107,0.22208044
2.10000000,0.27753161,0.77758616,-0.22961554,-0.47548138,0.84739762,0.40011700,0.04636700,-0.43622848,-0.69897836,0.04247138,0.39589081,-0.83718471,-0.20819107,0.22208044
2.12000000,0.27753161,0.77758616,-0.22961554,-0.47548138,0.84739762,0.40011700,0.04636700,-0.43622848,-0.69897836,0.04247138,0.39589081,-0.83718471,-0.20819107,0.22208044
2.14000000,0.27753161,0.77758616,-0.22961554,-0.47548138,0.84739762,0.40011700,0.04636700,-0.43622848,-0.69897836,0.04247138,0.39589081,-0.83718471,-0.20819107,0.22208044
2.16000000,0.27753161,0.77758616,-0.22961554,-0.47548138,0.84739762,0.40011700,0.04636700,-0.43622848,-0.69897836,0.04247138,0.39589081,-0.83718471,-0.20819107,0.22208044
2.18000000,0.27753161,0.77758616,-0.22961554,-0.47548138,0.84739762,0.40011700,0.04636700,-0.43622848,-0.69897836,0.04247138,0.39589081,-0.83718471,-0.20819107,0.22208044
2.20000000,0.27753161,0.77758616,-0.22961554,-0.47548138,0.84739762,0.40011700,0.04636700,-0.43622848,-0.69897836,0.04247138,0.39589081,-0.83718471,-0.20819107,0.22208044
2.22000000,0.27753161,0.77758616,-0.22961554,-0.47548138,0.84739762,0.40011700,0.04636700,-0.43622848,-0.69897836,0.04247138,0.39589081,-0.83718471,-0.20819107,0.22208044
2.24000000,0.27753161,0.77758616,-0.22961554,-0.47548138,0.84739762,0.40011700,0.04636700,-0.43622848,-0.69897836,0.04247138,0.39589081,-0.83718471,-0.20819107,0.22208044
2.26000000,0.27753161,0.77758616,-0.22961554,-0.47548138,0.84739762,0.40011700,0.04636700,-0.43622848,-0.69897836,0.04247138,0.39589081,-0.83718471,-0.20819107,0.22208044
2.28000000,0.27753161,0.77758616,-0.22961554,-0.47548138,0.84739762,0.40011700,0.04636700,-0.43622848,-0.69897836,0.04247138,0.39589081,-0.83718471,-0.20819107,0.22208044
2.30000000,0.27753161,0.77758616,-0.22961554,-0.47548138,0.84739762,0.40011700,0.04636700,-0.43622848,-0.69897836,0.04247138,0.39589081,-0.83718471,-0.20819107,0.22208044
2.32000000,0.27753161,0.77758616,-0.22961554,-0.47548138,0.84739762,0.40011700,0.04636700,-0.43622848,-0.69897836,0.04247138,0.39589081,-0.83718471,-0.20819107,0.22208044
2.34000000,0.27753161,0.77758616,-0.22961554,-0.47548138,0.84739762,0.40011700,0.04636700,-0.43622848,-0.69897836,0.04247138,0.39589081,-0.83718471,-0.20819107,0.22208044
2.36000000,0.27753161,0.77758616,-0.22961554,-0.47548138,0.84739762,0.40011700,0.04636700,-0.43622848,-0.69897836,0.04247138,0.39589081,-0.83718471,-0.20819107,0.22208044
2.38000000,0.27753161,0.77758616,-0.22961554,-0.47548138,0.84739762,0.40011700,0.04636700,-0.43622848,-0.69897836,0.04247138,0.39589081,-0.83718471,-0.20819107,0.22208044
2.40000000,0.27753161,0.77758616,-0.22961554,-0.47548138,0.84739762,0.40011700,0.04636700,-0.43622848,-0.69897836,0.04247138,0.39589081,-0.83718471,-0.20819107,0.22208044
2.42000000,0.27753161,0.77758616,-0.22961554,-0.47548138,0.84739762,0.40011700,0.04636700,-0.43622848,-0.69897836,0.04247138,0.39589081,-0.83718471,-0.20819107,0.22208044
2.44000000,0.27753161,0.77758616,-0.22961554,-0.47548138,0.84739762,0.40011700,0.04636700,-0.43622848,-0.69897836,0.04247138,0.39589081,-0.83718471,-0.20819107,0.22208044
2.46000000,0.27753161,0.77758616,-0.22961554,-0.47548138,0.84739762,0.40011700,0.04636700,-0.43622848,-0.69897836,0.04247138,0.39589081,-0.83718471,-0.20819107,0.22208044
2.48000000,0.27753161,0.77758616,-0.22961554,-0.47548138,0.84739762,0.40011700,0.04636700,-0.43622848,-0.69897836,0.04247138,0.39589081,-0.83718471,-0.20819107,0.22208044
2.50000000,0.27753161,0.77758616,-0.22961554,-0.47548138,0.84739762,0.40011700,0.04636700,-0.43622848,-0.69897836,0.04247138,0.39589081,-0.83718471,-0.20819107,0.22208044
2.52000000,0.27753161,0.77758616,-0.22961554,-0.47548138,0.84739762,0.40011700,0.04636700,-0.43622848,-0.69897836,0.04247138,0.39589081,-0.83718471,-0.20819107,0.22208044
2.54000000,0.27753161,0.77758616,-0.22961554,-0.47548138,0.84739762,0.40011700,0.04636700,-0.43622848,-0.69897836,0.04247138,0.39589081,-0.83718471,-0.20819107,0.22208044
2.56000000,0.27753161,0.77758616,-0.22961554,-0.47548138,0.84739762,0.40011700,0.04636700,-0.43622848,-0.69897836,0.04247138,0.39589081,-0.83718471,-0.20819107,0.22208044
2.58000000,0.27753161,0.77758616,-0.22961554,-0.47548138,0.84739762,0.40011700,0.04636700,-0.43622848,-0.69897836,0.04247138,0.39589081,-0.83718471,-0.20819107,0.22208044
2.60000000,0.27753161,0.77758616,-0.22961554,-0.47548138,0.84739762,0.40011700,0.04636700,-0.43622848,-0.69897836,0.04247138,0.39589081,-0.83718471,-0.20819107,0.22208044
2.62000000,0.27753161,0.77758616,-0.22961554,-0.47548138,0.84739762,0.40011700,0.04636700,-0.43622848,-0.69897836,0.04247138,0.39589081,-0.83718471,-0.20819107,0.22208044
2.64000000,0.27753161,0.77758616,-0.22961554,-0.47548138,0.84739762,0.40011700,0.04636700,-0.43622848,-0.69897836,0.04247138,0.39589081,-0.83718471,-0.20819107,0.22208044
2.66000000,0.27753161,0.77758616,-0.22961554,-0.47548138,0.84739762,0.40011700,0.04636700,-0.43622848,-0.69897836,0.04247138,0.39589081,-0.83718471,-0.20819107,0.22208044
2.68000000,0.27753161,0.77758616,-0.22961554,-0.47548138,0.84739762,0.40011700,0.04636700,-0.43622848,-0.69897836,0.04247138,0.39589081,-0.83718471,-0.20819107,0.22208044
2.70000000,0.27753161,0.77758616,-0.22961554,-0.47548138,0.84739762,0.40011700,0.04636700,-0.43622848,-0.69897836,0.04247138,0.39589081,-0.83718471,-0.20819107,0.22208044
2.72000000,0.27753161,0.77758616,-0.22961554,-0.47548138,0.84739762,0.40011700,0.04636700,-0.43622848,-0.69897836,0.04247138,0.39589081,-0.83718471,-0.20819107,0.22208044
2.74000000,0.27753161,0.77758616,-0.22961554,-0.47548138,0.84739762,0.40011700,0.04636700,-0.43622848,-0.69897836,0.04247138,0.39589081,-0.83718471,-0.20819107,0.22208044
2.76000000,0.27753161,0.77758616,-0.22961554,-0.47548138,0.84739762,0.40011700,0.04636700,-0.43622848,-0.69897836,0.04247138,0.39589081,-0.83718471,-0.20819107,0.22208044
2.78000000,0.27753161,0.77758616,-0.22961554,-0.47548138,0.84739762,0.40011700,0.04636700,-0.43622848,-0.69897836,0.04247138,0.39589081,-0.83718471,-0.20819107,0.22208044
2.80000000,0.27753161,0.77758616,-0.22961554,-0.47548138,0.84739762,0.40011700,0.04636700,-0.43622848,-0.69897836,0.04247138,0.39589081,-0.83718471,-0.20819107,0.22208044
2.82000000,0.27753161,0.77758616,-0.22961554,-0.47548138,0.84739762,0.40011700,0.04636700,-0.43622848,-0.69897836,0.04247138,0.39589081,-0.83718471,-0.20819107,0.22208044
2.84000000,0.27753161,0.77758616,-0.22961554,-0.47548138,0.84739762,0.40011700,0.04636700,-0.43622848,-0.69897836,0.04247138,0.39589081,-0.83718471,-0.20819107,0.22208044
2.86000000,0.27753161,0.77758616,-0.22961554,-0.47548138,0.84739762,0.40011700,0.04636700,-0.43622848,-0.69897836,0.04247138,0.39589081,-0.83718471,-0.20819107,0.22208044
2.88000000,0.27753161,0.77758616,-0.22961554,-0.47548138,0.84739762,0.40011700,0.04636700,-0.43622848,-0.69897836,0.04247138,0.39589081,-0.83718471,-0.20819107,0.22208044
2.90000000,0.27753161,0.77758616,-0.22961554,-0.47548138,0.84739762,0.40011700,0.04636700,-0.43622848,-0.69897836,0.04247138,0.39589081,-0.83718471,-0.20819107,0.22208044
2.92000000,0.27753161,0.77758616,-0.22961554,-0.47548138,0.84739762,0.40011700,0.04636700,-0.43622848,-0.69897836,0.04247138,0.39589081,-0.83718471,-0.20819107,0.22208044
2.94000000,0.27753161,0.77758616,-0.22961554,-0.47548138,0.84739762,0.40011700,0.04636700,-0.43622848,-0.69897836,0.04247138,0.39589081,-0.83718471,-0.20819107,0.22208044
2.96000000,0.27753161,0.77758616,-0.22961554,-0.47548138,0.84739762,0.40011700,0.04636700,-0.43622848,-0.69897836,0.04247138,0.39589081,-0.83718471,-0.20819107,0.22208044
2.98000000,0.27753161,0.77758616,-0.22961554,-0.47548138,0.84739762,0.40011700,0.04636700,-0.43622848,-0.69897836,0.04247138,0.39589081,-0.83718471,-0.20819107,0.22208044
3.00000000,0.27753161,0.77758616,-0.22961554,-0.47548138,0.84739762,0.40011700,0.04636700,-0.43622848,-0.69897836,0.04247138,0.39589081,-0.83718471,-0.20819107,0.22208044
3.02000000,0.27753161,0.77758616,-0.22961554,-0.47548138,0.84739762,0.40011700,0.04636700,-0.43622848,-0.69897836,0.04247138,0.39589081,-0.83718471,-0.20819107,0.22208044
3.04000000,0.27753161,0.77758616,-0.22961554,-0.47548138,0.84739762,0.40011700,0.04636700,-0.43622848,-0.69897836,0.04247138,0.39589081,-0.83718471,-0.20819107,0.22208044
3.06000000,0.27753161,0.77758616,-0.22961554,-0.47548138,0.84739762,0.40011700,0.04636700,-0.43622848,-0.69897836,0.04247138,0.39589081,-0.83718471,-0.20819107,0.22208044
3.08000000,0.27753161,0.77758616,-0.22961554,-0.47548138,0.84739762,0.40011700,0.04636700,-0.43622848,-0.69897836,0.04247138,0.39589081,-0.83718471,-0.20819107,0.22208044
3.10000000,0.27753161,0.77758616,-0.22961554,-0.47548138,0.84739762,0.40011700,0.04636700,-0.43622848,-0.69897836,0.04247138,0.39589081,-0.83718471,-0.20819107,0.22208044
3.12000000,0.27753161,0.77758616,-0.22961554,-0.47548138,0.84739762,0.40011700,0.04636700,-0.43622848,-0.69897836,0.04247138,0.39589081,-0.83718471,-0.20819107,0.22208044
3.14000000,0.27753161,0.77758616,-0.22961554,-0.47548138,0.84739762,0.40011700,0.04636700,-0.43622848,-0.69897836,0.04247138,0.39589081,-0.83718471,-0.20819107,0.22208044
3.16000000,0.27753161,0.77758616,-0.22961554,-0.47548138,0.84739762,0.40011700,0.04636700,-0.43622848,-0.69897836,0.04247138,0.39589081,-0.83718471,-0.20819107,0.22208044
3.18000000,0.27753161,0.77758616,-0.22961554,-0.47548138,0.84739762,0.40011700,0.04636700,-0.43622848,-0.69897836,0.04247138,0.39589081,-0.83718471,-0.20819107,0.22208044
3.20000000,0.27753161,0.77758616,-0.22961554,-0.47548138,0.84739762,0.40011700,0.04636700,-0.43622848,-0.69897836,0.04247138,0.39589081,-0.83718471,-0.20819107,0.22208044
3.22000000,0.27753161,0.77758616,-0.22961554,-0.47548138,0.84739762,0.40011700,0.04636700,-0.43622848,-0.69897836,0.04247138,0.39589081,-0.83718471,-0.20819107,0.22208044
3.24000000,0.27753161,0.77758616,-0.22961554,-0.47548138,0.84739762,0.40011700,0.04636700,-0.43622848,-0.69897836,0.04247138,0.39589081,-0.83718471,-0.20819107,0.22208044
3.26000000,0.27753161,0.77758616,-0.22961554,-0.47548138,0.84739762,0.40011700,0.04636700,-0.43622848,-0.69897836,0.04247138,0.39589081,-0.83718471,-0.20819107,0.22208044
3.28000000,0.27753161,0.77758616,-0.22961554,-0.47548138,0.84739762,0.40011700,0.04636700,-0.43622848,-0.69897836,0.04247138,0.39589081,-0.83718471,-0.20819107,0.22208044
3.30000000,0.27753161,0.77758616,-0.22961554,-0.47548138,0.84739762,0.40011700,0.04636700,-0.43622848,-0.69897836,0.04247138,0.39589081,-0.83718471,-0.20819107,0.22208044
3.32000000,0.27753161,0.77758616,-0.22961554,-0.47548138,0.84739762,0.40011700,0.04636700,-0.43622848,-0.69897836,0.04247138,0.39589081,-0.83718471,-0.20819107,0.22208044
3.34000000,0.27753161,0.77758616,-0.22961554,-0.47548138,0.84739762,0.40011700,0.04636700,-0.43622848,-0.69897836,0.04247138,0.39589081,-0.83718471,-0.20819107,0.22208044
3.36000000,0.27753161,0.77758616,-0.22961554,-0.47548138,0.84739762,0.40011700,0.04636700,-0.43622848,-0.69897836,0.04247138,0.39589081,-0.83718471,-0.20819107,0.22208044
3.38000000,0.27753161,0.77758616,-0.22961554,-0.47548138,0.84739762,0.40011700,0.04636700,-0.43622848,-0.69897836,0.04247138,0.39589081,-0.83718471,-0.20819107,0.22208044
3.40000000,0.27753161,0.77758616,-0.22961554,-0.47548138,0.84739762,0.40011700,0.04636700,-0.43622848,-0.69897836,0.04247138,0.39589081,-0.83718471,-0.20819107,0.22208044
3.42000000,0.27753161,0.77758616,-0.22961554,-0.47548138,0.84739762,0.40011700,0.04636700,-0.43622848,-0.69897836,0.04247138,0.39589081,-0.83718471,-0.20819107,0.22208044
3.44000000,0.27753161,0.77758616,-0.22961554,-0.47548138,0.84739762,0.40011700,0.04636700,-0.43622848,-0.69897836,0.04247138,0.39589081,-0.83718471,-0.20819107,0.22208044
3.46000000,0.27753161,0.77758616,-0.22961554,-0.47548138,0.84739762,0.40011700,0.04636700,-0.43622848,-0.69897836,0.04247138,0.39589081,-0.83718471,-0.20819107,0.22208044
3.48000000,0.27753161,0.77758616,-0.22961554,-0.47548138,0.84739762,0.40011700,0.04636700,-0.43622848,-0.69897836,0.04247138,0.39589081,-0.83718471,-0.20819107,0.22208044
3.50000000,0.27753161,0.77758616,-0.22961554,-0.47548138,0.84739762,0.40011700,0.04636700,-0.43622848,-0.69897836,0.04247138,0.39589081,-0.83718471,-0.20819107,0.22208044
3.52000000,0.27753161,0.77758616,-0.22961554,-0.47548138,0.84739762,0.40011700,0.04636700,-0.43622848,-0.69897836,0.04247138,0.39589081,-0.83718471,-0.20819107,0.22208044
3.54000000,0.27753161,0.77758616,-0.22961554,-0.47548138,0.84739762,0.40011700,0.04636700,-0.43622848,-0.69897836,0.04247138,0.39589081,-0.83718471,-0.20819107,0.22208044
3.56000000,0.27753161,0.77758616,-0.22961554,-0.47548138,0.84739762,0.40011700,0.04636700,-0.43622848,-0.69897836,0.04247138,0.39589081,-0.83718471,-0.20819107,0.22208044
3.58000000,0.27753161,0.77758616,-0.22961554,-0.47548138,0.84739762,0.40011700,0.04636700,-0.43622848,-0.69897836,0.04247138,0.39589081,-0.83718471,-0.20819107,0.22208044
3.60000000,0.27753161,0.77758616,-0.22961554,-0.47548138,0.84739762,0.40011700,0.04636700,-0.43622848,-0.69897836,0.04247138,0.39589081,-0.83718471,-0.20819107,0.22208044
3.62000000,0.27753161,0.77758616,-0.22961554,-0.47548138,0.84739762,0.40011700,0.04636700,-0.43622848,-0.69897836,0.04247138,0.39589081,-0.83718471,-0.20819107,0.22208044
3.64000000,0.27753161,0.77758616,-0.22961554,-0.47548138,0.84739762,0.40011700,0.04636700,-0.43622848,-0.69897836,0.04247138,0.39589081,-0.83718471,-0.20819107,0.22208044
3.66000000,0.27753161,0.77758616,-0.22961554,-0.47548138,0.84739762,0.40011700,0.04636700,-0.43622848,-0.69897836,0.04247138,0.39589081,-0.83718471,-0.20819107,0.22208044
3.68000000,0.27753161,0.77758616,-0.22961554,-0.47548138,0.84739762,0.40011700,0.04636700,-0.43622848,-0.69897836,0.04247138,0.39589081,-0.83718471,-0.20819107,0.22208044
3.70000000,0.27753161,0.77758616,-0.22961554,-0.47548138,0.84739762,0.40011700,0.04636700,-0.43622848,-0.69897836,0.04247138,0.39589081,-0.83718471,-0.20819107,0.22208044
3.72000000,0.27753161,0.77758616,-0.22961554,-0.47548138,0.84739762,0.40011700,0.04636700,-0.43622848,-0.69897836,0.04247138,0.39589081,-0.83718471,-0.20819107,0.22208044
3.74000000,0.27753161,0.77758616,-0.22961554,-0.47548138,0.84739762,0.40011700,0.04636700,-0.43622848,-0.69897836,0.04247138,0.39589081,-0.83718471,-0.20819107,0.22208044
3.76000000,0.27753161,0.77758616,-0.22961554,-0.47548138,0.84739762,0.40011700,0.04636700,-0.43622848,-0.69897836,0.04247138,0.39589081,-0.83718471,-0.20819107,0.22208044
3.78000000,0.27753161,0.77758616,-0.22961554,-0.47548138,0.84739762,0.40011700,0.04636700,-0.43622848,-0.69897836,0.04247138,0.39589081,-0.83718471,-0.20819107,0.22208044
3.80000000,0.27753161,0.77758616,-0.22961554,-0.47548138,0.84739762,0.40011700,0.04636700,-0.43622848,-0.69897836,0.04247138,0.39589081,-0.83718471,-0.20819107,0.22208044
3.82000000,0.27753161,0.77758616,-0.22961554,-0.47548138,0.84739762,0.40011700,0.04636700,-0.43622848,-0.69897836,0.04247138,0.39589081,-0.83718471,-0.20819107,0.22208044
3.84000000,0.27753161,0.77758616,-0.22961554,-0.47548138,0.84739762,0.40011700,0.04636700,-0.43622848,-0.69897836,0.04247138,0.39589081,-0.83718471,-0.20819107,0.22208044
3.86000000,0.27753161,0.77758616,-0.22961554,-0.47548138,0.84739762,0.40011700,0.04636700,-0.43622848,-0.69897836,0.04247138,0.39589081,-0.83718471,-0.20819107,0.22208044
3.88000000,0.27753161,0.77758616,-0.22961554,-0.47548138,0.84739762,0.40011700,0.04636700,-0.43622848,-0.69897836,0.04247138,0.39589081,-0.83718471,-0.20819107,0.22208044
3.90000000,0.27753161,0.77758616,-0.22961554,-0.47548138,0.84739762,0.40011700,0.04636700,-0.43622848,-0.69897836,0.04247138,0.39589081,-0.83718471,-0.20819107,0.22208044
3.92000000,0.27753161,0.77758616,-0.22961554,-0.47548138,0.84739762,0.40011700,0.04636700,-0.43622848,-0.69897836,0.04247138,0.39589081,-0.83718471,-0.20819107,0.22208044
3.94000000,0.27753161,0.77758616,-0.22961554,-0.47548138,0.84739762,0.40011700,0.04636700,-0.43622848,-0.69897836,0.04247138,0.39589081,-0.83718471,-0.20819107,0.22208044
3.96000000,0.27753161,0.77758616,-0.22961554,-0.47548138,0.84739762,0.40011700,0.04636700,-0.43622848,-0.69897836,0.04247138,0.39589081,-0.83718471,-0.20819107,0.22208044
3.98000000,0.27753161,0.77758616,-0.22961554,-0.47548138,0.84739762,0.40011700,0.04636700,-0.43622848,-0.69897836,0.04247138,0.39589081,-0.83718471,-0.20819107,0.22208044
4.00000000,0.27753161,0.77758616,-0.22961554,-0.47548138,0.84739762,0.40011700,0.04636700,-0.43622848,-0.69897836,0.04247138,0.39589081,-0.83718471,-0.20819107,0.22208044
4.02000000,0.27753161,0.77758616,-0.22961554,-0.47548138,0.84739762,0.40011700,0.04636700,-0.43622848,-0.69897836,0.04247138,0.39589081,-0.83718471,-0.20819107,0.22208044
4.04000000,0.27753161,0.77758616,-0.22961554,-0.47548138,0.84739762,0.40011700,0.04636700,-0.43622848,-0.69897836,0.04247138,0.39589081,-0.83718471,-0.20819107,0.22208044
4.06000000,0.27753161,0.77758616,-0.22961554,-0.47548138,0.84739762,0.40011700,0.04636700,-0.43622848,-0.69897836,0.04247138,0.39589081,-0.83718471,-0.20819107,0.22208044
4.08000000,0.27753161,0.77758616,-0.22961554,-0.47548138,0.84739762,0.40011700,0.04636700,-0.43622848,-0.69897836,0.04247138,0.39589081,-0.83718471,-0.20819107,0.22208044
4.10000000,0.27753161,0.77758616,-0.22961554,-0.47548138,0.84739762,0.40011700,0.04636700,-0.43622848,-0.69897836,0.04247138,0.39589081,-0.83718471,-0.20819107,0.22208044
4.12000000,0.27753161,0.77758616,-0.22961554,-0.47548138,0.84739762,0.40011700,0.04636700,-0.43622848,-0.69897836,0.04247138,0.39589081,-0.83718471,-0.20819107,0.22208044
4.14000000,0.27753161,0.77758616,-0.22961554,-0.47548138,0.84739762,0.40011700,0.04636700,-0.43622848,-0.69897836,0.04247138,0.39589081,-0.83718471,-0.20819107,0.22208044
4.16000000,0.27753161,0.77758616,-0.22961554,-0.47548138,0.84739762,0.40011700,0.04636700,-0.43622848,-0.69897836,0.04247138,0.39589081,-0.83718471,-0.20819107,0.22208044
4.18000000,0.27753161,0.77758616,-0.22961554,-0.47548138,0.84739762,0.40011700,0.04636700,-0.43622848,-0.69897836,0.04247138,0.39589081,-0.83718471,-0.20819107,0.22208044
4.20000000,0.27753161,0.77758616,-0.22961554,-0.47548138,0.84739762,0.40011700,0.04636700,-0.43622848,-0.69897836,0.04247138,0.39589081,-0.83718471,-0.20819107,0.22208044
4.22000000,0.27753161,0.77758616,-0.22961554,-0.47548138,0.84739762,0.40011700,0.04636700,-0.43622848,-0.69897836,0.04247138,0.39589081,-0.83718471,-0.20819107,0.22208044
4.24000000,0.27753161,0.77758616,-0.22961554,-0.47548138,0.84739762,0.40011700,0.04636700,-0.43622848,-0.69897836,0.04247138,0.39589081,-0.83718471,-0.20819107,0.22208044
4.26000000,0.27753161,0.77758616,-0.22961554,-0.47548138,0.84739762,0.40011700,0.04636700,-0.43622848,-0.69897836,0.04247138,0.39589081,-0.83718471,-0.20819107,0.22208044
4.28000000,0.27753161,0.77758616,-0.22961554,-0.47548138,0.84739762,0.40011700,0.04636700,-0.43622848,-0.69897836,0.04247138,0.39589081,-0.83718471,-0.20819107,0.22208044
4.30000000,0.27753161,0.77758616,-0.22961554,-0.47548138,0.84739762,0.40011700,0.04636700,-0.43622848,-0.69897836,0.04247138,0.39589081,-0.83718471,-0.20819107,0.22208044
4.32000000,0.27753161,0.77758616,-0.22961554,-0.47548138,0.84739762,0.40011700,0.04636700,-0.43622848,-0.69897836,0.04247138,0.39589081,-0.83718471,-0.20819107,0.22208044
4.34000000,0.27753161,0.77758616,-0.22961554,-0.47548138,0.84739762,0.40011700,0.04636700,-0.43622848,-0.69897836,0.04247138,0.39589081,-0.83718471,-0.20819107,0.22208044
4.36000000,0.27753161,0.77758616,-0.22961554,-0.47548138,0.84739762,0.40011700,0.04636700,-0.43622848,-0.69897836,0.04247138,0.39589081,-0.83718471,-0.20819107,0.22208044
4.38000000,0.27753161,0.77758616,-0.22961554,-0.47548138,0.84739762,0.40011700,0.04636700,-0.43622848,-0.69897836,0.04247138,0.39589081,-0.83718471,-0.20819107,0.22208044
4.40000000,0.27753161,0.77758616,-0.22961554,-0.47548138,0.84739762,0.40011700,0.04636700,-0.43622848,-0.69897836,0.04247138,0.39589081,-0.83718471,-0.20819107,0.22208044
4.42000000,0.27753161,0.77758616,-0.22961554,-0.47548138,0.84739762,0.40011700,0.04636700,-0.43622848,-0.69897836,0.04247138,0.39589081,-0.83718471,-0.20819107,0.22208044
4.44000000,0.27753161,0.77758616,-0.22961554,-0.47548138,0.84739762,0.40011700,0.04636700,-0.43622848,-0.69897836,0.04247138,0.39589081,-0.83718471,-0.20819107,0.22208044
4.46000000,0.27753161,0.77758616,-0.22961554,-0.47548138,0.84739762,0.40011700,0.04636700,-0.43622848,-0.69897836,0.04247138,0.39589081,-0.83718471,-0.20819107,0.22208044
4.48000000,0.27753161,0.77758616,-0.22961554,-0.47548138,0.84739762,0.40011700,0.04636700,-0.43622848,-0.69897836,0.04247138,0.39589081,-0.83718471,-0.20819107,0.22208044
4.50000000,0.27753161,0.77758616,-0.22961554,-0.47548138,0.84739762,0.40011700,0.04636700,-0.43622848,-0.69897836,0.04247138,0.39589081,-0.83718471,-0.20819107,0.22208044
4.52000000,0.27753161,0.77758616,-0.22961554,-0.47548138,0.84739762,0.40011700,0.04636700,-0.43622848,-0.69897836,0.04247138,0.39589081,-0.83718471,-0.20819107,0.22208044
4.54000000,0.27753161,0.77758616,-0.22961554,-0.47548138,0.84739762,0.40011700,0.04636700,-0.43622848,-0.69897836,0.04247138,0.39589081,-0.83718471,-0.20819107,0.22208044
4.56000000,0.27753161,0.77758616,-0.22961554,-0.47548138,0.84739762,0.40011700,0.04636700,-0.43622848,-0.69897836,0.04247138,0.39589081,-0.83718471,-0.20819107,0.22208044
4.58000000,0.27753161,0.77758616,-0.22961554,-0.47548138,0.84739762,0.40011700,0.04636700,-0.43622848,-0.69897836,0.04247138,0.39589081,-0.83718471,-0.20819107,0.22208044
4.60000000,0.27753161,0.77758616,-0.22961554,-0.47548138,0.84739762,0.40011700,0.04636700,-0.43622848,-0.69897836,0.04247138,0.39589081,-0.83718471,-0.20819107,0.22208044
4.62000000,0.27753161,0.77758616,-0.22961554,-0.47548138,0.84739762,0.40011700,0.04636700,-0.43622848,-0.69897836,0.04247138,0.39589081,-0.83718471,-0.20819107,0.22208044
4.64000000,0.27753161,0.77758616,-0.22961554,-0.47548138,0.84739762,0.40011700,0.04636700,-0.43622848,-0.69897836,0.04247138,0.39589081,-0.83718471,-0.20819107,0.22208044
4.66000000,0.27753161,0.77758616,-0.22961554,-0.47548138,0.84739762,0.40011700,0.04636700,-0.43622848,-0.69897836,0.04247138,0.39589081,-0.83718471,-0.20819107,0.22208044
4.68000000,0.27753161,0.77758616,-0.22961554,-0.47548138,0.84739762,0.40011700,0.04636700,-0.43622848,-0.69897836,0.04247138,0.39589081,-0.83718471,-0.20819107,0.22208044
4.70000000,0.27753161,0.77758616,-0.22961554,-0.47548138,0.84739762,0.40011700,0.04636700,-0.43622848,-0.69897836,0.04247138,0.39589081,-0.83718471,-0.20819107,0.22208044
4.72000000,0.27753161,0.77758616,-0.22961554,-0.47548138,0.84739762,0.40011700,0.04636700,-0.43622848,-0.69897836,0.04247138,0.39589081,-0.83718471,-0.20819107,0.22208044
4.74000000,0.27753161,0.77758616,-0.22961554,-0.47548138,0.84739762,0.40011700,0.04636700,-0.43622848,-0.69897836,0.04247138,0.39589081,-0.83718471,-0.20819107,0.22208044
4.76000000,0.27753161,0.77758616,-0.22961554,-0.47548138,0.84739762,0.40011700,0.04636700,-0.43622848,-0.69897836,0.04247138,0.39589081,-0.83718471,-0.20819107,0.22208044
4.78000000,0.27753161,0.77758616,-0.22961554,-0.47548138,0.84739762,0.40011700,0.04636700,-0.43622848,-0.69897836,0.04247138,0.39589081,-0.83718471,-0.20819107,0.22208044
4.80000000,0.27753161,0.77758616,-0.22961554,-0.47548138,0.84739762,0.40011700,0.04636700,-0.43622848,-0.69897836,0.04247138,0.39589081,-0.83718471,-0.20819107,0.22208044
4.82000000,0.27753161,0.77758616,-0.22961554,-0.47548138,0.84739762,0.40011700,0.04636700,-0.43622848,-0.69897836,0.04247138,0.39589081,-0.83718471,-0.20819107,0.22208044
4.84000000,0.27753161,0.77758616,-0.22961554,-0.47548138,0.84739762,0.40011700,0.04636700,-0.43622848,-0.69897836,0.04247138,0.39589081,-0.83718471,-0.20819107,0.22208044
4.86000000,0.27753161,0.77758616,-0.22961554,-0.47548138,0.84739762,0.40011700,0.04636700,-0.43622848,-0.69897836,0.04247138,0.39589081,-0.83718471,-0.20819107,0.22208044
4.88000000,0.27753161,0.77758616,-0.22961554,-0.47548138,0.84739762,0.40011700,0.04636700,-0.43622848,-0.69897836,0.04247138,0.39589081,-0.83718471,-0.20819107,0.22208044
4.90000000,0.27753161,0.77758616,-0.22961554,-0.47548138,0.84739762,0.40011700,0.04636700,-0.43622848,-0.69897836,0.04247138,0.39589081,-0.83718471,-0.20819107,0.22208044
4.92000000,0.27753161,0.77758616,-0.22961554,-0.47548138,0.84739762,0.40011700,0.04636700,-0.43622848,-0.69897836,0.04247138,0.39589081,-0.83718471,-0.20819107,0.22208044
4.94000000,0.27753161,0.77758616,-0.22961554,-0.47548138,0.84739762,0.40011700,0.04636700,-0.43622848,-0.69897836,0.04247138,0.39589081,-0.83718471,-0.20819107,0.22208044
4.96000000,0.27753161,0.77758616,-0.22961554,-0.47548138,0.84739762,0.40011700,0.04636700,-0.43622848,-0.69897836,0.04247138,0.39589081,-0.83718471,-0.20819107,0.22208044
4.98000000,0.27753161,0.77758616,-0.22961554,-0.47548138,0.84739762,0.40011700,0.04636700,-0.43622848,-0.69897836,0.04247138,0.39589081,-0.83718471,-0.20819107,0.22208044
5.00000000,0.27753161,0.77758616,-0.22961554,-0.47548138,0.84739762,0.40011700,0.04636700,-0.43622848,-0.69897836,0.04247138,0.39589081,-0.83718471,-0.20819107,0.22208044
5.02000000,0.27753161,0.77758616,-0.22961554,-0.47548138,0.84739762,0.40011700,0.04636700,-0.43622848,-0.69897836,0.04247138,0.39589081,-0.83718471,-0.20819107,0.22208044
5.04000000,0.27753161,0.77758616,-0.22961554,-0.47548138,0.84739762,0.40011700,0.04636700,-0.43622848,-0.69897836,0.04247138,0.39589081,-0.83718471,-0.20819107,0.22208044
5.06000000,0.27753161,0.77758616,-0.22961554,-0.47548138,0.84739762,0.40011700,0.04636700,-0.43622848,-0.69897836,0.04247138,0.39589081,-0.83718471,-0.20819107,0.22208044
5.08000000,0.27753161,0.77758616,-0.22961554,-0.47548138,0.84739762,0.40011700,0.04636700,-0.43622848,-0.69897836,0.04247138,0.39589081,-0.83718471,-0.20819107,0.22208044
5.10000000,0.27753161,0.77758616,-0.22961554,-0.47548138,0.84739762,0.40011700,0.04636700,-0.43622848,-0.69897836,0.04247138,0.39589081,-0.83718471,-0.20819107,0.22208044
5.12000000,0.27753161,0.77758616,-0.22961554,-0.47548138,0.84739762,0.40011700,0.04636700,-0.43622848,-0.69897836,0.04247138,0.39589081,-0.83718471,-0.20819107,0.22208044
5.14000000,0.27753161,0.77758616,-0.22961554,-0.47548138,0.84739762,0.40011700,0.04636700,-0.43622848,-0.69897836,0.04247138,0.39589081,-0.83718471,-0.20819107,0.22208044
5.16000000,0.27753161,0.77758616,-0.22961554,-0.47548138,0.84739762,0.40011700,0.04636700,-0.43622848,-0.69897836,0.04247138,0.39589081,-0.83718471,-0.20819107,0.22208044
5.18000000,0.27753161,0.77758616,-0.22961554,-0.47548138,0.84739762,0.40011700,0.04636700,-0.43622848,-0.69897836,0.04247138,0.39589081,-0.83718471,-0.20819107,0.22208044
5.20000000,0.27753161,0.77758616,-0.22961554,-0.47548138,0.84739762,0.40011700,0.04636700,-0.43622848,-0.69897836,0.04247138,0.39589081,-0.83718471,-0.20819107,0.22208044
5.22000000,0.27753161,0.77758616,-0.22961554,-0.47548138,0.84739762,0.40011700,0.04636700,-0.43622848,-0.69897836,0.04247138,0.39589081,-0.83718471,-0.20819107,0.22208044
5.24000000,0.27753161,0.77758616,-0.22961554,-0.47548138,0.84739762,0.40011700,0.04636700,-0.43622848,-0.69897836,0.04247138,0.39589081,-0.83718471,-0.20819107,0.22208044
5.26000000,0.27753161,0.77758616,-0.22961554,-0.47548138,0.84739762,0.40011700,0.04636700,-0.43622848,-0.69897836,0.04247138,0.39589081,-0.83718471,-0.20819107,0.22208044
5.28000000,0.27753161,0.77758616,-0.22961554,-0.47548138,0.84739762,0.40011700,0.04636700,-0.43622848,-0.69897836,0.04247138,0.39589081,-0.83718471,-0.20819107,0.22208044
5.30000000,0.27753161,0.77758616,-0.22961554,-0.47548138,0.84739762,0.40011700,0.04636700,-0.43622848,-0.69897836,0.04247138,0.39589081,-0.83718471,-0.20819107,0.22208044
5.32000000,0.27753161,0.77758616,-0.22961554,-0.47548138,0.84739762,0.40011700,0.04636700,-0.43622848,-0.69897836,0.04247138,0.39589081,-0.83718471,-0.20819107,0.22208044
5.34000000,0.27753161,0.77758616,-0.22961554,-0.47548138,0.84739762,0.40011700,0.04636700,-0.43622848,-0.69897836,0.04247138,0.39589081,-0.83718471,-0.20819107,0.22208044
5.36000000,0.27753161,0.77758616,-0.22961554,-0.47548138,0.84739762,0.40011700,0.04636700,-0.43622848,-0.69897836,0.04247138,0.39589081,-0.83718471,-0.20819107,0.22208044
5.38000000,0.27753161,0.77758616,-0.22961554,-0.47548138,0.84739762,0.40011700,0.04636700,-0.43622848,-0.69897836,0.04247138,0.39589081,-0.83718471,-0.20819107,0.22208044
5.40000000,0.27753161,0.77758616,-0.22961554,-0.47548138,0.84739762,0.40011700,0.04636700,-0.43622848,-0.69897836,0.04247138,0.39589081,-0.83718471,-0.20819107,0.22208044
5.42000000,0.27753161,0.77758616,-0.22961554,-0.47548138,0.84739762,0.40011700,0.04636700,-0.43622848,-0.69897836,0.04247138,0.39589081,-0.83718471,-0.20819107,0.22208044
5.44000000,0.27753161,0.77758616,-0.22961554,-0.47548138,0.84739762,0.40011700,0.04636700,-0.43622848,-0.69897836,0.04247138,0.39589081,-0.83718471,-0.20819107,0.22208044
5.46000000,0.27753161,0.77758616,-0.22961554,-0.47548138,0.84739762,0.40011700,0.04636700,-0.43622848,-0.69897836,0.04247138,0.39589081,-0.83718471,-0.20819107,0.22208044
5.48000000,0.27753161,0.77758616,-0.22961554,-0.47548138,0.84739762,0.40011700,0.04636700,-0.43622848,-0.69897836,0.04247138,0.39589081,-0.83718471,-0.20819107,0.22208044
5.50000000,0.27753161,0.77758616,-0.22961554,-0.47548138,0.84739762,0.40011700,0.04636700,-0.43622848,-0.69897836,0.04247138,0.39589081,-0.83718471,-0.20819107,0.22208044
5.52000000,0.27753161,0.77758616,-0.22961554,-0.47548138,0.84739762,0.40011700,0.04636700,-0.43622848,-0.69897836,0.04247138,0.39589081,-0.83718471,-0.20819107,0.22208044
5.54000000,0.27753161,0.77758616,-0.22961554,-0.47548138,0.84739762,0.40011700,0.04636700,-0.43622848,-0.69897836,0.04247138,0.39589081,-0.83718471,-0.20819107,0.22208044
5.56000000,0.27753161,0.77758616,-0.22961554,-0.47548138,0.84739762,0.40011700,0.04636700,-0.43622848,-0.69897836,0.04247138,0.39589081,-0.83718471,-0.20819107,0.22208044
5.58000000,0.27753161,0.77758616,-0.22961554,-0.47548138,0.84739762,0.40011700,0.04636700,-0.43622848,-0.69897836,0.04247138,0.39589081,-0.83718471,-0.20819107,0.22208044
5.60000000,0.27753161,0.77758616,-0.22961554,-0.47548138,0.84739762,0.40011700,0.04636700,-0.43622848,-0.69897836,0.04247138,0.39589081,-0.83718471,-0.20819107,0.22208044
5.62000000,0.27753161,0.77758616,-0.22961554,-0.47548138,0.84739762,0.40011700,0.04636700,-0.43622848,-0.69897836,0.04247138,0.39589081,-0.83718471,-0.20819107,0.22208044
5.64000000,0.27753161,0.77758616,-0.22961554,-0.47548138,0.84739762,0.40011700,0.04636700,-0.43622848,-0.69897836,0.04247138,0.39589081,-0.83718471,-0.20819107,0.22208044
5.66000000,0.27753161,0.77758616,-0.22961554,-0.47548138,0.84739762,0.40011700,0.04636700,-0.43622848,-0.69897836,0.04247138,0.39589081,-0.83718471,-0.20819107,0.22208044
5.68000000,0.27753161,0.77758616,-0.22961554,-0.47548138,0.84739762,0.40011700,0.04636700,-0.43622848,-0.69897836,0.04247138,0.39589081,-0.83718471,-0.20819107,0.22208044
5.70000000,0.27753161,0.77758616,-0.22961554,-0.47548138,0.84739762,0.40011700,0.04636700,-0.43622848,-0.69897836,0.04247138,0.39589081,-0.83718471,-0.20819107,0.22208044
5.72000000,0.27753161,0.77758616,-0.22961554,-0.47548138,0.84739762,0.40011700,0.04636700,-0.43622848,-0.69897836,0.04247138,0.39589081,-0.83718471,-0.20819107,0.22208044
5.74000000,0.27753161,0.77758616,-0.22961554,-0.47548138,0.84739762,0.40011700,0.04636700,-0.43622848,-0.69897836,0.04247138,0.39589081,-0.83718471,-0.20819107,0.22208044
5.76000000,0.27753161,0.77758616,-0.22961554,-0.47548138,0.84739762,0.40011700,0.04636700,-0.43622848,-0.69897836,0.04247138,0.39589081,-0.83718471,-0.20819107,0.22208044
5.78000000,0.27753161,0.77758616,-0.22961554,-0.47548138,0.84739762,0.40011700,0.04636700,-0.43622848,-0.69897836,0.04247138,0.39589081,-0.83718471,-0.20819107,0.22208044
5.80000000,0.27753161,0.77758616,-0.22961554,-0.47548138,0.84739762,0.40011700,0.04636700,-0.43622848,-0.69897836,0.04247138,0.39589081,-0.83718471,-0.20819107,0.22208044
5.82000000,0.27753161,0.77758616,-0.22961554,-0.47548138,0.84739762,0.40011700,0.04636700,-0.43622848,-0.69897836,0.04247138,0.39589081,-0.83718471,-0.20819107,0.22208044
5.84000000,0.27753161,0.77758616,-0.22961554,-0.47548138,0.84739762,0.40011700,0.04636700,-0.43622848,-0.69897836,0.04247138,0.39589081,-0.83718471,-0.20819107,0.22208044
5.86000000,0.27753161,0.77758616,-0.22961554,-0.47548138,0.84739762,0.40011700,0.04636700,-0.43622848,-0.69897836,0.04247138,0.39589081,-0.83718471,-0.20819107,0.22208044
5.88000000,0.27753161,0.77758616,-0.22961554,-0.47548138,0.84739762,0.40011700,0.04636700,-0.43622848,-0.69897836,0.04247138,0.39589081,-0.83718471,-0.20819107,0.22208044
5.90000000,0.27753161,0.77758616,-0.22961554,-0.47548138,0.84739762,0.40011700,0.04636700,-0.43622848,-0.69897836,0.04247138,0.39589081,-0.83718471,-0.20819107,0.22208044
5.92000000,0.27753161,0.77758616,-0.22961554,-0.47548138,0.84739762,0.40011700,0.04636700,-0.43622848,-0.69897836,0.04247138,0.39589081,-0.83718471,-0.20819107,0.22208044
5.94000000,0.27753161,0.77758616,-0.22961554,-0.47548138,0.84739762,0.40011700,0.04636700,-0.43622848,-0.69897836,0.04247138,0.39589081,-0.83718471,-0.20819107,0.22208044
5.96000000,0.27753161,0.77758616,-0.22961554,-0.47548138,0.84739762,0.40011700,0.04636700,-0.43622848,-0.69897836,0.04247138,0.39589081,-0.83718471,-0.20819107,0.22208044
5.98000000,0.27753161,0.77758616,-0.22961554,-0.47548138,0.84739762,0.40011700,0.04636700,-0.43622848,-0.69897836,0.04247138,0.39589081,-0.83718471,-0.20819107,0.22208044
6.00000000,0.27753161,0.77758616,-0.22961554,-0.47548138,0.84739762,0.40011700,0.04636700,-0.43622848,-0.69897836,0.04247138,0.39589081,-0.83718471,-0.20819107,0.22208044
6.02000000,0.27753161,0.77758616,-0.22961554,-0.47548138,0.84739762,0.40011700,0.04636700,-0.43622848,-0.69897836,0.04247138,0.39589081,-0.83718471,-0.20819107,0.22208044
6.04000000,0.27753161,0.77758616,-0.22961554,-0.47548138,0.84739762,0.40011700,0.04636700,-0.43622848,-0.69897836,0.04247138,0.39589081,-0.83718471,-0.20819107,0.22208044
6.06000000,0.27753161,0.77758616,-0.22961554,-0.47548138,0.84739762,0.40011700,0.04636700,-0.43622848,-0.69897836,0.04247138,0.39589081,-0.83718471,-0.20819107,0.22208044
6.08000000,0.27753161,0.77758616,-0.22961554,-0.47548138,0.84739762,0.40011700,0.04636700,-0.43622848,-0.69897836,0.04247138,0.39589081,-0.83718471,-0.20819107,0.22208044
6.10000000,0.27753161,0.77758616,-0.22961554,-0.47548138,0.84739762,0.40011700,0.04636700,-0.43622848,-0.69897836,0.04247138,0.39589081,-0.83718471,-0.20819107,0.22208044
6.12000000,0.27753161,0.77758616,-0.22961554,-0.47548138,0.84739762,0.40011700,0.04636700,-0.43622848,-0.69897836,0.04247138,0.39589081,-0.83718471,-0.20819107,0.22208044
6.14000000,0.27753161,0.77758616,-0.22961554,-0.47548138,0.84739762,0.40011700,0.04636700,-0.43622848,-0.69897836,0.04247138,0.39589081,-0.83718471,-0.20819107,0.22208044
6.16000000,0.27753161,0.77758616,-0.22961554,-0.47548138,0.84739762,0.40011700,0.04636700,-0.43622848,-0.69897836,0.04247138,0.39589081,-0.83718471,-0.20819107,0.22208044
6.18000000,0.27753161,0.77758616,-0.22961554,-0.47548138,0.84739762,0.40011700,0.04636700,-0.43622848,-0.69897836,0.04247138,0.39589081,-0.83718471,-0.20819107,0.22208044
6.20000000,0.27753161,0.77758616,-0.22961554,-0.47548138,0.84739762,0.40011700,0.04636700,-0.43622848,-0.69897836,0.04247138,0.39589081,-0.83718471,-0.20819107,0.22208044
6.22000000,0.27753161,0.77758616,-0.22961554,-0.47548138,0.84739762,0.40011700,0.04636700,-0.43622848,-0.69897836,0.04247138,0.39589081,-0.83718471,-0.20819107,0.22208044
6.24000000,0.27753161,0.77758616,-0.22961554,-0.47548138,0.84739762,0.40011700,0.04636700,-0.43622848,-0.69897836,0.04247138,0.39589081,-0.83718471,-0.20819107,0.22208044
6.26000000,0.27753161,0.77758616,-0.22961554,-0.47548138,0.84739762,0.40011700,0.04636700,-0.43622848,-0.69897836,0.04247138,0.39589081,-0.83718471,-0.20819107,0.22208044
6.28000000,0.27753161,0.77758616,-0.22961554,-0.47548138,0.84739762,0.40011700,0.04636700,-0.43622848,-0.69897836,0.04247138,0.39589081,-0.83718471,-0.20819107,0.22208044
6.30000000,0.27753161,0.77758616,-0.22961554,-0.47548138,0.84739762,0.40011700,0.04636700,-0.43622848,-0.69897836,0.04247138,0.39589081,-0.83718471,-0.20819107,0.22208044
6.32000000,0.27753161,0.77758616,-0.22961554,-0.47548138,0.84739762,0.40011700,0.04636700,-0.43622848,-0.69897836,0.04247138,0.39589081,-0.83718471,-0.20819107,0.22208044
6.34000000,0.27753161,0.77758616,-0.22961554,-0.47548138,0.84739762,0.40011700,0.04636700,-0.43622848,-0.69897836,0.04247138,0.39589081,-0.83718471,-0.20819107,0.22208044
6.36000000,0.27753161,0.77758616,-0.22961554,-0.47548138,0.84739762,0.40011700,0.04636700,-0.43622848,-0.69897836,0.04247138,0.39589081,-0.83718471,-0.20819107,0.22208044
6.38000000,0.27753161,0.77758616,-0.22961554,-0.47548138,0.84739762,0.40011700,0.04636700,-0.43622848,-0.69897836,0.04247138,0.39589081,-0.83718471,-0.20819107,0.22208044
6.40000000,0.27753161,0.77758616,-0.22961554,-0.47548138,0.84739762,0.40011700,0.04636700,-0.43622848,-0.69897836,0.04247138,0.39589081,-0.83718471,-0.20819107,0.22208044
6.42000000,0.27753161,0.77758616,-0.22961554,-0.47548138,0.84739762,0.40011700,0.04636700,-0.43622848,-0.69897836,0.04247138,0.39589081,-0.83718471,-0.20819107,0.22208044
6.44000000,0.27753161,0.77758616,-0.22961554,-0.47548138,0.84739762,0.40011700,0.04636700,-0.43622848,-0.69897836,0.04247138,0.39589081,-0.83718471,-0.20819107,0.22208044
6.46000000,0.27753161,0.77758616,-0.22961554,-0.47548138,0.84739762,0.40011700,0.04636700,-0.43622848,-0.69897836,0.04247138,0.39589081,-0.83718471,-0.20819107,0.22208044
6.48000000,0.27753161,0.77758616,-0.22961554,-0.47548138,0.84739762,0.40011700,0.04636700,-0.43622848,-0.69897836,0.04247138,0.39589081,-0.83718471,-0.20819107,0.22208044
6.50000000,0.27753161,0.77758616,-0.22961554,-0.47548138,0.84739762,0.40011700,0.04636700,-0.43622848,-0.69897836,0.04247138,0.39589081,-0.83718471,-0.20819107,0.22208044
6.52000000,0.27753161,0.77758616,-0.22961554,-0.47548138,0.84739762,0.40011700,0.04636700,-0.43622848,-0.69897836,0.04247138,0.39589081,-0.83718471,-0.20819107,0.22208044
6.54000000,0.27753161,0.77758616,-0.22961554,-0.47548138,0.84739762,0.40011700,0.04636700,-0.43622848,-0.69897836,0.04247138,0.39589081,-0.83718471,-0.20819107,0.22208044
6.56000000,0.27753161,0.77758616,-0.22961554,-0.47548138,0.84739762,0.40011700,0.04636700,-0.43622848,-0.69897836,0.04247138,0.39589081,-0.83718471,-0.20819107,0.22208044
6.58000000,0.27753161,0.77758616,-0.22961554,-0.47548138,0.84739762,0.40011700,0.04636700,-0.43622848,-0.69897836,0.04247138,0.39589081,-0.83718471,-0.20819107,0.22208044
6.60000000,0.27753161,0.77758616,-0.22961554,-0.47548138,0.84739762,0.40011700,0.04636700,-0.43622848,-0.69897836,0.04247138,0.39589081,-0.83718471,-0.20819107,0.22208044
6.62000000,0.27753161,0.77758616,-0.22961554,-0.47548138,0.84739762,0.40011700,0.04636700,-0.43622848,-0.69897836,0.04247138,0.39589081,-0.83718471,-0.20819107,0.22208044
6.64000000,0.27753161,0.77758616,-0.22961554,-0.47548138,0.84739762,0.40011700,0.04636700,-0.43622848,-0.69897836,0.04247138,0.39589081,-0.83718471,-0.20819107,0.22208044
6.66000000,0.27753161,0.77758616,-0.22961554,-0.47548138,0.84739762,0.40011700,0.04636700,-0.43622848,-0.69897836,0.04247138,0.39589081,-0.83718471,-0.20819107,0.22208044
6.68000000,0.27753161,0.77758616,-0.22961554,-0.47548138,0.84739762,0.40011700,0.04636700,-0.43622848,-0.69897836,0.04247138,0.39589081,-0.83718471,-0.20819107,0.22208044
6.70000000,0.27753161,0.77758616,-0.22961554,-0.47548138,0.84739762,0.40011700,0.04636700,-0.43622848,-0.69897836,0.04247138,0.39589081,-0.83718471,-0.20819107,0.22208044
6.72000000,0.27753161,0.77758616,-0.22961554,-0.47548138,0.84739762,0.40011700,0.04636700,-0.43622848,-0.69897836,0.04247138,0.39589081,-0.83718471,-0.20819107,0.22208044
6.74000000,0.27753161,0.77758616,-0.22961554,-0.47548138,0.84739762,0.40011700,0.04636700,-0.43622848,-0.69897836,0.04247138,0.39589081,-0.83718471,-0.20819107,0.22208044
6.76000000,0.27753161,0.77758616,-0.22961554,-0.47548138,0.84739762,0.40011700,0.04636700,-0.43622848,-0.69897836,0.04247138,0.39589081,-0.83718471,-0.20819107,0.22208044
6.78000000,0.27753161,0.77758616,-0.22961554,-0.47548138,0.84739762,0.40011700,0.04636700,-0.43622848,-0.69897836,0.04247138,0.39589081,-0.83718471,-0.20819107,0.22208044
6.80000000,0.27753161,0.77758616,-0.22961554,-0.47548138,0.84739762,0.40011700,0.04636700,-0.43622848,-0.69897836,0.04247138,0.39589081,-0.83718471,-0.20819107,0.22208044
6.82000000,0.27753161,0.77758616,-0.22961554,-0.47548138,0.84739762,0.40011700,0.04636700,-0.43622848,-0.69897836,0.04247138,0.39589081,-0.83718471,-0.20819107,0.22208044
6.84000000,0.27753161,0.77758616,-0.22961554,-0.47548138,0.84739762,0.40011700,0.04636700,-0.43622848,-0.69897836,0.04247138,0.39589081,-0.83718471,-0.20819107,0.22208044
6.86000000,0.27753161,0.77758616,-0.22961554,-0.47548138,0.84739762,0.40011700,0.04636700,-0.43622848,-0.69897836,0.04247138,0.39589081,-0.83718471,-0.20819107,0.22208044
6.88000000,0.27753161,0.77758616,-0.22961554,-0.47548138,0.84739762,0.40011700,0.04636700,-0.43622848,-0.69897836,0.04247138,0.39589081,-0.83718471,-0.20819107,0.22208044
6.90000000,0.27753161,0.77758616,-0.22961554,-0.47548138,0.84739762,0.40011700,0.04636700,-0.43622848,-0.69897836,0.04247138,0.39589081,-0.83718471,-0.20819107,0.22208044
6.92000000,0.27753161,0.77758616,-0.22961554,-0.47548138,0.84739762,0.40011700,0.04636700,-0.43622848,-0.69897836,0.04247138,0.39589081,-0.83718471,-0.20819107,0.22208044
6.94000000,0.27753161,0.77758616,-0.22961554,-0.47548138,0.84739762,0.40011700,0.04636700,-0.43622848,-0.69897836,0.04247138,0.39589081,-0.83718471,-0.20819107,0.22208044
6.96000000,0.27753161,0.77758616,-0.22961554,-0.47548138,0.84739762,0.40011700,0.04636700,-0.43622848,-0.69897836,0.04247138,0.39589081,-0.83718471,-0.20819107,0.22208044
6.98000000,0.27753161,0.77758616,-0.22961554,-0.47548138,0.84739762,0.40011700,0.04636700,-0.43622848,-0.69897836,0.04247138,0.39589081,-0.83718471,-0.20819107,0.22208044
7.00000000,0.27753161,0.77758616,-0.22961554,-0.47548138,0.84739762,0.40011700,0.04636700,-0.43622848,-0.69897836,0.04247138,0.39589081,-0.83718471,-0.20819107,0.22208044
7.02000000,0.27753161,0.77758616,-0.22961554,-0.47548138,0.84739762,0.40011700,0.04636700,-0.43622848,-0.69897836,0.04247138,0.39589081,-0.83718471,-0.20819107,0.22208044
7.04000000,0.27753161,0.77758616,-0.22961554,-0.47548138,0.84739762,0.40011700,0.04636700,-0.43622848,-0.69897836,0.04247138,0.39589081,-0.83718471,-0.20819107,0.22208044
7.06000000,0.27753161,0.77758616,-0.22961554,-0.47548138,0.84739762,0.40011700,0.04636700,-0.43622848,-0.69897836,0.04247138,0.39589081,-0.83718471,-0.20819107,0.22208044
7.08000000,0.27753161,0.77758616,-0.22961554,-0.47548138,0.84739762,0.40011700,0.04636700,-0.43622848,-0.69897836,0.04247138,0.39589081,-0.83718471,-0.20819107,0.22208044
7.10000000,0.27753161,0.77758616,-0.22961554,-0.47548138,0.84739762,0.40011700,0.04636700,-0.43622848,-0.69897836,0.04247138,0.39589081,-0.83718471,-0.20819107,0.22208044
7.12000000,0.27753161,0.77758616,-0.22961554,-0.47548138,0.84739762,0.40011700,0.04636700,-0.43622848,-0.69897836,0.04247138,0.39589081,-0.83718471,-0.20819107,0.22208044
7.14000000,0.27753161,0.77758616,-0.22961554,-0.47548138,0.84739762,0.40011700,0.04636700,-0.43622848,-0.69897836,0.04247138,0.39589081,-0.83718471,-0.20819107,0.22208044
7.16000000,0.27753161,0.77758616,-0.22961554,-0.47548138,0.84739762,0.40011700,0.04636700,-0.43622848,-0.69897836,0.04247138,0.39589081,-0.83718471,-0.20819107,0.22208044
7.18000000,0.27753161,0.77758616,-0.22961554,-0.47548138,0.84739762,0.40011700,0.04636700,-0.43622848,-0.69897836,0.04247138,0.39589081,-0.83718471,-0.20819107,0.22208044
7.20000000,0.27753161,0.77758616,-0.22961554,-0.47548138,0.84739762,0.40011700,0.04636700,-0.43622848,-0.69897836,0.04247138,0.39589081,-0.83718471,-0.20819107,0.22208044
7.22000000,0.27753161,0.77758616,-0.22961554,-0.47548138,0.84739762,0.40011700,0.04636700,-0.43622848,-0.69897836,0.04247138,0.39589081,-0.83718471,-0.20819107,0.22208044
7.24000000,0.27753161,0.77758616,-0.22961554,-0.47548138,0.84739762,0.40011700,0.04636700,-0.43622848,-0.69897836,0.04247138,0.39589081,-0.83718471,-0.20819107,0.22208044
7.26000000,0.27753161,0.77758616,-0.22961554,-0.47548138,0.84739762,0.40011700,0.04636700,-0.43622848,-0.69897836,0.04247138,0.39589081,-0.83718471,-0.20819107,0.22208044
7.28000000,0.27753161,0.77758616,-0.22961554,-0.47548138,0.84739762,0.40011700,0.04636700,-0.43622848,-0.69897836,0.04247138,0.39589081,-0.83718471,-0.20819107,0.22208044
7.30000000,0.27753161,0.77758616,-0.22961554,-0.47548138,0.84739762,0.40011700,0.04636700,-0.43622848,-0.69897836,0.04247138,0.39589081,-0.83718471,-0.20819107,0.22208044
7.32000000,0.27753161,0.77758616,-0.22961554,-0.47548138,0.84739762,0.40011700,0.04636700,-0.43622848,-0.69897836,0.04247138,0.39589081,-0.83718471,-0.20819107,0.22208044
7.34000000,0.27753161,0.77758616,-0.22961554,-0.47548138,0.84739762,0.40011700,0.04636700,-0.43622848,-0.69897836,0.04247138,0.39589081,-0.83718471,-0.20819107,0.22208044
7.36000000,0.27753161,0.77758616,-0.22961554,-0.47548138,0.84739762,0.40011700,0.04636700,-0.43622848,-0.69897836,0.04247138,0.39589081,-0.83718471,-0.20819107,0.22208044
7.38000000,0.27753161,0.77758616,-0.22961554,-0.47548138,0.84739762,0.40011700,0.04636700,-0.43622848,-0.69897836,0.04247138,0.39589081,-0.83718471,-0.20819107,0.22208044
7.40000000,0.27753161,0.77758616,-0.22961554,-0.47548138,0.84739762,0.40011700,0.04636700,-0.43622848,-0.69897836,0.04247138,0.39589081,-0.83718471,-0.20819107,0.22208044
7.42000000,0.27753161,0.77758616,-0.22961554,-0.47548138,0.84739762,0.40011700,0.04636700,-0.43622848,-0.69897836,0.04247138,0.39589081,-0.83718471,-0.20819107,0.22208044
7.44000000,0.27753161,0.77758616,-0.22961554,-0.47548138,0.84739762,0.40011700,0.04636700,-0.43622848,-0.69897836,0.04247138,0.39589081,-0.83718471,-0.20819107,0.22208044
7.46000000,0.27753161,0.77758616,-0.22961554,-0.47548138,0.84739762,0.40011700,0.04636700,-0.43622848,-0.69897836,0.04247138,0.39589081,-0.83718471,-0.20819107,0.22208044
7.48000000,0.27753161,0.77758616,-0.22961554,-0.47548138,0.84739762,0.40011700,0.04636700,-0.43622848,-0.69897836,0.04247138,0.39589081,-0.83718471,-0.20819107,0.22208044
7.50000000,0.27753161,0.77758616,-0.22961554,-0.47548138,0.84739762,0.40011700,0.04636700,-0.43622848,-0.69897836,0.04247138,0.39589081,-0.83718471,-0.20819107,0.22208044
7.52000000,0.27753161,0.77758616,-0.22961554,-0.47548138,0.84739762,0.40011700,0.04636700,-0.43622848,-0.69897836,0.04247138,0.39589081,-0.83718471,-0.20819107,0.22208044
7.54000000,0.27753161,0.77758616,-0.22961554,-0.47548138,0.84739762,0.40011700,0.04636700,-0.43622848,-0.69897836,0.04247138,0.39589081,-0.83718471,-0.20819107,0.22208044
7.56000000,0.27753161,0.77758616,-0.22961554,-0.47548138,0.84739762,0.40011700,0.04636700,-0.43622848,-0.69897836,0.04247138,0.39589081,-0.83718471,-0.20819107,0.22208044
7.58000000,0.27753161,0.77758616,-0.22961554,-0.47548138,0.84739762,0.40011700,0.04636700,-0.43622848,-0.69897836,0.04247138,0.39589081,-0.83718471,-0.20819107,0.22208044
7.60000000,0.27753161,0.77758616,-0.22961554,-0.47548138,0.84739762,0.40011700,0.04636700,-0.43622848,-0.69897836,0.04247138,0.39589081,-0.83718471,-0.20819107,0.22208044
7.62000000,0.27753161,0.77758616,-0.22961554,-0.47548138,0.84739762,0.40011700,0.04636700,-0.43622848,-0.69897836,0.04247138,0.39589081,-0.83718471,-0.20819107,0.22208044
7.64000000,0.27753161,0.77758616,-0.22961554,-0.47548138,0.84739762,0.40011700,0.04636700,-0.43622848,-0.69897836,0.04247138,0.39589081,-0.83718471,-0.20819107,0.22208044
7.66000000,0.27753161,0.77758616,-0.22961554,-0.47548138,0.84739762,0.40011700,0.04636700,-0.43622848,-0.69897836,0.04247138,0.39589081,-0.83718471,-0.20819107,0.22208044
7.68000000,0.27753161,0.77758616,-0.22961554,-0.47548138,0.84739762,0.40011700,0.04636700,-0.43622848,-0.69897836,0.04247138,0.39589081,-0.83718471,-0.20819107,0.22208044
7.70000000,0.27753161,0.77758616,-0.22961554,-0.47548138,0.84739762,0.40011700,0.04636700,-0.43622848,-0.69897836,0.04247138,0.39589081,-0.83718471,-0.20819107,0.22208044
7.72000000,0.27753161,0.77758616,-0.22961554,-0.47548138,0.84739762,0.40011700,0.04636700,-0.43622848,-0.69897836,0.04247138,0.39589081,-0.83718471,-0.20819107,0.22208044
7.74000000,0.27753161,0.77758616,-0.22961554,-0.47548138,0.84739762,0.40011700,0.04636700,-0.43622848,-0.69897836,0.04247138,0.39589081,-0.83718471,-0.20819107,0.22208044
7.76000000,0.27753161,0.77758616,-0.22961554,-0.47548138,0.84739762,0.40011700,0.04636700,-0.43622848,-0.69897836,0.04247138,0.39589081,-0.83718471,-0.20819107,0.22208044
7.78000000,0.27753161,0.77758616,-0.22961554,-0.47548138,0.84739762,0.40011700,0.04636700,-0.43622848,-0.69897836,0.04247138,0.39589081,-0.83718471,-0.20819107,0.22208044
7.80000000,0.27753161,0.77758616,-0.22961554,-0.47548138,0.84739762,0.40011700,0.04636700,-0.43622848,-0.69897836,0.04247138,0.39589081,-0.83718471,-0.20819107,0.22208044
7.82000000,0.27753161,0.77758616,-0.22961554,-0.47548138,0.84739762,0.40011700,0.04636700,-0.43622848,-0.69897836,0.04247138,0.39589081,-0.83718471,-0.20819107,0.22208044
7.84000000,0.27753161,0.77758616,-0.22961554,-0.47548138,0.84739762,0.40011700,0.04636700,-0.43622848,-0.69897836,0.04247138,0.39589081,-0.83718471,-0.20819107,0.22208044
7.86000000,0.27753161,0.77758616,-0.22961554,-0.47548138,0.84739762,0.40011700,0.04636700,-0.43622848,-0.69897836,0.04247138,0.39589081,-0.83718471,-0.20819107,0.22208044
7.88000000,0.27753161,0.77758616,-0.22961554,-0.47548138,0.84739762,0.40011700,0.04636700,-0.43622848,-0.69897836,0.04247138,0.39589081,-0.83718471,-0.20819107,0.22208044
7.90000000,0.27753161,0.77758616,-0.22961554,-0.47548138,0.84739762,0.40011700,0.04636700,-0.43622848,-0.69897836,0.04247138,0.39589081,-0.83718471,-0.20819107,0.22208044
7.92000000,0.27753161,0.77758616,-0.22961554,-0.47548138,0.84739762,0.40011700,0.04636700,-0.43622848,-0.69897836,0.04247138,0.39589081,-0.83718471,-0.20819107,0.22208044
7.94000000,0.27753161,0.77758616,-0.22961554,-0.47548138,0.84739762,0.40011700,0.04636700,-0.43622848,-0.69897836,0.04247138,0.39589081,-0.83718471,-0.20819107,0.22208044
7.96000000,0.27753161,0.77758616,-0.22961554,-0.47548138,0.84739762,0.40011700,0.04636700,-0.43622848,-0.69897836,0.04247138,0.39589081,-0.83718471,-0.20819107,0.22208044
7.98000000,0.27753161,0.77758616,-0.22961554,-0.47548138,0.84739762,0.40011700,0.04636700,-0.43622848,-0.69897836,0.04247138,0.39589081,-0.83718471,-0.20819107,0.22208044
8.00000000,0.27753161,0.77758616,-0.22961554,-0.47548138,0.84739762,0.40011700,0.04636700,-0.43622848,-0.69897836,0.04247138,0.39589081,-0.83718471,-0.20819107,0.22208044
8.02000000,0.27753161,0.77758616,-0.22961554,-0.47548138,0.84739762,0.40011700,0.04636700,-0.43622848,-0.69897836,0.04247138,0.39589081,-0.83718471,-0.20819107,0.22208044
8.04000000,0.27753161,0.77758616,-0.22961554,-0.47548138,0.84739762,0.40011700,0.04636700,-0.43622848,-0.69897836,0.04247138,0.39589081,-0.83718471,-0.20819107,0.22208044
8.06000000,0.27753161,0.77758616,-0.22961554,-0.47548138,0.84739762,0.40011700,0.04636700,-0.43622848,-0.69897836,0.04247138,0.39589081,-0.83718471,-0.20819107,0.22208044
8.08000000,0.27753161,0.77758616,-0.22961554,-0.47548138,0.84739762,0.40011700,0.04636700,-0.43622848,-0.69897836,0.04247138,0.39589081,-0.83718471,-0.20819107,0.22208044
8.10000000,0.27753161,0.77758616,-0.22961554,-0.47548138,0.84739762,0.40011700,0.04636700,-0.43622848,-0.69897836,0.04247138,0.39589081,-0.83718471,-0.20819107,0.22208044
8.12000000,0.27753161,0.77758616,-0.22961554,-0.47548138,0.84739762,0.40011700,0.04636700,-0.43622848,-0.69897836,0.04247138,0.39589081,-0.83718471,-0.20819107,0.22208044
8.14000000,0.27753161,0.77758616,-0.22961554,-0.47548138,0.84739762,0.40011700,0.04636700,-0.43622848,-0.69897836,0.04247138,0.39589081,-0.83718471,-0.20819107,0.22208044
8.16000000,0.27753161,0.77758616,-0.22961554,-0.47548138,0.84739762,0.40011700,0.04636700,-0.43622848,-0.69897836,0.04247138,0.39589081,-0.83718471,-0.20819107,0.22208044
8.18000000,0.27753161,0.77758616,-0.22961554,-0.47548138,0.84739762,0.40011700,0.04636700,-0.43622848,-0.69897836,0.04247138,0.39589081,-0.83718471,-0.20819107,0.22208044
8.20000000,0.27753161,0.77758616,-0.22961554,-0.47548138,0.84739762,0.40011700,0.04636700,-0.43622848,-0.69897836,0.04247138,0.39589081,-0.83718471,-0.20819107,0.22208044
8.22000000,0.27753161,0.77758616,-0.22961554,-0.47548138,0.84739762,0.40011700,0.04636700,-0.43622848,-0.69897836,0.04247138,0.39589081,-0.83718471,-0.20819107,0.22208044
8.24000000,0.27753161,0.77758616,-0.22961554,-0.47548138,0.84739762,0.40011700,0.04636700,-0.43622848,-0.69897836,0.04247138,0.39589081,-0.83718471,-0.20819107,0.22208044
8.26000000,0.27753161,0.77758616,-0.22961554,-0.47548138,0.84739762,0.40011700,0.04636700,-0.43622848,-0.69897836,0.04247138,0.39589081,-0.83718471,-0.20819107,0.22208044
8.28000000,0.27753161,0.77758616,-0.22961554,-0.47548138,0.84739762,0.40011700,0.04636700,-0.43622848,-0.69897836,0.04247138,0.39589081,-0.83718471,-0.20819107,0.22208044
8.30000000,0.27753161,0.77758616,-0.22961554,-0.47548138,0.84739762,0.40011700,0.04636700,-0.43622848,-0.69897836,0.04247138,0.39589081,-0.83718471,-0.20819107,0.22208044
8.32000000,0.27753161,0.77758616,-0.22961554,-0.47548138,0.84739762,0.40011700,0.04636700,-0.43622848,-0.69897836,0.04247138,0.39589081,-0.83718471,-0.20819107,0.22208044
8.34000000,0.27753161,0.77758616,-0.22961554,-0.47548138,0.84739762,0.40011700,0.04636700,-0.43622848,-0.69897836,0.04247138,0.39589081,-0.83718471,-0.20819107,0.22208044
8.36000000,0.27753161,0.77758616,-0.22961554,-0.47548138,0.84739762,0.40011700,0.04636700,-0.43622848,-0.69897836,0.04247138,0.39589081,-0.83718471,-0.20819107,0.22208044
8.38000000,0.27753161,0.77758616,-0.22961554,-0.47548138,0.84739762,0.40011700,0.04636700,-0.43622848,-0.69897836,0.04247138,0.39589081,-0.83718471,-0.20819107,0.22208044
8.40000000,0.27753161,0.77758616,-0.22961554,-0.47548138,0.84739762,0.40011700,0.04636700,-0.43622848,-0.69897836,0.04247138,0.39589081,-0.83718471,-0.20819107,0.22208044
8.42000000,0.27753161,0.77758616,-0.22961554,-0.47548138,0.84739762,0.40011700,0.04636700,-0.43622848,-0.69897836,0.04247138,0.39589081,-0.83718471,-0.20819107,0.22208044
8.44000000,0.27753161,0.77758616,-0.22961554,-0.47548138,0.84739762,0.40011700,0.04636700,-0.43622848,-0.69897836,0.04247138,0.39589081,-0.83718471,-0.20819107,0.22208044
8.46000000,0.27753161,0.77758616,-0.22961554,-0.47548138,0.84739762,0.40011700,0.04636700,-0.43622848,-0.69897836,0.04247138,0.39589081,-0.83718471,-0.20819107,0.22208044
8.48000000,0.27753161,0.77758616,-0.22961554,-0.47548138,0.84739762,0.40011700,0.04636700,-0.43622848,-0.69897836,0.04247138,0.39589081,-0.83718471,-0.20819107,0.22208044
8.50000000,0.27753161,0.77758616,-0.22961554,-0.47548138,0.84739762,0.40011700,0.04636700,-0.43622848,-0.69897836,0.04247138,0.39589081,-0.83718471,-0.20819107,0.22208044
8.52000000,0.27753161,0.77758616,-0.22961554,-0.47548138,0.84739762,0.40011700,0.04636700,-0.43622848,-0.69897836,0.04247138,0.39589081,-0.83718471,-0.20819107,0.22208044
8.54000000,0.27753161,0.77758616,-0.22961554,-0.47548138,0.84739762,0.40011700,0.04636700,-0.43622848,-0.69897836,0.04247138,0.39589081,-0.83718471,-0.20819107,0.22208044
8.56000000,0.27753161,0.77758616,-0.22961554,-0.47548138,0.84739762,0.40011700,0.04636700,-0.43622848,-0.69897836,0.04247138,0.39589081,-0.83718471,-0.20819107,0.22208044
8.58000000,0.27753161,0.77758616,-0.22961554,-0.47548138,0.84739762,0.40011700,0.04636700,-0.43622848,-0.69897836,0.04247138,0.39589081,-0.83718471,-0.20819107,0.22208044
8.60000000,0.27753161,0.77758616,-0.22961554,-0.47548138,0.84739762,0.40011700,0.04636700,-0.43622848,-0.69897836,0.04247138,0.39589081,-0.83718471,-0.20819107,0.22208044
8.62000000,0.27753161,0.77758616,-0.22961554,-0.47548138,0.84739762,0.40011700,0.04636700,-0.43622848,-0.69897836,0.04247138,0.39589081,-0.83718471,-0.20819107,0.22208044
8.64000000,0.27753161,0.77758616,-0.22961554,-0.47548138,0.84739762,0.40011700,0.04636700,-0.43622848,-0.69897836,0.04247138,0.39589081,-0.83718471,-0.20819107,0.22208044
8.66000000,0.27753161,0.77758616,-0.22961554,-0.47548138,0.84739762,0.40011700,0.04636700,-0.43622848,-0.69897836,0.04247138,0.39589081,-0.83718471,-0.20819107,0.22208044
8.68000000,0.27753161,0.77758616,-0.22961554,-0.47548138,0.84739762,0.40011700,0.04636700,-0.43622848,-0.69897836,0.04247138,0.39589081,-0.83718471,-0.20819107,0.22208044
8.70000000,0.27753161,0.77758616,-0.22961554,-0.47548138,0.84739762,0.40011700,0.04636700,-0.43622848,-0.69897836,0.04247138,0.39589081,-0.83718471,-0.20819107,0.22208044
8.72000000,0.27753161,0.77758616,-0.22961554,-0.47548138,0.84739762,0.40011700,0.04636700,-0.43622848,-0.69897836,0.04247138,0.39589081,-0.83718471,-0.20819107,0.22208044
8.74000000,0.27753161,0.77758616,-0.22961554,-0.47548138,0.84739762,0.40011700,0.04636700,-0.43622848,-0.69897836,0.04247138,0.39589081,-0.83718471,-0.20819107,0.22208044
8.76000000,0.27753161,0.77758616,-0.22961554,-0.47548138,0.84739762,0.40011700,0.04636700,-0.43622848,-0.69897836,0.04247138,0.39589081,-0.83718471,-0.20819107,0.22208044
8.78000000,0.27753161,0.77758616,-0.22961554,-0.47548138,0.84739762,0.40011700,0.04636700,-0.43622848,-0.69897836,0.04247138,0.39589081,-0.83718471,-0.20819107,0.22208044
8.80000000,0.27753161,0.77758616,-0.22961554,-0.47548138,0.84739762,0.40011700,0.04636700,-0.43622848,-0.69897836,0.04247138,0.39589081,-0.83718471,-0.20819107,0.22208044
8.82000000,0.27753161,0.77758616,-0.22961554,-0.47548138,0.84739762,0.40011700,0.04636700,-0.43622848,-0.69897836,0.04247138,0.39589081,-0.83718471,-0.20819107,0.22208044
8.84000000,0.27753161,0.77758616,-0.22961554,-0.47548138,0.84739762,0.40011700,0.04636700,-0.43622848,-0.69897836,0.04247138,0.39589081,-0.83718471,-0.20819107,0.22208044
8.86000000,0.27753161,0.77758616,-0.22961554,-0.47548138,0.84739762,0.40011700,0.04636700,-0.43622848,-0.69897836,0.04247138,0.39589081,-0.83718471,-0.20819107,0.22208044
8.88000000,0.27753161,0.77758616,-0.22961554,-0.47548138,0.84739762,0.40011700,0.04636700,-0.43622848,-0.69897836,0.04247138,0.39589081,-0.83718471,-0.20819107,0.22208044
8.90000000,0.27753161,0.77758616,-0.22961554,-0.47548138,0.84739762,0.40011700,0.04636700,-0.43622848,-0.69897836,0.04247138,0.39589081,-0.83718471,-0.20819107,0.22208044
8.92000000,0.27753161,0.77758616,-0.22961554,-0.47548138,0.84739762,0.40011700,0.04636700,-0.43622848,-0.69897836,0.04247138,0.39589081,-0.83718471,-0.20819107,0.22208044
8.94000000,0.27753161,0.77758616,-0.22961554,-0.47548138,0.84739762,0.40011700,0.04636700,-0.43622848,-0.69897836,0.04247138,0.39589081,-0.83718471,-0.20819107,0.22208044
8.96000000,0.27753161,0.77758616,-0.22961554,-0.47548138,0.84739762,0.40011700,0.04636700,-0.43622848,-0.69897836,0.04247138,0.39589081,-0.83718471,-0.20819107,0.22208044
8.98000000,0.27753161,0.77758616,-0.22961554,-0.47548138,0.84739762,0.40011700,0.04636700,-0.43622848,-0.69897836,0.04247138,0.39589081,-0.83718471,-0.20819107,0.22208044
9.00000000,0.27753161,0.77758616,-0.22961554,-0.47548138,0.84739762,0.40011700,0.04636700,-0.43622848,-0.69897836,0.04247138,0.39589081,-0.83718471,-0.20819107,0.22208044
9.02000000,0.27753161,0.77758616,-0.22961554,-0.47548138,0.84739762,0.40011700,0.04636700,-0.43622848,-0.69897836,0.04247138,0.39589081,-0.83718471,-0.20819107,0.22208044
9.04000000,0.27753161,0.77758616,-0.22961554,-0.47548138,0.84739762,0.40011700,0.04636700,-0.43622848,-0.69897836,0.04247138,0.39589081,-0.83718471,-0.20819107,0.22208044
9.06000000,0.27753161,0.77758616,-0.22961554,-0.47548138,0.84739762,0.40011700,0.04636700,-0.43622848,-0.69897836,0.04247138,0.39589081,-0.83718471,-0.20819107,0.22208044
9.08000000,0.27753161,0.77758616,-0.22961554,-0.47548138,0.84739762,0.40011700,0.04636700,-0.43622848,-0.69897836,0.04247138,0.39589081,-0.83718471,-0.20819107,0.22208044
9.10000000,0.27753161,0.77758616,-0.22961554,-0.47548138,0.84739762,0.40011700,0.04636700,-0.43622848,-0.69897836,0.04247138,0.39589081,-0.83718471,-0.20819107,0.22208044
9.12000000,0.27753161,0.77758616,-0.22961554,-0.47548138,0.84739762,0.40011700,0.04636700,-0.43622848,-0.69897836,0.04247138,0.39589081,-0.83718471,-0.20819107,0.22208044
9.14000000,0.27753161,0.77758616,-0.22961554,-0.47548138,0.84739762,0.40011700,0.04636700,-0.43622848,-0.69897836,0.04247138,0.39589081,-0.83718471,-0.20819107,0.22208044
9.16000000,0.27753161,0.77758616,-0.22961554,-0.47548138,0.84739762,0.40011700,0.04636700,-0.43622848,-0.69897836,0.04247138,0.39589081,-0.83718471,-0.20819107,0.22208044
9.18000000,0.27753161,0.77758616,-0.22961554,-0.47548138,0.84739762,0.40011700,0.04636700,-0.43622848,-0.69897836,0.04247138,0.39589081,-0.83718471,-0.20819107,0.22208044
9.20000000,0.27753161,0.77758616,-0.22961554,-0.47548138,0.84739762,0.40011700,0.04636700,-0.43622848,-0.69897836,0.04247138,0.39589081,-0.83718471,-0.20819107,0.22208044
9.22000000,0.27753161,0.77758616,-0.22961554,-0.47548138,0.84739762,0.40011700,0.04636700,-0.43622848,-0.69897836,0.04247138,0.39589081,-0.83718471,-0.20819107,0.22208044
9.24000000,0.27753161,0.77758616,-0.22961554,-0.47548138,0.84739762,0.40011700,0.04636700,-0.43622848,-0.69897836,0.04247138,0.39589081,-0.83718471,-0.20819107,0.22208044
9.26000000,0.27753161,0.77758616,-0.22961554,-0.47548138,0.84739762,0.40011700,0.04636700,-0.43622848,-0.69897836,0.04247138,0.39589081,-0.83718471,-0.20819107,0.22208044
9.28000000,0.27753161,0.77758616,-0.22961554,-0.47548138,0.84739762,0.40011700,0.04636700,-0.43622848,-0.69897836,0.04247138,0.39589081,-0.83718471,-0.20819107,0.22208044
9.30000000,0.27753161,0.77758616,-0.22961554,-0.47548138,0.84739762,0.40011700,0.04636700,-0.43622848,-0.69897836,0.04247138,0.39589081,-0.83718471,-0.20819107,0.22208044
9.32000000,0.27753161,0.77758616,-0.22961554,-0.47548138,0.84739762,0.40011700,0.04636700,-0.43622848,-0.69897836,0.04247138,0.39589081,-0.83718471,-0.20819107,0.22208044
9.34000000,0.27753161,0.77758616,-0.22961554,-0.47548138,0.84739762,0.40011700,0.04636700,-0.43622848,-0.69897836,0.04247138,0.39589081,-0.83718471,-0.20819107,0.22208044
9.36000000,0.27753161,0.77758616,-0.22961554,-0.47548138,0.84739762,0.40011700,0.04636700,-0.43622848,-0.69897836,0.04247138,0.39589081,-0.83718471,-0.20819107,0.22208044
9.38000000,0.27753161,0.77758616,-0.22961554,-0.47548138,0.84739762,0.40011700,0.04636700,-0.43622848,-0.69897836,0.04247138,0.39589081,-0.83718471,-0.20819107,0.22208044
9.40000000,0.27753161,0.77758616,-0.22961554,-0.47548138,0.84739762,0.40011700,0.04636700,-0.43622848,-0.69897836,0.04247138,0.39589081,-0.83718471,-0.20819107,0.22208044
9.42000000,0.27753161,0.77758616,-0.22961554,-0.47548138,0.84739762,0.40011700,0.04636700,-0.43622848,-0.69897836,0.04247138,0.39589081,-0.83718471,-0.20819107,0.22208044
9.44000000,0.27753161,0.77758616,-0.22961554,-0.47548138,0.84739762,0.40011700,0.04636700,-0.43622848,-0.69897836,0.04247138,0.39589081,-0.83718471,-0.20819107,0.22208044
9.46000000,0.27753161,0.77758616,-0.22961554,-0.47548138,0.84739762,0.40011700,0.04636700,-0.43622848,-0.69897836,0.04247138,0.39589081,-0.83718471,-0.20819107,0.22208044
9.48000000,0.27753161,0.77758616,-0.22961554,-0.47548138,0.84739762,0.40011700,0.04636700,-0.43622848,-0.69897836,0.04247138,0.39589081,-0.83718471,-0.20819107,0.22208044
9.50000000,0.27753161,0.77758616,-0.22961554,-0.47548138,0.84739762,0.40011700,0.04636700,-0.43622848,-0.69897836,0.04247138,0.39589081,-0.83718471,-0.20819107,0.22208044
9.52000000,0.27753161,0.77758616,-0.22961554,-0.47548138,0.84739762,0.40011700,0.04636700,-0.43622848,-0.69897836,0.04247138,0.39589081,-0.83718471,-0.20819107,0.22208044
9.54000000,0.27753161,0.77758616,-0.22961554,-0.47548138,0.84739762,0.40011700,0.04636700,-0.43622848,-0.69897836,0.04247138,0.39589081,-0.83718471,-0.20819107,0.22208044
9.56000000,0.27753161,0.77758616,-0.22961554,-0.47548138,0.84739762,0.40011700,0.04636700,-0.43622848,-0.69897836,0.04247138,0.39589081,-0.83718471,-0.20819107,0.22208044
9.58000000,0.27753161,0.77758616,-0.22961554,-0.47548138,0.84739762,0.40011700,0.04636700,-0.43622848,-0.69897836,0.04247138,0.39589081,-0.83718471,-0.20819107,0.22208044
9.60000000,0.27753161,0.77758616,-0.22961554,-0.47548138,0.84739762,0.40011700,0.04636700,-0.43622848,-0.69897836,0.04247138,0.39589081,-0.83718471,-0.20819107,0.22208044
9.62000000,0.27753161,0.77758616,-0.22961554,-0.47548138,0.84739762,0.40011700,0.04636700,-0.43622848,-0.69897836,0.04247138,0.39589081,-0.83718471,-0.20819107,0.22208044
9.64000000,0.27753161,0.77758616,-0.22961554,-0.47548138,0.84739762,0.40011700,0.04636700,-0.43622848,-0.69897836,0.04247138,0.39589081,-0.83718471,-0.20819107,0.22208044
9.66000000,0.27753161,0.77758616,-0.22961554,-0.47548138,0.84739762,0.40011700,0.04636700,-0.43622848,-0.69897836,0.04247138,0.39589081,-0.83718471,-0.20819107,0.22208044
9.68000000,0.27753161,0.77758616,-0.22961554,-0.47548138,0.84739762,0.40011700,0.04636700,-0.43622848,-0.69897836,0.04247138,0.39589081,-0.83718471,-0.20819107,0.22208044
9.70000000,0.27753161,0.77758616,-0.22961554,-0.47548138,0.84739762,0.40011700,0.04636700,-0.43622848,-0.69897836,0.04247138,0.39589081,-0.83718471,-0.20819107,0.22208044
9.72000000,0.27753161,0.77758616,-0.22961554,-0.47548138,0.84739762,0.40011700,0.04636700,-0.43622848,-0.69897836,0.04247138,0.39589081,-0.83718471,-0.20819107,0.22208044
9.74000000,0.27753161,0.77758616,-0.22961554,-0.47548138,0.84739762,0.40011700,0.04636700,-0.43622848,-0.69897836,0.04247138,0.39589081,-0.83718471,-0.20819107,0.22208044
9.76000000,0.27753161,0.77758616,-0.22961554,-0.47548138,0.84739762,0.40011700,0.04636700,-0.43622848,-0.69897836,0.04247138,0.39589081,-0.83718471,-0.20819107,0.22208044
9.78000000,0.27753161,0.77758616,-0.22961554,-0.47548138,0.84739762,0.40011700,0.04636700,-0.43622848,-0.69897836,0.04247138,0.39589081,-0.83718471,-0.20819107,0.22208044
9.80000000,0.27753161,0.77758616,-0.22961554,-0.47548138,0.84739762,0.40011700,0.04636700,-0.43622848,-0.69897836,0.04247138,0.39589081,-0.83718471,-0.20819107,0.22208044
9.82000000,0.27753161,0.77758616,-0.22961554,-0.47548138,0.84739762,0.40011700,0.04636700,-0.43622848,-0.69897836,0.04247138,0.39589081,-0.83718471,-0.20819107,0.22208044
9.84000000,0.27753161,0.77758616,-0.22961554,-0.47548138,0.84739762,0.40011700,0.04636700,-0.43622848,-0.69897836,0.04247138,0.39589081,-0.83718471,-0.20819107,0.22208044
9.86000000,0.27753161,0.77758616,-0.22961554,-0.47548138,0.84739762,0.40011700,0.04636700,-0.43622848,-0.69897836,0.04247138,0.39589081,-0.83718471,-0.20819107,0.22208044
9.88000000,0.27753161,0.77758616,-0.22961554,-0.47548138,0.84739762,0.40011700,0.04636700,-0.43622848,-0.69897836,0.04247138,0.39589081,-0.83718471,-0.20819107,0.22208044
9.90000000,0.27753161,0.77758616,-0.22961554,-0.47548138,0.84739762,0.40011700,0.04636700,-0.43622848,-0.69897836,0.04247138,0.39589081,-0.83718471,-0.20819107,0.22208044
9.92000000,0.27753161,0.77758616,-0.22961554,-0.47548138,0.84739762,0.40011700,0.04636700,-0.43622848,-0.69897836,0.04247138,0.39589081,-0.83718471,-0.20819107,0.22208044
9.94000000,0.27753161,0.77758616,-0.22961554,-0.47548138,0.84739762,0.40011700,0.04636700,-0.43622848,-0.69897836,0.04247138,0.39589081,-0.83718471,-0.20819107,0.22208044
9.96000000,0.27753161,0.77758616,-0.22961554,-0.47548138,0.84739762,0.40011700,0.04636700,-0.43622848,-0.69897836,0.04247138,0.39589081,-0.83718471,-0.20819107,0.22208044
9.98000000,0.27753161,0.77758616,-0.22961554,-0.47548138,0.84739762,0.40011700,0.04636700,-0.43622848,-0.69897836,0.04247138,0.39589081,-0.83718471,-0.20819107,0.22208044
10.00000000,0.27753161,0.77758616,-0.22961554,-0.47548138,0.84739762,0.40011700,0.04636700,-0.43622848,-0.69897836,0.04247138,0.39589081,-0.83718471,-0.20819107,0.22208044
10.02000000,0.27753161,0.77758616,-0.22961554,-0.47548138,0.84739762,0.40011700,0.04636700,-0.43622848,-0.69897836,0.04247138,0.39589081,-0.83718471,-0.20819107,0.22208044
10.04000000,0.27753161,0.77758616,-0.22961554,-0.47548138,0.84739762,0.40011700,0.04636700,-0.43622848,-0.69897836,0.04247138,0.39589081,-0.83718471,-0.20819107,0.22208044
10.06000000,0.27753161,0.77758616,-0.22961554,-0.47548138,0.84739762,0.40011700,0.04636700,-0.43622848,-0.69897836,0.04247138,0.39589081,-0.83718471,-0.20819107,0.22208044
10.08000000,0.27753161,0.77758616,-0.22961554,-0.47548138,0.84739762,0.40011700,0.04636700,-0.43622848,-0.69897836,0.04247138,0.39589081,-0.83718471,-0.20819107,0.22208044
10.10000000,0.27753161,0.77758616,-0.22961554,-0.47548138,0.84739762,0.40011700,0.04636700,-0.43622848,-0.69897836,0.04247138,0.39589081,-0.83718471,-0.20819107,0.22208044
10.12000000,0.27753161,0.77758616,-0.22961554,-0.47548138,0.84739762,0.40011700,0.04636700,-0.43622848,-0.69897836,0.04247138,0.39589081,-0.83718471,-0.20819107,0.22208044
10.14000000,0.27753161,0.77758616,-0.22961554,-0.47548138,0.84739762,0.40011700,0.04636700,-0.43622848,-0.69897836,0.04247138,0.39589081,-0.83718471,-0.20819107,0.22208044
10.16000000,0.27753161,0.77758616,-0.22961554,-0.47548138,0.84739762,0.40011700,0.04636700,-0.43622848,-0.69897836,0.04247138,0.39589081,-0.83718471,-0.20819107,0.22208044
10.18000000,0.27753161,0.77758616,-0.22961554,-0.47548138,0.84739762,0.40011700,0.04636700,-0.43622848,-0.69897836,0.04247138,0.39589081,-0.83718471,-0.20819107,0.22208044
10.20000000,0.27753161,0.77758616,-0.22961554,-0.47548138,0.84739762,0.40011700,0.04636700,-0.43622848,-0.69897836,0.04247138,0.39589081,-0.83718471,-0.20819107,0.22208044
10.22000000,0.27753161,0.77758616,-0.22961554,-0.47548138,0.84739762,0.40011700,0.04636700,-0.43622848,-0.69897836,0.04247138,0.39589081,-0.83718471,-0.20819107,0.22208044
10.24000000,0.27753161,0.77758616,-0.22961554,-0.47548138,0.84739762,0.40011700,0.04636700,-0.43622848,-0.69897836,0.04247138,0.39589081,-0.83718471,-0.20819107,0.22208044
10.26000000,0.27753161,0.77758616,-0.22961554,-0.47548138,0.84739762,0.40011700,0.04636700,-0.43622848,-0.69897836,0.04247138,0.39589081,-0.83718471,-0.20819107,0.22208044
10.28000000,0.27753161,0.77758616,-0.22961554,-0.47548138,0.84739762,0.40011700,0.04636700,-0.43622848,-0.69897836,0.04247138,0.39589081,-0.83718471,-0.20819107,0.22208044
10.30000000,0.27753161,0.77758616,-0.22961554,-0.47548138,0.84739762,0.40011700,0.04636700,-0.43622848,-0.69897836,0.04247138,0.39589081,-0.83718471,-0.20819107,0.22208044
10.32000000,0.27753161,0.77758616,-0.22961554,-0.47548138,0.84739762,0.40011700,0.04636700,-0.43622848,-0.69897836,0.04247138,0.39589081,-0.83718471,-0.20819107,0.22208044
10.34000000,0.27753161,0.77758616,-0.22961554,-0.47548138,0.84739762,0.40011700,0.04636700,-0.43622848,-0.69897836,0.04247138,0.39589081,-0.83718471,-0.20819107,0.22208044
10.36000000,0.27753161,0.77758616,-0.22961554,-0.47548138,0.84739762,0.40011700,0.04636700,-0.43622848,-0.69897836,0.04247138,0.39589081,-0.83718471,-0.20819107,0.22208044
10.38000000,0.27753161,0.77758616,-0.22961554,-0.47548138,0.84739762,0.40011700,0.04636700,-0.43622848,-0.69897836,0.04247138,0.39589081,-0.83718471,-0.20819107,0.22208044
10.40000000,0.27753161,0.77758616,-0.22961554,-0.47548138,0.84739762,0.40011700,0.04636700,-0.43622848,-0.69897836,0.04247138,0.39589081,-0.83718471,-0.20819107,0.22208044
10.42000000,0.27753161,0.77758616,-0.22961554,-0.47548138,0.84739762,0.40011700,0.04636700,-0.43622848,-0.69897836,0.04247138,0.39589081,-0.83718471,-0.20819107,0.22208044
10.44000000,0.27753161,0.77758616,-0.22961554,-0.47548138,0.84739762,0.40011700,0.04636700,-0.43622848,-0.69897836,0.04247138,0.39589081,-0.83718471,-0.20819107,0.22208044
10.46000000,0.27753161,0.77758616,-0.22961554,-0.47548138,0.84739762,0.40011700,0.04636700,-0.43622848,-0.69897836,0.04247138,0.39589081,-0.83718471,-0.20819107,0.22208044
10.48000000,0.27753161,0.77758616,-0.22961554,-0.47548138,0.84739762,0.40011700,0.04636700,-0.43622848,-0.69897836,0.04247138,0.39589081,-0.83718471,-0.20819107,0.22208044
10.50000000,0.27753161,0.77758616,-0.22961554,-0.47548138,0.84739762,0.40011700,0.04636700,-0.43622848,-0.69897836,0.04247138,0.39589081,-0.83718471,-0.20819107,0.22208044
10.52000000,0.27753161,0.77758616,-0.22961554,-0.47548138,0.84739762,0.40011700,0.04636700,-0.43622848,-0.69897836,0.04247138,0.39589081,-0.83718471,-0.20819107,0.22208044
10.54000000,0.27753161,0.77758616,-0.22961554,-0.47548138,0.84739762,0.40011700,0.04636700,-0.43622848,-0.69897836,0.04247138,0.39589081,-0.83718471,-0.20819107,0.22208044
10.56000000,0.27753161,0.77758616,-0.22961554,-0.47548138,0.84739762,0.40011700,0.04636700,-0.43622848,-0.69897836,0.04247138,0.39589081,-0.83718471,-0.20819107,0.22208044
10.58000000,0.27753161,0.77758616,-0.22961554,-0.47548138,0.84739762,0.40011700,0.04636700,-0.43622848,-0.69897836,0.04247138,0.39589081,-0.83718471,-0.20819107,0.22208044
10.60000000,0.27753161,0.77758616,-0.22961554,-0.47548138,0.84739762,0.40011700,0.04636700,-0.43622848,-0.69897836,0.04247138,0.39589081,-0.83718471,-0.20819107,0.22208044
10.62000000,0.27753161,0.77758616,-0.22961554,-0.47548138,0.84739762,0.40011700,0.04636700,-0.43622848,-0.69897836,0.04247138,0.39589081,-0.83718471,-0.20819107,0.22208044
10.64000000,0.27753161,0.77758616,-0.22961554,-0.47548138,0.84739762,0.40011700,0.04636700,-0.43622848,-0.69897836,0.04247138,0.39589081,-0.83718471,-0.20819107,0.22208044
10.66000000,0.27753161,0.77758616,-0.22961554,-0.47548138,0.84739762,0.40011700,0.04636700,-0.43622848,-0.69897836,0.04247138,0.39589081,-0.83718471,-0.20819107,0.22208044
10.68000000,0.27753161,0.77758616,-0.22961554,-0.47548138,0.84739762,0.40011700,0.04636700,-0.43622848,-0.69897836,0.04247138,0.39589081,-0.83718471,-0.20819107,0.22208044
10.70000000,0.27753161,0.77758616,-0.22961554,-0.47548138,0.84739762,0.40011700,0.04636700,-0.43622848,-0.69897836,0.04247138,0.39589081,-0.83718471,-0.20819107,0.22208044
10.72000000,0.27753161,0.77758616,-0.22961554,-0.47548138,0.84739762,0.40011700,0.04636700,-0.43622848,-0.69897836,0.04247138,0.39589081,-0.83718471,-0.20819107,0.22208044
10.74000000,0.27753161,0.77758616,-0.22961554,-0.47548138,0.84739762,0.40011700,0.04636700,-0.43622848,-0.69897836,0.04247138,0.39589081,-0.83718471,-0.20819107,0.22208044
10.76000000,0.27753161,0.77758616,-0.22961554,-0.47548138,0.84739762,0.40011700,0.04636700,-0.43622848,-0.69897836,0.04247138,0.39589081,-0.83718471,-0.20819107,0.22208044
10.78000000,0.27753161,0.77758616,-0.22961554,-0.47548138,0.84739762,0.40011700,0.04636700,-0.43622848,-0.69897836,0.04247138,0.39589081,-0.83718471,-0.20819107,0.22208044
10.80000000,0.27753161,0.77758616,-0.22961554,-0.47548138,0.84739762,0.40011700,0.04636700,-0.43622848,-0.69897836,0.04247138,0.39589081,-0.83718471,-0.20819107,0.22208044
10.82000000,0.27753161,0.77758616,-0.22961554,-0.47548138,0.84739762,0.40011700,0.04636700,-0.43622848,-0.69897836,0.04247138,0.39589081,-0.83718471,-0.20819107,0.22208044
10.84000000,0.27753161,0.77758616,-0.22961554,-0.47548138,0.84739762,0.40011700,0.04636700,-0.43622848,-0.69897836,0.04247138,0.39589081,-0.83718471,-0.20819107,0.22208044
10.86000000,0.27753161,0.77758616,-0.22961554,-0.47548138,0.84739762,0.40011700,0.04636700,-0.43622848,-0.69897836,0.04247138,0.39589081,-0.83718471,-0.20819107,0.22208044
10.88000000,0.27753161,0.77758616,-0.22961554,-0.47548138,0.84739762,0.40011700,0.04636700,-0.43622848,-0.69897836,0.04247138,0.39589081,-0.83718471,-0.20819107,0.22208044
10.90000000,0.27753161,0.77758616,-0.22961554,-0.47548138,0.84739762,0.40011700,0.04636700,-0.43622848,-0.69897836,0.04247138,0.39589081,-0.83718471,-0.20819107,0.22208044
10.92000000,0.27753161,0.77758616,-0.22961554,-0.47548138,0.84739762,0.40011700,0.04636700,-0.43622848,-0.69897836,0.04247138,0.39589081,-0.83718471,-0.20819107,0.22208044
10.94000000,0.27753161,0.77758616,-0.22961554,-0.47548138,0.84739762,0.40011700,0.04636700,-0.43622848,-0.69897836,0.04247138,0.39589081,-0.83718471,-0.20819107,0.22208044
10.96000000,0.27753161,0.77758616,-0.22961554,-0.47548138,0.84739762,0.40011700,0.04636700,-0.43622848,-0.69897836,0.04247138,0.39589081,-0.83718471,-0.20819107,0.22208044
10.98000000,0.27753161,0.77758616,-0.22961554,-0.47548138,0.84739762,0.40011700,0.04636700,-0.43622848,-0.69897836,0.04247138,0.39589081,-0.83718471,-0.20819107,0.22208044
11.00000000,0.27753161,0.77758616,-0.22961554,-0.47548138,0.84739762,0.40011700,0.04636700,-0.43622848,-0.69897836,0.04247138,0.39589081,-0.83718471,-0.20819107,0.22208044
11.02000000,0.27753161,0.77758616,-0.22961554,-0.47548138,0.84739762,0.40011700,0.04636700,-0.43622848,-0.69897836,0.04247138,0.39589081,-0.83718471,-0.20819107,0.22208044
11.04000000,0.27753161,0.77758616,-0.22961554,-0.47548138,0.84739762,0.40011700,0.04636700,-0.43622848,-0.69897836,0.04247138,0.39589081,-0.83718471,-0.20819107,0.22208044
11.06000000,0.27753161,0.77758616,-0.22961554,-0.47548138,0.84739762,0.40011700,0.04636700,-0.43622848,-0.69897836,0.04247138,0.39589081,-0.83718471,-0.20819107,0.22208044
11.08000000,0.27753161,0.77758616,-0.22961554,-0.47548138,0.84739762,0.40011700,0.04636700,-0.43622848,-0.69897836,0.04247138,0.39589081,-0.83718471,-0.20819107,0.22208044
11.10000000,0.27753161,0.77758616,-0.22961554,-0.47548138,0.84739762,0.40011700,0.04636700,-0.43622848,-0.69897836,0.04247138,0.39589081,-0.83718471,-0.20819107,0.22208044
11.12000000,0.27753161,0.77758616,-0.22961554,-0.47548138,0.84739762,0.40011700,0.04636700,-0.43622848,-0.69897836,0.04247138,0.39589081,-0.83718471,-0.20819107,0.22208044
11.14000000,0.27753161,0.77758616,-0.22961554,-0.47548138,0.84739762,0.40011700,0.04636700,-0.43622848,-0.69897836,0.04247138,0.39589081,-0.83718471,-0.20819107,0.22208044
11.16000000,0.27753161,0.77758616,-0.22961554,-0.47548138,0.84739762,0.40011700,0.04636700,-0.43622848,-0.69897836,0.04247138,0.39589081,-0.83718471,-0.20819107,0.22208044
11.18000000,0.27753161,0.77758616,-0.22961554,-0.47548138,0.84739762,0.40011700,0.04636700,-0.43622848,-0.69897836,0.04247138,0.39589081,-0.83718471,-0.20819107,0.22208044
11.20000000,0.27753161,0.77758616,-0.22961554,-0.47548138,0.84739762,0.40011700,0.04636700,-0.43622848,-0.69897836,0.04247138,0.39589081,-0.83718471,-0.20819107,0.22208044
11.22000000,0.27753161,0.77758616,-0.22961554,-0.47548138,0.84739762,0.40011700,0.04636700,-0.43622848,-0.69897836,0.04247138,0.39589081,-0.83718471,-0.20819107,0.22208044
11.24000000,0.27753161,0.77758616,-0.22961554,-0.47548138,0.84739762,0.40011700,0.04636700,-0.43622848,-0.69897836,0.04247138,0.39589081,-0.83718471,-0.20819107,0.22208044
11.26000000,0.27753161,0.77758616,-0.22961554,-0.47548138,0.84739762,0.40011700,0.04636700,-0.43622848,-0.69897836,0.04247138,0.39589081,-0.83718471,-0.20819107,0.22208044
11.28000000,0.27753161,0.77758616,-0.22961554,-0.47548138,0.84739762,0.40011700,0.04636700,-0.43622848,-0.69897836,0.04247138,0.39589081,-0.83718471,-0.20819107,0.22208044
11.30000000,0.27753161,0.77758616,-0.22961554,-0.47548138,0.84739762,0.40011700,0.04636700,-0.43622848,-0.69897836,0.04247138,0.39589081,-0.83718471,-0.20819107,0.22208044
11.32000000,0.27753161,0.77758616,-0.22961554,-0.47548138,0.84739762,0.40011700,0.04636700,-0.43622848,-0.69897836,0.04247138,0.39589081,-0.83718471,-0.20819107,0.22208044
11.34000000,0.27753161,0.77758616,-0.22961554,-0.47548138,0.84739762,0.40011700,0.04636700,-0.43622848,-0.69897836,0.04247138,0.39589081,-0.83718471,-0.20819107,0.22208044
11.36000000,0.27753161,0.77758616,-0.22961554,-0.47548138,0.84739762,0.40011700,0.04636700,-0.43622848,-0.69897836,0.04247138,0.39589081,-0.83718471,-0.20819107,0.22208044
11.38000000,0.27753161,0.77758616,-0.22961554,-0.47548138,0.84739762,0.40011700,0.04636700,-0.43622848,-0.69897836,0.04247138,0.39589081,-0.83718471,-0.20819107,0.22208044
11.40000000,0.27753161,0.77758616,-0.22961554,-0.47548138,0.84739762,0.40011700,0.04636700,-0.43622848,-0.69897836,0.04247138,0.39589081,-0.83718471,-0.20819107,0.22208044
11.42000000,0.27753161,0.77758616,-0.22961554,-0.47548138,0.84739762,0.40011700,0.04636700,-0.43622848,-0.69897836,0.04247138,0.39589081,-0.83718471,-0.20819107,0.22208044
11.44000000,0.27753161,0.77758616,-0.22961554,-0.47548138,0.84739762,0.40011700,0.04636700,-0.43622848,-0.69897836,0.04247138,0.39589081,-0.83718471,-0.20819107,0.22208044
11.46000000,0.27753161,0.77758616,-0.22961554,-0.47548138,0.84739762,0.40011700,0.04636700,-0.43622848,-0.69897836,0.04247138,0.39589081,-0.83718471,-0.20819107,0.22208044
11.48000000,0.27753161,0.77758616,-0.22961554,-0.47548138,0.84739762,0.40011700,0.04636700,-0.43622848,-0.69897836,0.04247138,0.39589081,-0.83718471,-0.20819107,0.22208044
11.50000000,0.27753161,0.77758616,-0.22961554,-0.47548138,0.84739762,0.40011700,0.04636700,-0.43622848,-0.69897836,0.04247138,0.39589081,-0.83718471,-0.20819107,0.22208044
11.52000000,0.27753161,0.77758616,-0.22961554,-0.47548138,0.84739762,0.40011700,0.04636700,-0.43622848,-0.69897836,0.04247138,0.39589081,-0.83718471,-0.20819107,0.22208044
11.54000000,0.27753161,0.77758616,-0.22961554,-0.47548138,0.84739762,0.40011700,0.04636700,-0.43622848,-0.69897836,0.04247138,0.39589081,-0.83718471,-0.20819107,0.22208044
11.56000000,0.27753161,0.77758616,-0.22961554,-0.47548138,0.84739762,0.40011700,0.04636700,-0.43622848,-0.69897836,0.04247138,0.39589081,-0.83718471,-0.20819107,0.22208044
11.58000000,0.27753161,0.77758616,-0.22961554,-0.47548138,0.84739762,0.40011700,0.04636700,-0.43622848,-0.69897836,0.04247138,0.39589081,-0.83718471,-0.20819107,0.22208044
11.60000000,0.27753161,0.77758616,-0.22961554,-0.47548138,0.84739762,0.40011700,0.04636700,-0.43622848,-0.69897836,0.04247138,0.39589081,-0.83718471,-0.20819107,0.22208044
11.62000000,0.27753161,0.77758616,-0.22961554,-0.47548138,0.84739762,0.40011700,0.04636700,-0.43622848,-0.69897836,0.04247138,0.39589081,-0.83718471,-0.20819107,0.22208044
