gracetata/LocomotionHEC/legged_lab/Reference Data/ArmHack/StandPerturb/TestData/ArmOnly/poses/randomized/randomized_arm_pose_05_seed20260715_hold20s_50hz.csv
time_s,left_shoulder_pitch_joint,left_shoulder_roll_joint,left_shoulder_yaw_joint,left_elbow_joint,left_wrist_roll_joint,left_wrist_pitch_joint,left_wrist_yaw_joint,right_shoulder_pitch_joint,right_shoulder_roll_joint,right_shoulder_yaw_joint,right_elbow_joint,right_wrist_roll_joint,right_wrist_pitch_joint,right_wrist_yaw_joint
0.00000000,0.27668245,0.77767228,-0.22960922,-0.47554029,0.84738320,0.40012139,0.04636802,-0.63077452,-0.95122195,0.30736147,-0.39197473,-0.63343311,0.54475324,0.97491478
0.02000000,0.27668245,0.77767228,-0.22960922,-0.47554029,0.84738320,0.40012139,0.04636802,-0.63077452,-0.95122195,0.30736147,-0.39197473,-0.63343311,0.54475324,0.97491478
0.04000000,0.27668245,0.77767228,-0.22960922,-0.47554029,0.84738320,0.40012139,0.04636802,-0.63077452,-0.95122195,0.30736147,-0.39197473,-0.63343311,0.54475324,0.97491478
0.06000000,0.27668245,0.77767228,-0.22960922,-0.47554029,0.84738320,0.40012139,0.04636802,-0.63077452,-0.95122195,0.30736147,-0.39197473,-0.63343311,0.54475324,0.97491478
0.08000000,0.27668245,0.77767228,-0.22960922,-0.47554029,0.84738320,0.40012139,0.04636802,-0.63077452,-0.95122195,0.30736147,-0.39197473,-0.63343311,0.54475324,0.97491478
0.10000000,0.27668245,0.77767228,-0.22960922,-0.47554029,0.84738320,0.40012139,0.04636802,-0.63077452,-0.95122195,0.30736147,-0.39197473,-0.63343311,0.54475324,0.97491478
0.12000000,0.27668245,0.77767228,-0.22960922,-0.47554029,0.84738320,0.40012139,0.04636802,-0.63077452,-0.95122195,0.30736147,-0.39197473,-0.63343311,0.54475324,0.97491478
0.14000000,0.27668245,0.77767228,-0.22960922,-0.47554029,0.84738320,0.40012139,0.04636802,-0.63077452,-0.95122195,0.30736147,-0.39197473,-0.63343311,0.54475324,0.97491478
0.16000000,0.27668245,0.77767228,-0.22960922,-0.47554029,0.84738320,0.40012139,0.04636802,-0.63077452,-0.95122195,0.30736147,-0.39197473,-0.63343311,0.54475324,0.97491478
0.18000000,0.27668245,0.77767228,-0.22960922,-0.47554029,0.84738320,0.40012139,0.04636802,-0.63077452,-0.95122195,0.30736147,-0.39197473,-0.63343311,0.54475324,0.97491478
0.20000000,0.27668245,0.77767228,-0.22960922,-0.47554029,0.84738320,0.40012139,0.04636802,-0.63077452,-0.95122195,0.30736147,-0.39197473,-0.63343311,0.54475324,0.97491478
0.22000000,0.27668245,0.77767228,-0.22960922,-0.47554029,0.84738320,0.40012139,0.04636802,-0.63077452,-0.95122195,0.30736147,-0.39197473,-0.63343311,0.54475324,0.97491478
0.24000000,0.27668245,0.77767228,-0.22960922,-0.47554029,0.84738320,0.40012139,0.04636802,-0.63077452,-0.95122195,0.30736147,-0.39197473,-0.63343311,0.54475324,0.97491478
0.26000000,0.27668245,0.77767228,-0.22960922,-0.47554029,0.84738320,0.40012139,0.04636802,-0.63077452,-0.95122195,0.30736147,-0.39197473,-0.63343311,0.54475324,0.97491478
0.28000000,0.27668245,0.77767228,-0.22960922,-0.47554029,0.84738320,0.40012139,0.04636802,-0.63077452,-0.95122195,0.30736147,-0.39197473,-0.63343311,0.54475324,0.97491478
0.30000000,0.27668245,0.77767228,-0.22960922,-0.47554029,0.84738320,0.40012139,0.04636802,-0.63077452,-0.95122195,0.30736147,-0.39197473,-0.63343311,0.54475324,0.97491478
0.32000000,0.27668245,0.77767228,-0.22960922,-0.47554029,0.84738320,0.40012139,0.04636802,-0.63077452,-0.95122195,0.30736147,-0.39197473,-0.63343311,0.54475324,0.97491478
0.34000000,0.27668245,0.77767228,-0.22960922,-0.47554029,0.84738320,0.40012139,0.04636802,-0.63077452,-0.95122195,0.30736147,-0.39197473,-0.63343311,0.54475324,0.97491478
0.36000000,0.27668245,0.77767228,-0.22960922,-0.47554029,0.84738320,0.40012139,0.04636802,-0.63077452,-0.95122195,0.30736147,-0.39197473,-0.63343311,0.54475324,0.97491478
0.38000000,0.27668245,0.77767228,-0.22960922,-0.47554029,0.84738320,0.40012139,0.04636802,-0.63077452,-0.95122195,0.30736147,-0.39197473,-0.63343311,0.54475324,0.97491478
0.40000000,0.27668245,0.77767228,-0.22960922,-0.47554029,0.84738320,0.40012139,0.04636802,-0.63077452,-0.95122195,0.30736147,-0.39197473,-0.63343311,0.54475324,0.97491478
0.42000000,0.27668245,0.77767228,-0.22960922,-0.47554029,0.84738320,0.40012139,0.04636802,-0.63077452,-0.95122195,0.30736147,-0.39197473,-0.63343311,0.54475324,0.97491478
0.44000000,0.27668245,0.77767228,-0.22960922,-0.47554029,0.84738320,0.40012139,0.04636802,-0.63077452,-0.95122195,0.30736147,-0.39197473,-0.63343311,0.54475324,0.97491478
0.46000000,0.27668245,0.77767228,-0.22960922,-0.47554029,0.84738320,0.40012139,0.04636802,-0.63077452,-0.95122195,0.30736147,-0.39197473,-0.63343311,0.54475324,0.97491478
0.48000000,0.27668245,0.77767228,-0.22960922,-0.47554029,0.84738320,0.40012139,0.04636802,-0.63077452,-0.95122195,0.30736147,-0.39197473,-0.63343311,0.54475324,0.97491478
0.50000000,0.27668245,0.77767228,-0.22960922,-0.47554029,0.84738320,0.40012139,0.04636802,-0.63077452,-0.95122195,0.30736147,-0.39197473,-0.63343311,0.54475324,0.97491478
0.52000000,0.27668245,0.77767228,-0.22960922,-0.47554029,0.84738320,0.40012139,0.04636802,-0.63077452,-0.95122195,0.30736147,-0.39197473,-0.63343311,0.54475324,0.97491478
0.54000000,0.27668245,0.77767228,-0.22960922,-0.47554029,0.84738320,0.40012139,0.04636802,-0.63077452,-0.95122195,0.30736147,-0.39197473,-0.63343311,0.54475324,0.97491478
0.56000000,0.27668245,0.77767228,-0.22960922,-0.47554029,0.84738320,0.40012139,0.04636802,-0.63077452,-0.95122195,0.30736147,-0.39197473,-0.63343311,0.54475324,0.97491478
0.58000000,0.27668245,0.77767228,-0.22960922,-0.47554029,0.84738320,0.40012139,0.04636802,-0.63077452,-0.95122195,0.30736147,-0.39197473,-0.63343311,0.54475324,0.97491478
0.60000000,0.27668245,0.77767228,-0.22960922,-0.47554029,0.84738320,0.40012139,0.04636802,-0.63077452,-0.95122195,0.30736147,-0.39197473,-0.63343311,0.54475324,0.97491478
0.62000000,0.27668245,0.77767228,-0.22960922,-0.47554029,0.84738320,0.40012139,0.04636802,-0.63077452,-0.95122195,0.30736147,-0.39197473,-0.63343311,0.54475324,0.97491478
0.64000000,0.27668245,0.77767228,-0.22960922,-0.47554029,0.84738320,0.40012139,0.04636802,-0.63077452,-0.95122195,0.30736147,-0.39197473,-0.63343311,0.54475324,0.97491478
0.66000000,0.27668245,0.77767228,-0.22960922,-0.47554029,0.84738320,0.40012139,0.04636802,-0.63077452,-0.95122195,0.30736147,-0.39197473,-0.63343311,0.54475324,0.97491478
0.68000000,0.27668245,0.77767228,-0.22960922,-0.47554029,0.84738320,0.40012139,0.04636802,-0.63077452,-0.95122195,0.30736147,-0.39197473,-0.63343311,0.54475324,0.97491478
0.70000000,0.27668245,0.77767228,-0.22960922,-0.47554029,0.84738320,0.40012139,0.04636802,-0.63077452,-0.95122195,0.30736147,-0.39197473,-0.63343311,0.54475324,0.97491478
0.72000000,0.27668245,0.77767228,-0.22960922,-0.47554029,0.84738320,0.40012139,0.04636802,-0.63077452,-0.95122195,0.30736147,-0.39197473,-0.63343311,0.54475324,0.97491478
0.74000000,0.27668245,0.77767228,-0.22960922,-0.47554029,0.84738320,0.40012139,0.04636802,-0.63077452,-0.95122195,0.30736147,-0.39197473,-0.63343311,0.54475324,0.97491478
0.76000000,0.27668245,0.77767228,-0.22960922,-0.47554029,0.84738320,0.40012139,0.04636802,-0.63077452,-0.95122195,0.30736147,-0.39197473,-0.63343311,0.54475324,0.97491478
0.78000000,0.27668245,0.77767228,-0.22960922,-0.47554029,0.84738320,0.40012139,0.04636802,-0.63077452,-0.95122195,0.30736147,-0.39197473,-0.63343311,0.54475324,0.97491478
0.80000000,0.27668245,0.77767228,-0.22960922,-0.47554029,0.84738320,0.40012139,0.04636802,-0.63077452,-0.95122195,0.30736147,-0.39197473,-0.63343311,0.54475324,0.97491478
0.82000000,0.27668245,0.77767228,-0.22960922,-0.47554029,0.84738320,0.40012139,0.04636802,-0.63077452,-0.95122195,0.30736147,-0.39197473,-0.63343311,0.54475324,0.97491478
0.84000000,0.27668245,0.77767228,-0.22960922,-0.47554029,0.84738320,0.40012139,0.04636802,-0.63077452,-0.95122195,0.30736147,-0.39197473,-0.63343311,0.54475324,0.97491478
0.86000000,0.27668245,0.77767228,-0.22960922,-0.47554029,0.84738320,0.40012139,0.04636802,-0.63077452,-0.95122195,0.30736147,-0.39197473,-0.63343311,0.54475324,0.97491478
0.88000000,0.27668245,0.77767228,-0.22960922,-0.47554029,0.84738320,0.40012139,0.04636802,-0.63077452,-0.95122195,0.30736147,-0.39197473,-0.63343311,0.54475324,0.97491478
0.90000000,0.27668245,0.77767228,-0.22960922,-0.47554029,0.84738320,0.40012139,0.04636802,-0.63077452,-0.95122195,0.30736147,-0.39197473,-0.63343311,0.54475324,0.97491478
0.92000000,0.27668245,0.77767228,-0.22960922,-0.47554029,0.84738320,0.40012139,0.04636802,-0.63077452,-0.95122195,0.30736147,-0.39197473,-0.63343311,0.54475324,0.97491478
0.94000000,0.27668245,0.77767228,-0.22960922,-0.47554029,0.84738320,0.40012139,0.04636802,-0.63077452,-0.95122195,0.30736147,-0.39197473,-0.63343311,0.54475324,0.97491478
0.96000000,0.27668245,0.77767228,-0.22960922,-0.47554029,0.84738320,0.40012139,0.04636802,-0.63077452,-0.95122195,0.30736147,-0.39197473,-0.63343311,0.54475324,0.97491478
0.98000000,0.27668245,0.77767228,-0.22960922,-0.47554029,0.84738320,0.40012139,0.04636802,-0.63077452,-0.95122195,0.30736147,-0.39197473,-0.63343311,0.54475324,0.97491478
1.00000000,0.27668245,0.77767228,-0.22960922,-0.47554029,0.84738320,0.40012139,0.04636802,-0.63077452,-0.95122195,0.30736147,-0.39197473,-0.63343311,0.54475324,0.97491478
1.02000000,0.27668245,0.77767228,-0.22960922,-0.47554029,0.84738320,0.40012139,0.04636802,-0.63077452,-0.95122195,0.30736147,-0.39197473,-0.63343311,0.54475324,0.97491478
1.04000000,0.27668245,0.77767228,-0.22960922,-0.47554029,0.84738320,0.40012139,0.04636802,-0.63077452,-0.95122195,0.30736147,-0.39197473,-0.63343311,0.54475324,0.97491478
1.06000000,0.27668245,0.77767228,-0.22960922,-0.47554029,0.84738320,0.40012139,0.04636802,-0.63077452,-0.95122195,0.30736147,-0.39197473,-0.63343311,0.54475324,0.97491478
1.08000000,0.27668245,0.77767228,-0.22960922,-0.47554029,0.84738320,0.40012139,0.04636802,-0.63077452,-0.95122195,0.30736147,-0.39197473,-0.63343311,0.54475324,0.97491478
1.10000000,0.27668245,0.77767228,-0.22960922,-0.47554029,0.84738320,0.40012139,0.04636802,-0.63077452,-0.95122195,0.30736147,-0.39197473,-0.63343311,0.54475324,0.97491478
1.12000000,0.27668245,0.77767228,-0.22960922,-0.47554029,0.84738320,0.40012139,0.04636802,-0.63077452,-0.95122195,0.30736147,-0.39197473,-0.63343311,0.54475324,0.97491478
1.14000000,0.27668245,0.77767228,-0.22960922,-0.47554029,0.84738320,0.40012139,0.04636802,-0.63077452,-0.95122195,0.30736147,-0.39197473,-0.63343311,0.54475324,0.97491478
1.16000000,0.27668245,0.77767228,-0.22960922,-0.47554029,0.84738320,0.40012139,0.04636802,-0.63077452,-0.95122195,0.30736147,-0.39197473,-0.63343311,0.54475324,0.97491478
1.18000000,0.27668245,0.77767228,-0.22960922,-0.47554029,0.84738320,0.40012139,0.04636802,-0.63077452,-0.95122195,0.30736147,-0.39197473,-0.63343311,0.54475324,0.97491478
1.20000000,0.27668245,0.77767228,-0.22960922,-0.47554029,0.84738320,0.40012139,0.04636802,-0.63077452,-0.95122195,0.30736147,-0.39197473,-0.63343311,0.54475324,0.97491478
1.22000000,0.27668245,0.77767228,-0.22960922,-0.47554029,0.84738320,0.40012139,0.04636802,-0.63077452,-0.95122195,0.30736147,-0.39197473,-0.63343311,0.54475324,0.97491478
1.24000000,0.27668245,0.77767228,-0.22960922,-0.47554029,0.84738320,0.40012139,0.04636802,-0.63077452,-0.95122195,0.30736147,-0.39197473,-0.63343311,0.54475324,0.97491478
1.26000000,0.27668245,0.77767228,-0.22960922,-0.47554029,0.84738320,0.40012139,0.04636802,-0.63077452,-0.95122195,0.30736147,-0.39197473,-0.63343311,0.54475324,0.97491478
1.28000000,0.27668245,0.77767228,-0.22960922,-0.47554029,0.84738320,0.40012139,0.04636802,-0.63077452,-0.95122195,0.30736147,-0.39197473,-0.63343311,0.54475324,0.97491478
1.30000000,0.27668245,0.77767228,-0.22960922,-0.47554029,0.84738320,0.40012139,0.04636802,-0.63077452,-0.95122195,0.30736147,-0.39197473,-0.63343311,0.54475324,0.97491478
1.32000000,0.27668245,0.77767228,-0.22960922,-0.47554029,0.84738320,0.40012139,0.04636802,-0.63077452,-0.95122195,0.30736147,-0.39197473,-0.63343311,0.54475324,0.97491478
1.34000000,0.27668245,0.77767228,-0.22960922,-0.47554029,0.84738320,0.40012139,0.04636802,-0.63077452,-0.95122195,0.30736147,-0.39197473,-0.63343311,0.54475324,0.97491478
1.36000000,0.27668245,0.77767228,-0.22960922,-0.47554029,0.84738320,0.40012139,0.04636802,-0.63077452,-0.95122195,0.30736147,-0.39197473,-0.63343311,0.54475324,0.97491478
1.38000000,0.27668245,0.77767228,-0.22960922,-0.47554029,0.84738320,0.40012139,0.04636802,-0.63077452,-0.95122195,0.30736147,-0.39197473,-0.63343311,0.54475324,0.97491478
1.40000000,0.27668245,0.77767228,-0.22960922,-0.47554029,0.84738320,0.40012139,0.04636802,-0.63077452,-0.95122195,0.30736147,-0.39197473,-0.63343311,0.54475324,0.97491478
1.42000000,0.27668245,0.77767228,-0.22960922,-0.47554029,0.84738320,0.40012139,0.04636802,-0.63077452,-0.95122195,0.30736147,-0.39197473,-0.63343311,0.54475324,0.97491478
1.44000000,0.27668245,0.77767228,-0.22960922,-0.47554029,0.84738320,0.40012139,0.04636802,-0.63077452,-0.95122195,0.30736147,-0.39197473,-0.63343311,0.54475324,0.97491478
1.46000000,0.27668245,0.77767228,-0.22960922,-0.47554029,0.84738320,0.40012139,0.04636802,-0.63077452,-0.95122195,0.30736147,-0.39197473,-0.63343311,0.54475324,0.97491478
1.48000000,0.27668245,0.77767228,-0.22960922,-0.47554029,0.84738320,0.40012139,0.04636802,-0.63077452,-0.95122195,0.30736147,-0.39197473,-0.63343311,0.54475324,0.97491478
1.50000000,0.27668245,0.77767228,-0.22960922,-0.47554029,0.84738320,0.40012139,0.04636802,-0.63077452,-0.95122195,0.30736147,-0.39197473,-0.63343311,0.54475324,0.97491478
1.52000000,0.27668245,0.77767228,-0.22960922,-0.47554029,0.84738320,0.40012139,0.04636802,-0.63077452,-0.95122195,0.30736147,-0.39197473,-0.63343311,0.54475324,0.97491478
1.54000000,0.27668245,0.77767228,-0.22960922,-0.47554029,0.84738320,0.40012139,0.04636802,-0.63077452,-0.95122195,0.30736147,-0.39197473,-0.63343311,0.54475324,0.97491478
1.56000000,0.27668245,0.77767228,-0.22960922,-0.47554029,0.84738320,0.40012139,0.04636802,-0.63077452,-0.95122195,0.30736147,-0.39197473,-0.63343311,0.54475324,0.97491478
1.58000000,0.27668245,0.77767228,-0.22960922,-0.47554029,0.84738320,0.40012139,0.04636802,-0.63077452,-0.95122195,0.30736147,-0.39197473,-0.63343311,0.54475324,0.97491478
1.60000000,0.27668245,0.77767228,-0.22960922,-0.47554029,0.84738320,0.40012139,0.04636802,-0.63077452,-0.95122195,0.30736147,-0.39197473,-0.63343311,0.54475324,0.97491478
1.62000000,0.27668245,0.77767228,-0.22960922,-0.47554029,0.84738320,0.40012139,0.04636802,-0.63077452,-0.95122195,0.30736147,-0.39197473,-0.63343311,0.54475324,0.97491478
1.64000000,0.27668245,0.77767228,-0.22960922,-0.47554029,0.84738320,0.40012139,0.04636802,-0.63077452,-0.95122195,0.30736147,-0.39197473,-0.63343311,0.54475324,0.97491478
1.66000000,0.27668245,0.77767228,-0.22960922,-0.47554029,0.84738320,0.40012139,0.04636802,-0.63077452,-0.95122195,0.30736147,-0.39197473,-0.63343311,0.54475324,0.97491478
1.68000000,0.27668245,0.77767228,-0.22960922,-0.47554029,0.84738320,0.40012139,0.04636802,-0.63077452,-0.95122195,0.30736147,-0.39197473,-0.63343311,0.54475324,0.97491478
1.70000000,0.27668245,0.77767228,-0.22960922,-0.47554029,0.84738320,0.40012139,0.04636802,-0.63077452,-0.95122195,0.30736147,-0.39197473,-0.63343311,0.54475324,0.97491478
1.72000000,0.27668245,0.77767228,-0.22960922,-0.47554029,0.84738320,0.40012139,0.04636802,-0.63077452,-0.95122195,0.30736147,-0.39197473,-0.63343311,0.54475324,0.97491478
1.74000000,0.27668245,0.77767228,-0.22960922,-0.47554029,0.84738320,0.40012139,0.04636802,-0.63077452,-0.95122195,0.30736147,-0.39197473,-0.63343311,0.54475324,0.97491478
1.76000000,0.27668245,0.77767228,-0.22960922,-0.47554029,0.84738320,0.40012139,0.04636802,-0.63077452,-0.95122195,0.30736147,-0.39197473,-0.63343311,0.54475324,0.97491478
1.78000000,0.27668245,0.77767228,-0.22960922,-0.47554029,0.84738320,0.40012139,0.04636802,-0.63077452,-0.95122195,0.30736147,-0.39197473,-0.63343311,0.54475324,0.97491478
1.80000000,0.27668245,0.77767228,-0.22960922,-0.47554029,0.84738320,0.40012139,0.04636802,-0.63077452,-0.95122195,0.30736147,-0.39197473,-0.63343311,0.54475324,0.97491478
1.82000000,0.27668245,0.77767228,-0.22960922,-0.47554029,0.84738320,0.40012139,0.04636802,-0.63077452,-0.95122195,0.30736147,-0.39197473,-0.63343311,0.54475324,0.97491478
1.84000000,0.27668245,0.77767228,-0.22960922,-0.47554029,0.84738320,0.40012139,0.04636802,-0.63077452,-0.95122195,0.30736147,-0.39197473,-0.63343311,0.54475324,0.97491478
1.86000000,0.27668245,0.77767228,-0.22960922,-0.47554029,0.84738320,0.40012139,0.04636802,-0.63077452,-0.95122195,0.30736147,-0.39197473,-0.63343311,0.54475324,0.97491478
1.88000000,0.27668245,0.77767228,-0.22960922,-0.47554029,0.84738320,0.40012139,0.04636802,-0.63077452,-0.95122195,0.30736147,-0.39197473,-0.63343311,0.54475324,0.97491478
1.90000000,0.27668245,0.77767228,-0.22960922,-0.47554029,0.84738320,0.40012139,0.04636802,-0.63077452,-0.95122195,0.30736147,-0.39197473,-0.63343311,0.54475324,0.97491478
1.92000000,0.27668245,0.77767228,-0.22960922,-0.47554029,0.84738320,0.40012139,0.04636802,-0.63077452,-0.95122195,0.30736147,-0.39197473,-0.63343311,0.54475324,0.97491478
1.94000000,0.27668245,0.77767228,-0.22960922,-0.47554029,0.84738320,0.40012139,0.04636802,-0.63077452,-0.95122195,0.30736147,-0.39197473,-0.63343311,0.54475324,0.97491478
1.96000000,0.27668245,0.77767228,-0.22960922,-0.47554029,0.84738320,0.40012139,0.04636802,-0.63077452,-0.95122195,0.30736147,-0.39197473,-0.63343311,0.54475324,0.97491478
1.98000000,0.27668245,0.77767228,-0.22960922,-0.47554029,0.84738320,0.40012139,0.04636802,-0.63077452,-0.95122195,0.30736147,-0.39197473,-0.63343311,0.54475324,0.97491478
2.00000000,0.27668245,0.77767228,-0.22960922,-0.47554029,0.84738320,0.40012139,0.04636802,-0.63077452,-0.95122195,0.30736147,-0.39197473,-0.63343311,0.54475324,0.97491478
2.02000000,0.27668245,0.77767228,-0.22960922,-0.47554029,0.84738320,0.40012139,0.04636802,-0.63077452,-0.95122195,0.30736147,-0.39197473,-0.63343311,0.54475324,0.97491478
2.04000000,0.27668245,0.77767228,-0.22960922,-0.47554029,0.84738320,0.40012139,0.04636802,-0.63077452,-0.95122195,0.30736147,-0.39197473,-0.63343311,0.54475324,0.97491478
2.06000000,0.27668245,0.77767228,-0.22960922,-0.47554029,0.84738320,0.40012139,0.04636802,-0.63077452,-0.95122195,0.30736147,-0.39197473,-0.63343311,0.54475324,0.97491478
2.08000000,0.27668245,0.77767228,-0.22960922,-0.47554029,0.84738320,0.40012139,0.04636802,-0.63077452,-0.95122195,0.30736147,-0.39197473,-0.63343311,0.54475324,0.97491478
2.10000000,0.27668245,0.77767228,-0.22960922,-0.47554029,0.84738320,0.40012139,0.04636802,-0.63077452,-0.95122195,0.30736147,-0.39197473,-0.63343311,0.54475324,0.97491478
2.12000000,0.27668245,0.77767228,-0.22960922,-0.47554029,0.84738320,0.40012139,0.04636802,-0.63077452,-0.95122195,0.30736147,-0.39197473,-0.63343311,0.54475324,0.97491478
2.14000000,0.27668245,0.77767228,-0.22960922,-0.47554029,0.84738320,0.40012139,0.04636802,-0.63077452,-0.95122195,0.30736147,-0.39197473,-0.63343311,0.54475324,0.97491478
2.16000000,0.27668245,0.77767228,-0.22960922,-0.47554029,0.84738320,0.40012139,0.04636802,-0.63077452,-0.95122195,0.30736147,-0.39197473,-0.63343311,0.54475324,0.97491478
2.18000000,0.27668245,0.77767228,-0.22960922,-0.47554029,0.84738320,0.40012139,0.04636802,-0.63077452,-0.95122195,0.30736147,-0.39197473,-0.63343311,0.54475324,0.97491478
2.20000000,0.27668245,0.77767228,-0.22960922,-0.47554029,0.84738320,0.40012139,0.04636802,-0.63077452,-0.95122195,0.30736147,-0.39197473,-0.63343311,0.54475324,0.97491478
2.22000000,0.27668245,0.77767228,-0.22960922,-0.47554029,0.84738320,0.40012139,0.04636802,-0.63077452,-0.95122195,0.30736147,-0.39197473,-0.63343311,0.54475324,0.97491478
2.24000000,0.27668245,0.77767228,-0.22960922,-0.47554029,0.84738320,0.40012139,0.04636802,-0.63077452,-0.95122195,0.30736147,-0.39197473,-0.63343311,0.54475324,0.97491478
2.26000000,0.27668245,0.77767228,-0.22960922,-0.47554029,0.84738320,0.40012139,0.04636802,-0.63077452,-0.95122195,0.30736147,-0.39197473,-0.63343311,0.54475324,0.97491478
2.28000000,0.27668245,0.77767228,-0.22960922,-0.47554029,0.84738320,0.40012139,0.04636802,-0.63077452,-0.95122195,0.30736147,-0.39197473,-0.63343311,0.54475324,0.97491478
2.30000000,0.27668245,0.77767228,-0.22960922,-0.47554029,0.84738320,0.40012139,0.04636802,-0.63077452,-0.95122195,0.30736147,-0.39197473,-0.63343311,0.54475324,0.97491478
2.32000000,0.27668245,0.77767228,-0.22960922,-0.47554029,0.84738320,0.40012139,0.04636802,-0.63077452,-0.95122195,0.30736147,-0.39197473,-0.63343311,0.54475324,0.97491478
2.34000000,0.27668245,0.77767228,-0.22960922,-0.47554029,0.84738320,0.40012139,0.04636802,-0.63077452,-0.95122195,0.30736147,-0.39197473,-0.63343311,0.54475324,0.97491478
2.36000000,0.27668245,0.77767228,-0.22960922,-0.47554029,0.84738320,0.40012139,0.04636802,-0.63077452,-0.95122195,0.30736147,-0.39197473,-0.63343311,0.54475324,0.97491478
2.38000000,0.27668245,0.77767228,-0.22960922,-0.47554029,0.84738320,0.40012139,0.04636802,-0.63077452,-0.95122195,0.30736147,-0.39197473,-0.63343311,0.54475324,0.97491478
2.40000000,0.27668245,0.77767228,-0.22960922,-0.47554029,0.84738320,0.40012139,0.04636802,-0.63077452,-0.95122195,0.30736147,-0.39197473,-0.63343311,0.54475324,0.97491478
2.42000000,0.27668245,0.77767228,-0.22960922,-0.47554029,0.84738320,0.40012139,0.04636802,-0.63077452,-0.95122195,0.30736147,-0.39197473,-0.63343311,0.54475324,0.97491478
2.44000000,0.27668245,0.77767228,-0.22960922,-0.47554029,0.84738320,0.40012139,0.04636802,-0.63077452,-0.95122195,0.30736147,-0.39197473,-0.63343311,0.54475324,0.97491478
2.46000000,0.27668245,0.77767228,-0.22960922,-0.47554029,0.84738320,0.40012139,0.04636802,-0.63077452,-0.95122195,0.30736147,-0.39197473,-0.63343311,0.54475324,0.97491478
2.48000000,0.27668245,0.77767228,-0.22960922,-0.47554029,0.84738320,0.40012139,0.04636802,-0.63077452,-0.95122195,0.30736147,-0.39197473,-0.63343311,0.54475324,0.97491478
2.50000000,0.27668245,0.77767228,-0.22960922,-0.47554029,0.84738320,0.40012139,0.04636802,-0.63077452,-0.95122195,0.30736147,-0.39197473,-0.63343311,0.54475324,0.97491478
2.52000000,0.27668245,0.77767228,-0.22960922,-0.47554029,0.84738320,0.40012139,0.04636802,-0.63077452,-0.95122195,0.30736147,-0.39197473,-0.63343311,0.54475324,0.97491478
2.54000000,0.27668245,0.77767228,-0.22960922,-0.47554029,0.84738320,0.40012139,0.04636802,-0.63077452,-0.95122195,0.30736147,-0.39197473,-0.63343311,0.54475324,0.97491478
2.56000000,0.27668245,0.77767228,-0.22960922,-0.47554029,0.84738320,0.40012139,0.04636802,-0.63077452,-0.95122195,0.30736147,-0.39197473,-0.63343311,0.54475324,0.97491478
2.58000000,0.27668245,0.77767228,-0.22960922,-0.47554029,0.84738320,0.40012139,0.04636802,-0.63077452,-0.95122195,0.30736147,-0.39197473,-0.63343311,0.54475324,0.97491478
2.60000000,0.27668245,0.77767228,-0.22960922,-0.47554029,0.84738320,0.40012139,0.04636802,-0.63077452,-0.95122195,0.30736147,-0.39197473,-0.63343311,0.54475324,0.97491478
2.62000000,0.27668245,0.77767228,-0.22960922,-0.47554029,0.84738320,0.40012139,0.04636802,-0.63077452,-0.95122195,0.30736147,-0.39197473,-0.63343311,0.54475324,0.97491478
2.64000000,0.27668245,0.77767228,-0.22960922,-0.47554029,0.84738320,0.40012139,0.04636802,-0.63077452,-0.95122195,0.30736147,-0.39197473,-0.63343311,0.54475324,0.97491478
2.66000000,0.27668245,0.77767228,-0.22960922,-0.47554029,0.84738320,0.40012139,0.04636802,-0.63077452,-0.95122195,0.30736147,-0.39197473,-0.63343311,0.54475324,0.97491478
2.68000000,0.27668245,0.77767228,-0.22960922,-0.47554029,0.84738320,0.40012139,0.04636802,-0.63077452,-0.95122195,0.30736147,-0.39197473,-0.63343311,0.54475324,0.97491478
2.70000000,0.27668245,0.77767228,-0.22960922,-0.47554029,0.84738320,0.40012139,0.04636802,-0.63077452,-0.95122195,0.30736147,-0.39197473,-0.63343311,0.54475324,0.97491478
2.72000000,0.27668245,0.77767228,-0.22960922,-0.47554029,0.84738320,0.40012139,0.04636802,-0.63077452,-0.95122195,0.30736147,-0.39197473,-0.63343311,0.54475324,0.97491478
2.74000000,0.27668245,0.77767228,-0.22960922,-0.47554029,0.84738320,0.40012139,0.04636802,-0.63077452,-0.95122195,0.30736147,-0.39197473,-0.63343311,0.54475324,0.97491478
2.76000000,0.27668245,0.77767228,-0.22960922,-0.47554029,0.84738320,0.40012139,0.04636802,-0.63077452,-0.95122195,0.30736147,-0.39197473,-0.63343311,0.54475324,0.97491478
2.78000000,0.27668245,0.77767228,-0.22960922,-0.47554029,0.84738320,0.40012139,0.04636802,-0.63077452,-0.95122195,0.30736147,-0.39197473,-0.63343311,0.54475324,0.97491478
2.80000000,0.27668245,0.77767228,-0.22960922,-0.47554029,0.84738320,0.40012139,0.04636802,-0.63077452,-0.95122195,0.30736147,-0.39197473,-0.63343311,0.54475324,0.97491478
2.82000000,0.27668245,0.77767228,-0.22960922,-0.47554029,0.84738320,0.40012139,0.04636802,-0.63077452,-0.95122195,0.30736147,-0.39197473,-0.63343311,0.54475324,0.97491478
2.84000000,0.27668245,0.77767228,-0.22960922,-0.47554029,0.84738320,0.40012139,0.04636802,-0.63077452,-0.95122195,0.30736147,-0.39197473,-0.63343311,0.54475324,0.97491478
2.86000000,0.27668245,0.77767228,-0.22960922,-0.47554029,0.84738320,0.40012139,0.04636802,-0.63077452,-0.95122195,0.30736147,-0.39197473,-0.63343311,0.54475324,0.97491478
2.88000000,0.27668245,0.77767228,-0.22960922,-0.47554029,0.84738320,0.40012139,0.04636802,-0.63077452,-0.95122195,0.30736147,-0.39197473,-0.63343311,0.54475324,0.97491478
2.90000000,0.27668245,0.77767228,-0.22960922,-0.47554029,0.84738320,0.40012139,0.04636802,-0.63077452,-0.95122195,0.30736147,-0.39197473,-0.63343311,0.54475324,0.97491478
2.92000000,0.27668245,0.77767228,-0.22960922,-0.47554029,0.84738320,0.40012139,0.04636802,-0.63077452,-0.95122195,0.30736147,-0.39197473,-0.63343311,0.54475324,0.97491478
2.94000000,0.27668245,0.77767228,-0.22960922,-0.47554029,0.84738320,0.40012139,0.04636802,-0.63077452,-0.95122195,0.30736147,-0.39197473,-0.63343311,0.54475324,0.97491478
2.96000000,0.27668245,0.77767228,-0.22960922,-0.47554029,0.84738320,0.40012139,0.04636802,-0.63077452,-0.95122195,0.30736147,-0.39197473,-0.63343311,0.54475324,0.97491478
2.98000000,0.27668245,0.77767228,-0.22960922,-0.47554029,0.84738320,0.40012139,0.04636802,-0.63077452,-0.95122195,0.30736147,-0.39197473,-0.63343311,0.54475324,0.97491478
3.00000000,0.27668245,0.77767228,-0.22960922,-0.47554029,0.84738320,0.40012139,0.04636802,-0.63077452,-0.95122195,0.30736147,-0.39197473,-0.63343311,0.54475324,0.97491478
3.02000000,0.27668245,0.77767228,-0.22960922,-0.47554029,0.84738320,0.40012139,0.04636802,-0.63077452,-0.95122195,0.30736147,-0.39197473,-0.63343311,0.54475324,0.97491478
3.04000000,0.27668245,0.77767228,-0.22960922,-0.47554029,0.84738320,0.40012139,0.04636802,-0.63077452,-0.95122195,0.30736147,-0.39197473,-0.63343311,0.54475324,0.97491478
3.06000000,0.27668245,0.77767228,-0.22960922,-0.47554029,0.84738320,0.40012139,0.04636802,-0.63077452,-0.95122195,0.30736147,-0.39197473,-0.63343311,0.54475324,0.97491478
3.08000000,0.27668245,0.77767228,-0.22960922,-0.47554029,0.84738320,0.40012139,0.04636802,-0.63077452,-0.95122195,0.30736147,-0.39197473,-0.63343311,0.54475324,0.97491478
3.10000000,0.27668245,0.77767228,-0.22960922,-0.47554029,0.84738320,0.40012139,0.04636802,-0.63077452,-0.95122195,0.30736147,-0.39197473,-0.63343311,0.54475324,0.97491478
3.12000000,0.27668245,0.77767228,-0.22960922,-0.47554029,0.84738320,0.40012139,0.04636802,-0.63077452,-0.95122195,0.30736147,-0.39197473,-0.63343311,0.54475324,0.97491478
3.14000000,0.27668245,0.77767228,-0.22960922,-0.47554029,0.84738320,0.40012139,0.04636802,-0.63077452,-0.95122195,0.30736147,-0.39197473,-0.63343311,0.54475324,0.97491478
3.16000000,0.27668245,0.77767228,-0.22960922,-0.47554029,0.84738320,0.40012139,0.04636802,-0.63077452,-0.95122195,0.30736147,-0.39197473,-0.63343311,0.54475324,0.97491478
3.18000000,0.27668245,0.77767228,-0.22960922,-0.47554029,0.84738320,0.40012139,0.04636802,-0.63077452,-0.95122195,0.30736147,-0.39197473,-0.63343311,0.54475324,0.97491478
3.20000000,0.27668245,0.77767228,-0.22960922,-0.47554029,0.84738320,0.40012139,0.04636802,-0.63077452,-0.95122195,0.30736147,-0.39197473,-0.63343311,0.54475324,0.97491478
3.22000000,0.27668245,0.77767228,-0.22960922,-0.47554029,0.84738320,0.40012139,0.04636802,-0.63077452,-0.95122195,0.30736147,-0.39197473,-0.63343311,0.54475324,0.97491478
3.24000000,0.27668245,0.77767228,-0.22960922,-0.47554029,0.84738320,0.40012139,0.04636802,-0.63077452,-0.95122195,0.30736147,-0.39197473,-0.63343311,0.54475324,0.97491478
3.26000000,0.27668245,0.77767228,-0.22960922,-0.47554029,0.84738320,0.40012139,0.04636802,-0.63077452,-0.95122195,0.30736147,-0.39197473,-0.63343311,0.54475324,0.97491478
3.28000000,0.27668245,0.77767228,-0.22960922,-0.47554029,0.84738320,0.40012139,0.04636802,-0.63077452,-0.95122195,0.30736147,-0.39197473,-0.63343311,0.54475324,0.97491478
3.30000000,0.27668245,0.77767228,-0.22960922,-0.47554029,0.84738320,0.40012139,0.04636802,-0.63077452,-0.95122195,0.30736147,-0.39197473,-0.63343311,0.54475324,0.97491478
3.32000000,0.27668245,0.77767228,-0.22960922,-0.47554029,0.84738320,0.40012139,0.04636802,-0.63077452,-0.95122195,0.30736147,-0.39197473,-0.63343311,0.54475324,0.97491478
3.34000000,0.27668245,0.77767228,-0.22960922,-0.47554029,0.84738320,0.40012139,0.04636802,-0.63077452,-0.95122195,0.30736147,-0.39197473,-0.63343311,0.54475324,0.97491478
3.36000000,0.27668245,0.77767228,-0.22960922,-0.47554029,0.84738320,0.40012139,0.04636802,-0.63077452,-0.95122195,0.30736147,-0.39197473,-0.63343311,0.54475324,0.97491478
3.38000000,0.27668245,0.77767228,-0.22960922,-0.47554029,0.84738320,0.40012139,0.04636802,-0.63077452,-0.95122195,0.30736147,-0.39197473,-0.63343311,0.54475324,0.97491478
3.40000000,0.27668245,0.77767228,-0.22960922,-0.47554029,0.84738320,0.40012139,0.04636802,-0.63077452,-0.95122195,0.30736147,-0.39197473,-0.63343311,0.54475324,0.97491478
3.42000000,0.27668245,0.77767228,-0.22960922,-0.47554029,0.84738320,0.40012139,0.04636802,-0.63077452,-0.95122195,0.30736147,-0.39197473,-0.63343311,0.54475324,0.97491478
3.44000000,0.27668245,0.77767228,-0.22960922,-0.47554029,0.84738320,0.40012139,0.04636802,-0.63077452,-0.95122195,0.30736147,-0.39197473,-0.63343311,0.54475324,0.97491478
3.46000000,0.27668245,0.77767228,-0.22960922,-0.47554029,0.84738320,0.40012139,0.04636802,-0.63077452,-0.95122195,0.30736147,-0.39197473,-0.63343311,0.54475324,0.97491478
3.48000000,0.27668245,0.77767228,-0.22960922,-0.47554029,0.84738320,0.40012139,0.04636802,-0.63077452,-0.95122195,0.30736147,-0.39197473,-0.63343311,0.54475324,0.97491478
3.50000000,0.27668245,0.77767228,-0.22960922,-0.47554029,0.84738320,0.40012139,0.04636802,-0.63077452,-0.95122195,0.30736147,-0.39197473,-0.63343311,0.54475324,0.97491478
3.52000000,0.27668245,0.77767228,-0.22960922,-0.47554029,0.84738320,0.40012139,0.04636802,-0.63077452,-0.95122195,0.30736147,-0.39197473,-0.63343311,0.54475324,0.97491478
3.54000000,0.27668245,0.77767228,-0.22960922,-0.47554029,0.84738320,0.40012139,0.04636802,-0.63077452,-0.95122195,0.30736147,-0.39197473,-0.63343311,0.54475324,0.97491478
3.56000000,0.27668245,0.77767228,-0.22960922,-0.47554029,0.84738320,0.40012139,0.04636802,-0.63077452,-0.95122195,0.30736147,-0.39197473,-0.63343311,0.54475324,0.97491478
3.58000000,0.27668245,0.77767228,-0.22960922,-0.47554029,0.84738320,0.40012139,0.04636802,-0.63077452,-0.95122195,0.30736147,-0.39197473,-0.63343311,0.54475324,0.97491478
3.60000000,0.27668245,0.77767228,-0.22960922,-0.47554029,0.84738320,0.40012139,0.04636802,-0.63077452,-0.95122195,0.30736147,-0.39197473,-0.63343311,0.54475324,0.97491478
3.62000000,0.27668245,0.77767228,-0.22960922,-0.47554029,0.84738320,0.40012139,0.04636802,-0.63077452,-0.95122195,0.30736147,-0.39197473,-0.63343311,0.54475324,0.97491478
3.64000000,0.27668245,0.77767228,-0.22960922,-0.47554029,0.84738320,0.40012139,0.04636802,-0.63077452,-0.95122195,0.30736147,-0.39197473,-0.63343311,0.54475324,0.97491478
3.66000000,0.27668245,0.77767228,-0.22960922,-0.47554029,0.84738320,0.40012139,0.04636802,-0.63077452,-0.95122195,0.30736147,-0.39197473,-0.63343311,0.54475324,0.97491478
3.68000000,0.27668245,0.77767228,-0.22960922,-0.47554029,0.84738320,0.40012139,0.04636802,-0.63077452,-0.95122195,0.30736147,-0.39197473,-0.63343311,0.54475324,0.97491478
3.70000000,0.27668245,0.77767228,-0.22960922,-0.47554029,0.84738320,0.40012139,0.04636802,-0.63077452,-0.95122195,0.30736147,-0.39197473,-0.63343311,0.54475324,0.97491478
3.72000000,0.27668245,0.77767228,-0.22960922,-0.47554029,0.84738320,0.40012139,0.04636802,-0.63077452,-0.95122195,0.30736147,-0.39197473,-0.63343311,0.54475324,0.97491478
3.74000000,0.27668245,0.77767228,-0.22960922,-0.47554029,0.84738320,0.40012139,0.04636802,-0.63077452,-0.95122195,0.30736147,-0.39197473,-0.63343311,0.54475324,0.97491478
3.76000000,0.27668245,0.77767228,-0.22960922,-0.47554029,0.84738320,0.40012139,0.04636802,-0.63077452,-0.95122195,0.30736147,-0.39197473,-0.63343311,0.54475324,0.97491478
3.78000000,0.27668245,0.77767228,-0.22960922,-0.47554029,0.84738320,0.40012139,0.04636802,-0.63077452,-0.95122195,0.30736147,-0.39197473,-0.63343311,0.54475324,0.97491478
3.80000000,0.27668245,0.77767228,-0.22960922,-0.47554029,0.84738320,0.40012139,0.04636802,-0.63077452,-0.95122195,0.30736147,-0.39197473,-0.63343311,0.54475324,0.97491478
3.82000000,0.27668245,0.77767228,-0.22960922,-0.47554029,0.84738320,0.40012139,0.04636802,-0.63077452,-0.95122195,0.30736147,-0.39197473,-0.63343311,0.54475324,0.97491478
3.84000000,0.27668245,0.77767228,-0.22960922,-0.47554029,0.84738320,0.40012139,0.04636802,-0.63077452,-0.95122195,0.30736147,-0.39197473,-0.63343311,0.54475324,0.97491478
3.86000000,0.27668245,0.77767228,-0.22960922,-0.47554029,0.84738320,0.40012139,0.04636802,-0.63077452,-0.95122195,0.30736147,-0.39197473,-0.63343311,0.54475324,0.97491478
3.88000000,0.27668245,0.77767228,-0.22960922,-0.47554029,0.84738320,0.40012139,0.04636802,-0.63077452,-0.95122195,0.30736147,-0.39197473,-0.63343311,0.54475324,0.97491478
3.90000000,0.27668245,0.77767228,-0.22960922,-0.47554029,0.84738320,0.40012139,0.04636802,-0.63077452,-0.95122195,0.30736147,-0.39197473,-0.63343311,0.54475324,0.97491478
3.92000000,0.27668245,0.77767228,-0.22960922,-0.47554029,0.84738320,0.40012139,0.04636802,-0.63077452,-0.95122195,0.30736147,-0.39197473,-0.63343311,0.54475324,0.97491478
3.94000000,0.27668245,0.77767228,-0.22960922,-0.47554029,0.84738320,0.40012139,0.04636802,-0.63077452,-0.95122195,0.30736147,-0.39197473,-0.63343311,0.54475324,0.97491478
3.96000000,0.27668245,0.77767228,-0.22960922,-0.47554029,0.84738320,0.40012139,0.04636802,-0.63077452,-0.95122195,0.30736147,-0.39197473,-0.63343311,0.54475324,0.97491478
3.98000000,0.27668245,0.77767228,-0.22960922,-0.47554029,0.84738320,0.40012139,0.04636802,-0.63077452,-0.95122195,0.30736147,-0.39197473,-0.63343311,0.54475324,0.97491478
4.00000000,0.27668245,0.77767228,-0.22960922,-0.47554029,0.84738320,0.40012139,0.04636802,-0.63077452,-0.95122195,0.30736147,-0.39197473,-0.63343311,0.54475324,0.97491478
4.02000000,0.27668245,0.77767228,-0.22960922,-0.47554029,0.84738320,0.40012139,0.04636802,-0.63077452,-0.95122195,0.30736147,-0.39197473,-0.63343311,0.54475324,0.97491478
4.04000000,0.27668245,0.77767228,-0.22960922,-0.47554029,0.84738320,0.40012139,0.04636802,-0.63077452,-0.95122195,0.30736147,-0.39197473,-0.63343311,0.54475324,0.97491478
4.06000000,0.27668245,0.77767228,-0.22960922,-0.47554029,0.84738320,0.40012139,0.04636802,-0.63077452,-0.95122195,0.30736147,-0.39197473,-0.63343311,0.54475324,0.97491478
4.08000000,0.27668245,0.77767228,-0.22960922,-0.47554029,0.84738320,0.40012139,0.04636802,-0.63077452,-0.95122195,0.30736147,-0.39197473,-0.63343311,0.54475324,0.97491478
4.10000000,0.27668245,0.77767228,-0.22960922,-0.47554029,0.84738320,0.40012139,0.04636802,-0.63077452,-0.95122195,0.30736147,-0.39197473,-0.63343311,0.54475324,0.97491478
4.12000000,0.27668245,0.77767228,-0.22960922,-0.47554029,0.84738320,0.40012139,0.04636802,-0.63077452,-0.95122195,0.30736147,-0.39197473,-0.63343311,0.54475324,0.97491478
4.14000000,0.27668245,0.77767228,-0.22960922,-0.47554029,0.84738320,0.40012139,0.04636802,-0.63077452,-0.95122195,0.30736147,-0.39197473,-0.63343311,0.54475324,0.97491478
4.16000000,0.27668245,0.77767228,-0.22960922,-0.47554029,0.84738320,0.40012139,0.04636802,-0.63077452,-0.95122195,0.30736147,-0.39197473,-0.63343311,0.54475324,0.97491478
4.18000000,0.27668245,0.77767228,-0.22960922,-0.47554029,0.84738320,0.40012139,0.04636802,-0.63077452,-0.95122195,0.30736147,-0.39197473,-0.63343311,0.54475324,0.97491478
4.20000000,0.27668245,0.77767228,-0.22960922,-0.47554029,0.84738320,0.40012139,0.04636802,-0.63077452,-0.95122195,0.30736147,-0.39197473,-0.63343311,0.54475324,0.97491478
4.22000000,0.27668245,0.77767228,-0.22960922,-0.47554029,0.84738320,0.40012139,0.04636802,-0.63077452,-0.95122195,0.30736147,-0.39197473,-0.63343311,0.54475324,0.97491478
4.24000000,0.27668245,0.77767228,-0.22960922,-0.47554029,0.84738320,0.40012139,0.04636802,-0.63077452,-0.95122195,0.30736147,-0.39197473,-0.63343311,0.54475324,0.97491478
4.26000000,0.27668245,0.77767228,-0.22960922,-0.47554029,0.84738320,0.40012139,0.04636802,-0.63077452,-0.95122195,0.30736147,-0.39197473,-0.63343311,0.54475324,0.97491478
4.28000000,0.27668245,0.77767228,-0.22960922,-0.47554029,0.84738320,0.40012139,0.04636802,-0.63077452,-0.95122195,0.30736147,-0.39197473,-0.63343311,0.54475324,0.97491478
4.30000000,0.27668245,0.77767228,-0.22960922,-0.47554029,0.84738320,0.40012139,0.04636802,-0.63077452,-0.95122195,0.30736147,-0.39197473,-0.63343311,0.54475324,0.97491478
4.32000000,0.27668245,0.77767228,-0.22960922,-0.47554029,0.84738320,0.40012139,0.04636802,-0.63077452,-0.95122195,0.30736147,-0.39197473,-0.63343311,0.54475324,0.97491478
4.34000000,0.27668245,0.77767228,-0.22960922,-0.47554029,0.84738320,0.40012139,0.04636802,-0.63077452,-0.95122195,0.30736147,-0.39197473,-0.63343311,0.54475324,0.97491478
4.36000000,0.27668245,0.77767228,-0.22960922,-0.47554029,0.84738320,0.40012139,0.04636802,-0.63077452,-0.95122195,0.30736147,-0.39197473,-0.63343311,0.54475324,0.97491478
4.38000000,0.27668245,0.77767228,-0.22960922,-0.47554029,0.84738320,0.40012139,0.04636802,-0.63077452,-0.95122195,0.30736147,-0.39197473,-0.63343311,0.54475324,0.97491478
4.40000000,0.27668245,0.77767228,-0.22960922,-0.47554029,0.84738320,0.40012139,0.04636802,-0.63077452,-0.95122195,0.30736147,-0.39197473,-0.63343311,0.54475324,0.97491478
4.42000000,0.27668245,0.77767228,-0.22960922,-0.47554029,0.84738320,0.40012139,0.04636802,-0.63077452,-0.95122195,0.30736147,-0.39197473,-0.63343311,0.54475324,0.97491478
4.44000000,0.27668245,0.77767228,-0.22960922,-0.47554029,0.84738320,0.40012139,0.04636802,-0.63077452,-0.95122195,0.30736147,-0.39197473,-0.63343311,0.54475324,0.97491478
4.46000000,0.27668245,0.77767228,-0.22960922,-0.47554029,0.84738320,0.40012139,0.04636802,-0.63077452,-0.95122195,0.30736147,-0.39197473,-0.63343311,0.54475324,0.97491478
4.48000000,0.27668245,0.77767228,-0.22960922,-0.47554029,0.84738320,0.40012139,0.04636802,-0.63077452,-0.95122195,0.30736147,-0.39197473,-0.63343311,0.54475324,0.97491478
4.50000000,0.27668245,0.77767228,-0.22960922,-0.47554029,0.84738320,0.40012139,0.04636802,-0.63077452,-0.95122195,0.30736147,-0.39197473,-0.63343311,0.54475324,0.97491478
4.52000000,0.27668245,0.77767228,-0.22960922,-0.47554029,0.84738320,0.40012139,0.04636802,-0.63077452,-0.95122195,0.30736147,-0.39197473,-0.63343311,0.54475324,0.97491478
4.54000000,0.27668245,0.77767228,-0.22960922,-0.47554029,0.84738320,0.40012139,0.04636802,-0.63077452,-0.95122195,0.30736147,-0.39197473,-0.63343311,0.54475324,0.97491478
4.56000000,0.27668245,0.77767228,-0.22960922,-0.47554029,0.84738320,0.40012139,0.04636802,-0.63077452,-0.95122195,0.30736147,-0.39197473,-0.63343311,0.54475324,0.97491478
4.58000000,0.27668245,0.77767228,-0.22960922,-0.47554029,0.84738320,0.40012139,0.04636802,-0.63077452,-0.95122195,0.30736147,-0.39197473,-0.63343311,0.54475324,0.97491478
4.60000000,0.27668245,0.77767228,-0.22960922,-0.47554029,0.84738320,0.40012139,0.04636802,-0.63077452,-0.95122195,0.30736147,-0.39197473,-0.63343311,0.54475324,0.97491478
4.62000000,0.27668245,0.77767228,-0.22960922,-0.47554029,0.84738320,0.40012139,0.04636802,-0.63077452,-0.95122195,0.30736147,-0.39197473,-0.63343311,0.54475324,0.97491478
4.64000000,0.27668245,0.77767228,-0.22960922,-0.47554029,0.84738320,0.40012139,0.04636802,-0.63077452,-0.95122195,0.30736147,-0.39197473,-0.63343311,0.54475324,0.97491478
4.66000000,0.27668245,0.77767228,-0.22960922,-0.47554029,0.84738320,0.40012139,0.04636802,-0.63077452,-0.95122195,0.30736147,-0.39197473,-0.63343311,0.54475324,0.97491478
4.68000000,0.27668245,0.77767228,-0.22960922,-0.47554029,0.84738320,0.40012139,0.04636802,-0.63077452,-0.95122195,0.30736147,-0.39197473,-0.63343311,0.54475324,0.97491478
4.70000000,0.27668245,0.77767228,-0.22960922,-0.47554029,0.84738320,0.40012139,0.04636802,-0.63077452,-0.95122195,0.30736147,-0.39197473,-0.63343311,0.54475324,0.97491478
4.72000000,0.27668245,0.77767228,-0.22960922,-0.47554029,0.84738320,0.40012139,0.04636802,-0.63077452,-0.95122195,0.30736147,-0.39197473,-0.63343311,0.54475324,0.97491478
4.74000000,0.27668245,0.77767228,-0.22960922,-0.47554029,0.84738320,0.40012139,0.04636802,-0.63077452,-0.95122195,0.30736147,-0.39197473,-0.63343311,0.54475324,0.97491478
4.76000000,0.27668245,0.77767228,-0.22960922,-0.47554029,0.84738320,0.40012139,0.04636802,-0.63077452,-0.95122195,0.30736147,-0.39197473,-0.63343311,0.54475324,0.97491478
4.78000000,0.27668245,0.77767228,-0.22960922,-0.47554029,0.84738320,0.40012139,0.04636802,-0.63077452,-0.95122195,0.30736147,-0.39197473,-0.63343311,0.54475324,0.97491478
4.80000000,0.27668245,0.77767228,-0.22960922,-0.47554029,0.84738320,0.40012139,0.04636802,-0.63077452,-0.95122195,0.30736147,-0.39197473,-0.63343311,0.54475324,0.97491478
4.82000000,0.27668245,0.77767228,-0.22960922,-0.47554029,0.84738320,0.40012139,0.04636802,-0.63077452,-0.95122195,0.30736147,-0.39197473,-0.63343311,0.54475324,0.97491478
4.84000000,0.27668245,0.77767228,-0.22960922,-0.47554029,0.84738320,0.40012139,0.04636802,-0.63077452,-0.95122195,0.30736147,-0.39197473,-0.63343311,0.54475324,0.97491478
4.86000000,0.27668245,0.77767228,-0.22960922,-0.47554029,0.84738320,0.40012139,0.04636802,-0.63077452,-0.95122195,0.30736147,-0.39197473,-0.63343311,0.54475324,0.97491478
4.88000000,0.27668245,0.77767228,-0.22960922,-0.47554029,0.84738320,0.40012139,0.04636802,-0.63077452,-0.95122195,0.30736147,-0.39197473,-0.63343311,0.54475324,0.97491478
4.90000000,0.27668245,0.77767228,-0.22960922,-0.47554029,0.84738320,0.40012139,0.04636802,-0.63077452,-0.95122195,0.30736147,-0.39197473,-0.63343311,0.54475324,0.97491478
4.92000000,0.27668245,0.77767228,-0.22960922,-0.47554029,0.84738320,0.40012139,0.04636802,-0.63077452,-0.95122195,0.30736147,-0.39197473,-0.63343311,0.54475324,0.97491478
4.94000000,0.27668245,0.77767228,-0.22960922,-0.47554029,0.84738320,0.40012139,0.04636802,-0.63077452,-0.95122195,0.30736147,-0.39197473,-0.63343311,0.54475324,0.97491478
4.96000000,0.27668245,0.77767228,-0.22960922,-0.47554029,0.84738320,0.40012139,0.04636802,-0.63077452,-0.95122195,0.30736147,-0.39197473,-0.63343311,0.54475324,0.97491478
4.98000000,0.27668245,0.77767228,-0.22960922,-0.47554029,0.84738320,0.40012139,0.04636802,-0.63077452,-0.95122195,0.30736147,-0.39197473,-0.63343311,0.54475324,0.97491478
5.00000000,0.27668245,0.77767228,-0.22960922,-0.47554029,0.84738320,0.40012139,0.04636802,-0.63077452,-0.95122195,0.30736147,-0.39197473,-0.63343311,0.54475324,0.97491478
5.02000000,0.27668245,0.77767228,-0.22960922,-0.47554029,0.84738320,0.40012139,0.04636802,-0.63077452,-0.95122195,0.30736147,-0.39197473,-0.63343311,0.54475324,0.97491478
5.04000000,0.27668245,0.77767228,-0.22960922,-0.47554029,0.84738320,0.40012139,0.04636802,-0.63077452,-0.95122195,0.30736147,-0.39197473,-0.63343311,0.54475324,0.97491478
5.06000000,0.27668245,0.77767228,-0.22960922,-0.47554029,0.84738320,0.40012139,0.04636802,-0.63077452,-0.95122195,0.30736147,-0.39197473,-0.63343311,0.54475324,0.97491478
5.08000000,0.27668245,0.77767228,-0.22960922,-0.47554029,0.84738320,0.40012139,0.04636802,-0.63077452,-0.95122195,0.30736147,-0.39197473,-0.63343311,0.54475324,0.97491478
5.10000000,0.27668245,0.77767228,-0.22960922,-0.47554029,0.84738320,0.40012139,0.04636802,-0.63077452,-0.95122195,0.30736147,-0.39197473,-0.63343311,0.54475324,0.97491478
5.12000000,0.27668245,0.77767228,-0.22960922,-0.47554029,0.84738320,0.40012139,0.04636802,-0.63077452,-0.95122195,0.30736147,-0.39197473,-0.63343311,0.54475324,0.97491478
5.14000000,0.27668245,0.77767228,-0.22960922,-0.47554029,0.84738320,0.40012139,0.04636802,-0.63077452,-0.95122195,0.30736147,-0.39197473,-0.63343311,0.54475324,0.97491478
5.16000000,0.27668245,0.77767228,-0.22960922,-0.47554029,0.84738320,0.40012139,0.04636802,-0.63077452,-0.95122195,0.30736147,-0.39197473,-0.63343311,0.54475324,0.97491478
5.18000000,0.27668245,0.77767228,-0.22960922,-0.47554029,0.84738320,0.40012139,0.04636802,-0.63077452,-0.95122195,0.30736147,-0.39197473,-0.63343311,0.54475324,0.97491478
5.20000000,0.27668245,0.77767228,-0.22960922,-0.47554029,0.84738320,0.40012139,0.04636802,-0.63077452,-0.95122195,0.30736147,-0.39197473,-0.63343311,0.54475324,0.97491478
5.22000000,0.27668245,0.77767228,-0.22960922,-0.47554029,0.84738320,0.40012139,0.04636802,-0.63077452,-0.95122195,0.30736147,-0.39197473,-0.63343311,0.54475324,0.97491478
5.24000000,0.27668245,0.77767228,-0.22960922,-0.47554029,0.84738320,0.40012139,0.04636802,-0.63077452,-0.95122195,0.30736147,-0.39197473,-0.63343311,0.54475324,0.97491478
5.26000000,0.27668245,0.77767228,-0.22960922,-0.47554029,0.84738320,0.40012139,0.04636802,-0.63077452,-0.95122195,0.30736147,-0.39197473,-0.63343311,0.54475324,0.97491478
5.28000000,0.27668245,0.77767228,-0.22960922,-0.47554029,0.84738320,0.40012139,0.04636802,-0.63077452,-0.95122195,0.30736147,-0.39197473,-0.63343311,0.54475324,0.97491478
5.30000000,0.27668245,0.77767228,-0.22960922,-0.47554029,0.84738320,0.40012139,0.04636802,-0.63077452,-0.95122195,0.30736147,-0.39197473,-0.63343311,0.54475324,0.97491478
5.32000000,0.27668245,0.77767228,-0.22960922,-0.47554029,0.84738320,0.40012139,0.04636802,-0.63077452,-0.95122195,0.30736147,-0.39197473,-0.63343311,0.54475324,0.97491478
5.34000000,0.27668245,0.77767228,-0.22960922,-0.47554029,0.84738320,0.40012139,0.04636802,-0.63077452,-0.95122195,0.30736147,-0.39197473,-0.63343311,0.54475324,0.97491478
5.36000000,0.27668245,0.77767228,-0.22960922,-0.47554029,0.84738320,0.40012139,0.04636802,-0.63077452,-0.95122195,0.30736147,-0.39197473,-0.63343311,0.54475324,0.97491478
5.38000000,0.27668245,0.77767228,-0.22960922,-0.47554029,0.84738320,0.40012139,0.04636802,-0.63077452,-0.95122195,0.30736147,-0.39197473,-0.63343311,0.54475324,0.97491478
5.40000000,0.27668245,0.77767228,-0.22960922,-0.47554029,0.84738320,0.40012139,0.04636802,-0.63077452,-0.95122195,0.30736147,-0.39197473,-0.63343311,0.54475324,0.97491478
5.42000000,0.27668245,0.77767228,-0.22960922,-0.47554029,0.84738320,0.40012139,0.04636802,-0.63077452,-0.95122195,0.30736147,-0.39197473,-0.63343311,0.54475324,0.97491478
5.44000000,0.27668245,0.77767228,-0.22960922,-0.47554029,0.84738320,0.40012139,0.04636802,-0.63077452,-0.95122195,0.30736147,-0.39197473,-0.63343311,0.54475324,0.97491478
5.46000000,0.27668245,0.77767228,-0.22960922,-0.47554029,0.84738320,0.40012139,0.04636802,-0.63077452,-0.95122195,0.30736147,-0.39197473,-0.63343311,0.54475324,0.97491478
5.48000000,0.27668245,0.77767228,-0.22960922,-0.47554029,0.84738320,0.40012139,0.04636802,-0.63077452,-0.95122195,0.30736147,-0.39197473,-0.63343311,0.54475324,0.97491478
5.50000000,0.27668245,0.77767228,-0.22960922,-0.47554029,0.84738320,0.40012139,0.04636802,-0.63077452,-0.95122195,0.30736147,-0.39197473,-0.63343311,0.54475324,0.97491478
5.52000000,0.27668245,0.77767228,-0.22960922,-0.47554029,0.84738320,0.40012139,0.04636802,-0.63077452,-0.95122195,0.30736147,-0.39197473,-0.63343311,0.54475324,0.97491478
5.54000000,0.27668245,0.77767228,-0.22960922,-0.47554029,0.84738320,0.40012139,0.04636802,-0.63077452,-0.95122195,0.30736147,-0.39197473,-0.63343311,0.54475324,0.97491478
5.56000000,0.27668245,0.77767228,-0.22960922,-0.47554029,0.84738320,0.40012139,0.04636802,-0.63077452,-0.95122195,0.30736147,-0.39197473,-0.63343311,0.54475324,0.97491478
5.58000000,0.27668245,0.77767228,-0.22960922,-0.47554029,0.84738320,0.40012139,0.04636802,-0.63077452,-0.95122195,0.30736147,-0.39197473,-0.63343311,0.54475324,0.97491478
5.60000000,0.27668245,0.77767228,-0.22960922,-0.47554029,0.84738320,0.40012139,0.04636802,-0.63077452,-0.95122195,0.30736147,-0.39197473,-0.63343311,0.54475324,0.97491478
5.62000000,0.27668245,0.77767228,-0.22960922,-0.47554029,0.84738320,0.40012139,0.04636802,-0.63077452,-0.95122195,0.30736147,-0.39197473,-0.63343311,0.54475324,0.97491478
5.64000000,0.27668245,0.77767228,-0.22960922,-0.47554029,0.84738320,0.40012139,0.04636802,-0.63077452,-0.95122195,0.30736147,-0.39197473,-0.63343311,0.54475324,0.97491478
5.66000000,0.27668245,0.77767228,-0.22960922,-0.47554029,0.84738320,0.40012139,0.04636802,-0.63077452,-0.95122195,0.30736147,-0.39197473,-0.63343311,0.54475324,0.97491478
5.68000000,0.27668245,0.77767228,-0.22960922,-0.47554029,0.84738320,0.40012139,0.04636802,-0.63077452,-0.95122195,0.30736147,-0.39197473,-0.63343311,0.54475324,0.97491478
5.70000000,0.27668245,0.77767228,-0.22960922,-0.47554029,0.84738320,0.40012139,0.04636802,-0.63077452,-0.95122195,0.30736147,-0.39197473,-0.63343311,0.54475324,0.97491478
5.72000000,0.27668245,0.77767228,-0.22960922,-0.47554029,0.84738320,0.40012139,0.04636802,-0.63077452,-0.95122195,0.30736147,-0.39197473,-0.63343311,0.54475324,0.97491478
5.74000000,0.27668245,0.77767228,-0.22960922,-0.47554029,0.84738320,0.40012139,0.04636802,-0.63077452,-0.95122195,0.30736147,-0.39197473,-0.63343311,0.54475324,0.97491478
5.76000000,0.27668245,0.77767228,-0.22960922,-0.47554029,0.84738320,0.40012139,0.04636802,-0.63077452,-0.95122195,0.30736147,-0.39197473,-0.63343311,0.54475324,0.97491478
5.78000000,0.27668245,0.77767228,-0.22960922,-0.47554029,0.84738320,0.40012139,0.04636802,-0.63077452,-0.95122195,0.30736147,-0.39197473,-0.63343311,0.54475324,0.97491478
5.80000000,0.27668245,0.77767228,-0.22960922,-0.47554029,0.84738320,0.40012139,0.04636802,-0.63077452,-0.95122195,0.30736147,-0.39197473,-0.63343311,0.54475324,0.97491478
5.82000000,0.27668245,0.77767228,-0.22960922,-0.47554029,0.84738320,0.40012139,0.04636802,-0.63077452,-0.95122195,0.30736147,-0.39197473,-0.63343311,0.54475324,0.97491478
5.84000000,0.27668245,0.77767228,-0.22960922,-0.47554029,0.84738320,0.40012139,0.04636802,-0.63077452,-0.95122195,0.30736147,-0.39197473,-0.63343311,0.54475324,0.97491478
5.86000000,0.27668245,0.77767228,-0.22960922,-0.47554029,0.84738320,0.40012139,0.04636802,-0.63077452,-0.95122195,0.30736147,-0.39197473,-0.63343311,0.54475324,0.97491478
5.88000000,0.27668245,0.77767228,-0.22960922,-0.47554029,0.84738320,0.40012139,0.04636802,-0.63077452,-0.95122195,0.30736147,-0.39197473,-0.63343311,0.54475324,0.97491478
5.90000000,0.27668245,0.77767228,-0.22960922,-0.47554029,0.84738320,0.40012139,0.04636802,-0.63077452,-0.95122195,0.30736147,-0.39197473,-0.63343311,0.54475324,0.97491478
5.92000000,0.27668245,0.77767228,-0.22960922,-0.47554029,0.84738320,0.40012139,0.04636802,-0.63077452,-0.95122195,0.30736147,-0.39197473,-0.63343311,0.54475324,0.97491478
5.94000000,0.27668245,0.77767228,-0.22960922,-0.47554029,0.84738320,0.40012139,0.04636802,-0.63077452,-0.95122195,0.30736147,-0.39197473,-0.63343311,0.54475324,0.97491478
5.96000000,0.27668245,0.77767228,-0.22960922,-0.47554029,0.84738320,0.40012139,0.04636802,-0.63077452,-0.95122195,0.30736147,-0.39197473,-0.63343311,0.54475324,0.97491478
5.98000000,0.27668245,0.77767228,-0.22960922,-0.47554029,0.84738320,0.40012139,0.04636802,-0.63077452,-0.95122195,0.30736147,-0.39197473,-0.63343311,0.54475324,0.97491478
6.00000000,0.27668245,0.77767228,-0.22960922,-0.47554029,0.84738320,0.40012139,0.04636802,-0.63077452,-0.95122195,0.30736147,-0.39197473,-0.63343311,0.54475324,0.97491478
6.02000000,0.27668245,0.77767228,-0.22960922,-0.47554029,0.84738320,0.40012139,0.04636802,-0.63077452,-0.95122195,0.30736147,-0.39197473,-0.63343311,0.54475324,0.97491478
6.04000000,0.27668245,0.77767228,-0.22960922,-0.47554029,0.84738320,0.40012139,0.04636802,-0.63077452,-0.95122195,0.30736147,-0.39197473,-0.63343311,0.54475324,0.97491478
6.06000000,0.27668245,0.77767228,-0.22960922,-0.47554029,0.84738320,0.40012139,0.04636802,-0.63077452,-0.95122195,0.30736147,-0.39197473,-0.63343311,0.54475324,0.97491478
6.08000000,0.27668245,0.77767228,-0.22960922,-0.47554029,0.84738320,0.40012139,0.04636802,-0.63077452,-0.95122195,0.30736147,-0.39197473,-0.63343311,0.54475324,0.97491478
6.10000000,0.27668245,0.77767228,-0.22960922,-0.47554029,0.84738320,0.40012139,0.04636802,-0.63077452,-0.95122195,0.30736147,-0.39197473,-0.63343311,0.54475324,0.97491478
6.12000000,0.27668245,0.77767228,-0.22960922,-0.47554029,0.84738320,0.40012139,0.04636802,-0.63077452,-0.95122195,0.30736147,-0.39197473,-0.63343311,0.54475324,0.97491478
6.14000000,0.27668245,0.77767228,-0.22960922,-0.47554029,0.84738320,0.40012139,0.04636802,-0.63077452,-0.95122195,0.30736147,-0.39197473,-0.63343311,0.54475324,0.97491478
6.16000000,0.27668245,0.77767228,-0.22960922,-0.47554029,0.84738320,0.40012139,0.04636802,-0.63077452,-0.95122195,0.30736147,-0.39197473,-0.63343311,0.54475324,0.97491478
6.18000000,0.27668245,0.77767228,-0.22960922,-0.47554029,0.84738320,0.40012139,0.04636802,-0.63077452,-0.95122195,0.30736147,-0.39197473,-0.63343311,0.54475324,0.97491478
6.20000000,0.27668245,0.77767228,-0.22960922,-0.47554029,0.84738320,0.40012139,0.04636802,-0.63077452,-0.95122195,0.30736147,-0.39197473,-0.63343311,0.54475324,0.97491478
6.22000000,0.27668245,0.77767228,-0.22960922,-0.47554029,0.84738320,0.40012139,0.04636802,-0.63077452,-0.95122195,0.30736147,-0.39197473,-0.63343311,0.54475324,0.97491478
6.24000000,0.27668245,0.77767228,-0.22960922,-0.47554029,0.84738320,0.40012139,0.04636802,-0.63077452,-0.95122195,0.30736147,-0.39197473,-0.63343311,0.54475324,0.97491478
6.26000000,0.27668245,0.77767228,-0.22960922,-0.47554029,0.84738320,0.40012139,0.04636802,-0.63077452,-0.95122195,0.30736147,-0.39197473,-0.63343311,0.54475324,0.97491478
6.28000000,0.27668245,0.77767228,-0.22960922,-0.47554029,0.84738320,0.40012139,0.04636802,-0.63077452,-0.95122195,0.30736147,-0.39197473,-0.63343311,0.54475324,0.97491478
6.30000000,0.27668245,0.77767228,-0.22960922,-0.47554029,0.84738320,0.40012139,0.04636802,-0.63077452,-0.95122195,0.30736147,-0.39197473,-0.63343311,0.54475324,0.97491478
6.32000000,0.27668245,0.77767228,-0.22960922,-0.47554029,0.84738320,0.40012139,0.04636802,-0.63077452,-0.95122195,0.30736147,-0.39197473,-0.63343311,0.54475324,0.97491478
6.34000000,0.27668245,0.77767228,-0.22960922,-0.47554029,0.84738320,0.40012139,0.04636802,-0.63077452,-0.95122195,0.30736147,-0.39197473,-0.63343311,0.54475324,0.97491478
6.36000000,0.27668245,0.77767228,-0.22960922,-0.47554029,0.84738320,0.40012139,0.04636802,-0.63077452,-0.95122195,0.30736147,-0.39197473,-0.63343311,0.54475324,0.97491478
6.38000000,0.27668245,0.77767228,-0.22960922,-0.47554029,0.84738320,0.40012139,0.04636802,-0.63077452,-0.95122195,0.30736147,-0.39197473,-0.63343311,0.54475324,0.97491478
6.40000000,0.27668245,0.77767228,-0.22960922,-0.47554029,0.84738320,0.40012139,0.04636802,-0.63077452,-0.95122195,0.30736147,-0.39197473,-0.63343311,0.54475324,0.97491478
6.42000000,0.27668245,0.77767228,-0.22960922,-0.47554029,0.84738320,0.40012139,0.04636802,-0.63077452,-0.95122195,0.30736147,-0.39197473,-0.63343311,0.54475324,0.97491478
6.44000000,0.27668245,0.77767228,-0.22960922,-0.47554029,0.84738320,0.40012139,0.04636802,-0.63077452,-0.95122195,0.30736147,-0.39197473,-0.63343311,0.54475324,0.97491478
6.46000000,0.27668245,0.77767228,-0.22960922,-0.47554029,0.84738320,0.40012139,0.04636802,-0.63077452,-0.95122195,0.30736147,-0.39197473,-0.63343311,0.54475324,0.97491478
6.48000000,0.27668245,0.77767228,-0.22960922,-0.47554029,0.84738320,0.40012139,0.04636802,-0.63077452,-0.95122195,0.30736147,-0.39197473,-0.63343311,0.54475324,0.97491478
6.50000000,0.27668245,0.77767228,-0.22960922,-0.47554029,0.84738320,0.40012139,0.04636802,-0.63077452,-0.95122195,0.30736147,-0.39197473,-0.63343311,0.54475324,0.97491478
6.52000000,0.27668245,0.77767228,-0.22960922,-0.47554029,0.84738320,0.40012139,0.04636802,-0.63077452,-0.95122195,0.30736147,-0.39197473,-0.63343311,0.54475324,0.97491478
6.54000000,0.27668245,0.77767228,-0.22960922,-0.47554029,0.84738320,0.40012139,0.04636802,-0.63077452,-0.95122195,0.30736147,-0.39197473,-0.63343311,0.54475324,0.97491478
6.56000000,0.27668245,0.77767228,-0.22960922,-0.47554029,0.84738320,0.40012139,0.04636802,-0.63077452,-0.95122195,0.30736147,-0.39197473,-0.63343311,0.54475324,0.97491478
6.58000000,0.27668245,0.77767228,-0.22960922,-0.47554029,0.84738320,0.40012139,0.04636802,-0.63077452,-0.95122195,0.30736147,-0.39197473,-0.63343311,0.54475324,0.97491478
6.60000000,0.27668245,0.77767228,-0.22960922,-0.47554029,0.84738320,0.40012139,0.04636802,-0.63077452,-0.95122195,0.30736147,-0.39197473,-0.63343311,0.54475324,0.97491478
6.62000000,0.27668245,0.77767228,-0.22960922,-0.47554029,0.84738320,0.40012139,0.04636802,-0.63077452,-0.95122195,0.30736147,-0.39197473,-0.63343311,0.54475324,0.97491478
6.64000000,0.27668245,0.77767228,-0.22960922,-0.47554029,0.84738320,0.40012139,0.04636802,-0.63077452,-0.95122195,0.30736147,-0.39197473,-0.63343311,0.54475324,0.97491478
6.66000000,0.27668245,0.77767228,-0.22960922,-0.47554029,0.84738320,0.40012139,0.04636802,-0.63077452,-0.95122195,0.30736147,-0.39197473,-0.63343311,0.54475324,0.97491478
6.68000000,0.27668245,0.77767228,-0.22960922,-0.47554029,0.84738320,0.40012139,0.04636802,-0.63077452,-0.95122195,0.30736147,-0.39197473,-0.63343311,0.54475324,0.97491478
6.70000000,0.27668245,0.77767228,-0.22960922,-0.47554029,0.84738320,0.40012139,0.04636802,-0.63077452,-0.95122195,0.30736147,-0.39197473,-0.63343311,0.54475324,0.97491478
6.72000000,0.27668245,0.77767228,-0.22960922,-0.47554029,0.84738320,0.40012139,0.04636802,-0.63077452,-0.95122195,0.30736147,-0.39197473,-0.63343311,0.54475324,0.97491478
6.74000000,0.27668245,0.77767228,-0.22960922,-0.47554029,0.84738320,0.40012139,0.04636802,-0.63077452,-0.95122195,0.30736147,-0.39197473,-0.63343311,0.54475324,0.97491478
6.76000000,0.27668245,0.77767228,-0.22960922,-0.47554029,0.84738320,0.40012139,0.04636802,-0.63077452,-0.95122195,0.30736147,-0.39197473,-0.63343311,0.54475324,0.97491478
6.78000000,0.27668245,0.77767228,-0.22960922,-0.47554029,0.84738320,0.40012139,0.04636802,-0.63077452,-0.95122195,0.30736147,-0.39197473,-0.63343311,0.54475324,0.97491478
6.80000000,0.27668245,0.77767228,-0.22960922,-0.47554029,0.84738320,0.40012139,0.04636802,-0.63077452,-0.95122195,0.30736147,-0.39197473,-0.63343311,0.54475324,0.97491478
6.82000000,0.27668245,0.77767228,-0.22960922,-0.47554029,0.84738320,0.40012139,0.04636802,-0.63077452,-0.95122195,0.30736147,-0.39197473,-0.63343311,0.54475324,0.97491478
6.84000000,0.27668245,0.77767228,-0.22960922,-0.47554029,0.84738320,0.40012139,0.04636802,-0.63077452,-0.95122195,0.30736147,-0.39197473,-0.63343311,0.54475324,0.97491478
6.86000000,0.27668245,0.77767228,-0.22960922,-0.47554029,0.84738320,0.40012139,0.04636802,-0.63077452,-0.95122195,0.30736147,-0.39197473,-0.63343311,0.54475324,0.97491478
6.88000000,0.27668245,0.77767228,-0.22960922,-0.47554029,0.84738320,0.40012139,0.04636802,-0.63077452,-0.95122195,0.30736147,-0.39197473,-0.63343311,0.54475324,0.97491478
6.90000000,0.27668245,0.77767228,-0.22960922,-0.47554029,0.84738320,0.40012139,0.04636802,-0.63077452,-0.95122195,0.30736147,-0.39197473,-0.63343311,0.54475324,0.97491478
6.92000000,0.27668245,0.77767228,-0.22960922,-0.47554029,0.84738320,0.40012139,0.04636802,-0.63077452,-0.95122195,0.30736147,-0.39197473,-0.63343311,0.54475324,0.97491478
6.94000000,0.27668245,0.77767228,-0.22960922,-0.47554029,0.84738320,0.40012139,0.04636802,-0.63077452,-0.95122195,0.30736147,-0.39197473,-0.63343311,0.54475324,0.97491478
6.96000000,0.27668245,0.77767228,-0.22960922,-0.47554029,0.84738320,0.40012139,0.04636802,-0.63077452,-0.95122195,0.30736147,-0.39197473,-0.63343311,0.54475324,0.97491478
6.98000000,0.27668245,0.77767228,-0.22960922,-0.47554029,0.84738320,0.40012139,0.04636802,-0.63077452,-0.95122195,0.30736147,-0.39197473,-0.63343311,0.54475324,0.97491478
7.00000000,0.27668245,0.77767228,-0.22960922,-0.47554029,0.84738320,0.40012139,0.04636802,-0.63077452,-0.95122195,0.30736147,-0.39197473,-0.63343311,0.54475324,0.97491478
7.02000000,0.27668245,0.77767228,-0.22960922,-0.47554029,0.84738320,0.40012139,0.04636802,-0.63077452,-0.95122195,0.30736147,-0.39197473,-0.63343311,0.54475324,0.97491478
7.04000000,0.27668245,0.77767228,-0.22960922,-0.47554029,0.84738320,0.40012139,0.04636802,-0.63077452,-0.95122195,0.30736147,-0.39197473,-0.63343311,0.54475324,0.97491478
7.06000000,0.27668245,0.77767228,-0.22960922,-0.47554029,0.84738320,0.40012139,0.04636802,-0.63077452,-0.95122195,0.30736147,-0.39197473,-0.63343311,0.54475324,0.97491478
7.08000000,0.27668245,0.77767228,-0.22960922,-0.47554029,0.84738320,0.40012139,0.04636802,-0.63077452,-0.95122195,0.30736147,-0.39197473,-0.63343311,0.54475324,0.97491478
7.10000000,0.27668245,0.77767228,-0.22960922,-0.47554029,0.84738320,0.40012139,0.04636802,-0.63077452,-0.95122195,0.30736147,-0.39197473,-0.63343311,0.54475324,0.97491478
7.12000000,0.27668245,0.77767228,-0.22960922,-0.47554029,0.84738320,0.40012139,0.04636802,-0.63077452,-0.95122195,0.30736147,-0.39197473,-0.63343311,0.54475324,0.97491478
7.14000000,0.27668245,0.77767228,-0.22960922,-0.47554029,0.84738320,0.40012139,0.04636802,-0.63077452,-0.95122195,0.30736147,-0.39197473,-0.63343311,0.54475324,0.97491478
7.16000000,0.27668245,0.77767228,-0.22960922,-0.47554029,0.84738320,0.40012139,0.04636802,-0.63077452,-0.95122195,0.30736147,-0.39197473,-0.63343311,0.54475324,0.97491478
7.18000000,0.27668245,0.77767228,-0.22960922,-0.47554029,0.84738320,0.40012139,0.04636802,-0.63077452,-0.95122195,0.30736147,-0.39197473,-0.63343311,0.54475324,0.97491478
7.20000000,0.27668245,0.77767228,-0.22960922,-0.47554029,0.84738320,0.40012139,0.04636802,-0.63077452,-0.95122195,0.30736147,-0.39197473,-0.63343311,0.54475324,0.97491478
7.22000000,0.27668245,0.77767228,-0.22960922,-0.47554029,0.84738320,0.40012139,0.04636802,-0.63077452,-0.95122195,0.30736147,-0.39197473,-0.63343311,0.54475324,0.97491478
7.24000000,0.27668245,0.77767228,-0.22960922,-0.47554029,0.84738320,0.40012139,0.04636802,-0.63077452,-0.95122195,0.30736147,-0.39197473,-0.63343311,0.54475324,0.97491478
7.26000000,0.27668245,0.77767228,-0.22960922,-0.47554029,0.84738320,0.40012139,0.04636802,-0.63077452,-0.95122195,0.30736147,-0.39197473,-0.63343311,0.54475324,0.97491478
7.28000000,0.27668245,0.77767228,-0.22960922,-0.47554029,0.84738320,0.40012139,0.04636802,-0.63077452,-0.95122195,0.30736147,-0.39197473,-0.63343311,0.54475324,0.97491478
7.30000000,0.27668245,0.77767228,-0.22960922,-0.47554029,0.84738320,0.40012139,0.04636802,-0.63077452,-0.95122195,0.30736147,-0.39197473,-0.63343311,0.54475324,0.97491478
7.32000000,0.27668245,0.77767228,-0.22960922,-0.47554029,0.84738320,0.40012139,0.04636802,-0.63077452,-0.95122195,0.30736147,-0.39197473,-0.63343311,0.54475324,0.97491478
7.34000000,0.27668245,0.77767228,-0.22960922,-0.47554029,0.84738320,0.40012139,0.04636802,-0.63077452,-0.95122195,0.30736147,-0.39197473,-0.63343311,0.54475324,0.97491478
7.36000000,0.27668245,0.77767228,-0.22960922,-0.47554029,0.84738320,0.40012139,0.04636802,-0.63077452,-0.95122195,0.30736147,-0.39197473,-0.63343311,0.54475324,0.97491478
7.38000000,0.27668245,0.77767228,-0.22960922,-0.47554029,0.84738320,0.40012139,0.04636802,-0.63077452,-0.95122195,0.30736147,-0.39197473,-0.63343311,0.54475324,0.97491478
7.40000000,0.27668245,0.77767228,-0.22960922,-0.47554029,0.84738320,0.40012139,0.04636802,-0.63077452,-0.95122195,0.30736147,-0.39197473,-0.63343311,0.54475324,0.97491478
7.42000000,0.27668245,0.77767228,-0.22960922,-0.47554029,0.84738320,0.40012139,0.04636802,-0.63077452,-0.95122195,0.30736147,-0.39197473,-0.63343311,0.54475324,0.97491478
7.44000000,0.27668245,0.77767228,-0.22960922,-0.47554029,0.84738320,0.40012139,0.04636802,-0.63077452,-0.95122195,0.30736147,-0.39197473,-0.63343311,0.54475324,0.97491478
7.46000000,0.27668245,0.77767228,-0.22960922,-0.47554029,0.84738320,0.40012139,0.04636802,-0.63077452,-0.95122195,0.30736147,-0.39197473,-0.63343311,0.54475324,0.97491478
7.48000000,0.27668245,0.77767228,-0.22960922,-0.47554029,0.84738320,0.40012139,0.04636802,-0.63077452,-0.95122195,0.30736147,-0.39197473,-0.63343311,0.54475324,0.97491478
7.50000000,0.27668245,0.77767228,-0.22960922,-0.47554029,0.84738320,0.40012139,0.04636802,-0.63077452,-0.95122195,0.30736147,-0.39197473,-0.63343311,0.54475324,0.97491478
7.52000000,0.27668245,0.77767228,-0.22960922,-0.47554029,0.84738320,0.40012139,0.04636802,-0.63077452,-0.95122195,0.30736147,-0.39197473,-0.63343311,0.54475324,0.97491478
7.54000000,0.27668245,0.77767228,-0.22960922,-0.47554029,0.84738320,0.40012139,0.04636802,-0.63077452,-0.95122195,0.30736147,-0.39197473,-0.63343311,0.54475324,0.97491478
7.56000000,0.27668245,0.77767228,-0.22960922,-0.47554029,0.84738320,0.40012139,0.04636802,-0.63077452,-0.95122195,0.30736147,-0.39197473,-0.63343311,0.54475324,0.97491478
7.58000000,0.27668245,0.77767228,-0.22960922,-0.47554029,0.84738320,0.40012139,0.04636802,-0.63077452,-0.95122195,0.30736147,-0.39197473,-0.63343311,0.54475324,0.97491478
7.60000000,0.27668245,0.77767228,-0.22960922,-0.47554029,0.84738320,0.40012139,0.04636802,-0.63077452,-0.95122195,0.30736147,-0.39197473,-0.63343311,0.54475324,0.97491478
7.62000000,0.27668245,0.77767228,-0.22960922,-0.47554029,0.84738320,0.40012139,0.04636802,-0.63077452,-0.95122195,0.30736147,-0.39197473,-0.63343311,0.54475324,0.97491478
7.64000000,0.27668245,0.77767228,-0.22960922,-0.47554029,0.84738320,0.40012139,0.04636802,-0.63077452,-0.95122195,0.30736147,-0.39197473,-0.63343311,0.54475324,0.97491478
7.66000000,0.27668245,0.77767228,-0.22960922,-0.47554029,0.84738320,0.40012139,0.04636802,-0.63077452,-0.95122195,0.30736147,-0.39197473,-0.63343311,0.54475324,0.97491478
7.68000000,0.27668245,0.77767228,-0.22960922,-0.47554029,0.84738320,0.40012139,0.04636802,-0.63077452,-0.95122195,0.30736147,-0.39197473,-0.63343311,0.54475324,0.97491478
7.70000000,0.27668245,0.77767228,-0.22960922,-0.47554029,0.84738320,0.40012139,0.04636802,-0.63077452,-0.95122195,0.30736147,-0.39197473,-0.63343311,0.54475324,0.97491478
7.72000000,0.27668245,0.77767228,-0.22960922,-0.47554029,0.84738320,0.40012139,0.04636802,-0.63077452,-0.95122195,0.30736147,-0.39197473,-0.63343311,0.54475324,0.97491478
7.74000000,0.27668245,0.77767228,-0.22960922,-0.47554029,0.84738320,0.40012139,0.04636802,-0.63077452,-0.95122195,0.30736147,-0.39197473,-0.63343311,0.54475324,0.97491478
7.76000000,0.27668245,0.77767228,-0.22960922,-0.47554029,0.84738320,0.40012139,0.04636802,-0.63077452,-0.95122195,0.30736147,-0.39197473,-0.63343311,0.54475324,0.97491478
7.78000000,0.27668245,0.77767228,-0.22960922,-0.47554029,0.84738320,0.40012139,0.04636802,-0.63077452,-0.95122195,0.30736147,-0.39197473,-0.63343311,0.54475324,0.97491478
7.80000000,0.27668245,0.77767228,-0.22960922,-0.47554029,0.84738320,0.40012139,0.04636802,-0.63077452,-0.95122195,0.30736147,-0.39197473,-0.63343311,0.54475324,0.97491478
7.82000000,0.27668245,0.77767228,-0.22960922,-0.47554029,0.84738320,0.40012139,0.04636802,-0.63077452,-0.95122195,0.30736147,-0.39197473,-0.63343311,0.54475324,0.97491478
7.84000000,0.27668245,0.77767228,-0.22960922,-0.47554029,0.84738320,0.40012139,0.04636802,-0.63077452,-0.95122195,0.30736147,-0.39197473,-0.63343311,0.54475324,0.97491478
7.86000000,0.27668245,0.77767228,-0.22960922,-0.47554029,0.84738320,0.40012139,0.04636802,-0.63077452,-0.95122195,0.30736147,-0.39197473,-0.63343311,0.54475324,0.97491478
7.88000000,0.27668245,0.77767228,-0.22960922,-0.47554029,0.84738320,0.40012139,0.04636802,-0.63077452,-0.95122195,0.30736147,-0.39197473,-0.63343311,0.54475324,0.97491478
7.90000000,0.27668245,0.77767228,-0.22960922,-0.47554029,0.84738320,0.40012139,0.04636802,-0.63077452,-0.95122195,0.30736147,-0.39197473,-0.63343311,0.54475324,0.97491478
7.92000000,0.27668245,0.77767228,-0.22960922,-0.47554029,0.84738320,0.40012139,0.04636802,-0.63077452,-0.95122195,0.30736147,-0.39197473,-0.63343311,0.54475324,0.97491478
7.94000000,0.27668245,0.77767228,-0.22960922,-0.47554029,0.84738320,0.40012139,0.04636802,-0.63077452,-0.95122195,0.30736147,-0.39197473,-0.63343311,0.54475324,0.97491478
7.96000000,0.27668245,0.77767228,-0.22960922,-0.47554029,0.84738320,0.40012139,0.04636802,-0.63077452,-0.95122195,0.30736147,-0.39197473,-0.63343311,0.54475324,0.97491478
7.98000000,0.27668245,0.77767228,-0.22960922,-0.47554029,0.84738320,0.40012139,0.04636802,-0.63077452,-0.95122195,0.30736147,-0.39197473,-0.63343311,0.54475324,0.97491478
8.00000000,0.27668245,0.77767228,-0.22960922,-0.47554029,0.84738320,0.40012139,0.04636802,-0.63077452,-0.95122195,0.30736147,-0.39197473,-0.63343311,0.54475324,0.97491478
8.02000000,0.27668245,0.77767228,-0.22960922,-0.47554029,0.84738320,0.40012139,0.04636802,-0.63077452,-0.95122195,0.30736147,-0.39197473,-0.63343311,0.54475324,0.97491478
8.04000000,0.27668245,0.77767228,-0.22960922,-0.47554029,0.84738320,0.40012139,0.04636802,-0.63077452,-0.95122195,0.30736147,-0.39197473,-0.63343311,0.54475324,0.97491478
8.06000000,0.27668245,0.77767228,-0.22960922,-0.47554029,0.84738320,0.40012139,0.04636802,-0.63077452,-0.95122195,0.30736147,-0.39197473,-0.63343311,0.54475324,0.97491478
8.08000000,0.27668245,0.77767228,-0.22960922,-0.47554029,0.84738320,0.40012139,0.04636802,-0.63077452,-0.95122195,0.30736147,-0.39197473,-0.63343311,0.54475324,0.97491478
8.10000000,0.27668245,0.77767228,-0.22960922,-0.47554029,0.84738320,0.40012139,0.04636802,-0.63077452,-0.95122195,0.30736147,-0.39197473,-0.63343311,0.54475324,0.97491478
8.12000000,0.27668245,0.77767228,-0.22960922,-0.47554029,0.84738320,0.40012139,0.04636802,-0.63077452,-0.95122195,0.30736147,-0.39197473,-0.63343311,0.54475324,0.97491478
8.14000000,0.27668245,0.77767228,-0.22960922,-0.47554029,0.84738320,0.40012139,0.04636802,-0.63077452,-0.95122195,0.30736147,-0.39197473,-0.63343311,0.54475324,0.97491478
8.16000000,0.27668245,0.77767228,-0.22960922,-0.47554029,0.84738320,0.40012139,0.04636802,-0.63077452,-0.95122195,0.30736147,-0.39197473,-0.63343311,0.54475324,0.97491478
8.18000000,0.27668245,0.77767228,-0.22960922,-0.47554029,0.84738320,0.40012139,0.04636802,-0.63077452,-0.95122195,0.30736147,-0.39197473,-0.63343311,0.54475324,0.97491478
8.20000000,0.27668245,0.77767228,-0.22960922,-0.47554029,0.84738320,0.40012139,0.04636802,-0.63077452,-0.95122195,0.30736147,-0.39197473,-0.63343311,0.54475324,0.97491478
8.22000000,0.27668245,0.77767228,-0.22960922,-0.47554029,0.84738320,0.40012139,0.04636802,-0.63077452,-0.95122195,0.30736147,-0.39197473,-0.63343311,0.54475324,0.97491478
8.24000000,0.27668245,0.77767228,-0.22960922,-0.47554029,0.84738320,0.40012139,0.04636802,-0.63077452,-0.95122195,0.30736147,-0.39197473,-0.63343311,0.54475324,0.97491478
8.26000000,0.27668245,0.77767228,-0.22960922,-0.47554029,0.84738320,0.40012139,0.04636802,-0.63077452,-0.95122195,0.30736147,-0.39197473,-0.63343311,0.54475324,0.97491478
8.28000000,0.27668245,0.77767228,-0.22960922,-0.47554029,0.84738320,0.40012139,0.04636802,-0.63077452,-0.95122195,0.30736147,-0.39197473,-0.63343311,0.54475324,0.97491478
8.30000000,0.27668245,0.77767228,-0.22960922,-0.47554029,0.84738320,0.40012139,0.04636802,-0.63077452,-0.95122195,0.30736147,-0.39197473,-0.63343311,0.54475324,0.97491478
8.32000000,0.27668245,0.77767228,-0.22960922,-0.47554029,0.84738320,0.40012139,0.04636802,-0.63077452,-0.95122195,0.30736147,-0.39197473,-0.63343311,0.54475324,0.97491478
8.34000000,0.27668245,0.77767228,-0.22960922,-0.47554029,0.84738320,0.40012139,0.04636802,-0.63077452,-0.95122195,0.30736147,-0.39197473,-0.63343311,0.54475324,0.97491478
8.36000000,0.27668245,0.77767228,-0.22960922,-0.47554029,0.84738320,0.40012139,0.04636802,-0.63077452,-0.95122195,0.30736147,-0.39197473,-0.63343311,0.54475324,0.97491478
8.38000000,0.27668245,0.77767228,-0.22960922,-0.47554029,0.84738320,0.40012139,0.04636802,-0.63077452,-0.95122195,0.30736147,-0.39197473,-0.63343311,0.54475324,0.97491478
8.40000000,0.27668245,0.77767228,-0.22960922,-0.47554029,0.84738320,0.40012139,0.04636802,-0.63077452,-0.95122195,0.30736147,-0.39197473,-0.63343311,0.54475324,0.97491478
8.42000000,0.27668245,0.77767228,-0.22960922,-0.47554029,0.84738320,0.40012139,0.04636802,-0.63077452,-0.95122195,0.30736147,-0.39197473,-0.63343311,0.54475324,0.97491478
8.44000000,0.27668245,0.77767228,-0.22960922,-0.47554029,0.84738320,0.40012139,0.04636802,-0.63077452,-0.95122195,0.30736147,-0.39197473,-0.63343311,0.54475324,0.97491478
8.46000000,0.27668245,0.77767228,-0.22960922,-0.47554029,0.84738320,0.40012139,0.04636802,-0.63077452,-0.95122195,0.30736147,-0.39197473,-0.63343311,0.54475324,0.97491478
8.48000000,0.27668245,0.77767228,-0.22960922,-0.47554029,0.84738320,0.40012139,0.04636802,-0.63077452,-0.95122195,0.30736147,-0.39197473,-0.63343311,0.54475324,0.97491478
8.50000000,0.27668245,0.77767228,-0.22960922,-0.47554029,0.84738320,0.40012139,0.04636802,-0.63077452,-0.95122195,0.30736147,-0.39197473,-0.63343311,0.54475324,0.97491478
8.52000000,0.27668245,0.77767228,-0.22960922,-0.47554029,0.84738320,0.40012139,0.04636802,-0.63077452,-0.95122195,0.30736147,-0.39197473,-0.63343311,0.54475324,0.97491478
8.54000000,0.27668245,0.77767228,-0.22960922,-0.47554029,0.84738320,0.40012139,0.04636802,-0.63077452,-0.95122195,0.30736147,-0.39197473,-0.63343311,0.54475324,0.97491478
8.56000000,0.27668245,0.77767228,-0.22960922,-0.47554029,0.84738320,0.40012139,0.04636802,-0.63077452,-0.95122195,0.30736147,-0.39197473,-0.63343311,0.54475324,0.97491478
8.58000000,0.27668245,0.77767228,-0.22960922,-0.47554029,0.84738320,0.40012139,0.04636802,-0.63077452,-0.95122195,0.30736147,-0.39197473,-0.63343311,0.54475324,0.97491478
8.60000000,0.27668245,0.77767228,-0.22960922,-0.47554029,0.84738320,0.40012139,0.04636802,-0.63077452,-0.95122195,0.30736147,-0.39197473,-0.63343311,0.54475324,0.97491478
8.62000000,0.27668245,0.77767228,-0.22960922,-0.47554029,0.84738320,0.40012139,0.04636802,-0.63077452,-0.95122195,0.30736147,-0.39197473,-0.63343311,0.54475324,0.97491478
8.64000000,0.27668245,0.77767228,-0.22960922,-0.47554029,0.84738320,0.40012139,0.04636802,-0.63077452,-0.95122195,0.30736147,-0.39197473,-0.63343311,0.54475324,0.97491478
8.66000000,0.27668245,0.77767228,-0.22960922,-0.47554029,0.84738320,0.40012139,0.04636802,-0.63077452,-0.95122195,0.30736147,-0.39197473,-0.63343311,0.54475324,0.97491478
8.68000000,0.27668245,0.77767228,-0.22960922,-0.47554029,0.84738320,0.40012139,0.04636802,-0.63077452,-0.95122195,0.30736147,-0.39197473,-0.63343311,0.54475324,0.97491478
8.70000000,0.27668245,0.77767228,-0.22960922,-0.47554029,0.84738320,0.40012139,0.04636802,-0.63077452,-0.95122195,0.30736147,-0.39197473,-0.63343311,0.54475324,0.97491478
8.72000000,0.27668245,0.77767228,-0.22960922,-0.47554029,0.84738320,0.40012139,0.04636802,-0.63077452,-0.95122195,0.30736147,-0.39197473,-0.63343311,0.54475324,0.97491478
8.74000000,0.27668245,0.77767228,-0.22960922,-0.47554029,0.84738320,0.40012139,0.04636802,-0.63077452,-0.95122195,0.30736147,-0.39197473,-0.63343311,0.54475324,0.97491478
8.76000000,0.27668245,0.77767228,-0.22960922,-0.47554029,0.84738320,0.40012139,0.04636802,-0.63077452,-0.95122195,0.30736147,-0.39197473,-0.63343311,0.54475324,0.97491478
8.78000000,0.27668245,0.77767228,-0.22960922,-0.47554029,0.84738320,0.40012139,0.04636802,-0.63077452,-0.95122195,0.30736147,-0.39197473,-0.63343311,0.54475324,0.97491478
8.80000000,0.27668245,0.77767228,-0.22960922,-0.47554029,0.84738320,0.40012139,0.04636802,-0.63077452,-0.95122195,0.30736147,-0.39197473,-0.63343311,0.54475324,0.97491478
8.82000000,0.27668245,0.77767228,-0.22960922,-0.47554029,0.84738320,0.40012139,0.04636802,-0.63077452,-0.95122195,0.30736147,-0.39197473,-0.63343311,0.54475324,0.97491478
8.84000000,0.27668245,0.77767228,-0.22960922,-0.47554029,0.84738320,0.40012139,0.04636802,-0.63077452,-0.95122195,0.30736147,-0.39197473,-0.63343311,0.54475324,0.97491478
8.86000000,0.27668245,0.77767228,-0.22960922,-0.47554029,0.84738320,0.40012139,0.04636802,-0.63077452,-0.95122195,0.30736147,-0.39197473,-0.63343311,0.54475324,0.97491478
8.88000000,0.27668245,0.77767228,-0.22960922,-0.47554029,0.84738320,0.40012139,0.04636802,-0.63077452,-0.95122195,0.30736147,-0.39197473,-0.63343311,0.54475324,0.97491478
8.90000000,0.27668245,0.77767228,-0.22960922,-0.47554029,0.84738320,0.40012139,0.04636802,-0.63077452,-0.95122195,0.30736147,-0.39197473,-0.63343311,0.54475324,0.97491478
8.92000000,0.27668245,0.77767228,-0.22960922,-0.47554029,0.84738320,0.40012139,0.04636802,-0.63077452,-0.95122195,0.30736147,-0.39197473,-0.63343311,0.54475324,0.97491478
8.94000000,0.27668245,0.77767228,-0.22960922,-0.47554029,0.84738320,0.40012139,0.04636802,-0.63077452,-0.95122195,0.30736147,-0.39197473,-0.63343311,0.54475324,0.97491478
8.96000000,0.27668245,0.77767228,-0.22960922,-0.47554029,0.84738320,0.40012139,0.04636802,-0.63077452,-0.95122195,0.30736147,-0.39197473,-0.63343311,0.54475324,0.97491478
8.98000000,0.27668245,0.77767228,-0.22960922,-0.47554029,0.84738320,0.40012139,0.04636802,-0.63077452,-0.95122195,0.30736147,-0.39197473,-0.63343311,0.54475324,0.97491478
9.00000000,0.27668245,0.77767228,-0.22960922,-0.47554029,0.84738320,0.40012139,0.04636802,-0.63077452,-0.95122195,0.30736147,-0.39197473,-0.63343311,0.54475324,0.97491478
9.02000000,0.27668245,0.77767228,-0.22960922,-0.47554029,0.84738320,0.40012139,0.04636802,-0.63077452,-0.95122195,0.30736147,-0.39197473,-0.63343311,0.54475324,0.97491478
9.04000000,0.27668245,0.77767228,-0.22960922,-0.47554029,0.84738320,0.40012139,0.04636802,-0.63077452,-0.95122195,0.30736147,-0.39197473,-0.63343311,0.54475324,0.97491478
9.06000000,0.27668245,0.77767228,-0.22960922,-0.47554029,0.84738320,0.40012139,0.04636802,-0.63077452,-0.95122195,0.30736147,-0.39197473,-0.63343311,0.54475324,0.97491478
9.08000000,0.27668245,0.77767228,-0.22960922,-0.47554029,0.84738320,0.40012139,0.04636802,-0.63077452,-0.95122195,0.30736147,-0.39197473,-0.63343311,0.54475324,0.97491478
9.10000000,0.27668245,0.77767228,-0.22960922,-0.47554029,0.84738320,0.40012139,0.04636802,-0.63077452,-0.95122195,0.30736147,-0.39197473,-0.63343311,0.54475324,0.97491478
9.12000000,0.27668245,0.77767228,-0.22960922,-0.47554029,0.84738320,0.40012139,0.04636802,-0.63077452,-0.95122195,0.30736147,-0.39197473,-0.63343311,0.54475324,0.97491478
9.14000000,0.27668245,0.77767228,-0.22960922,-0.47554029,0.84738320,0.40012139,0.04636802,-0.63077452,-0.95122195,0.30736147,-0.39197473,-0.63343311,0.54475324,0.97491478
9.16000000,0.27668245,0.77767228,-0.22960922,-0.47554029,0.84738320,0.40012139,0.04636802,-0.63077452,-0.95122195,0.30736147,-0.39197473,-0.63343311,0.54475324,0.97491478
9.18000000,0.27668245,0.77767228,-0.22960922,-0.47554029,0.84738320,0.40012139,0.04636802,-0.63077452,-0.95122195,0.30736147,-0.39197473,-0.63343311,0.54475324,0.97491478
9.20000000,0.27668245,0.77767228,-0.22960922,-0.47554029,0.84738320,0.40012139,0.04636802,-0.63077452,-0.95122195,0.30736147,-0.39197473,-0.63343311,0.54475324,0.97491478
9.22000000,0.27668245,0.77767228,-0.22960922,-0.47554029,0.84738320,0.40012139,0.04636802,-0.63077452,-0.95122195,0.30736147,-0.39197473,-0.63343311,0.54475324,0.97491478
9.24000000,0.27668245,0.77767228,-0.22960922,-0.47554029,0.84738320,0.40012139,0.04636802,-0.63077452,-0.95122195,0.30736147,-0.39197473,-0.63343311,0.54475324,0.97491478
9.26000000,0.27668245,0.77767228,-0.22960922,-0.47554029,0.84738320,0.40012139,0.04636802,-0.63077452,-0.95122195,0.30736147,-0.39197473,-0.63343311,0.54475324,0.97491478
9.28000000,0.27668245,0.77767228,-0.22960922,-0.47554029,0.84738320,0.40012139,0.04636802,-0.63077452,-0.95122195,0.30736147,-0.39197473,-0.63343311,0.54475324,0.97491478
9.30000000,0.27668245,0.77767228,-0.22960922,-0.47554029,0.84738320,0.40012139,0.04636802,-0.63077452,-0.95122195,0.30736147,-0.39197473,-0.63343311,0.54475324,0.97491478
9.32000000,0.27668245,0.77767228,-0.22960922,-0.47554029,0.84738320,0.40012139,0.04636802,-0.63077452,-0.95122195,0.30736147,-0.39197473,-0.63343311,0.54475324,0.97491478
9.34000000,0.27668245,0.77767228,-0.22960922,-0.47554029,0.84738320,0.40012139,0.04636802,-0.63077452,-0.95122195,0.30736147,-0.39197473,-0.63343311,0.54475324,0.97491478
9.36000000,0.27668245,0.77767228,-0.22960922,-0.47554029,0.84738320,0.40012139,0.04636802,-0.63077452,-0.95122195,0.30736147,-0.39197473,-0.63343311,0.54475324,0.97491478
9.38000000,0.27668245,0.77767228,-0.22960922,-0.47554029,0.84738320,0.40012139,0.04636802,-0.63077452,-0.95122195,0.30736147,-0.39197473,-0.63343311,0.54475324,0.97491478
9.40000000,0.27668245,0.77767228,-0.22960922,-0.47554029,0.84738320,0.40012139,0.04636802,-0.63077452,-0.95122195,0.30736147,-0.39197473,-0.63343311,0.54475324,0.97491478
9.42000000,0.27668245,0.77767228,-0.22960922,-0.47554029,0.84738320,0.40012139,0.04636802,-0.63077452,-0.95122195,0.30736147,-0.39197473,-0.63343311,0.54475324,0.97491478
9.44000000,0.27668245,0.77767228,-0.22960922,-0.47554029,0.84738320,0.40012139,0.04636802,-0.63077452,-0.95122195,0.30736147,-0.39197473,-0.63343311,0.54475324,0.97491478
9.46000000,0.27668245,0.77767228,-0.22960922,-0.47554029,0.84738320,0.40012139,0.04636802,-0.63077452,-0.95122195,0.30736147,-0.39197473,-0.63343311,0.54475324,0.97491478
9.48000000,0.27668245,0.77767228,-0.22960922,-0.47554029,0.84738320,0.40012139,0.04636802,-0.63077452,-0.95122195,0.30736147,-0.39197473,-0.63343311,0.54475324,0.97491478
9.50000000,0.27668245,0.77767228,-0.22960922,-0.47554029,0.84738320,0.40012139,0.04636802,-0.63077452,-0.95122195,0.30736147,-0.39197473,-0.63343311,0.54475324,0.97491478
9.52000000,0.27668245,0.77767228,-0.22960922,-0.47554029,0.84738320,0.40012139,0.04636802,-0.63077452,-0.95122195,0.30736147,-0.39197473,-0.63343311,0.54475324,0.97491478
9.54000000,0.27668245,0.77767228,-0.22960922,-0.47554029,0.84738320,0.40012139,0.04636802,-0.63077452,-0.95122195,0.30736147,-0.39197473,-0.63343311,0.54475324,0.97491478
9.56000000,0.27668245,0.77767228,-0.22960922,-0.47554029,0.84738320,0.40012139,0.04636802,-0.63077452,-0.95122195,0.30736147,-0.39197473,-0.63343311,0.54475324,0.97491478
9.58000000,0.27668245,0.77767228,-0.22960922,-0.47554029,0.84738320,0.40012139,0.04636802,-0.63077452,-0.95122195,0.30736147,-0.39197473,-0.63343311,0.54475324,0.97491478
9.60000000,0.27668245,0.77767228,-0.22960922,-0.47554029,0.84738320,0.40012139,0.04636802,-0.63077452,-0.95122195,0.30736147,-0.39197473,-0.63343311,0.54475324,0.97491478
9.62000000,0.27668245,0.77767228,-0.22960922,-0.47554029,0.84738320,0.40012139,0.04636802,-0.63077452,-0.95122195,0.30736147,-0.39197473,-0.63343311,0.54475324,0.97491478
9.64000000,0.27668245,0.77767228,-0.22960922,-0.47554029,0.84738320,0.40012139,0.04636802,-0.63077452,-0.95122195,0.30736147,-0.39197473,-0.63343311,0.54475324,0.97491478
9.66000000,0.27668245,0.77767228,-0.22960922,-0.47554029,0.84738320,0.40012139,0.04636802,-0.63077452,-0.95122195,0.30736147,-0.39197473,-0.63343311,0.54475324,0.97491478
9.68000000,0.27668245,0.77767228,-0.22960922,-0.47554029,0.84738320,0.40012139,0.04636802,-0.63077452,-0.95122195,0.30736147,-0.39197473,-0.63343311,0.54475324,0.97491478
9.70000000,0.27668245,0.77767228,-0.22960922,-0.47554029,0.84738320,0.40012139,0.04636802,-0.63077452,-0.95122195,0.30736147,-0.39197473,-0.63343311,0.54475324,0.97491478
9.72000000,0.27668245,0.77767228,-0.22960922,-0.47554029,0.84738320,0.40012139,0.04636802,-0.63077452,-0.95122195,0.30736147,-0.39197473,-0.63343311,0.54475324,0.97491478
9.74000000,0.27668245,0.77767228,-0.22960922,-0.47554029,0.84738320,0.40012139,0.04636802,-0.63077452,-0.95122195,0.30736147,-0.39197473,-0.63343311,0.54475324,0.97491478
9.76000000,0.27668245,0.77767228,-0.22960922,-0.47554029,0.84738320,0.40012139,0.04636802,-0.63077452,-0.95122195,0.30736147,-0.39197473,-0.63343311,0.54475324,0.97491478
9.78000000,0.27668245,0.77767228,-0.22960922,-0.47554029,0.84738320,0.40012139,0.04636802,-0.63077452,-0.95122195,0.30736147,-0.39197473,-0.63343311,0.54475324,0.97491478
9.80000000,0.27668245,0.77767228,-0.22960922,-0.47554029,0.84738320,0.40012139,0.04636802,-0.63077452,-0.95122195,0.30736147,-0.39197473,-0.63343311,0.54475324,0.97491478
9.82000000,0.27668245,0.77767228,-0.22960922,-0.47554029,0.84738320,0.40012139,0.04636802,-0.63077452,-0.95122195,0.30736147,-0.39197473,-0.63343311,0.54475324,0.97491478
9.84000000,0.27668245,0.77767228,-0.22960922,-0.47554029,0.84738320,0.40012139,0.04636802,-0.63077452,-0.95122195,0.30736147,-0.39197473,-0.63343311,0.54475324,0.97491478
9.86000000,0.27668245,0.77767228,-0.22960922,-0.47554029,0.84738320,0.40012139,0.04636802,-0.63077452,-0.95122195,0.30736147,-0.39197473,-0.63343311,0.54475324,0.97491478
9.88000000,0.27668245,0.77767228,-0.22960922,-0.47554029,0.84738320,0.40012139,0.04636802,-0.63077452,-0.95122195,0.30736147,-0.39197473,-0.63343311,0.54475324,0.97491478
9.90000000,0.27668245,0.77767228,-0.22960922,-0.47554029,0.84738320,0.40012139,0.04636802,-0.63077452,-0.95122195,0.30736147,-0.39197473,-0.63343311,0.54475324,0.97491478
9.92000000,0.27668245,0.77767228,-0.22960922,-0.47554029,0.84738320,0.40012139,0.04636802,-0.63077452,-0.95122195,0.30736147,-0.39197473,-0.63343311,0.54475324,0.97491478
9.94000000,0.27668245,0.77767228,-0.22960922,-0.47554029,0.84738320,0.40012139,0.04636802,-0.63077452,-0.95122195,0.30736147,-0.39197473,-0.63343311,0.54475324,0.97491478
9.96000000,0.27668245,0.77767228,-0.22960922,-0.47554029,0.84738320,0.40012139,0.04636802,-0.63077452,-0.95122195,0.30736147,-0.39197473,-0.63343311,0.54475324,0.97491478
9.98000000,0.27668245,0.77767228,-0.22960922,-0.47554029,0.84738320,0.40012139,0.04636802,-0.63077452,-0.95122195,0.30736147,-0.39197473,-0.63343311,0.54475324,0.97491478
10.00000000,0.27668245,0.77767228,-0.22960922,-0.47554029,0.84738320,0.40012139,0.04636802,-0.63077452,-0.95122195,0.30736147,-0.39197473,-0.63343311,0.54475324,0.97491478
10.02000000,0.27668245,0.77767228,-0.22960922,-0.47554029,0.84738320,0.40012139,0.04636802,-0.63077452,-0.95122195,0.30736147,-0.39197473,-0.63343311,0.54475324,0.97491478
10.04000000,0.27668245,0.77767228,-0.22960922,-0.47554029,0.84738320,0.40012139,0.04636802,-0.63077452,-0.95122195,0.30736147,-0.39197473,-0.63343311,0.54475324,0.97491478
10.06000000,0.27668245,0.77767228,-0.22960922,-0.47554029,0.84738320,0.40012139,0.04636802,-0.63077452,-0.95122195,0.30736147,-0.39197473,-0.63343311,0.54475324,0.97491478
10.08000000,0.27668245,0.77767228,-0.22960922,-0.47554029,0.84738320,0.40012139,0.04636802,-0.63077452,-0.95122195,0.30736147,-0.39197473,-0.63343311,0.54475324,0.97491478
10.10000000,0.27668245,0.77767228,-0.22960922,-0.47554029,0.84738320,0.40012139,0.04636802,-0.63077452,-0.95122195,0.30736147,-0.39197473,-0.63343311,0.54475324,0.97491478
10.12000000,0.27668245,0.77767228,-0.22960922,-0.47554029,0.84738320,0.40012139,0.04636802,-0.63077452,-0.95122195,0.30736147,-0.39197473,-0.63343311,0.54475324,0.97491478
10.14000000,0.27668245,0.77767228,-0.22960922,-0.47554029,0.84738320,0.40012139,0.04636802,-0.63077452,-0.95122195,0.30736147,-0.39197473,-0.63343311,0.54475324,0.97491478
10.16000000,0.27668245,0.77767228,-0.22960922,-0.47554029,0.84738320,0.40012139,0.04636802,-0.63077452,-0.95122195,0.30736147,-0.39197473,-0.63343311,0.54475324,0.97491478
10.18000000,0.27668245,0.77767228,-0.22960922,-0.47554029,0.84738320,0.40012139,0.04636802,-0.63077452,-0.95122195,0.30736147,-0.39197473,-0.63343311,0.54475324,0.97491478
10.20000000,0.27668245,0.77767228,-0.22960922,-0.47554029,0.84738320,0.40012139,0.04636802,-0.63077452,-0.95122195,0.30736147,-0.39197473,-0.63343311,0.54475324,0.97491478
10.22000000,0.27668245,0.77767228,-0.22960922,-0.47554029,0.84738320,0.40012139,0.04636802,-0.63077452,-0.95122195,0.30736147,-0.39197473,-0.63343311,0.54475324,0.97491478
10.24000000,0.27668245,0.77767228,-0.22960922,-0.47554029,0.84738320,0.40012139,0.04636802,-0.63077452,-0.95122195,0.30736147,-0.39197473,-0.63343311,0.54475324,0.97491478
10.26000000,0.27668245,0.77767228,-0.22960922,-0.47554029,0.84738320,0.40012139,0.04636802,-0.63077452,-0.95122195,0.30736147,-0.39197473,-0.63343311,0.54475324,0.97491478
10.28000000,0.27668245,0.77767228,-0.22960922,-0.47554029,0.84738320,0.40012139,0.04636802,-0.63077452,-0.95122195,0.30736147,-0.39197473,-0.63343311,0.54475324,0.97491478
10.30000000,0.27668245,0.77767228,-0.22960922,-0.47554029,0.84738320,0.40012139,0.04636802,-0.63077452,-0.95122195,0.30736147,-0.39197473,-0.63343311,0.54475324,0.97491478
10.32000000,0.27668245,0.77767228,-0.22960922,-0.47554029,0.84738320,0.40012139,0.04636802,-0.63077452,-0.95122195,0.30736147,-0.39197473,-0.63343311,0.54475324,0.97491478
10.34000000,0.27668245,0.77767228,-0.22960922,-0.47554029,0.84738320,0.40012139,0.04636802,-0.63077452,-0.95122195,0.30736147,-0.39197473,-0.63343311,0.54475324,0.97491478
10.36000000,0.27668245,0.77767228,-0.22960922,-0.47554029,0.84738320,0.40012139,0.04636802,-0.63077452,-0.95122195,0.30736147,-0.39197473,-0.63343311,0.54475324,0.97491478
10.38000000,0.27668245,0.77767228,-0.22960922,-0.47554029,0.84738320,0.40012139,0.04636802,-0.63077452,-0.95122195,0.30736147,-0.39197473,-0.63343311,0.54475324,0.97491478
10.40000000,0.27668245,0.77767228,-0.22960922,-0.47554029,0.84738320,0.40012139,0.04636802,-0.63077452,-0.95122195,0.30736147,-0.39197473,-0.63343311,0.54475324,0.97491478
10.42000000,0.27668245,0.77767228,-0.22960922,-0.47554029,0.84738320,0.40012139,0.04636802,-0.63077452,-0.95122195,0.30736147,-0.39197473,-0.63343311,0.54475324,0.97491478
10.44000000,0.27668245,0.77767228,-0.22960922,-0.47554029,0.84738320,0.40012139,0.04636802,-0.63077452,-0.95122195,0.30736147,-0.39197473,-0.63343311,0.54475324,0.97491478
10.46000000,0.27668245,0.77767228,-0.22960922,-0.47554029,0.84738320,0.40012139,0.04636802,-0.63077452,-0.95122195,0.30736147,-0.39197473,-0.63343311,0.54475324,0.97491478
10.48000000,0.27668245,0.77767228,-0.22960922,-0.47554029,0.84738320,0.40012139,0.04636802,-0.63077452,-0.95122195,0.30736147,-0.39197473,-0.63343311,0.54475324,0.97491478
10.50000000,0.27668245,0.77767228,-0.22960922,-0.47554029,0.84738320,0.40012139,0.04636802,-0.63077452,-0.95122195,0.30736147,-0.39197473,-0.63343311,0.54475324,0.97491478
10.52000000,0.27668245,0.77767228,-0.22960922,-0.47554029,0.84738320,0.40012139,0.04636802,-0.63077452,-0.95122195,0.30736147,-0.39197473,-0.63343311,0.54475324,0.97491478
10.54000000,0.27668245,0.77767228,-0.22960922,-0.47554029,0.84738320,0.40012139,0.04636802,-0.63077452,-0.95122195,0.30736147,-0.39197473,-0.63343311,0.54475324,0.97491478
10.56000000,0.27668245,0.77767228,-0.22960922,-0.47554029,0.84738320,0.40012139,0.04636802,-0.63077452,-0.95122195,0.30736147,-0.39197473,-0.63343311,0.54475324,0.97491478
10.58000000,0.27668245,0.77767228,-0.22960922,-0.47554029,0.84738320,0.40012139,0.04636802,-0.63077452,-0.95122195,0.30736147,-0.39197473,-0.63343311,0.54475324,0.97491478
10.60000000,0.27668245,0.77767228,-0.22960922,-0.47554029,0.84738320,0.40012139,0.04636802,-0.63077452,-0.95122195,0.30736147,-0.39197473,-0.63343311,0.54475324,0.97491478
10.62000000,0.27668245,0.77767228,-0.22960922,-0.47554029,0.84738320,0.40012139,0.04636802,-0.63077452,-0.95122195,0.30736147,-0.39197473,-0.63343311,0.54475324,0.97491478
10.64000000,0.27668245,0.77767228,-0.22960922,-0.47554029,0.84738320,0.40012139,0.04636802,-0.63077452,-0.95122195,0.30736147,-0.39197473,-0.63343311,0.54475324,0.97491478
10.66000000,0.27668245,0.77767228,-0.22960922,-0.47554029,0.84738320,0.40012139,0.04636802,-0.63077452,-0.95122195,0.30736147,-0.39197473,-0.63343311,0.54475324,0.97491478
10.68000000,0.27668245,0.77767228,-0.22960922,-0.47554029,0.84738320,0.40012139,0.04636802,-0.63077452,-0.95122195,0.30736147,-0.39197473,-0.63343311,0.54475324,0.97491478
10.70000000,0.27668245,0.77767228,-0.22960922,-0.47554029,0.84738320,0.40012139,0.04636802,-0.63077452,-0.95122195,0.30736147,-0.39197473,-0.63343311,0.54475324,0.97491478
10.72000000,0.27668245,0.77767228,-0.22960922,-0.47554029,0.84738320,0.40012139,0.04636802,-0.63077452,-0.95122195,0.30736147,-0.39197473,-0.63343311,0.54475324,0.97491478
10.74000000,0.27668245,0.77767228,-0.22960922,-0.47554029,0.84738320,0.40012139,0.04636802,-0.63077452,-0.95122195,0.30736147,-0.39197473,-0.63343311,0.54475324,0.97491478
10.76000000,0.27668245,0.77767228,-0.22960922,-0.47554029,0.84738320,0.40012139,0.04636802,-0.63077452,-0.95122195,0.30736147,-0.39197473,-0.63343311,0.54475324,0.97491478
10.78000000,0.27668245,0.77767228,-0.22960922,-0.47554029,0.84738320,0.40012139,0.04636802,-0.63077452,-0.95122195,0.30736147,-0.39197473,-0.63343311,0.54475324,0.97491478
10.80000000,0.27668245,0.77767228,-0.22960922,-0.47554029,0.84738320,0.40012139,0.04636802,-0.63077452,-0.95122195,0.30736147,-0.39197473,-0.63343311,0.54475324,0.97491478
10.82000000,0.27668245,0.77767228,-0.22960922,-0.47554029,0.84738320,0.40012139,0.04636802,-0.63077452,-0.95122195,0.30736147,-0.39197473,-0.63343311,0.54475324,0.97491478
10.84000000,0.27668245,0.77767228,-0.22960922,-0.47554029,0.84738320,0.40012139,0.04636802,-0.63077452,-0.95122195,0.30736147,-0.39197473,-0.63343311,0.54475324,0.97491478
10.86000000,0.27668245,0.77767228,-0.22960922,-0.47554029,0.84738320,0.40012139,0.04636802,-0.63077452,-0.95122195,0.30736147,-0.39197473,-0.63343311,0.54475324,0.97491478
10.88000000,0.27668245,0.77767228,-0.22960922,-0.47554029,0.84738320,0.40012139,0.04636802,-0.63077452,-0.95122195,0.30736147,-0.39197473,-0.63343311,0.54475324,0.97491478
10.90000000,0.27668245,0.77767228,-0.22960922,-0.47554029,0.84738320,0.40012139,0.04636802,-0.63077452,-0.95122195,0.30736147,-0.39197473,-0.63343311,0.54475324,0.97491478
10.92000000,0.27668245,0.77767228,-0.22960922,-0.47554029,0.84738320,0.40012139,0.04636802,-0.63077452,-0.95122195,0.30736147,-0.39197473,-0.63343311,0.54475324,0.97491478
10.94000000,0.27668245,0.77767228,-0.22960922,-0.47554029,0.84738320,0.40012139,0.04636802,-0.63077452,-0.95122195,0.30736147,-0.39197473,-0.63343311,0.54475324,0.97491478
10.96000000,0.27668245,0.77767228,-0.22960922,-0.47554029,0.84738320,0.40012139,0.04636802,-0.63077452,-0.95122195,0.30736147,-0.39197473,-0.63343311,0.54475324,0.97491478
10.98000000,0.27668245,0.77767228,-0.22960922,-0.47554029,0.84738320,0.40012139,0.04636802,-0.63077452,-0.95122195,0.30736147,-0.39197473,-0.63343311,0.54475324,0.97491478
11.00000000,0.27668245,0.77767228,-0.22960922,-0.47554029,0.84738320,0.40012139,0.04636802,-0.63077452,-0.95122195,0.30736147,-0.39197473,-0.63343311,0.54475324,0.97491478
11.02000000,0.27668245,0.77767228,-0.22960922,-0.47554029,0.84738320,0.40012139,0.04636802,-0.63077452,-0.95122195,0.30736147,-0.39197473,-0.63343311,0.54475324,0.97491478
11.04000000,0.27668245,0.77767228,-0.22960922,-0.47554029,0.84738320,0.40012139,0.04636802,-0.63077452,-0.95122195,0.30736147,-0.39197473,-0.63343311,0.54475324,0.97491478
11.06000000,0.27668245,0.77767228,-0.22960922,-0.47554029,0.84738320,0.40012139,0.04636802,-0.63077452,-0.95122195,0.30736147,-0.39197473,-0.63343311,0.54475324,0.97491478
11.08000000,0.27668245,0.77767228,-0.22960922,-0.47554029,0.84738320,0.40012139,0.04636802,-0.63077452,-0.95122195,0.30736147,-0.39197473,-0.63343311,0.54475324,0.97491478
11.10000000,0.27668245,0.77767228,-0.22960922,-0.47554029,0.84738320,0.40012139,0.04636802,-0.63077452,-0.95122195,0.30736147,-0.39197473,-0.63343311,0.54475324,0.97491478
11.12000000,0.27668245,0.77767228,-0.22960922,-0.47554029,0.84738320,0.40012139,0.04636802,-0.63077452,-0.95122195,0.30736147,-0.39197473,-0.63343311,0.54475324,0.97491478
11.14000000,0.27668245,0.77767228,-0.22960922,-0.47554029,0.84738320,0.40012139,0.04636802,-0.63077452,-0.95122195,0.30736147,-0.39197473,-0.63343311,0.54475324,0.97491478
11.16000000,0.27668245,0.77767228,-0.22960922,-0.47554029,0.84738320,0.40012139,0.04636802,-0.63077452,-0.95122195,0.30736147,-0.39197473,-0.63343311,0.54475324,0.97491478
11.18000000,0.27668245,0.77767228,-0.22960922,-0.47554029,0.84738320,0.40012139,0.04636802,-0.63077452,-0.95122195,0.30736147,-0.39197473,-0.63343311,0.54475324,0.97491478
11.20000000,0.27668245,0.77767228,-0.22960922,-0.47554029,0.84738320,0.40012139,0.04636802,-0.63077452,-0.95122195,0.30736147,-0.39197473,-0.63343311,0.54475324,0.97491478
11.22000000,0.27668245,0.77767228,-0.22960922,-0.47554029,0.84738320,0.40012139,0.04636802,-0.63077452,-0.95122195,0.30736147,-0.39197473,-0.63343311,0.54475324,0.97491478
11.24000000,0.27668245,0.77767228,-0.22960922,-0.47554029,0.84738320,0.40012139,0.04636802,-0.63077452,-0.95122195,0.30736147,-0.39197473,-0.63343311,0.54475324,0.97491478
11.26000000,0.27668245,0.77767228,-0.22960922,-0.47554029,0.84738320,0.40012139,0.04636802,-0.63077452,-0.95122195,0.30736147,-0.39197473,-0.63343311,0.54475324,0.97491478
11.28000000,0.27668245,0.77767228,-0.22960922,-0.47554029,0.84738320,0.40012139,0.04636802,-0.63077452,-0.95122195,0.30736147,-0.39197473,-0.63343311,0.54475324,0.97491478
11.30000000,0.27668245,0.77767228,-0.22960922,-0.47554029,0.84738320,0.40012139,0.04636802,-0.63077452,-0.95122195,0.30736147,-0.39197473,-0.63343311,0.54475324,0.97491478
11.32000000,0.27668245,0.77767228,-0.22960922,-0.47554029,0.84738320,0.40012139,0.04636802,-0.63077452,-0.95122195,0.30736147,-0.39197473,-0.63343311,0.54475324,0.97491478
11.34000000,0.27668245,0.77767228,-0.22960922,-0.47554029,0.84738320,0.40012139,0.04636802,-0.63077452,-0.95122195,0.30736147,-0.39197473,-0.63343311,0.54475324,0.97491478
11.36000000,0.27668245,0.77767228,-0.22960922,-0.47554029,0.84738320,0.40012139,0.04636802,-0.63077452,-0.95122195,0.30736147,-0.39197473,-0.63343311,0.54475324,0.97491478
11.38000000,0.27668245,0.77767228,-0.22960922,-0.47554029,0.84738320,0.40012139,0.04636802,-0.63077452,-0.95122195,0.30736147,-0.39197473,-0.63343311,0.54475324,0.97491478
11.40000000,0.27668245,0.77767228,-0.22960922,-0.47554029,0.84738320,0.40012139,0.04636802,-0.63077452,-0.95122195,0.30736147,-0.39197473,-0.63343311,0.54475324,0.97491478
11.42000000,0.27668245,0.77767228,-0.22960922,-0.47554029,0.84738320,0.40012139,0.04636802,-0.63077452,-0.95122195,0.30736147,-0.39197473,-0.63343311,0.54475324,0.97491478
11.44000000,0.27668245,0.77767228,-0.22960922,-0.47554029,0.84738320,0.40012139,0.04636802,-0.63077452,-0.95122195,0.30736147,-0.39197473,-0.63343311,0.54475324,0.97491478
11.46000000,0.27668245,0.77767228,-0.22960922,-0.47554029,0.84738320,0.40012139,0.04636802,-0.63077452,-0.95122195,0.30736147,-0.39197473,-0.63343311,0.54475324,0.97491478
11.48000000,0.27668245,0.77767228,-0.22960922,-0.47554029,0.84738320,0.40012139,0.04636802,-0.63077452,-0.95122195,0.30736147,-0.39197473,-0.63343311,0.54475324,0.97491478
11.50000000,0.27668245,0.77767228,-0.22960922,-0.47554029,0.84738320,0.40012139,0.04636802,-0.63077452,-0.95122195,0.30736147,-0.39197473,-0.63343311,0.54475324,0.97491478
11.52000000,0.27668245,0.77767228,-0.22960922,-0.47554029,0.84738320,0.40012139,0.04636802,-0.63077452,-0.95122195,0.30736147,-0.39197473,-0.63343311,0.54475324,0.97491478
11.54000000,0.27668245,0.77767228,-0.22960922,-0.47554029,0.84738320,0.40012139,0.04636802,-0.63077452,-0.95122195,0.30736147,-0.39197473,-0.63343311,0.54475324,0.97491478
11.56000000,0.27668245,0.77767228,-0.22960922,-0.47554029,0.84738320,0.40012139,0.04636802,-0.63077452,-0.95122195,0.30736147,-0.39197473,-0.63343311,0.54475324,0.97491478
11.58000000,0.27668245,0.77767228,-0.22960922,-0.47554029,0.84738320,0.40012139,0.04636802,-0.63077452,-0.95122195,0.30736147,-0.39197473,-0.63343311,0.54475324,0.97491478
11.60000000,0.27668245,0.77767228,-0.22960922,-0.47554029,0.84738320,0.40012139,0.04636802,-0.63077452,-0.95122195,0.30736147,-0.39197473,-0.63343311,0.54475324,0.97491478
11.62000000,0.27668245,0.77767228,-0.22960922,-0.47554029,0.84738320,0.40012139,0.04636802,-0.63077452,-0.95122195,0.30736147,-0.39197473,-0.63343311,0.54475324,0.97491478
