gracetata/LocomotionHEC/legged_lab/Reference Data/ArmHack/StandPerturb/TestData/ArmOnly/poses/randomized/randomized_arm_pose_01_seed20260715_hold20s_50hz.csv
time_s,left_shoulder_pitch_joint,left_shoulder_roll_joint,left_shoulder_yaw_joint,left_elbow_joint,left_wrist_roll_joint,left_wrist_pitch_joint,left_wrist_yaw_joint,right_shoulder_pitch_joint,right_shoulder_roll_joint,right_shoulder_yaw_joint,right_elbow_joint,right_wrist_roll_joint,right_wrist_pitch_joint,right_wrist_yaw_joint
0.00000000,0.27656331,0.77648754,-0.22907263,-0.47361267,0.84751888,0.39980467,0.04567174,0.24342602,-0.77285576,0.23985383,-0.44410184,-0.84330824,0.39447122,-0.03017786
0.02000000,0.27656331,0.77648754,-0.22907263,-0.47361267,0.84751888,0.39980467,0.04567174,0.24342602,-0.77285576,0.23985383,-0.44410184,-0.84330824,0.39447122,-0.03017786
0.04000000,0.27656331,0.77648754,-0.22907263,-0.47361267,0.84751888,0.39980467,0.04567174,0.24342602,-0.77285576,0.23985383,-0.44410184,-0.84330824,0.39447122,-0.03017786
0.06000000,0.27656331,0.77648754,-0.22907263,-0.47361267,0.84751888,0.39980467,0.04567174,0.24342602,-0.77285576,0.23985383,-0.44410184,-0.84330824,0.39447122,-0.03017786
0.08000000,0.27656331,0.77648754,-0.22907263,-0.47361267,0.84751888,0.39980467,0.04567174,0.24342602,-0.77285576,0.23985383,-0.44410184,-0.84330824,0.39447122,-0.03017786
0.10000000,0.27656331,0.77648754,-0.22907263,-0.47361267,0.84751888,0.39980467,0.04567174,0.24342602,-0.77285576,0.23985383,-0.44410184,-0.84330824,0.39447122,-0.03017786
0.12000000,0.27656331,0.77648754,-0.22907263,-0.47361267,0.84751888,0.39980467,0.04567174,0.24342602,-0.77285576,0.23985383,-0.44410184,-0.84330824,0.39447122,-0.03017786
0.14000000,0.27656331,0.77648754,-0.22907263,-0.47361267,0.84751888,0.39980467,0.04567174,0.24342602,-0.77285576,0.23985383,-0.44410184,-0.84330824,0.39447122,-0.03017786
0.16000000,0.27656331,0.77648754,-0.22907263,-0.47361267,0.84751888,0.39980467,0.04567174,0.24342602,-0.77285576,0.23985383,-0.44410184,-0.84330824,0.39447122,-0.03017786
0.18000000,0.27656331,0.77648754,-0.22907263,-0.47361267,0.84751888,0.39980467,0.04567174,0.24342602,-0.77285576,0.23985383,-0.44410184,-0.84330824,0.39447122,-0.03017786
0.20000000,0.27656331,0.77648754,-0.22907263,-0.47361267,0.84751888,0.39980467,0.04567174,0.24342602,-0.77285576,0.23985383,-0.44410184,-0.84330824,0.39447122,-0.03017786
0.22000000,0.27656331,0.77648754,-0.22907263,-0.47361267,0.84751888,0.39980467,0.04567174,0.24342602,-0.77285576,0.23985383,-0.44410184,-0.84330824,0.39447122,-0.03017786
0.24000000,0.27656331,0.77648754,-0.22907263,-0.47361267,0.84751888,0.39980467,0.04567174,0.24342602,-0.77285576,0.23985383,-0.44410184,-0.84330824,0.39447122,-0.03017786
0.26000000,0.27656331,0.77648754,-0.22907263,-0.47361267,0.84751888,0.39980467,0.04567174,0.24342602,-0.77285576,0.23985383,-0.44410184,-0.84330824,0.39447122,-0.03017786
0.28000000,0.27656331,0.77648754,-0.22907263,-0.47361267,0.84751888,0.39980467,0.04567174,0.24342602,-0.77285576,0.23985383,-0.44410184,-0.84330824,0.39447122,-0.03017786
0.30000000,0.27656331,0.77648754,-0.22907263,-0.47361267,0.84751888,0.39980467,0.04567174,0.24342602,-0.77285576,0.23985383,-0.44410184,-0.84330824,0.39447122,-0.03017786
0.32000000,0.27656331,0.77648754,-0.22907263,-0.47361267,0.84751888,0.39980467,0.04567174,0.24342602,-0.77285576,0.23985383,-0.44410184,-0.84330824,0.39447122,-0.03017786
0.34000000,0.27656331,0.77648754,-0.22907263,-0.47361267,0.84751888,0.39980467,0.04567174,0.24342602,-0.77285576,0.23985383,-0.44410184,-0.84330824,0.39447122,-0.03017786
0.36000000,0.27656331,0.77648754,-0.22907263,-0.47361267,0.84751888,0.39980467,0.04567174,0.24342602,-0.77285576,0.23985383,-0.44410184,-0.84330824,0.39447122,-0.03017786
0.38000000,0.27656331,0.77648754,-0.22907263,-0.47361267,0.84751888,0.39980467,0.04567174,0.24342602,-0.77285576,0.23985383,-0.44410184,-0.84330824,0.39447122,-0.03017786
0.40000000,0.27656331,0.77648754,-0.22907263,-0.47361267,0.84751888,0.39980467,0.04567174,0.24342602,-0.77285576,0.23985383,-0.44410184,-0.84330824,0.39447122,-0.03017786
0.42000000,0.27656331,0.77648754,-0.22907263,-0.47361267,0.84751888,0.39980467,0.04567174,0.24342602,-0.77285576,0.23985383,-0.44410184,-0.84330824,0.39447122,-0.03017786
0.44000000,0.27656331,0.77648754,-0.22907263,-0.47361267,0.84751888,0.39980467,0.04567174,0.24342602,-0.77285576,0.23985383,-0.44410184,-0.84330824,0.39447122,-0.03017786
0.46000000,0.27656331,0.77648754,-0.22907263,-0.47361267,0.84751888,0.39980467,0.04567174,0.24342602,-0.77285576,0.23985383,-0.44410184,-0.84330824,0.39447122,-0.03017786
0.48000000,0.27656331,0.77648754,-0.22907263,-0.47361267,0.84751888,0.39980467,0.04567174,0.24342602,-0.77285576,0.23985383,-0.44410184,-0.84330824,0.39447122,-0.03017786
0.50000000,0.27656331,0.77648754,-0.22907263,-0.47361267,0.84751888,0.39980467,0.04567174,0.24342602,-0.77285576,0.23985383,-0.44410184,-0.84330824,0.39447122,-0.03017786
0.52000000,0.27656331,0.77648754,-0.22907263,-0.47361267,0.84751888,0.39980467,0.04567174,0.24342602,-0.77285576,0.23985383,-0.44410184,-0.84330824,0.39447122,-0.03017786
0.54000000,0.27656331,0.77648754,-0.22907263,-0.47361267,0.84751888,0.39980467,0.04567174,0.24342602,-0.77285576,0.23985383,-0.44410184,-0.84330824,0.39447122,-0.03017786
0.56000000,0.27656331,0.77648754,-0.22907263,-0.47361267,0.84751888,0.39980467,0.04567174,0.24342602,-0.77285576,0.23985383,-0.44410184,-0.84330824,0.39447122,-0.03017786
0.58000000,0.27656331,0.77648754,-0.22907263,-0.47361267,0.84751888,0.39980467,0.04567174,0.24342602,-0.77285576,0.23985383,-0.44410184,-0.84330824,0.39447122,-0.03017786
0.60000000,0.27656331,0.77648754,-0.22907263,-0.47361267,0.84751888,0.39980467,0.04567174,0.24342602,-0.77285576,0.23985383,-0.44410184,-0.84330824,0.39447122,-0.03017786
0.62000000,0.27656331,0.77648754,-0.22907263,-0.47361267,0.84751888,0.39980467,0.04567174,0.24342602,-0.77285576,0.23985383,-0.44410184,-0.84330824,0.39447122,-0.03017786
0.64000000,0.27656331,0.77648754,-0.22907263,-0.47361267,0.84751888,0.39980467,0.04567174,0.24342602,-0.77285576,0.23985383,-0.44410184,-0.84330824,0.39447122,-0.03017786
0.66000000,0.27656331,0.77648754,-0.22907263,-0.47361267,0.84751888,0.39980467,0.04567174,0.24342602,-0.77285576,0.23985383,-0.44410184,-0.84330824,0.39447122,-0.03017786
0.68000000,0.27656331,0.77648754,-0.22907263,-0.47361267,0.84751888,0.39980467,0.04567174,0.24342602,-0.77285576,0.23985383,-0.44410184,-0.84330824,0.39447122,-0.03017786
0.70000000,0.27656331,0.77648754,-0.22907263,-0.47361267,0.84751888,0.39980467,0.04567174,0.24342602,-0.77285576,0.23985383,-0.44410184,-0.84330824,0.39447122,-0.03017786
0.72000000,0.27656331,0.77648754,-0.22907263,-0.47361267,0.84751888,0.39980467,0.04567174,0.24342602,-0.77285576,0.23985383,-0.44410184,-0.84330824,0.39447122,-0.03017786
0.74000000,0.27656331,0.77648754,-0.22907263,-0.47361267,0.84751888,0.39980467,0.04567174,0.24342602,-0.77285576,0.23985383,-0.44410184,-0.84330824,0.39447122,-0.03017786
0.76000000,0.27656331,0.77648754,-0.22907263,-0.47361267,0.84751888,0.39980467,0.04567174,0.24342602,-0.77285576,0.23985383,-0.44410184,-0.84330824,0.39447122,-0.03017786
0.78000000,0.27656331,0.77648754,-0.22907263,-0.47361267,0.84751888,0.39980467,0.04567174,0.24342602,-0.77285576,0.23985383,-0.44410184,-0.84330824,0.39447122,-0.03017786
0.80000000,0.27656331,0.77648754,-0.22907263,-0.47361267,0.84751888,0.39980467,0.04567174,0.24342602,-0.77285576,0.23985383,-0.44410184,-0.84330824,0.39447122,-0.03017786
0.82000000,0.27656331,0.77648754,-0.22907263,-0.47361267,0.84751888,0.39980467,0.04567174,0.24342602,-0.77285576,0.23985383,-0.44410184,-0.84330824,0.39447122,-0.03017786
0.84000000,0.27656331,0.77648754,-0.22907263,-0.47361267,0.84751888,0.39980467,0.04567174,0.24342602,-0.77285576,0.23985383,-0.44410184,-0.84330824,0.39447122,-0.03017786
0.86000000,0.27656331,0.77648754,-0.22907263,-0.47361267,0.84751888,0.39980467,0.04567174,0.24342602,-0.77285576,0.23985383,-0.44410184,-0.84330824,0.39447122,-0.03017786
0.88000000,0.27656331,0.77648754,-0.22907263,-0.47361267,0.84751888,0.39980467,0.04567174,0.24342602,-0.77285576,0.23985383,-0.44410184,-0.84330824,0.39447122,-0.03017786
0.90000000,0.27656331,0.77648754,-0.22907263,-0.47361267,0.84751888,0.39980467,0.04567174,0.24342602,-0.77285576,0.23985383,-0.44410184,-0.84330824,0.39447122,-0.03017786
0.92000000,0.27656331,0.77648754,-0.22907263,-0.47361267,0.84751888,0.39980467,0.04567174,0.24342602,-0.77285576,0.23985383,-0.44410184,-0.84330824,0.39447122,-0.03017786
0.94000000,0.27656331,0.77648754,-0.22907263,-0.47361267,0.84751888,0.39980467,0.04567174,0.24342602,-0.77285576,0.23985383,-0.44410184,-0.84330824,0.39447122,-0.03017786
0.96000000,0.27656331,0.77648754,-0.22907263,-0.47361267,0.84751888,0.39980467,0.04567174,0.24342602,-0.77285576,0.23985383,-0.44410184,-0.84330824,0.39447122,-0.03017786
0.98000000,0.27656331,0.77648754,-0.22907263,-0.47361267,0.84751888,0.39980467,0.04567174,0.24342602,-0.77285576,0.23985383,-0.44410184,-0.84330824,0.39447122,-0.03017786
1.00000000,0.27656331,0.77648754,-0.22907263,-0.47361267,0.84751888,0.39980467,0.04567174,0.24342602,-0.77285576,0.23985383,-0.44410184,-0.84330824,0.39447122,-0.03017786
1.02000000,0.27656331,0.77648754,-0.22907263,-0.47361267,0.84751888,0.39980467,0.04567174,0.24342602,-0.77285576,0.23985383,-0.44410184,-0.84330824,0.39447122,-0.03017786
1.04000000,0.27656331,0.77648754,-0.22907263,-0.47361267,0.84751888,0.39980467,0.04567174,0.24342602,-0.77285576,0.23985383,-0.44410184,-0.84330824,0.39447122,-0.03017786
1.06000000,0.27656331,0.77648754,-0.22907263,-0.47361267,0.84751888,0.39980467,0.04567174,0.24342602,-0.77285576,0.23985383,-0.44410184,-0.84330824,0.39447122,-0.03017786
1.08000000,0.27656331,0.77648754,-0.22907263,-0.47361267,0.84751888,0.39980467,0.04567174,0.24342602,-0.77285576,0.23985383,-0.44410184,-0.84330824,0.39447122,-0.03017786
1.10000000,0.27656331,0.77648754,-0.22907263,-0.47361267,0.84751888,0.39980467,0.04567174,0.24342602,-0.77285576,0.23985383,-0.44410184,-0.84330824,0.39447122,-0.03017786
1.12000000,0.27656331,0.77648754,-0.22907263,-0.47361267,0.84751888,0.39980467,0.04567174,0.24342602,-0.77285576,0.23985383,-0.44410184,-0.84330824,0.39447122,-0.03017786
1.14000000,0.27656331,0.77648754,-0.22907263,-0.47361267,0.84751888,0.39980467,0.04567174,0.24342602,-0.77285576,0.23985383,-0.44410184,-0.84330824,0.39447122,-0.03017786
1.16000000,0.27656331,0.77648754,-0.22907263,-0.47361267,0.84751888,0.39980467,0.04567174,0.24342602,-0.77285576,0.23985383,-0.44410184,-0.84330824,0.39447122,-0.03017786
1.18000000,0.27656331,0.77648754,-0.22907263,-0.47361267,0.84751888,0.39980467,0.04567174,0.24342602,-0.77285576,0.23985383,-0.44410184,-0.84330824,0.39447122,-0.03017786
1.20000000,0.27656331,0.77648754,-0.22907263,-0.47361267,0.84751888,0.39980467,0.04567174,0.24342602,-0.77285576,0.23985383,-0.44410184,-0.84330824,0.39447122,-0.03017786
1.22000000,0.27656331,0.77648754,-0.22907263,-0.47361267,0.84751888,0.39980467,0.04567174,0.24342602,-0.77285576,0.23985383,-0.44410184,-0.84330824,0.39447122,-0.03017786
1.24000000,0.27656331,0.77648754,-0.22907263,-0.47361267,0.84751888,0.39980467,0.04567174,0.24342602,-0.77285576,0.23985383,-0.44410184,-0.84330824,0.39447122,-0.03017786
1.26000000,0.27656331,0.77648754,-0.22907263,-0.47361267,0.84751888,0.39980467,0.04567174,0.24342602,-0.77285576,0.23985383,-0.44410184,-0.84330824,0.39447122,-0.03017786
1.28000000,0.27656331,0.77648754,-0.22907263,-0.47361267,0.84751888,0.39980467,0.04567174,0.24342602,-0.77285576,0.23985383,-0.44410184,-0.84330824,0.39447122,-0.03017786
1.30000000,0.27656331,0.77648754,-0.22907263,-0.47361267,0.84751888,0.39980467,0.04567174,0.24342602,-0.77285576,0.23985383,-0.44410184,-0.84330824,0.39447122,-0.03017786
1.32000000,0.27656331,0.77648754,-0.22907263,-0.47361267,0.84751888,0.39980467,0.04567174,0.24342602,-0.77285576,0.23985383,-0.44410184,-0.84330824,0.39447122,-0.03017786
1.34000000,0.27656331,0.77648754,-0.22907263,-0.47361267,0.84751888,0.39980467,0.04567174,0.24342602,-0.77285576,0.23985383,-0.44410184,-0.84330824,0.39447122,-0.03017786
1.36000000,0.27656331,0.77648754,-0.22907263,-0.47361267,0.84751888,0.39980467,0.04567174,0.24342602,-0.77285576,0.23985383,-0.44410184,-0.84330824,0.39447122,-0.03017786
1.38000000,0.27656331,0.77648754,-0.22907263,-0.47361267,0.84751888,0.39980467,0.04567174,0.24342602,-0.77285576,0.23985383,-0.44410184,-0.84330824,0.39447122,-0.03017786
1.40000000,0.27656331,0.77648754,-0.22907263,-0.47361267,0.84751888,0.39980467,0.04567174,0.24342602,-0.77285576,0.23985383,-0.44410184,-0.84330824,0.39447122,-0.03017786
1.42000000,0.27656331,0.77648754,-0.22907263,-0.47361267,0.84751888,0.39980467,0.04567174,0.24342602,-0.77285576,0.23985383,-0.44410184,-0.84330824,0.39447122,-0.03017786
1.44000000,0.27656331,0.77648754,-0.22907263,-0.47361267,0.84751888,0.39980467,0.04567174,0.24342602,-0.77285576,0.23985383,-0.44410184,-0.84330824,0.39447122,-0.03017786
1.46000000,0.27656331,0.77648754,-0.22907263,-0.47361267,0.84751888,0.39980467,0.04567174,0.24342602,-0.77285576,0.23985383,-0.44410184,-0.84330824,0.39447122,-0.03017786
1.48000000,0.27656331,0.77648754,-0.22907263,-0.47361267,0.84751888,0.39980467,0.04567174,0.24342602,-0.77285576,0.23985383,-0.44410184,-0.84330824,0.39447122,-0.03017786
1.50000000,0.27656331,0.77648754,-0.22907263,-0.47361267,0.84751888,0.39980467,0.04567174,0.24342602,-0.77285576,0.23985383,-0.44410184,-0.84330824,0.39447122,-0.03017786
1.52000000,0.27656331,0.77648754,-0.22907263,-0.47361267,0.84751888,0.39980467,0.04567174,0.24342602,-0.77285576,0.23985383,-0.44410184,-0.84330824,0.39447122,-0.03017786
1.54000000,0.27656331,0.77648754,-0.22907263,-0.47361267,0.84751888,0.39980467,0.04567174,0.24342602,-0.77285576,0.23985383,-0.44410184,-0.84330824,0.39447122,-0.03017786
1.56000000,0.27656331,0.77648754,-0.22907263,-0.47361267,0.84751888,0.39980467,0.04567174,0.24342602,-0.77285576,0.23985383,-0.44410184,-0.84330824,0.39447122,-0.03017786
1.58000000,0.27656331,0.77648754,-0.22907263,-0.47361267,0.84751888,0.39980467,0.04567174,0.24342602,-0.77285576,0.23985383,-0.44410184,-0.84330824,0.39447122,-0.03017786
1.60000000,0.27656331,0.77648754,-0.22907263,-0.47361267,0.84751888,0.39980467,0.04567174,0.24342602,-0.77285576,0.23985383,-0.44410184,-0.84330824,0.39447122,-0.03017786
1.62000000,0.27656331,0.77648754,-0.22907263,-0.47361267,0.84751888,0.39980467,0.04567174,0.24342602,-0.77285576,0.23985383,-0.44410184,-0.84330824,0.39447122,-0.03017786
1.64000000,0.27656331,0.77648754,-0.22907263,-0.47361267,0.84751888,0.39980467,0.04567174,0.24342602,-0.77285576,0.23985383,-0.44410184,-0.84330824,0.39447122,-0.03017786
1.66000000,0.27656331,0.77648754,-0.22907263,-0.47361267,0.84751888,0.39980467,0.04567174,0.24342602,-0.77285576,0.23985383,-0.44410184,-0.84330824,0.39447122,-0.03017786
1.68000000,0.27656331,0.77648754,-0.22907263,-0.47361267,0.84751888,0.39980467,0.04567174,0.24342602,-0.77285576,0.23985383,-0.44410184,-0.84330824,0.39447122,-0.03017786
1.70000000,0.27656331,0.77648754,-0.22907263,-0.47361267,0.84751888,0.39980467,0.04567174,0.24342602,-0.77285576,0.23985383,-0.44410184,-0.84330824,0.39447122,-0.03017786
1.72000000,0.27656331,0.77648754,-0.22907263,-0.47361267,0.84751888,0.39980467,0.04567174,0.24342602,-0.77285576,0.23985383,-0.44410184,-0.84330824,0.39447122,-0.03017786
1.74000000,0.27656331,0.77648754,-0.22907263,-0.47361267,0.84751888,0.39980467,0.04567174,0.24342602,-0.77285576,0.23985383,-0.44410184,-0.84330824,0.39447122,-0.03017786
1.76000000,0.27656331,0.77648754,-0.22907263,-0.47361267,0.84751888,0.39980467,0.04567174,0.24342602,-0.77285576,0.23985383,-0.44410184,-0.84330824,0.39447122,-0.03017786
1.78000000,0.27656331,0.77648754,-0.22907263,-0.47361267,0.84751888,0.39980467,0.04567174,0.24342602,-0.77285576,0.23985383,-0.44410184,-0.84330824,0.39447122,-0.03017786
1.80000000,0.27656331,0.77648754,-0.22907263,-0.47361267,0.84751888,0.39980467,0.04567174,0.24342602,-0.77285576,0.23985383,-0.44410184,-0.84330824,0.39447122,-0.03017786
1.82000000,0.27656331,0.77648754,-0.22907263,-0.47361267,0.84751888,0.39980467,0.04567174,0.24342602,-0.77285576,0.23985383,-0.44410184,-0.84330824,0.39447122,-0.03017786
1.84000000,0.27656331,0.77648754,-0.22907263,-0.47361267,0.84751888,0.39980467,0.04567174,0.24342602,-0.77285576,0.23985383,-0.44410184,-0.84330824,0.39447122,-0.03017786
1.86000000,0.27656331,0.77648754,-0.22907263,-0.47361267,0.84751888,0.39980467,0.04567174,0.24342602,-0.77285576,0.23985383,-0.44410184,-0.84330824,0.39447122,-0.03017786
1.88000000,0.27656331,0.77648754,-0.22907263,-0.47361267,0.84751888,0.39980467,0.04567174,0.24342602,-0.77285576,0.23985383,-0.44410184,-0.84330824,0.39447122,-0.03017786
1.90000000,0.27656331,0.77648754,-0.22907263,-0.47361267,0.84751888,0.39980467,0.04567174,0.24342602,-0.77285576,0.23985383,-0.44410184,-0.84330824,0.39447122,-0.03017786
1.92000000,0.27656331,0.77648754,-0.22907263,-0.47361267,0.84751888,0.39980467,0.04567174,0.24342602,-0.77285576,0.23985383,-0.44410184,-0.84330824,0.39447122,-0.03017786
1.94000000,0.27656331,0.77648754,-0.22907263,-0.47361267,0.84751888,0.39980467,0.04567174,0.24342602,-0.77285576,0.23985383,-0.44410184,-0.84330824,0.39447122,-0.03017786
1.96000000,0.27656331,0.77648754,-0.22907263,-0.47361267,0.84751888,0.39980467,0.04567174,0.24342602,-0.77285576,0.23985383,-0.44410184,-0.84330824,0.39447122,-0.03017786
1.98000000,0.27656331,0.77648754,-0.22907263,-0.47361267,0.84751888,0.39980467,0.04567174,0.24342602,-0.77285576,0.23985383,-0.44410184,-0.84330824,0.39447122,-0.03017786
2.00000000,0.27656331,0.77648754,-0.22907263,-0.47361267,0.84751888,0.39980467,0.04567174,0.24342602,-0.77285576,0.23985383,-0.44410184,-0.84330824,0.39447122,-0.03017786
2.02000000,0.27656331,0.77648754,-0.22907263,-0.47361267,0.84751888,0.39980467,0.04567174,0.24342602,-0.77285576,0.23985383,-0.44410184,-0.84330824,0.39447122,-0.03017786
2.04000000,0.27656331,0.77648754,-0.22907263,-0.47361267,0.84751888,0.39980467,0.04567174,0.24342602,-0.77285576,0.23985383,-0.44410184,-0.84330824,0.39447122,-0.03017786
2.06000000,0.27656331,0.77648754,-0.22907263,-0.47361267,0.84751888,0.39980467,0.04567174,0.24342602,-0.77285576,0.23985383,-0.44410184,-0.84330824,0.39447122,-0.03017786
2.08000000,0.27656331,0.77648754,-0.22907263,-0.47361267,0.84751888,0.39980467,0.04567174,0.24342602,-0.77285576,0.23985383,-0.44410184,-0.84330824,0.39447122,-0.03017786
2.10000000,0.27656331,0.77648754,-0.22907263,-0.47361267,0.84751888,0.39980467,0.04567174,0.24342602,-0.77285576,0.23985383,-0.44410184,-0.84330824,0.39447122,-0.03017786
2.12000000,0.27656331,0.77648754,-0.22907263,-0.47361267,0.84751888,0.39980467,0.04567174,0.24342602,-0.77285576,0.23985383,-0.44410184,-0.84330824,0.39447122,-0.03017786
2.14000000,0.27656331,0.77648754,-0.22907263,-0.47361267,0.84751888,0.39980467,0.04567174,0.24342602,-0.77285576,0.23985383,-0.44410184,-0.84330824,0.39447122,-0.03017786
2.16000000,0.27656331,0.77648754,-0.22907263,-0.47361267,0.84751888,0.39980467,0.04567174,0.24342602,-0.77285576,0.23985383,-0.44410184,-0.84330824,0.39447122,-0.03017786
2.18000000,0.27656331,0.77648754,-0.22907263,-0.47361267,0.84751888,0.39980467,0.04567174,0.24342602,-0.77285576,0.23985383,-0.44410184,-0.84330824,0.39447122,-0.03017786
2.20000000,0.27656331,0.77648754,-0.22907263,-0.47361267,0.84751888,0.39980467,0.04567174,0.24342602,-0.77285576,0.23985383,-0.44410184,-0.84330824,0.39447122,-0.03017786
2.22000000,0.27656331,0.77648754,-0.22907263,-0.47361267,0.84751888,0.39980467,0.04567174,0.24342602,-0.77285576,0.23985383,-0.44410184,-0.84330824,0.39447122,-0.03017786
2.24000000,0.27656331,0.77648754,-0.22907263,-0.47361267,0.84751888,0.39980467,0.04567174,0.24342602,-0.77285576,0.23985383,-0.44410184,-0.84330824,0.39447122,-0.03017786
2.26000000,0.27656331,0.77648754,-0.22907263,-0.47361267,0.84751888,0.39980467,0.04567174,0.24342602,-0.77285576,0.23985383,-0.44410184,-0.84330824,0.39447122,-0.03017786
2.28000000,0.27656331,0.77648754,-0.22907263,-0.47361267,0.84751888,0.39980467,0.04567174,0.24342602,-0.77285576,0.23985383,-0.44410184,-0.84330824,0.39447122,-0.03017786
2.30000000,0.27656331,0.77648754,-0.22907263,-0.47361267,0.84751888,0.39980467,0.04567174,0.24342602,-0.77285576,0.23985383,-0.44410184,-0.84330824,0.39447122,-0.03017786
2.32000000,0.27656331,0.77648754,-0.22907263,-0.47361267,0.84751888,0.39980467,0.04567174,0.24342602,-0.77285576,0.23985383,-0.44410184,-0.84330824,0.39447122,-0.03017786
2.34000000,0.27656331,0.77648754,-0.22907263,-0.47361267,0.84751888,0.39980467,0.04567174,0.24342602,-0.77285576,0.23985383,-0.44410184,-0.84330824,0.39447122,-0.03017786
2.36000000,0.27656331,0.77648754,-0.22907263,-0.47361267,0.84751888,0.39980467,0.04567174,0.24342602,-0.77285576,0.23985383,-0.44410184,-0.84330824,0.39447122,-0.03017786
2.38000000,0.27656331,0.77648754,-0.22907263,-0.47361267,0.84751888,0.39980467,0.04567174,0.24342602,-0.77285576,0.23985383,-0.44410184,-0.84330824,0.39447122,-0.03017786
2.40000000,0.27656331,0.77648754,-0.22907263,-0.47361267,0.84751888,0.39980467,0.04567174,0.24342602,-0.77285576,0.23985383,-0.44410184,-0.84330824,0.39447122,-0.03017786
2.42000000,0.27656331,0.77648754,-0.22907263,-0.47361267,0.84751888,0.39980467,0.04567174,0.24342602,-0.77285576,0.23985383,-0.44410184,-0.84330824,0.39447122,-0.03017786
2.44000000,0.27656331,0.77648754,-0.22907263,-0.47361267,0.84751888,0.39980467,0.04567174,0.24342602,-0.77285576,0.23985383,-0.44410184,-0.84330824,0.39447122,-0.03017786
2.46000000,0.27656331,0.77648754,-0.22907263,-0.47361267,0.84751888,0.39980467,0.04567174,0.24342602,-0.77285576,0.23985383,-0.44410184,-0.84330824,0.39447122,-0.03017786
2.48000000,0.27656331,0.77648754,-0.22907263,-0.47361267,0.84751888,0.39980467,0.04567174,0.24342602,-0.77285576,0.23985383,-0.44410184,-0.84330824,0.39447122,-0.03017786
2.50000000,0.27656331,0.77648754,-0.22907263,-0.47361267,0.84751888,0.39980467,0.04567174,0.24342602,-0.77285576,0.23985383,-0.44410184,-0.84330824,0.39447122,-0.03017786
2.52000000,0.27656331,0.77648754,-0.22907263,-0.47361267,0.84751888,0.39980467,0.04567174,0.24342602,-0.77285576,0.23985383,-0.44410184,-0.84330824,0.39447122,-0.03017786
2.54000000,0.27656331,0.77648754,-0.22907263,-0.47361267,0.84751888,0.39980467,0.04567174,0.24342602,-0.77285576,0.23985383,-0.44410184,-0.84330824,0.39447122,-0.03017786
2.56000000,0.27656331,0.77648754,-0.22907263,-0.47361267,0.84751888,0.39980467,0.04567174,0.24342602,-0.77285576,0.23985383,-0.44410184,-0.84330824,0.39447122,-0.03017786
2.58000000,0.27656331,0.77648754,-0.22907263,-0.47361267,0.84751888,0.39980467,0.04567174,0.24342602,-0.77285576,0.23985383,-0.44410184,-0.84330824,0.39447122,-0.03017786
2.60000000,0.27656331,0.77648754,-0.22907263,-0.47361267,0.84751888,0.39980467,0.04567174,0.24342602,-0.77285576,0.23985383,-0.44410184,-0.84330824,0.39447122,-0.03017786
2.62000000,0.27656331,0.77648754,-0.22907263,-0.47361267,0.84751888,0.39980467,0.04567174,0.24342602,-0.77285576,0.23985383,-0.44410184,-0.84330824,0.39447122,-0.03017786
2.64000000,0.27656331,0.77648754,-0.22907263,-0.47361267,0.84751888,0.39980467,0.04567174,0.24342602,-0.77285576,0.23985383,-0.44410184,-0.84330824,0.39447122,-0.03017786
2.66000000,0.27656331,0.77648754,-0.22907263,-0.47361267,0.84751888,0.39980467,0.04567174,0.24342602,-0.77285576,0.23985383,-0.44410184,-0.84330824,0.39447122,-0.03017786
2.68000000,0.27656331,0.77648754,-0.22907263,-0.47361267,0.84751888,0.39980467,0.04567174,0.24342602,-0.77285576,0.23985383,-0.44410184,-0.84330824,0.39447122,-0.03017786
2.70000000,0.27656331,0.77648754,-0.22907263,-0.47361267,0.84751888,0.39980467,0.04567174,0.24342602,-0.77285576,0.23985383,-0.44410184,-0.84330824,0.39447122,-0.03017786
2.72000000,0.27656331,0.77648754,-0.22907263,-0.47361267,0.84751888,0.39980467,0.04567174,0.24342602,-0.77285576,0.23985383,-0.44410184,-0.84330824,0.39447122,-0.03017786
2.74000000,0.27656331,0.77648754,-0.22907263,-0.47361267,0.84751888,0.39980467,0.04567174,0.24342602,-0.77285576,0.23985383,-0.44410184,-0.84330824,0.39447122,-0.03017786
2.76000000,0.27656331,0.77648754,-0.22907263,-0.47361267,0.84751888,0.39980467,0.04567174,0.24342602,-0.77285576,0.23985383,-0.44410184,-0.84330824,0.39447122,-0.03017786
2.78000000,0.27656331,0.77648754,-0.22907263,-0.47361267,0.84751888,0.39980467,0.04567174,0.24342602,-0.77285576,0.23985383,-0.44410184,-0.84330824,0.39447122,-0.03017786
2.80000000,0.27656331,0.77648754,-0.22907263,-0.47361267,0.84751888,0.39980467,0.04567174,0.24342602,-0.77285576,0.23985383,-0.44410184,-0.84330824,0.39447122,-0.03017786
2.82000000,0.27656331,0.77648754,-0.22907263,-0.47361267,0.84751888,0.39980467,0.04567174,0.24342602,-0.77285576,0.23985383,-0.44410184,-0.84330824,0.39447122,-0.03017786
2.84000000,0.27656331,0.77648754,-0.22907263,-0.47361267,0.84751888,0.39980467,0.04567174,0.24342602,-0.77285576,0.23985383,-0.44410184,-0.84330824,0.39447122,-0.03017786
2.86000000,0.27656331,0.77648754,-0.22907263,-0.47361267,0.84751888,0.39980467,0.04567174,0.24342602,-0.77285576,0.23985383,-0.44410184,-0.84330824,0.39447122,-0.03017786
2.88000000,0.27656331,0.77648754,-0.22907263,-0.47361267,0.84751888,0.39980467,0.04567174,0.24342602,-0.77285576,0.23985383,-0.44410184,-0.84330824,0.39447122,-0.03017786
2.90000000,0.27656331,0.77648754,-0.22907263,-0.47361267,0.84751888,0.39980467,0.04567174,0.24342602,-0.77285576,0.23985383,-0.44410184,-0.84330824,0.39447122,-0.03017786
2.92000000,0.27656331,0.77648754,-0.22907263,-0.47361267,0.84751888,0.39980467,0.04567174,0.24342602,-0.77285576,0.23985383,-0.44410184,-0.84330824,0.39447122,-0.03017786
2.94000000,0.27656331,0.77648754,-0.22907263,-0.47361267,0.84751888,0.39980467,0.04567174,0.24342602,-0.77285576,0.23985383,-0.44410184,-0.84330824,0.39447122,-0.03017786
2.96000000,0.27656331,0.77648754,-0.22907263,-0.47361267,0.84751888,0.39980467,0.04567174,0.24342602,-0.77285576,0.23985383,-0.44410184,-0.84330824,0.39447122,-0.03017786
2.98000000,0.27656331,0.77648754,-0.22907263,-0.47361267,0.84751888,0.39980467,0.04567174,0.24342602,-0.77285576,0.23985383,-0.44410184,-0.84330824,0.39447122,-0.03017786
3.00000000,0.27656331,0.77648754,-0.22907263,-0.47361267,0.84751888,0.39980467,0.04567174,0.24342602,-0.77285576,0.23985383,-0.44410184,-0.84330824,0.39447122,-0.03017786
3.02000000,0.27656331,0.77648754,-0.22907263,-0.47361267,0.84751888,0.39980467,0.04567174,0.24342602,-0.77285576,0.23985383,-0.44410184,-0.84330824,0.39447122,-0.03017786
3.04000000,0.27656331,0.77648754,-0.22907263,-0.47361267,0.84751888,0.39980467,0.04567174,0.24342602,-0.77285576,0.23985383,-0.44410184,-0.84330824,0.39447122,-0.03017786
3.06000000,0.27656331,0.77648754,-0.22907263,-0.47361267,0.84751888,0.39980467,0.04567174,0.24342602,-0.77285576,0.23985383,-0.44410184,-0.84330824,0.39447122,-0.03017786
3.08000000,0.27656331,0.77648754,-0.22907263,-0.47361267,0.84751888,0.39980467,0.04567174,0.24342602,-0.77285576,0.23985383,-0.44410184,-0.84330824,0.39447122,-0.03017786
3.10000000,0.27656331,0.77648754,-0.22907263,-0.47361267,0.84751888,0.39980467,0.04567174,0.24342602,-0.77285576,0.23985383,-0.44410184,-0.84330824,0.39447122,-0.03017786
3.12000000,0.27656331,0.77648754,-0.22907263,-0.47361267,0.84751888,0.39980467,0.04567174,0.24342602,-0.77285576,0.23985383,-0.44410184,-0.84330824,0.39447122,-0.03017786
3.14000000,0.27656331,0.77648754,-0.22907263,-0.47361267,0.84751888,0.39980467,0.04567174,0.24342602,-0.77285576,0.23985383,-0.44410184,-0.84330824,0.39447122,-0.03017786
3.16000000,0.27656331,0.77648754,-0.22907263,-0.47361267,0.84751888,0.39980467,0.04567174,0.24342602,-0.77285576,0.23985383,-0.44410184,-0.84330824,0.39447122,-0.03017786
3.18000000,0.27656331,0.77648754,-0.22907263,-0.47361267,0.84751888,0.39980467,0.04567174,0.24342602,-0.77285576,0.23985383,-0.44410184,-0.84330824,0.39447122,-0.03017786
3.20000000,0.27656331,0.77648754,-0.22907263,-0.47361267,0.84751888,0.39980467,0.04567174,0.24342602,-0.77285576,0.23985383,-0.44410184,-0.84330824,0.39447122,-0.03017786
3.22000000,0.27656331,0.77648754,-0.22907263,-0.47361267,0.84751888,0.39980467,0.04567174,0.24342602,-0.77285576,0.23985383,-0.44410184,-0.84330824,0.39447122,-0.03017786
3.24000000,0.27656331,0.77648754,-0.22907263,-0.47361267,0.84751888,0.39980467,0.04567174,0.24342602,-0.77285576,0.23985383,-0.44410184,-0.84330824,0.39447122,-0.03017786
3.26000000,0.27656331,0.77648754,-0.22907263,-0.47361267,0.84751888,0.39980467,0.04567174,0.24342602,-0.77285576,0.23985383,-0.44410184,-0.84330824,0.39447122,-0.03017786
3.28000000,0.27656331,0.77648754,-0.22907263,-0.47361267,0.84751888,0.39980467,0.04567174,0.24342602,-0.77285576,0.23985383,-0.44410184,-0.84330824,0.39447122,-0.03017786
3.30000000,0.27656331,0.77648754,-0.22907263,-0.47361267,0.84751888,0.39980467,0.04567174,0.24342602,-0.77285576,0.23985383,-0.44410184,-0.84330824,0.39447122,-0.03017786
3.32000000,0.27656331,0.77648754,-0.22907263,-0.47361267,0.84751888,0.39980467,0.04567174,0.24342602,-0.77285576,0.23985383,-0.44410184,-0.84330824,0.39447122,-0.03017786
3.34000000,0.27656331,0.77648754,-0.22907263,-0.47361267,0.84751888,0.39980467,0.04567174,0.24342602,-0.77285576,0.23985383,-0.44410184,-0.84330824,0.39447122,-0.03017786
3.36000000,0.27656331,0.77648754,-0.22907263,-0.47361267,0.84751888,0.39980467,0.04567174,0.24342602,-0.77285576,0.23985383,-0.44410184,-0.84330824,0.39447122,-0.03017786
3.38000000,0.27656331,0.77648754,-0.22907263,-0.47361267,0.84751888,0.39980467,0.04567174,0.24342602,-0.77285576,0.23985383,-0.44410184,-0.84330824,0.39447122,-0.03017786
3.40000000,0.27656331,0.77648754,-0.22907263,-0.47361267,0.84751888,0.39980467,0.04567174,0.24342602,-0.77285576,0.23985383,-0.44410184,-0.84330824,0.39447122,-0.03017786
3.42000000,0.27656331,0.77648754,-0.22907263,-0.47361267,0.84751888,0.39980467,0.04567174,0.24342602,-0.77285576,0.23985383,-0.44410184,-0.84330824,0.39447122,-0.03017786
3.44000000,0.27656331,0.77648754,-0.22907263,-0.47361267,0.84751888,0.39980467,0.04567174,0.24342602,-0.77285576,0.23985383,-0.44410184,-0.84330824,0.39447122,-0.03017786
3.46000000,0.27656331,0.77648754,-0.22907263,-0.47361267,0.84751888,0.39980467,0.04567174,0.24342602,-0.77285576,0.23985383,-0.44410184,-0.84330824,0.39447122,-0.03017786
3.48000000,0.27656331,0.77648754,-0.22907263,-0.47361267,0.84751888,0.39980467,0.04567174,0.24342602,-0.77285576,0.23985383,-0.44410184,-0.84330824,0.39447122,-0.03017786
3.50000000,0.27656331,0.77648754,-0.22907263,-0.47361267,0.84751888,0.39980467,0.04567174,0.24342602,-0.77285576,0.23985383,-0.44410184,-0.84330824,0.39447122,-0.03017786
3.52000000,0.27656331,0.77648754,-0.22907263,-0.47361267,0.84751888,0.39980467,0.04567174,0.24342602,-0.77285576,0.23985383,-0.44410184,-0.84330824,0.39447122,-0.03017786
3.54000000,0.27656331,0.77648754,-0.22907263,-0.47361267,0.84751888,0.39980467,0.04567174,0.24342602,-0.77285576,0.23985383,-0.44410184,-0.84330824,0.39447122,-0.03017786
3.56000000,0.27656331,0.77648754,-0.22907263,-0.47361267,0.84751888,0.39980467,0.04567174,0.24342602,-0.77285576,0.23985383,-0.44410184,-0.84330824,0.39447122,-0.03017786
3.58000000,0.27656331,0.77648754,-0.22907263,-0.47361267,0.84751888,0.39980467,0.04567174,0.24342602,-0.77285576,0.23985383,-0.44410184,-0.84330824,0.39447122,-0.03017786
3.60000000,0.27656331,0.77648754,-0.22907263,-0.47361267,0.84751888,0.39980467,0.04567174,0.24342602,-0.77285576,0.23985383,-0.44410184,-0.84330824,0.39447122,-0.03017786
3.62000000,0.27656331,0.77648754,-0.22907263,-0.47361267,0.84751888,0.39980467,0.04567174,0.24342602,-0.77285576,0.23985383,-0.44410184,-0.84330824,0.39447122,-0.03017786
3.64000000,0.27656331,0.77648754,-0.22907263,-0.47361267,0.84751888,0.39980467,0.04567174,0.24342602,-0.77285576,0.23985383,-0.44410184,-0.84330824,0.39447122,-0.03017786
3.66000000,0.27656331,0.77648754,-0.22907263,-0.47361267,0.84751888,0.39980467,0.04567174,0.24342602,-0.77285576,0.23985383,-0.44410184,-0.84330824,0.39447122,-0.03017786
3.68000000,0.27656331,0.77648754,-0.22907263,-0.47361267,0.84751888,0.39980467,0.04567174,0.24342602,-0.77285576,0.23985383,-0.44410184,-0.84330824,0.39447122,-0.03017786
3.70000000,0.27656331,0.77648754,-0.22907263,-0.47361267,0.84751888,0.39980467,0.04567174,0.24342602,-0.77285576,0.23985383,-0.44410184,-0.84330824,0.39447122,-0.03017786
3.72000000,0.27656331,0.77648754,-0.22907263,-0.47361267,0.84751888,0.39980467,0.04567174,0.24342602,-0.77285576,0.23985383,-0.44410184,-0.84330824,0.39447122,-0.03017786
3.74000000,0.27656331,0.77648754,-0.22907263,-0.47361267,0.84751888,0.39980467,0.04567174,0.24342602,-0.77285576,0.23985383,-0.44410184,-0.84330824,0.39447122,-0.03017786
3.76000000,0.27656331,0.77648754,-0.22907263,-0.47361267,0.84751888,0.39980467,0.04567174,0.24342602,-0.77285576,0.23985383,-0.44410184,-0.84330824,0.39447122,-0.03017786
3.78000000,0.27656331,0.77648754,-0.22907263,-0.47361267,0.84751888,0.39980467,0.04567174,0.24342602,-0.77285576,0.23985383,-0.44410184,-0.84330824,0.39447122,-0.03017786
3.80000000,0.27656331,0.77648754,-0.22907263,-0.47361267,0.84751888,0.39980467,0.04567174,0.24342602,-0.77285576,0.23985383,-0.44410184,-0.84330824,0.39447122,-0.03017786
3.82000000,0.27656331,0.77648754,-0.22907263,-0.47361267,0.84751888,0.39980467,0.04567174,0.24342602,-0.77285576,0.23985383,-0.44410184,-0.84330824,0.39447122,-0.03017786
3.84000000,0.27656331,0.77648754,-0.22907263,-0.47361267,0.84751888,0.39980467,0.04567174,0.24342602,-0.77285576,0.23985383,-0.44410184,-0.84330824,0.39447122,-0.03017786
3.86000000,0.27656331,0.77648754,-0.22907263,-0.47361267,0.84751888,0.39980467,0.04567174,0.24342602,-0.77285576,0.23985383,-0.44410184,-0.84330824,0.39447122,-0.03017786
3.88000000,0.27656331,0.77648754,-0.22907263,-0.47361267,0.84751888,0.39980467,0.04567174,0.24342602,-0.77285576,0.23985383,-0.44410184,-0.84330824,0.39447122,-0.03017786
3.90000000,0.27656331,0.77648754,-0.22907263,-0.47361267,0.84751888,0.39980467,0.04567174,0.24342602,-0.77285576,0.23985383,-0.44410184,-0.84330824,0.39447122,-0.03017786
3.92000000,0.27656331,0.77648754,-0.22907263,-0.47361267,0.84751888,0.39980467,0.04567174,0.24342602,-0.77285576,0.23985383,-0.44410184,-0.84330824,0.39447122,-0.03017786
3.94000000,0.27656331,0.77648754,-0.22907263,-0.47361267,0.84751888,0.39980467,0.04567174,0.24342602,-0.77285576,0.23985383,-0.44410184,-0.84330824,0.39447122,-0.03017786
3.96000000,0.27656331,0.77648754,-0.22907263,-0.47361267,0.84751888,0.39980467,0.04567174,0.24342602,-0.77285576,0.23985383,-0.44410184,-0.84330824,0.39447122,-0.03017786
3.98000000,0.27656331,0.77648754,-0.22907263,-0.47361267,0.84751888,0.39980467,0.04567174,0.24342602,-0.77285576,0.23985383,-0.44410184,-0.84330824,0.39447122,-0.03017786
4.00000000,0.27656331,0.77648754,-0.22907263,-0.47361267,0.84751888,0.39980467,0.04567174,0.24342602,-0.77285576,0.23985383,-0.44410184,-0.84330824,0.39447122,-0.03017786
4.02000000,0.27656331,0.77648754,-0.22907263,-0.47361267,0.84751888,0.39980467,0.04567174,0.24342602,-0.77285576,0.23985383,-0.44410184,-0.84330824,0.39447122,-0.03017786
4.04000000,0.27656331,0.77648754,-0.22907263,-0.47361267,0.84751888,0.39980467,0.04567174,0.24342602,-0.77285576,0.23985383,-0.44410184,-0.84330824,0.39447122,-0.03017786
4.06000000,0.27656331,0.77648754,-0.22907263,-0.47361267,0.84751888,0.39980467,0.04567174,0.24342602,-0.77285576,0.23985383,-0.44410184,-0.84330824,0.39447122,-0.03017786
4.08000000,0.27656331,0.77648754,-0.22907263,-0.47361267,0.84751888,0.39980467,0.04567174,0.24342602,-0.77285576,0.23985383,-0.44410184,-0.84330824,0.39447122,-0.03017786
4.10000000,0.27656331,0.77648754,-0.22907263,-0.47361267,0.84751888,0.39980467,0.04567174,0.24342602,-0.77285576,0.23985383,-0.44410184,-0.84330824,0.39447122,-0.03017786
4.12000000,0.27656331,0.77648754,-0.22907263,-0.47361267,0.84751888,0.39980467,0.04567174,0.24342602,-0.77285576,0.23985383,-0.44410184,-0.84330824,0.39447122,-0.03017786
4.14000000,0.27656331,0.77648754,-0.22907263,-0.47361267,0.84751888,0.39980467,0.04567174,0.24342602,-0.77285576,0.23985383,-0.44410184,-0.84330824,0.39447122,-0.03017786
4.16000000,0.27656331,0.77648754,-0.22907263,-0.47361267,0.84751888,0.39980467,0.04567174,0.24342602,-0.77285576,0.23985383,-0.44410184,-0.84330824,0.39447122,-0.03017786
4.18000000,0.27656331,0.77648754,-0.22907263,-0.47361267,0.84751888,0.39980467,0.04567174,0.24342602,-0.77285576,0.23985383,-0.44410184,-0.84330824,0.39447122,-0.03017786
4.20000000,0.27656331,0.77648754,-0.22907263,-0.47361267,0.84751888,0.39980467,0.04567174,0.24342602,-0.77285576,0.23985383,-0.44410184,-0.84330824,0.39447122,-0.03017786
4.22000000,0.27656331,0.77648754,-0.22907263,-0.47361267,0.84751888,0.39980467,0.04567174,0.24342602,-0.77285576,0.23985383,-0.44410184,-0.84330824,0.39447122,-0.03017786
4.24000000,0.27656331,0.77648754,-0.22907263,-0.47361267,0.84751888,0.39980467,0.04567174,0.24342602,-0.77285576,0.23985383,-0.44410184,-0.84330824,0.39447122,-0.03017786
4.26000000,0.27656331,0.77648754,-0.22907263,-0.47361267,0.84751888,0.39980467,0.04567174,0.24342602,-0.77285576,0.23985383,-0.44410184,-0.84330824,0.39447122,-0.03017786
4.28000000,0.27656331,0.77648754,-0.22907263,-0.47361267,0.84751888,0.39980467,0.04567174,0.24342602,-0.77285576,0.23985383,-0.44410184,-0.84330824,0.39447122,-0.03017786
4.30000000,0.27656331,0.77648754,-0.22907263,-0.47361267,0.84751888,0.39980467,0.04567174,0.24342602,-0.77285576,0.23985383,-0.44410184,-0.84330824,0.39447122,-0.03017786
4.32000000,0.27656331,0.77648754,-0.22907263,-0.47361267,0.84751888,0.39980467,0.04567174,0.24342602,-0.77285576,0.23985383,-0.44410184,-0.84330824,0.39447122,-0.03017786
4.34000000,0.27656331,0.77648754,-0.22907263,-0.47361267,0.84751888,0.39980467,0.04567174,0.24342602,-0.77285576,0.23985383,-0.44410184,-0.84330824,0.39447122,-0.03017786
4.36000000,0.27656331,0.77648754,-0.22907263,-0.47361267,0.84751888,0.39980467,0.04567174,0.24342602,-0.77285576,0.23985383,-0.44410184,-0.84330824,0.39447122,-0.03017786
4.38000000,0.27656331,0.77648754,-0.22907263,-0.47361267,0.84751888,0.39980467,0.04567174,0.24342602,-0.77285576,0.23985383,-0.44410184,-0.84330824,0.39447122,-0.03017786
4.40000000,0.27656331,0.77648754,-0.22907263,-0.47361267,0.84751888,0.39980467,0.04567174,0.24342602,-0.77285576,0.23985383,-0.44410184,-0.84330824,0.39447122,-0.03017786
4.42000000,0.27656331,0.77648754,-0.22907263,-0.47361267,0.84751888,0.39980467,0.04567174,0.24342602,-0.77285576,0.23985383,-0.44410184,-0.84330824,0.39447122,-0.03017786
4.44000000,0.27656331,0.77648754,-0.22907263,-0.47361267,0.84751888,0.39980467,0.04567174,0.24342602,-0.77285576,0.23985383,-0.44410184,-0.84330824,0.39447122,-0.03017786
4.46000000,0.27656331,0.77648754,-0.22907263,-0.47361267,0.84751888,0.39980467,0.04567174,0.24342602,-0.77285576,0.23985383,-0.44410184,-0.84330824,0.39447122,-0.03017786
4.48000000,0.27656331,0.77648754,-0.22907263,-0.47361267,0.84751888,0.39980467,0.04567174,0.24342602,-0.77285576,0.23985383,-0.44410184,-0.84330824,0.39447122,-0.03017786
4.50000000,0.27656331,0.77648754,-0.22907263,-0.47361267,0.84751888,0.39980467,0.04567174,0.24342602,-0.77285576,0.23985383,-0.44410184,-0.84330824,0.39447122,-0.03017786
4.52000000,0.27656331,0.77648754,-0.22907263,-0.47361267,0.84751888,0.39980467,0.04567174,0.24342602,-0.77285576,0.23985383,-0.44410184,-0.84330824,0.39447122,-0.03017786
4.54000000,0.27656331,0.77648754,-0.22907263,-0.47361267,0.84751888,0.39980467,0.04567174,0.24342602,-0.77285576,0.23985383,-0.44410184,-0.84330824,0.39447122,-0.03017786
4.56000000,0.27656331,0.77648754,-0.22907263,-0.47361267,0.84751888,0.39980467,0.04567174,0.24342602,-0.77285576,0.23985383,-0.44410184,-0.84330824,0.39447122,-0.03017786
4.58000000,0.27656331,0.77648754,-0.22907263,-0.47361267,0.84751888,0.39980467,0.04567174,0.24342602,-0.77285576,0.23985383,-0.44410184,-0.84330824,0.39447122,-0.03017786
4.60000000,0.27656331,0.77648754,-0.22907263,-0.47361267,0.84751888,0.39980467,0.04567174,0.24342602,-0.77285576,0.23985383,-0.44410184,-0.84330824,0.39447122,-0.03017786
4.62000000,0.27656331,0.77648754,-0.22907263,-0.47361267,0.84751888,0.39980467,0.04567174,0.24342602,-0.77285576,0.23985383,-0.44410184,-0.84330824,0.39447122,-0.03017786
4.64000000,0.27656331,0.77648754,-0.22907263,-0.47361267,0.84751888,0.39980467,0.04567174,0.24342602,-0.77285576,0.23985383,-0.44410184,-0.84330824,0.39447122,-0.03017786
4.66000000,0.27656331,0.77648754,-0.22907263,-0.47361267,0.84751888,0.39980467,0.04567174,0.24342602,-0.77285576,0.23985383,-0.44410184,-0.84330824,0.39447122,-0.03017786
4.68000000,0.27656331,0.77648754,-0.22907263,-0.47361267,0.84751888,0.39980467,0.04567174,0.24342602,-0.77285576,0.23985383,-0.44410184,-0.84330824,0.39447122,-0.03017786
4.70000000,0.27656331,0.77648754,-0.22907263,-0.47361267,0.84751888,0.39980467,0.04567174,0.24342602,-0.77285576,0.23985383,-0.44410184,-0.84330824,0.39447122,-0.03017786
4.72000000,0.27656331,0.77648754,-0.22907263,-0.47361267,0.84751888,0.39980467,0.04567174,0.24342602,-0.77285576,0.23985383,-0.44410184,-0.84330824,0.39447122,-0.03017786
4.74000000,0.27656331,0.77648754,-0.22907263,-0.47361267,0.84751888,0.39980467,0.04567174,0.24342602,-0.77285576,0.23985383,-0.44410184,-0.84330824,0.39447122,-0.03017786
4.76000000,0.27656331,0.77648754,-0.22907263,-0.47361267,0.84751888,0.39980467,0.04567174,0.24342602,-0.77285576,0.23985383,-0.44410184,-0.84330824,0.39447122,-0.03017786
4.78000000,0.27656331,0.77648754,-0.22907263,-0.47361267,0.84751888,0.39980467,0.04567174,0.24342602,-0.77285576,0.23985383,-0.44410184,-0.84330824,0.39447122,-0.03017786
4.80000000,0.27656331,0.77648754,-0.22907263,-0.47361267,0.84751888,0.39980467,0.04567174,0.24342602,-0.77285576,0.23985383,-0.44410184,-0.84330824,0.39447122,-0.03017786
4.82000000,0.27656331,0.77648754,-0.22907263,-0.47361267,0.84751888,0.39980467,0.04567174,0.24342602,-0.77285576,0.23985383,-0.44410184,-0.84330824,0.39447122,-0.03017786
4.84000000,0.27656331,0.77648754,-0.22907263,-0.47361267,0.84751888,0.39980467,0.04567174,0.24342602,-0.77285576,0.23985383,-0.44410184,-0.84330824,0.39447122,-0.03017786
4.86000000,0.27656331,0.77648754,-0.22907263,-0.47361267,0.84751888,0.39980467,0.04567174,0.24342602,-0.77285576,0.23985383,-0.44410184,-0.84330824,0.39447122,-0.03017786
4.88000000,0.27656331,0.77648754,-0.22907263,-0.47361267,0.84751888,0.39980467,0.04567174,0.24342602,-0.77285576,0.23985383,-0.44410184,-0.84330824,0.39447122,-0.03017786
4.90000000,0.27656331,0.77648754,-0.22907263,-0.47361267,0.84751888,0.39980467,0.04567174,0.24342602,-0.77285576,0.23985383,-0.44410184,-0.84330824,0.39447122,-0.03017786
4.92000000,0.27656331,0.77648754,-0.22907263,-0.47361267,0.84751888,0.39980467,0.04567174,0.24342602,-0.77285576,0.23985383,-0.44410184,-0.84330824,0.39447122,-0.03017786
4.94000000,0.27656331,0.77648754,-0.22907263,-0.47361267,0.84751888,0.39980467,0.04567174,0.24342602,-0.77285576,0.23985383,-0.44410184,-0.84330824,0.39447122,-0.03017786
4.96000000,0.27656331,0.77648754,-0.22907263,-0.47361267,0.84751888,0.39980467,0.04567174,0.24342602,-0.77285576,0.23985383,-0.44410184,-0.84330824,0.39447122,-0.03017786
4.98000000,0.27656331,0.77648754,-0.22907263,-0.47361267,0.84751888,0.39980467,0.04567174,0.24342602,-0.77285576,0.23985383,-0.44410184,-0.84330824,0.39447122,-0.03017786
5.00000000,0.27656331,0.77648754,-0.22907263,-0.47361267,0.84751888,0.39980467,0.04567174,0.24342602,-0.77285576,0.23985383,-0.44410184,-0.84330824,0.39447122,-0.03017786
5.02000000,0.27656331,0.77648754,-0.22907263,-0.47361267,0.84751888,0.39980467,0.04567174,0.24342602,-0.77285576,0.23985383,-0.44410184,-0.84330824,0.39447122,-0.03017786
5.04000000,0.27656331,0.77648754,-0.22907263,-0.47361267,0.84751888,0.39980467,0.04567174,0.24342602,-0.77285576,0.23985383,-0.44410184,-0.84330824,0.39447122,-0.03017786
5.06000000,0.27656331,0.77648754,-0.22907263,-0.47361267,0.84751888,0.39980467,0.04567174,0.24342602,-0.77285576,0.23985383,-0.44410184,-0.84330824,0.39447122,-0.03017786
5.08000000,0.27656331,0.77648754,-0.22907263,-0.47361267,0.84751888,0.39980467,0.04567174,0.24342602,-0.77285576,0.23985383,-0.44410184,-0.84330824,0.39447122,-0.03017786
5.10000000,0.27656331,0.77648754,-0.22907263,-0.47361267,0.84751888,0.39980467,0.04567174,0.24342602,-0.77285576,0.23985383,-0.44410184,-0.84330824,0.39447122,-0.03017786
5.12000000,0.27656331,0.77648754,-0.22907263,-0.47361267,0.84751888,0.39980467,0.04567174,0.24342602,-0.77285576,0.23985383,-0.44410184,-0.84330824,0.39447122,-0.03017786
5.14000000,0.27656331,0.77648754,-0.22907263,-0.47361267,0.84751888,0.39980467,0.04567174,0.24342602,-0.77285576,0.23985383,-0.44410184,-0.84330824,0.39447122,-0.03017786
5.16000000,0.27656331,0.77648754,-0.22907263,-0.47361267,0.84751888,0.39980467,0.04567174,0.24342602,-0.77285576,0.23985383,-0.44410184,-0.84330824,0.39447122,-0.03017786
5.18000000,0.27656331,0.77648754,-0.22907263,-0.47361267,0.84751888,0.39980467,0.04567174,0.24342602,-0.77285576,0.23985383,-0.44410184,-0.84330824,0.39447122,-0.03017786
5.20000000,0.27656331,0.77648754,-0.22907263,-0.47361267,0.84751888,0.39980467,0.04567174,0.24342602,-0.77285576,0.23985383,-0.44410184,-0.84330824,0.39447122,-0.03017786
5.22000000,0.27656331,0.77648754,-0.22907263,-0.47361267,0.84751888,0.39980467,0.04567174,0.24342602,-0.77285576,0.23985383,-0.44410184,-0.84330824,0.39447122,-0.03017786
5.24000000,0.27656331,0.77648754,-0.22907263,-0.47361267,0.84751888,0.39980467,0.04567174,0.24342602,-0.77285576,0.23985383,-0.44410184,-0.84330824,0.39447122,-0.03017786
5.26000000,0.27656331,0.77648754,-0.22907263,-0.47361267,0.84751888,0.39980467,0.04567174,0.24342602,-0.77285576,0.23985383,-0.44410184,-0.84330824,0.39447122,-0.03017786
5.28000000,0.27656331,0.77648754,-0.22907263,-0.47361267,0.84751888,0.39980467,0.04567174,0.24342602,-0.77285576,0.23985383,-0.44410184,-0.84330824,0.39447122,-0.03017786
5.30000000,0.27656331,0.77648754,-0.22907263,-0.47361267,0.84751888,0.39980467,0.04567174,0.24342602,-0.77285576,0.23985383,-0.44410184,-0.84330824,0.39447122,-0.03017786
5.32000000,0.27656331,0.77648754,-0.22907263,-0.47361267,0.84751888,0.39980467,0.04567174,0.24342602,-0.77285576,0.23985383,-0.44410184,-0.84330824,0.39447122,-0.03017786
5.34000000,0.27656331,0.77648754,-0.22907263,-0.47361267,0.84751888,0.39980467,0.04567174,0.24342602,-0.77285576,0.23985383,-0.44410184,-0.84330824,0.39447122,-0.03017786
5.36000000,0.27656331,0.77648754,-0.22907263,-0.47361267,0.84751888,0.39980467,0.04567174,0.24342602,-0.77285576,0.23985383,-0.44410184,-0.84330824,0.39447122,-0.03017786
5.38000000,0.27656331,0.77648754,-0.22907263,-0.47361267,0.84751888,0.39980467,0.04567174,0.24342602,-0.77285576,0.23985383,-0.44410184,-0.84330824,0.39447122,-0.03017786
5.40000000,0.27656331,0.77648754,-0.22907263,-0.47361267,0.84751888,0.39980467,0.04567174,0.24342602,-0.77285576,0.23985383,-0.44410184,-0.84330824,0.39447122,-0.03017786
5.42000000,0.27656331,0.77648754,-0.22907263,-0.47361267,0.84751888,0.39980467,0.04567174,0.24342602,-0.77285576,0.23985383,-0.44410184,-0.84330824,0.39447122,-0.03017786
5.44000000,0.27656331,0.77648754,-0.22907263,-0.47361267,0.84751888,0.39980467,0.04567174,0.24342602,-0.77285576,0.23985383,-0.44410184,-0.84330824,0.39447122,-0.03017786
5.46000000,0.27656331,0.77648754,-0.22907263,-0.47361267,0.84751888,0.39980467,0.04567174,0.24342602,-0.77285576,0.23985383,-0.44410184,-0.84330824,0.39447122,-0.03017786
5.48000000,0.27656331,0.77648754,-0.22907263,-0.47361267,0.84751888,0.39980467,0.04567174,0.24342602,-0.77285576,0.23985383,-0.44410184,-0.84330824,0.39447122,-0.03017786
5.50000000,0.27656331,0.77648754,-0.22907263,-0.47361267,0.84751888,0.39980467,0.04567174,0.24342602,-0.77285576,0.23985383,-0.44410184,-0.84330824,0.39447122,-0.03017786
5.52000000,0.27656331,0.77648754,-0.22907263,-0.47361267,0.84751888,0.39980467,0.04567174,0.24342602,-0.77285576,0.23985383,-0.44410184,-0.84330824,0.39447122,-0.03017786
5.54000000,0.27656331,0.77648754,-0.22907263,-0.47361267,0.84751888,0.39980467,0.04567174,0.24342602,-0.77285576,0.23985383,-0.44410184,-0.84330824,0.39447122,-0.03017786
5.56000000,0.27656331,0.77648754,-0.22907263,-0.47361267,0.84751888,0.39980467,0.04567174,0.24342602,-0.77285576,0.23985383,-0.44410184,-0.84330824,0.39447122,-0.03017786
5.58000000,0.27656331,0.77648754,-0.22907263,-0.47361267,0.84751888,0.39980467,0.04567174,0.24342602,-0.77285576,0.23985383,-0.44410184,-0.84330824,0.39447122,-0.03017786
5.60000000,0.27656331,0.77648754,-0.22907263,-0.47361267,0.84751888,0.39980467,0.04567174,0.24342602,-0.77285576,0.23985383,-0.44410184,-0.84330824,0.39447122,-0.03017786
5.62000000,0.27656331,0.77648754,-0.22907263,-0.47361267,0.84751888,0.39980467,0.04567174,0.24342602,-0.77285576,0.23985383,-0.44410184,-0.84330824,0.39447122,-0.03017786
5.64000000,0.27656331,0.77648754,-0.22907263,-0.47361267,0.84751888,0.39980467,0.04567174,0.24342602,-0.77285576,0.23985383,-0.44410184,-0.84330824,0.39447122,-0.03017786
5.66000000,0.27656331,0.77648754,-0.22907263,-0.47361267,0.84751888,0.39980467,0.04567174,0.24342602,-0.77285576,0.23985383,-0.44410184,-0.84330824,0.39447122,-0.03017786
5.68000000,0.27656331,0.77648754,-0.22907263,-0.47361267,0.84751888,0.39980467,0.04567174,0.24342602,-0.77285576,0.23985383,-0.44410184,-0.84330824,0.39447122,-0.03017786
5.70000000,0.27656331,0.77648754,-0.22907263,-0.47361267,0.84751888,0.39980467,0.04567174,0.24342602,-0.77285576,0.23985383,-0.44410184,-0.84330824,0.39447122,-0.03017786
5.72000000,0.27656331,0.77648754,-0.22907263,-0.47361267,0.84751888,0.39980467,0.04567174,0.24342602,-0.77285576,0.23985383,-0.44410184,-0.84330824,0.39447122,-0.03017786
5.74000000,0.27656331,0.77648754,-0.22907263,-0.47361267,0.84751888,0.39980467,0.04567174,0.24342602,-0.77285576,0.23985383,-0.44410184,-0.84330824,0.39447122,-0.03017786
5.76000000,0.27656331,0.77648754,-0.22907263,-0.47361267,0.84751888,0.39980467,0.04567174,0.24342602,-0.77285576,0.23985383,-0.44410184,-0.84330824,0.39447122,-0.03017786
5.78000000,0.27656331,0.77648754,-0.22907263,-0.47361267,0.84751888,0.39980467,0.04567174,0.24342602,-0.77285576,0.23985383,-0.44410184,-0.84330824,0.39447122,-0.03017786
5.80000000,0.27656331,0.77648754,-0.22907263,-0.47361267,0.84751888,0.39980467,0.04567174,0.24342602,-0.77285576,0.23985383,-0.44410184,-0.84330824,0.39447122,-0.03017786
5.82000000,0.27656331,0.77648754,-0.22907263,-0.47361267,0.84751888,0.39980467,0.04567174,0.24342602,-0.77285576,0.23985383,-0.44410184,-0.84330824,0.39447122,-0.03017786
5.84000000,0.27656331,0.77648754,-0.22907263,-0.47361267,0.84751888,0.39980467,0.04567174,0.24342602,-0.77285576,0.23985383,-0.44410184,-0.84330824,0.39447122,-0.03017786
5.86000000,0.27656331,0.77648754,-0.22907263,-0.47361267,0.84751888,0.39980467,0.04567174,0.24342602,-0.77285576,0.23985383,-0.44410184,-0.84330824,0.39447122,-0.03017786
5.88000000,0.27656331,0.77648754,-0.22907263,-0.47361267,0.84751888,0.39980467,0.04567174,0.24342602,-0.77285576,0.23985383,-0.44410184,-0.84330824,0.39447122,-0.03017786
5.90000000,0.27656331,0.77648754,-0.22907263,-0.47361267,0.84751888,0.39980467,0.04567174,0.24342602,-0.77285576,0.23985383,-0.44410184,-0.84330824,0.39447122,-0.03017786
5.92000000,0.27656331,0.77648754,-0.22907263,-0.47361267,0.84751888,0.39980467,0.04567174,0.24342602,-0.77285576,0.23985383,-0.44410184,-0.84330824,0.39447122,-0.03017786
5.94000000,0.27656331,0.77648754,-0.22907263,-0.47361267,0.84751888,0.39980467,0.04567174,0.24342602,-0.77285576,0.23985383,-0.44410184,-0.84330824,0.39447122,-0.03017786
5.96000000,0.27656331,0.77648754,-0.22907263,-0.47361267,0.84751888,0.39980467,0.04567174,0.24342602,-0.77285576,0.23985383,-0.44410184,-0.84330824,0.39447122,-0.03017786
5.98000000,0.27656331,0.77648754,-0.22907263,-0.47361267,0.84751888,0.39980467,0.04567174,0.24342602,-0.77285576,0.23985383,-0.44410184,-0.84330824,0.39447122,-0.03017786
6.00000000,0.27656331,0.77648754,-0.22907263,-0.47361267,0.84751888,0.39980467,0.04567174,0.24342602,-0.77285576,0.23985383,-0.44410184,-0.84330824,0.39447122,-0.03017786
6.02000000,0.27656331,0.77648754,-0.22907263,-0.47361267,0.84751888,0.39980467,0.04567174,0.24342602,-0.77285576,0.23985383,-0.44410184,-0.84330824,0.39447122,-0.03017786
6.04000000,0.27656331,0.77648754,-0.22907263,-0.47361267,0.84751888,0.39980467,0.04567174,0.24342602,-0.77285576,0.23985383,-0.44410184,-0.84330824,0.39447122,-0.03017786
6.06000000,0.27656331,0.77648754,-0.22907263,-0.47361267,0.84751888,0.39980467,0.04567174,0.24342602,-0.77285576,0.23985383,-0.44410184,-0.84330824,0.39447122,-0.03017786
6.08000000,0.27656331,0.77648754,-0.22907263,-0.47361267,0.84751888,0.39980467,0.04567174,0.24342602,-0.77285576,0.23985383,-0.44410184,-0.84330824,0.39447122,-0.03017786
6.10000000,0.27656331,0.77648754,-0.22907263,-0.47361267,0.84751888,0.39980467,0.04567174,0.24342602,-0.77285576,0.23985383,-0.44410184,-0.84330824,0.39447122,-0.03017786
6.12000000,0.27656331,0.77648754,-0.22907263,-0.47361267,0.84751888,0.39980467,0.04567174,0.24342602,-0.77285576,0.23985383,-0.44410184,-0.84330824,0.39447122,-0.03017786
6.14000000,0.27656331,0.77648754,-0.22907263,-0.47361267,0.84751888,0.39980467,0.04567174,0.24342602,-0.77285576,0.23985383,-0.44410184,-0.84330824,0.39447122,-0.03017786
6.16000000,0.27656331,0.77648754,-0.22907263,-0.47361267,0.84751888,0.39980467,0.04567174,0.24342602,-0.77285576,0.23985383,-0.44410184,-0.84330824,0.39447122,-0.03017786
6.18000000,0.27656331,0.77648754,-0.22907263,-0.47361267,0.84751888,0.39980467,0.04567174,0.24342602,-0.77285576,0.23985383,-0.44410184,-0.84330824,0.39447122,-0.03017786
6.20000000,0.27656331,0.77648754,-0.22907263,-0.47361267,0.84751888,0.39980467,0.04567174,0.24342602,-0.77285576,0.23985383,-0.44410184,-0.84330824,0.39447122,-0.03017786
6.22000000,0.27656331,0.77648754,-0.22907263,-0.47361267,0.84751888,0.39980467,0.04567174,0.24342602,-0.77285576,0.23985383,-0.44410184,-0.84330824,0.39447122,-0.03017786
6.24000000,0.27656331,0.77648754,-0.22907263,-0.47361267,0.84751888,0.39980467,0.04567174,0.24342602,-0.77285576,0.23985383,-0.44410184,-0.84330824,0.39447122,-0.03017786
6.26000000,0.27656331,0.77648754,-0.22907263,-0.47361267,0.84751888,0.39980467,0.04567174,0.24342602,-0.77285576,0.23985383,-0.44410184,-0.84330824,0.39447122,-0.03017786
6.28000000,0.27656331,0.77648754,-0.22907263,-0.47361267,0.84751888,0.39980467,0.04567174,0.24342602,-0.77285576,0.23985383,-0.44410184,-0.84330824,0.39447122,-0.03017786
6.30000000,0.27656331,0.77648754,-0.22907263,-0.47361267,0.84751888,0.39980467,0.04567174,0.24342602,-0.77285576,0.23985383,-0.44410184,-0.84330824,0.39447122,-0.03017786
6.32000000,0.27656331,0.77648754,-0.22907263,-0.47361267,0.84751888,0.39980467,0.04567174,0.24342602,-0.77285576,0.23985383,-0.44410184,-0.84330824,0.39447122,-0.03017786
6.34000000,0.27656331,0.77648754,-0.22907263,-0.47361267,0.84751888,0.39980467,0.04567174,0.24342602,-0.77285576,0.23985383,-0.44410184,-0.84330824,0.39447122,-0.03017786
6.36000000,0.27656331,0.77648754,-0.22907263,-0.47361267,0.84751888,0.39980467,0.04567174,0.24342602,-0.77285576,0.23985383,-0.44410184,-0.84330824,0.39447122,-0.03017786
6.38000000,0.27656331,0.77648754,-0.22907263,-0.47361267,0.84751888,0.39980467,0.04567174,0.24342602,-0.77285576,0.23985383,-0.44410184,-0.84330824,0.39447122,-0.03017786
6.40000000,0.27656331,0.77648754,-0.22907263,-0.47361267,0.84751888,0.39980467,0.04567174,0.24342602,-0.77285576,0.23985383,-0.44410184,-0.84330824,0.39447122,-0.03017786
6.42000000,0.27656331,0.77648754,-0.22907263,-0.47361267,0.84751888,0.39980467,0.04567174,0.24342602,-0.77285576,0.23985383,-0.44410184,-0.84330824,0.39447122,-0.03017786
6.44000000,0.27656331,0.77648754,-0.22907263,-0.47361267,0.84751888,0.39980467,0.04567174,0.24342602,-0.77285576,0.23985383,-0.44410184,-0.84330824,0.39447122,-0.03017786
6.46000000,0.27656331,0.77648754,-0.22907263,-0.47361267,0.84751888,0.39980467,0.04567174,0.24342602,-0.77285576,0.23985383,-0.44410184,-0.84330824,0.39447122,-0.03017786
6.48000000,0.27656331,0.77648754,-0.22907263,-0.47361267,0.84751888,0.39980467,0.04567174,0.24342602,-0.77285576,0.23985383,-0.44410184,-0.84330824,0.39447122,-0.03017786
6.50000000,0.27656331,0.77648754,-0.22907263,-0.47361267,0.84751888,0.39980467,0.04567174,0.24342602,-0.77285576,0.23985383,-0.44410184,-0.84330824,0.39447122,-0.03017786
6.52000000,0.27656331,0.77648754,-0.22907263,-0.47361267,0.84751888,0.39980467,0.04567174,0.24342602,-0.77285576,0.23985383,-0.44410184,-0.84330824,0.39447122,-0.03017786
6.54000000,0.27656331,0.77648754,-0.22907263,-0.47361267,0.84751888,0.39980467,0.04567174,0.24342602,-0.77285576,0.23985383,-0.44410184,-0.84330824,0.39447122,-0.03017786
6.56000000,0.27656331,0.77648754,-0.22907263,-0.47361267,0.84751888,0.39980467,0.04567174,0.24342602,-0.77285576,0.23985383,-0.44410184,-0.84330824,0.39447122,-0.03017786
6.58000000,0.27656331,0.77648754,-0.22907263,-0.47361267,0.84751888,0.39980467,0.04567174,0.24342602,-0.77285576,0.23985383,-0.44410184,-0.84330824,0.39447122,-0.03017786
6.60000000,0.27656331,0.77648754,-0.22907263,-0.47361267,0.84751888,0.39980467,0.04567174,0.24342602,-0.77285576,0.23985383,-0.44410184,-0.84330824,0.39447122,-0.03017786
6.62000000,0.27656331,0.77648754,-0.22907263,-0.47361267,0.84751888,0.39980467,0.04567174,0.24342602,-0.77285576,0.23985383,-0.44410184,-0.84330824,0.39447122,-0.03017786
6.64000000,0.27656331,0.77648754,-0.22907263,-0.47361267,0.84751888,0.39980467,0.04567174,0.24342602,-0.77285576,0.23985383,-0.44410184,-0.84330824,0.39447122,-0.03017786
6.66000000,0.27656331,0.77648754,-0.22907263,-0.47361267,0.84751888,0.39980467,0.04567174,0.24342602,-0.77285576,0.23985383,-0.44410184,-0.84330824,0.39447122,-0.03017786
6.68000000,0.27656331,0.77648754,-0.22907263,-0.47361267,0.84751888,0.39980467,0.04567174,0.24342602,-0.77285576,0.23985383,-0.44410184,-0.84330824,0.39447122,-0.03017786
6.70000000,0.27656331,0.77648754,-0.22907263,-0.47361267,0.84751888,0.39980467,0.04567174,0.24342602,-0.77285576,0.23985383,-0.44410184,-0.84330824,0.39447122,-0.03017786
6.72000000,0.27656331,0.77648754,-0.22907263,-0.47361267,0.84751888,0.39980467,0.04567174,0.24342602,-0.77285576,0.23985383,-0.44410184,-0.84330824,0.39447122,-0.03017786
6.74000000,0.27656331,0.77648754,-0.22907263,-0.47361267,0.84751888,0.39980467,0.04567174,0.24342602,-0.77285576,0.23985383,-0.44410184,-0.84330824,0.39447122,-0.03017786
6.76000000,0.27656331,0.77648754,-0.22907263,-0.47361267,0.84751888,0.39980467,0.04567174,0.24342602,-0.77285576,0.23985383,-0.44410184,-0.84330824,0.39447122,-0.03017786
6.78000000,0.27656331,0.77648754,-0.22907263,-0.47361267,0.84751888,0.39980467,0.04567174,0.24342602,-0.77285576,0.23985383,-0.44410184,-0.84330824,0.39447122,-0.03017786
6.80000000,0.27656331,0.77648754,-0.22907263,-0.47361267,0.84751888,0.39980467,0.04567174,0.24342602,-0.77285576,0.23985383,-0.44410184,-0.84330824,0.39447122,-0.03017786
6.82000000,0.27656331,0.77648754,-0.22907263,-0.47361267,0.84751888,0.39980467,0.04567174,0.24342602,-0.77285576,0.23985383,-0.44410184,-0.84330824,0.39447122,-0.03017786
6.84000000,0.27656331,0.77648754,-0.22907263,-0.47361267,0.84751888,0.39980467,0.04567174,0.24342602,-0.77285576,0.23985383,-0.44410184,-0.84330824,0.39447122,-0.03017786
6.86000000,0.27656331,0.77648754,-0.22907263,-0.47361267,0.84751888,0.39980467,0.04567174,0.24342602,-0.77285576,0.23985383,-0.44410184,-0.84330824,0.39447122,-0.03017786
6.88000000,0.27656331,0.77648754,-0.22907263,-0.47361267,0.84751888,0.39980467,0.04567174,0.24342602,-0.77285576,0.23985383,-0.44410184,-0.84330824,0.39447122,-0.03017786
6.90000000,0.27656331,0.77648754,-0.22907263,-0.47361267,0.84751888,0.39980467,0.04567174,0.24342602,-0.77285576,0.23985383,-0.44410184,-0.84330824,0.39447122,-0.03017786
6.92000000,0.27656331,0.77648754,-0.22907263,-0.47361267,0.84751888,0.39980467,0.04567174,0.24342602,-0.77285576,0.23985383,-0.44410184,-0.84330824,0.39447122,-0.03017786
6.94000000,0.27656331,0.77648754,-0.22907263,-0.47361267,0.84751888,0.39980467,0.04567174,0.24342602,-0.77285576,0.23985383,-0.44410184,-0.84330824,0.39447122,-0.03017786
6.96000000,0.27656331,0.77648754,-0.22907263,-0.47361267,0.84751888,0.39980467,0.04567174,0.24342602,-0.77285576,0.23985383,-0.44410184,-0.84330824,0.39447122,-0.03017786
6.98000000,0.27656331,0.77648754,-0.22907263,-0.47361267,0.84751888,0.39980467,0.04567174,0.24342602,-0.77285576,0.23985383,-0.44410184,-0.84330824,0.39447122,-0.03017786
7.00000000,0.27656331,0.77648754,-0.22907263,-0.47361267,0.84751888,0.39980467,0.04567174,0.24342602,-0.77285576,0.23985383,-0.44410184,-0.84330824,0.39447122,-0.03017786
7.02000000,0.27656331,0.77648754,-0.22907263,-0.47361267,0.84751888,0.39980467,0.04567174,0.24342602,-0.77285576,0.23985383,-0.44410184,-0.84330824,0.39447122,-0.03017786
7.04000000,0.27656331,0.77648754,-0.22907263,-0.47361267,0.84751888,0.39980467,0.04567174,0.24342602,-0.77285576,0.23985383,-0.44410184,-0.84330824,0.39447122,-0.03017786
7.06000000,0.27656331,0.77648754,-0.22907263,-0.47361267,0.84751888,0.39980467,0.04567174,0.24342602,-0.77285576,0.23985383,-0.44410184,-0.84330824,0.39447122,-0.03017786
7.08000000,0.27656331,0.77648754,-0.22907263,-0.47361267,0.84751888,0.39980467,0.04567174,0.24342602,-0.77285576,0.23985383,-0.44410184,-0.84330824,0.39447122,-0.03017786
7.10000000,0.27656331,0.77648754,-0.22907263,-0.47361267,0.84751888,0.39980467,0.04567174,0.24342602,-0.77285576,0.23985383,-0.44410184,-0.84330824,0.39447122,-0.03017786
7.12000000,0.27656331,0.77648754,-0.22907263,-0.47361267,0.84751888,0.39980467,0.04567174,0.24342602,-0.77285576,0.23985383,-0.44410184,-0.84330824,0.39447122,-0.03017786
7.14000000,0.27656331,0.77648754,-0.22907263,-0.47361267,0.84751888,0.39980467,0.04567174,0.24342602,-0.77285576,0.23985383,-0.44410184,-0.84330824,0.39447122,-0.03017786
7.16000000,0.27656331,0.77648754,-0.22907263,-0.47361267,0.84751888,0.39980467,0.04567174,0.24342602,-0.77285576,0.23985383,-0.44410184,-0.84330824,0.39447122,-0.03017786
7.18000000,0.27656331,0.77648754,-0.22907263,-0.47361267,0.84751888,0.39980467,0.04567174,0.24342602,-0.77285576,0.23985383,-0.44410184,-0.84330824,0.39447122,-0.03017786
7.20000000,0.27656331,0.77648754,-0.22907263,-0.47361267,0.84751888,0.39980467,0.04567174,0.24342602,-0.77285576,0.23985383,-0.44410184,-0.84330824,0.39447122,-0.03017786
7.22000000,0.27656331,0.77648754,-0.22907263,-0.47361267,0.84751888,0.39980467,0.04567174,0.24342602,-0.77285576,0.23985383,-0.44410184,-0.84330824,0.39447122,-0.03017786
7.24000000,0.27656331,0.77648754,-0.22907263,-0.47361267,0.84751888,0.39980467,0.04567174,0.24342602,-0.77285576,0.23985383,-0.44410184,-0.84330824,0.39447122,-0.03017786
7.26000000,0.27656331,0.77648754,-0.22907263,-0.47361267,0.84751888,0.39980467,0.04567174,0.24342602,-0.77285576,0.23985383,-0.44410184,-0.84330824,0.39447122,-0.03017786
7.28000000,0.27656331,0.77648754,-0.22907263,-0.47361267,0.84751888,0.39980467,0.04567174,0.24342602,-0.77285576,0.23985383,-0.44410184,-0.84330824,0.39447122,-0.03017786
7.30000000,0.27656331,0.77648754,-0.22907263,-0.47361267,0.84751888,0.39980467,0.04567174,0.24342602,-0.77285576,0.23985383,-0.44410184,-0.84330824,0.39447122,-0.03017786
7.32000000,0.27656331,0.77648754,-0.22907263,-0.47361267,0.84751888,0.39980467,0.04567174,0.24342602,-0.77285576,0.23985383,-0.44410184,-0.84330824,0.39447122,-0.03017786
7.34000000,0.27656331,0.77648754,-0.22907263,-0.47361267,0.84751888,0.39980467,0.04567174,0.24342602,-0.77285576,0.23985383,-0.44410184,-0.84330824,0.39447122,-0.03017786
7.36000000,0.27656331,0.77648754,-0.22907263,-0.47361267,0.84751888,0.39980467,0.04567174,0.24342602,-0.77285576,0.23985383,-0.44410184,-0.84330824,0.39447122,-0.03017786
7.38000000,0.27656331,0.77648754,-0.22907263,-0.47361267,0.84751888,0.39980467,0.04567174,0.24342602,-0.77285576,0.23985383,-0.44410184,-0.84330824,0.39447122,-0.03017786
7.40000000,0.27656331,0.77648754,-0.22907263,-0.47361267,0.84751888,0.39980467,0.04567174,0.24342602,-0.77285576,0.23985383,-0.44410184,-0.84330824,0.39447122,-0.03017786
7.42000000,0.27656331,0.77648754,-0.22907263,-0.47361267,0.84751888,0.39980467,0.04567174,0.24342602,-0.77285576,0.23985383,-0.44410184,-0.84330824,0.39447122,-0.03017786
7.44000000,0.27656331,0.77648754,-0.22907263,-0.47361267,0.84751888,0.39980467,0.04567174,0.24342602,-0.77285576,0.23985383,-0.44410184,-0.84330824,0.39447122,-0.03017786
7.46000000,0.27656331,0.77648754,-0.22907263,-0.47361267,0.84751888,0.39980467,0.04567174,0.24342602,-0.77285576,0.23985383,-0.44410184,-0.84330824,0.39447122,-0.03017786
7.48000000,0.27656331,0.77648754,-0.22907263,-0.47361267,0.84751888,0.39980467,0.04567174,0.24342602,-0.77285576,0.23985383,-0.44410184,-0.84330824,0.39447122,-0.03017786
7.50000000,0.27656331,0.77648754,-0.22907263,-0.47361267,0.84751888,0.39980467,0.04567174,0.24342602,-0.77285576,0.23985383,-0.44410184,-0.84330824,0.39447122,-0.03017786
7.52000000,0.27656331,0.77648754,-0.22907263,-0.47361267,0.84751888,0.39980467,0.04567174,0.24342602,-0.77285576,0.23985383,-0.44410184,-0.84330824,0.39447122,-0.03017786
7.54000000,0.27656331,0.77648754,-0.22907263,-0.47361267,0.84751888,0.39980467,0.04567174,0.24342602,-0.77285576,0.23985383,-0.44410184,-0.84330824,0.39447122,-0.03017786
7.56000000,0.27656331,0.77648754,-0.22907263,-0.47361267,0.84751888,0.39980467,0.04567174,0.24342602,-0.77285576,0.23985383,-0.44410184,-0.84330824,0.39447122,-0.03017786
7.58000000,0.27656331,0.77648754,-0.22907263,-0.47361267,0.84751888,0.39980467,0.04567174,0.24342602,-0.77285576,0.23985383,-0.44410184,-0.84330824,0.39447122,-0.03017786
7.60000000,0.27656331,0.77648754,-0.22907263,-0.47361267,0.84751888,0.39980467,0.04567174,0.24342602,-0.77285576,0.23985383,-0.44410184,-0.84330824,0.39447122,-0.03017786
7.62000000,0.27656331,0.77648754,-0.22907263,-0.47361267,0.84751888,0.39980467,0.04567174,0.24342602,-0.77285576,0.23985383,-0.44410184,-0.84330824,0.39447122,-0.03017786
7.64000000,0.27656331,0.77648754,-0.22907263,-0.47361267,0.84751888,0.39980467,0.04567174,0.24342602,-0.77285576,0.23985383,-0.44410184,-0.84330824,0.39447122,-0.03017786
7.66000000,0.27656331,0.77648754,-0.22907263,-0.47361267,0.84751888,0.39980467,0.04567174,0.24342602,-0.77285576,0.23985383,-0.44410184,-0.84330824,0.39447122,-0.03017786
7.68000000,0.27656331,0.77648754,-0.22907263,-0.47361267,0.84751888,0.39980467,0.04567174,0.24342602,-0.77285576,0.23985383,-0.44410184,-0.84330824,0.39447122,-0.03017786
7.70000000,0.27656331,0.77648754,-0.22907263,-0.47361267,0.84751888,0.39980467,0.04567174,0.24342602,-0.77285576,0.23985383,-0.44410184,-0.84330824,0.39447122,-0.03017786
7.72000000,0.27656331,0.77648754,-0.22907263,-0.47361267,0.84751888,0.39980467,0.04567174,0.24342602,-0.77285576,0.23985383,-0.44410184,-0.84330824,0.39447122,-0.03017786
7.74000000,0.27656331,0.77648754,-0.22907263,-0.47361267,0.84751888,0.39980467,0.04567174,0.24342602,-0.77285576,0.23985383,-0.44410184,-0.84330824,0.39447122,-0.03017786
7.76000000,0.27656331,0.77648754,-0.22907263,-0.47361267,0.84751888,0.39980467,0.04567174,0.24342602,-0.77285576,0.23985383,-0.44410184,-0.84330824,0.39447122,-0.03017786
7.78000000,0.27656331,0.77648754,-0.22907263,-0.47361267,0.84751888,0.39980467,0.04567174,0.24342602,-0.77285576,0.23985383,-0.44410184,-0.84330824,0.39447122,-0.03017786
7.80000000,0.27656331,0.77648754,-0.22907263,-0.47361267,0.84751888,0.39980467,0.04567174,0.24342602,-0.77285576,0.23985383,-0.44410184,-0.84330824,0.39447122,-0.03017786
7.82000000,0.27656331,0.77648754,-0.22907263,-0.47361267,0.84751888,0.39980467,0.04567174,0.24342602,-0.77285576,0.23985383,-0.44410184,-0.84330824,0.39447122,-0.03017786
7.84000000,0.27656331,0.77648754,-0.22907263,-0.47361267,0.84751888,0.39980467,0.04567174,0.24342602,-0.77285576,0.23985383,-0.44410184,-0.84330824,0.39447122,-0.03017786
7.86000000,0.27656331,0.77648754,-0.22907263,-0.47361267,0.84751888,0.39980467,0.04567174,0.24342602,-0.77285576,0.23985383,-0.44410184,-0.84330824,0.39447122,-0.03017786
7.88000000,0.27656331,0.77648754,-0.22907263,-0.47361267,0.84751888,0.39980467,0.04567174,0.24342602,-0.77285576,0.23985383,-0.44410184,-0.84330824,0.39447122,-0.03017786
7.90000000,0.27656331,0.77648754,-0.22907263,-0.47361267,0.84751888,0.39980467,0.04567174,0.24342602,-0.77285576,0.23985383,-0.44410184,-0.84330824,0.39447122,-0.03017786
7.92000000,0.27656331,0.77648754,-0.22907263,-0.47361267,0.84751888,0.39980467,0.04567174,0.24342602,-0.77285576,0.23985383,-0.44410184,-0.84330824,0.39447122,-0.03017786
7.94000000,0.27656331,0.77648754,-0.22907263,-0.47361267,0.84751888,0.39980467,0.04567174,0.24342602,-0.77285576,0.23985383,-0.44410184,-0.84330824,0.39447122,-0.03017786
7.96000000,0.27656331,0.77648754,-0.22907263,-0.47361267,0.84751888,0.39980467,0.04567174,0.24342602,-0.77285576,0.23985383,-0.44410184,-0.84330824,0.39447122,-0.03017786
7.98000000,0.27656331,0.77648754,-0.22907263,-0.47361267,0.84751888,0.39980467,0.04567174,0.24342602,-0.77285576,0.23985383,-0.44410184,-0.84330824,0.39447122,-0.03017786
8.00000000,0.27656331,0.77648754,-0.22907263,-0.47361267,0.84751888,0.39980467,0.04567174,0.24342602,-0.77285576,0.23985383,-0.44410184,-0.84330824,0.39447122,-0.03017786
8.02000000,0.27656331,0.77648754,-0.22907263,-0.47361267,0.84751888,0.39980467,0.04567174,0.24342602,-0.77285576,0.23985383,-0.44410184,-0.84330824,0.39447122,-0.03017786
8.04000000,0.27656331,0.77648754,-0.22907263,-0.47361267,0.84751888,0.39980467,0.04567174,0.24342602,-0.77285576,0.23985383,-0.44410184,-0.84330824,0.39447122,-0.03017786
8.06000000,0.27656331,0.77648754,-0.22907263,-0.47361267,0.84751888,0.39980467,0.04567174,0.24342602,-0.77285576,0.23985383,-0.44410184,-0.84330824,0.39447122,-0.03017786
8.08000000,0.27656331,0.77648754,-0.22907263,-0.47361267,0.84751888,0.39980467,0.04567174,0.24342602,-0.77285576,0.23985383,-0.44410184,-0.84330824,0.39447122,-0.03017786
8.10000000,0.27656331,0.77648754,-0.22907263,-0.47361267,0.84751888,0.39980467,0.04567174,0.24342602,-0.77285576,0.23985383,-0.44410184,-0.84330824,0.39447122,-0.03017786
8.12000000,0.27656331,0.77648754,-0.22907263,-0.47361267,0.84751888,0.39980467,0.04567174,0.24342602,-0.77285576,0.23985383,-0.44410184,-0.84330824,0.39447122,-0.03017786
8.14000000,0.27656331,0.77648754,-0.22907263,-0.47361267,0.84751888,0.39980467,0.04567174,0.24342602,-0.77285576,0.23985383,-0.44410184,-0.84330824,0.39447122,-0.03017786
8.16000000,0.27656331,0.77648754,-0.22907263,-0.47361267,0.84751888,0.39980467,0.04567174,0.24342602,-0.77285576,0.23985383,-0.44410184,-0.84330824,0.39447122,-0.03017786
8.18000000,0.27656331,0.77648754,-0.22907263,-0.47361267,0.84751888,0.39980467,0.04567174,0.24342602,-0.77285576,0.23985383,-0.44410184,-0.84330824,0.39447122,-0.03017786
8.20000000,0.27656331,0.77648754,-0.22907263,-0.47361267,0.84751888,0.39980467,0.04567174,0.24342602,-0.77285576,0.23985383,-0.44410184,-0.84330824,0.39447122,-0.03017786
8.22000000,0.27656331,0.77648754,-0.22907263,-0.47361267,0.84751888,0.39980467,0.04567174,0.24342602,-0.77285576,0.23985383,-0.44410184,-0.84330824,0.39447122,-0.03017786
8.24000000,0.27656331,0.77648754,-0.22907263,-0.47361267,0.84751888,0.39980467,0.04567174,0.24342602,-0.77285576,0.23985383,-0.44410184,-0.84330824,0.39447122,-0.03017786
8.26000000,0.27656331,0.77648754,-0.22907263,-0.47361267,0.84751888,0.39980467,0.04567174,0.24342602,-0.77285576,0.23985383,-0.44410184,-0.84330824,0.39447122,-0.03017786
8.28000000,0.27656331,0.77648754,-0.22907263,-0.47361267,0.84751888,0.39980467,0.04567174,0.24342602,-0.77285576,0.23985383,-0.44410184,-0.84330824,0.39447122,-0.03017786
8.30000000,0.27656331,0.77648754,-0.22907263,-0.47361267,0.84751888,0.39980467,0.04567174,0.24342602,-0.77285576,0.23985383,-0.44410184,-0.84330824,0.39447122,-0.03017786
8.32000000,0.27656331,0.77648754,-0.22907263,-0.47361267,0.84751888,0.39980467,0.04567174,0.24342602,-0.77285576,0.23985383,-0.44410184,-0.84330824,0.39447122,-0.03017786
8.34000000,0.27656331,0.77648754,-0.22907263,-0.47361267,0.84751888,0.39980467,0.04567174,0.24342602,-0.77285576,0.23985383,-0.44410184,-0.84330824,0.39447122,-0.03017786
8.36000000,0.27656331,0.77648754,-0.22907263,-0.47361267,0.84751888,0.39980467,0.04567174,0.24342602,-0.77285576,0.23985383,-0.44410184,-0.84330824,0.39447122,-0.03017786
8.38000000,0.27656331,0.77648754,-0.22907263,-0.47361267,0.84751888,0.39980467,0.04567174,0.24342602,-0.77285576,0.23985383,-0.44410184,-0.84330824,0.39447122,-0.03017786
8.40000000,0.27656331,0.77648754,-0.22907263,-0.47361267,0.84751888,0.39980467,0.04567174,0.24342602,-0.77285576,0.23985383,-0.44410184,-0.84330824,0.39447122,-0.03017786
8.42000000,0.27656331,0.77648754,-0.22907263,-0.47361267,0.84751888,0.39980467,0.04567174,0.24342602,-0.77285576,0.23985383,-0.44410184,-0.84330824,0.39447122,-0.03017786
8.44000000,0.27656331,0.77648754,-0.22907263,-0.47361267,0.84751888,0.39980467,0.04567174,0.24342602,-0.77285576,0.23985383,-0.44410184,-0.84330824,0.39447122,-0.03017786
8.46000000,0.27656331,0.77648754,-0.22907263,-0.47361267,0.84751888,0.39980467,0.04567174,0.24342602,-0.77285576,0.23985383,-0.44410184,-0.84330824,0.39447122,-0.03017786
8.48000000,0.27656331,0.77648754,-0.22907263,-0.47361267,0.84751888,0.39980467,0.04567174,0.24342602,-0.77285576,0.23985383,-0.44410184,-0.84330824,0.39447122,-0.03017786
8.50000000,0.27656331,0.77648754,-0.22907263,-0.47361267,0.84751888,0.39980467,0.04567174,0.24342602,-0.77285576,0.23985383,-0.44410184,-0.84330824,0.39447122,-0.03017786
8.52000000,0.27656331,0.77648754,-0.22907263,-0.47361267,0.84751888,0.39980467,0.04567174,0.24342602,-0.77285576,0.23985383,-0.44410184,-0.84330824,0.39447122,-0.03017786
8.54000000,0.27656331,0.77648754,-0.22907263,-0.47361267,0.84751888,0.39980467,0.04567174,0.24342602,-0.77285576,0.23985383,-0.44410184,-0.84330824,0.39447122,-0.03017786
8.56000000,0.27656331,0.77648754,-0.22907263,-0.47361267,0.84751888,0.39980467,0.04567174,0.24342602,-0.77285576,0.23985383,-0.44410184,-0.84330824,0.39447122,-0.03017786
8.58000000,0.27656331,0.77648754,-0.22907263,-0.47361267,0.84751888,0.39980467,0.04567174,0.24342602,-0.77285576,0.23985383,-0.44410184,-0.84330824,0.39447122,-0.03017786
8.60000000,0.27656331,0.77648754,-0.22907263,-0.47361267,0.84751888,0.39980467,0.04567174,0.24342602,-0.77285576,0.23985383,-0.44410184,-0.84330824,0.39447122,-0.03017786
8.62000000,0.27656331,0.77648754,-0.22907263,-0.47361267,0.84751888,0.39980467,0.04567174,0.24342602,-0.77285576,0.23985383,-0.44410184,-0.84330824,0.39447122,-0.03017786
8.64000000,0.27656331,0.77648754,-0.22907263,-0.47361267,0.84751888,0.39980467,0.04567174,0.24342602,-0.77285576,0.23985383,-0.44410184,-0.84330824,0.39447122,-0.03017786
8.66000000,0.27656331,0.77648754,-0.22907263,-0.47361267,0.84751888,0.39980467,0.04567174,0.24342602,-0.77285576,0.23985383,-0.44410184,-0.84330824,0.39447122,-0.03017786
8.68000000,0.27656331,0.77648754,-0.22907263,-0.47361267,0.84751888,0.39980467,0.04567174,0.24342602,-0.77285576,0.23985383,-0.44410184,-0.84330824,0.39447122,-0.03017786
8.70000000,0.27656331,0.77648754,-0.22907263,-0.47361267,0.84751888,0.39980467,0.04567174,0.24342602,-0.77285576,0.23985383,-0.44410184,-0.84330824,0.39447122,-0.03017786
8.72000000,0.27656331,0.77648754,-0.22907263,-0.47361267,0.84751888,0.39980467,0.04567174,0.24342602,-0.77285576,0.23985383,-0.44410184,-0.84330824,0.39447122,-0.03017786
8.74000000,0.27656331,0.77648754,-0.22907263,-0.47361267,0.84751888,0.39980467,0.04567174,0.24342602,-0.77285576,0.23985383,-0.44410184,-0.84330824,0.39447122,-0.03017786
8.76000000,0.27656331,0.77648754,-0.22907263,-0.47361267,0.84751888,0.39980467,0.04567174,0.24342602,-0.77285576,0.23985383,-0.44410184,-0.84330824,0.39447122,-0.03017786
8.78000000,0.27656331,0.77648754,-0.22907263,-0.47361267,0.84751888,0.39980467,0.04567174,0.24342602,-0.77285576,0.23985383,-0.44410184,-0.84330824,0.39447122,-0.03017786
8.80000000,0.27656331,0.77648754,-0.22907263,-0.47361267,0.84751888,0.39980467,0.04567174,0.24342602,-0.77285576,0.23985383,-0.44410184,-0.84330824,0.39447122,-0.03017786
8.82000000,0.27656331,0.77648754,-0.22907263,-0.47361267,0.84751888,0.39980467,0.04567174,0.24342602,-0.77285576,0.23985383,-0.44410184,-0.84330824,0.39447122,-0.03017786
8.84000000,0.27656331,0.77648754,-0.22907263,-0.47361267,0.84751888,0.39980467,0.04567174,0.24342602,-0.77285576,0.23985383,-0.44410184,-0.84330824,0.39447122,-0.03017786
8.86000000,0.27656331,0.77648754,-0.22907263,-0.47361267,0.84751888,0.39980467,0.04567174,0.24342602,-0.77285576,0.23985383,-0.44410184,-0.84330824,0.39447122,-0.03017786
8.88000000,0.27656331,0.77648754,-0.22907263,-0.47361267,0.84751888,0.39980467,0.04567174,0.24342602,-0.77285576,0.23985383,-0.44410184,-0.84330824,0.39447122,-0.03017786
8.90000000,0.27656331,0.77648754,-0.22907263,-0.47361267,0.84751888,0.39980467,0.04567174,0.24342602,-0.77285576,0.23985383,-0.44410184,-0.84330824,0.39447122,-0.03017786
8.92000000,0.27656331,0.77648754,-0.22907263,-0.47361267,0.84751888,0.39980467,0.04567174,0.24342602,-0.77285576,0.23985383,-0.44410184,-0.84330824,0.39447122,-0.03017786
8.94000000,0.27656331,0.77648754,-0.22907263,-0.47361267,0.84751888,0.39980467,0.04567174,0.24342602,-0.77285576,0.23985383,-0.44410184,-0.84330824,0.39447122,-0.03017786
8.96000000,0.27656331,0.77648754,-0.22907263,-0.47361267,0.84751888,0.39980467,0.04567174,0.24342602,-0.77285576,0.23985383,-0.44410184,-0.84330824,0.39447122,-0.03017786
8.98000000,0.27656331,0.77648754,-0.22907263,-0.47361267,0.84751888,0.39980467,0.04567174,0.24342602,-0.77285576,0.23985383,-0.44410184,-0.84330824,0.39447122,-0.03017786
9.00000000,0.27656331,0.77648754,-0.22907263,-0.47361267,0.84751888,0.39980467,0.04567174,0.24342602,-0.77285576,0.23985383,-0.44410184,-0.84330824,0.39447122,-0.03017786
9.02000000,0.27656331,0.77648754,-0.22907263,-0.47361267,0.84751888,0.39980467,0.04567174,0.24342602,-0.77285576,0.23985383,-0.44410184,-0.84330824,0.39447122,-0.03017786
9.04000000,0.27656331,0.77648754,-0.22907263,-0.47361267,0.84751888,0.39980467,0.04567174,0.24342602,-0.77285576,0.23985383,-0.44410184,-0.84330824,0.39447122,-0.03017786
9.06000000,0.27656331,0.77648754,-0.22907263,-0.47361267,0.84751888,0.39980467,0.04567174,0.24342602,-0.77285576,0.23985383,-0.44410184,-0.84330824,0.39447122,-0.03017786
9.08000000,0.27656331,0.77648754,-0.22907263,-0.47361267,0.84751888,0.39980467,0.04567174,0.24342602,-0.77285576,0.23985383,-0.44410184,-0.84330824,0.39447122,-0.03017786
9.10000000,0.27656331,0.77648754,-0.22907263,-0.47361267,0.84751888,0.39980467,0.04567174,0.24342602,-0.77285576,0.23985383,-0.44410184,-0.84330824,0.39447122,-0.03017786
9.12000000,0.27656331,0.77648754,-0.22907263,-0.47361267,0.84751888,0.39980467,0.04567174,0.24342602,-0.77285576,0.23985383,-0.44410184,-0.84330824,0.39447122,-0.03017786
9.14000000,0.27656331,0.77648754,-0.22907263,-0.47361267,0.84751888,0.39980467,0.04567174,0.24342602,-0.77285576,0.23985383,-0.44410184,-0.84330824,0.39447122,-0.03017786
9.16000000,0.27656331,0.77648754,-0.22907263,-0.47361267,0.84751888,0.39980467,0.04567174,0.24342602,-0.77285576,0.23985383,-0.44410184,-0.84330824,0.39447122,-0.03017786
9.18000000,0.27656331,0.77648754,-0.22907263,-0.47361267,0.84751888,0.39980467,0.04567174,0.24342602,-0.77285576,0.23985383,-0.44410184,-0.84330824,0.39447122,-0.03017786
9.20000000,0.27656331,0.77648754,-0.22907263,-0.47361267,0.84751888,0.39980467,0.04567174,0.24342602,-0.77285576,0.23985383,-0.44410184,-0.84330824,0.39447122,-0.03017786
9.22000000,0.27656331,0.77648754,-0.22907263,-0.47361267,0.84751888,0.39980467,0.04567174,0.24342602,-0.77285576,0.23985383,-0.44410184,-0.84330824,0.39447122,-0.03017786
9.24000000,0.27656331,0.77648754,-0.22907263,-0.47361267,0.84751888,0.39980467,0.04567174,0.24342602,-0.77285576,0.23985383,-0.44410184,-0.84330824,0.39447122,-0.03017786
9.26000000,0.27656331,0.77648754,-0.22907263,-0.47361267,0.84751888,0.39980467,0.04567174,0.24342602,-0.77285576,0.23985383,-0.44410184,-0.84330824,0.39447122,-0.03017786
9.28000000,0.27656331,0.77648754,-0.22907263,-0.47361267,0.84751888,0.39980467,0.04567174,0.24342602,-0.77285576,0.23985383,-0.44410184,-0.84330824,0.39447122,-0.03017786
9.30000000,0.27656331,0.77648754,-0.22907263,-0.47361267,0.84751888,0.39980467,0.04567174,0.24342602,-0.77285576,0.23985383,-0.44410184,-0.84330824,0.39447122,-0.03017786
9.32000000,0.27656331,0.77648754,-0.22907263,-0.47361267,0.84751888,0.39980467,0.04567174,0.24342602,-0.77285576,0.23985383,-0.44410184,-0.84330824,0.39447122,-0.03017786
9.34000000,0.27656331,0.77648754,-0.22907263,-0.47361267,0.84751888,0.39980467,0.04567174,0.24342602,-0.77285576,0.23985383,-0.44410184,-0.84330824,0.39447122,-0.03017786
9.36000000,0.27656331,0.77648754,-0.22907263,-0.47361267,0.84751888,0.39980467,0.04567174,0.24342602,-0.77285576,0.23985383,-0.44410184,-0.84330824,0.39447122,-0.03017786
9.38000000,0.27656331,0.77648754,-0.22907263,-0.47361267,0.84751888,0.39980467,0.04567174,0.24342602,-0.77285576,0.23985383,-0.44410184,-0.84330824,0.39447122,-0.03017786
9.40000000,0.27656331,0.77648754,-0.22907263,-0.47361267,0.84751888,0.39980467,0.04567174,0.24342602,-0.77285576,0.23985383,-0.44410184,-0.84330824,0.39447122,-0.03017786
9.42000000,0.27656331,0.77648754,-0.22907263,-0.47361267,0.84751888,0.39980467,0.04567174,0.24342602,-0.77285576,0.23985383,-0.44410184,-0.84330824,0.39447122,-0.03017786
9.44000000,0.27656331,0.77648754,-0.22907263,-0.47361267,0.84751888,0.39980467,0.04567174,0.24342602,-0.77285576,0.23985383,-0.44410184,-0.84330824,0.39447122,-0.03017786
9.46000000,0.27656331,0.77648754,-0.22907263,-0.47361267,0.84751888,0.39980467,0.04567174,0.24342602,-0.77285576,0.23985383,-0.44410184,-0.84330824,0.39447122,-0.03017786
9.48000000,0.27656331,0.77648754,-0.22907263,-0.47361267,0.84751888,0.39980467,0.04567174,0.24342602,-0.77285576,0.23985383,-0.44410184,-0.84330824,0.39447122,-0.03017786
9.50000000,0.27656331,0.77648754,-0.22907263,-0.47361267,0.84751888,0.39980467,0.04567174,0.24342602,-0.77285576,0.23985383,-0.44410184,-0.84330824,0.39447122,-0.03017786
9.52000000,0.27656331,0.77648754,-0.22907263,-0.47361267,0.84751888,0.39980467,0.04567174,0.24342602,-0.77285576,0.23985383,-0.44410184,-0.84330824,0.39447122,-0.03017786
9.54000000,0.27656331,0.77648754,-0.22907263,-0.47361267,0.84751888,0.39980467,0.04567174,0.24342602,-0.77285576,0.23985383,-0.44410184,-0.84330824,0.39447122,-0.03017786
9.56000000,0.27656331,0.77648754,-0.22907263,-0.47361267,0.84751888,0.39980467,0.04567174,0.24342602,-0.77285576,0.23985383,-0.44410184,-0.84330824,0.39447122,-0.03017786
9.58000000,0.27656331,0.77648754,-0.22907263,-0.47361267,0.84751888,0.39980467,0.04567174,0.24342602,-0.77285576,0.23985383,-0.44410184,-0.84330824,0.39447122,-0.03017786
9.60000000,0.27656331,0.77648754,-0.22907263,-0.47361267,0.84751888,0.39980467,0.04567174,0.24342602,-0.77285576,0.23985383,-0.44410184,-0.84330824,0.39447122,-0.03017786
9.62000000,0.27656331,0.77648754,-0.22907263,-0.47361267,0.84751888,0.39980467,0.04567174,0.24342602,-0.77285576,0.23985383,-0.44410184,-0.84330824,0.39447122,-0.03017786
9.64000000,0.27656331,0.77648754,-0.22907263,-0.47361267,0.84751888,0.39980467,0.04567174,0.24342602,-0.77285576,0.23985383,-0.44410184,-0.84330824,0.39447122,-0.03017786
9.66000000,0.27656331,0.77648754,-0.22907263,-0.47361267,0.84751888,0.39980467,0.04567174,0.24342602,-0.77285576,0.23985383,-0.44410184,-0.84330824,0.39447122,-0.03017786
9.68000000,0.27656331,0.77648754,-0.22907263,-0.47361267,0.84751888,0.39980467,0.04567174,0.24342602,-0.77285576,0.23985383,-0.44410184,-0.84330824,0.39447122,-0.03017786
9.70000000,0.27656331,0.77648754,-0.22907263,-0.47361267,0.84751888,0.39980467,0.04567174,0.24342602,-0.77285576,0.23985383,-0.44410184,-0.84330824,0.39447122,-0.03017786
9.72000000,0.27656331,0.77648754,-0.22907263,-0.47361267,0.84751888,0.39980467,0.04567174,0.24342602,-0.77285576,0.23985383,-0.44410184,-0.84330824,0.39447122,-0.03017786
9.74000000,0.27656331,0.77648754,-0.22907263,-0.47361267,0.84751888,0.39980467,0.04567174,0.24342602,-0.77285576,0.23985383,-0.44410184,-0.84330824,0.39447122,-0.03017786
9.76000000,0.27656331,0.77648754,-0.22907263,-0.47361267,0.84751888,0.39980467,0.04567174,0.24342602,-0.77285576,0.23985383,-0.44410184,-0.84330824,0.39447122,-0.03017786
9.78000000,0.27656331,0.77648754,-0.22907263,-0.47361267,0.84751888,0.39980467,0.04567174,0.24342602,-0.77285576,0.23985383,-0.44410184,-0.84330824,0.39447122,-0.03017786
9.80000000,0.27656331,0.77648754,-0.22907263,-0.47361267,0.84751888,0.39980467,0.04567174,0.24342602,-0.77285576,0.23985383,-0.44410184,-0.84330824,0.39447122,-0.03017786
9.82000000,0.27656331,0.77648754,-0.22907263,-0.47361267,0.84751888,0.39980467,0.04567174,0.24342602,-0.77285576,0.23985383,-0.44410184,-0.84330824,0.39447122,-0.03017786
9.84000000,0.27656331,0.77648754,-0.22907263,-0.47361267,0.84751888,0.39980467,0.04567174,0.24342602,-0.77285576,0.23985383,-0.44410184,-0.84330824,0.39447122,-0.03017786
9.86000000,0.27656331,0.77648754,-0.22907263,-0.47361267,0.84751888,0.39980467,0.04567174,0.24342602,-0.77285576,0.23985383,-0.44410184,-0.84330824,0.39447122,-0.03017786
9.88000000,0.27656331,0.77648754,-0.22907263,-0.47361267,0.84751888,0.39980467,0.04567174,0.24342602,-0.77285576,0.23985383,-0.44410184,-0.84330824,0.39447122,-0.03017786
9.90000000,0.27656331,0.77648754,-0.22907263,-0.47361267,0.84751888,0.39980467,0.04567174,0.24342602,-0.77285576,0.23985383,-0.44410184,-0.84330824,0.39447122,-0.03017786
9.92000000,0.27656331,0.77648754,-0.22907263,-0.47361267,0.84751888,0.39980467,0.04567174,0.24342602,-0.77285576,0.23985383,-0.44410184,-0.84330824,0.39447122,-0.03017786
9.94000000,0.27656331,0.77648754,-0.22907263,-0.47361267,0.84751888,0.39980467,0.04567174,0.24342602,-0.77285576,0.23985383,-0.44410184,-0.84330824,0.39447122,-0.03017786
9.96000000,0.27656331,0.77648754,-0.22907263,-0.47361267,0.84751888,0.39980467,0.04567174,0.24342602,-0.77285576,0.23985383,-0.44410184,-0.84330824,0.39447122,-0.03017786
9.98000000,0.27656331,0.77648754,-0.22907263,-0.47361267,0.84751888,0.39980467,0.04567174,0.24342602,-0.77285576,0.23985383,-0.44410184,-0.84330824,0.39447122,-0.03017786
10.00000000,0.27656331,0.77648754,-0.22907263,-0.47361267,0.84751888,0.39980467,0.04567174,0.24342602,-0.77285576,0.23985383,-0.44410184,-0.84330824,0.39447122,-0.03017786
10.02000000,0.27656331,0.77648754,-0.22907263,-0.47361267,0.84751888,0.39980467,0.04567174,0.24342602,-0.77285576,0.23985383,-0.44410184,-0.84330824,0.39447122,-0.03017786
10.04000000,0.27656331,0.77648754,-0.22907263,-0.47361267,0.84751888,0.39980467,0.04567174,0.24342602,-0.77285576,0.23985383,-0.44410184,-0.84330824,0.39447122,-0.03017786
10.06000000,0.27656331,0.77648754,-0.22907263,-0.47361267,0.84751888,0.39980467,0.04567174,0.24342602,-0.77285576,0.23985383,-0.44410184,-0.84330824,0.39447122,-0.03017786
10.08000000,0.27656331,0.77648754,-0.22907263,-0.47361267,0.84751888,0.39980467,0.04567174,0.24342602,-0.77285576,0.23985383,-0.44410184,-0.84330824,0.39447122,-0.03017786
10.10000000,0.27656331,0.77648754,-0.22907263,-0.47361267,0.84751888,0.39980467,0.04567174,0.24342602,-0.77285576,0.23985383,-0.44410184,-0.84330824,0.39447122,-0.03017786
10.12000000,0.27656331,0.77648754,-0.22907263,-0.47361267,0.84751888,0.39980467,0.04567174,0.24342602,-0.77285576,0.23985383,-0.44410184,-0.84330824,0.39447122,-0.03017786
10.14000000,0.27656331,0.77648754,-0.22907263,-0.47361267,0.84751888,0.39980467,0.04567174,0.24342602,-0.77285576,0.23985383,-0.44410184,-0.84330824,0.39447122,-0.03017786
10.16000000,0.27656331,0.77648754,-0.22907263,-0.47361267,0.84751888,0.39980467,0.04567174,0.24342602,-0.77285576,0.23985383,-0.44410184,-0.84330824,0.39447122,-0.03017786
10.18000000,0.27656331,0.77648754,-0.22907263,-0.47361267,0.84751888,0.39980467,0.04567174,0.24342602,-0.77285576,0.23985383,-0.44410184,-0.84330824,0.39447122,-0.03017786
10.20000000,0.27656331,0.77648754,-0.22907263,-0.47361267,0.84751888,0.39980467,0.04567174,0.24342602,-0.77285576,0.23985383,-0.44410184,-0.84330824,0.39447122,-0.03017786
10.22000000,0.27656331,0.77648754,-0.22907263,-0.47361267,0.84751888,0.39980467,0.04567174,0.24342602,-0.77285576,0.23985383,-0.44410184,-0.84330824,0.39447122,-0.03017786
10.24000000,0.27656331,0.77648754,-0.22907263,-0.47361267,0.84751888,0.39980467,0.04567174,0.24342602,-0.77285576,0.23985383,-0.44410184,-0.84330824,0.39447122,-0.03017786
10.26000000,0.27656331,0.77648754,-0.22907263,-0.47361267,0.84751888,0.39980467,0.04567174,0.24342602,-0.77285576,0.23985383,-0.44410184,-0.84330824,0.39447122,-0.03017786
10.28000000,0.27656331,0.77648754,-0.22907263,-0.47361267,0.84751888,0.39980467,0.04567174,0.24342602,-0.77285576,0.23985383,-0.44410184,-0.84330824,0.39447122,-0.03017786
10.30000000,0.27656331,0.77648754,-0.22907263,-0.47361267,0.84751888,0.39980467,0.04567174,0.24342602,-0.77285576,0.23985383,-0.44410184,-0.84330824,0.39447122,-0.03017786
10.32000000,0.27656331,0.77648754,-0.22907263,-0.47361267,0.84751888,0.39980467,0.04567174,0.24342602,-0.77285576,0.23985383,-0.44410184,-0.84330824,0.39447122,-0.03017786
10.34000000,0.27656331,0.77648754,-0.22907263,-0.47361267,0.84751888,0.39980467,0.04567174,0.24342602,-0.77285576,0.23985383,-0.44410184,-0.84330824,0.39447122,-0.03017786
10.36000000,0.27656331,0.77648754,-0.22907263,-0.47361267,0.84751888,0.39980467,0.04567174,0.24342602,-0.77285576,0.23985383,-0.44410184,-0.84330824,0.39447122,-0.03017786
10.38000000,0.27656331,0.77648754,-0.22907263,-0.47361267,0.84751888,0.39980467,0.04567174,0.24342602,-0.77285576,0.23985383,-0.44410184,-0.84330824,0.39447122,-0.03017786
10.40000000,0.27656331,0.77648754,-0.22907263,-0.47361267,0.84751888,0.39980467,0.04567174,0.24342602,-0.77285576,0.23985383,-0.44410184,-0.84330824,0.39447122,-0.03017786
10.42000000,0.27656331,0.77648754,-0.22907263,-0.47361267,0.84751888,0.39980467,0.04567174,0.24342602,-0.77285576,0.23985383,-0.44410184,-0.84330824,0.39447122,-0.03017786
10.44000000,0.27656331,0.77648754,-0.22907263,-0.47361267,0.84751888,0.39980467,0.04567174,0.24342602,-0.77285576,0.23985383,-0.44410184,-0.84330824,0.39447122,-0.03017786
10.46000000,0.27656331,0.77648754,-0.22907263,-0.47361267,0.84751888,0.39980467,0.04567174,0.24342602,-0.77285576,0.23985383,-0.44410184,-0.84330824,0.39447122,-0.03017786
10.48000000,0.27656331,0.77648754,-0.22907263,-0.47361267,0.84751888,0.39980467,0.04567174,0.24342602,-0.77285576,0.23985383,-0.44410184,-0.84330824,0.39447122,-0.03017786
10.50000000,0.27656331,0.77648754,-0.22907263,-0.47361267,0.84751888,0.39980467,0.04567174,0.24342602,-0.77285576,0.23985383,-0.44410184,-0.84330824,0.39447122,-0.03017786
10.52000000,0.27656331,0.77648754,-0.22907263,-0.47361267,0.84751888,0.39980467,0.04567174,0.24342602,-0.77285576,0.23985383,-0.44410184,-0.84330824,0.39447122,-0.03017786
10.54000000,0.27656331,0.77648754,-0.22907263,-0.47361267,0.84751888,0.39980467,0.04567174,0.24342602,-0.77285576,0.23985383,-0.44410184,-0.84330824,0.39447122,-0.03017786
10.56000000,0.27656331,0.77648754,-0.22907263,-0.47361267,0.84751888,0.39980467,0.04567174,0.24342602,-0.77285576,0.23985383,-0.44410184,-0.84330824,0.39447122,-0.03017786
10.58000000,0.27656331,0.77648754,-0.22907263,-0.47361267,0.84751888,0.39980467,0.04567174,0.24342602,-0.77285576,0.23985383,-0.44410184,-0.84330824,0.39447122,-0.03017786
10.60000000,0.27656331,0.77648754,-0.22907263,-0.47361267,0.84751888,0.39980467,0.04567174,0.24342602,-0.77285576,0.23985383,-0.44410184,-0.84330824,0.39447122,-0.03017786
10.62000000,0.27656331,0.77648754,-0.22907263,-0.47361267,0.84751888,0.39980467,0.04567174,0.24342602,-0.77285576,0.23985383,-0.44410184,-0.84330824,0.39447122,-0.03017786
10.64000000,0.27656331,0.77648754,-0.22907263,-0.47361267,0.84751888,0.39980467,0.04567174,0.24342602,-0.77285576,0.23985383,-0.44410184,-0.84330824,0.39447122,-0.03017786
10.66000000,0.27656331,0.77648754,-0.22907263,-0.47361267,0.84751888,0.39980467,0.04567174,0.24342602,-0.77285576,0.23985383,-0.44410184,-0.84330824,0.39447122,-0.03017786
10.68000000,0.27656331,0.77648754,-0.22907263,-0.47361267,0.84751888,0.39980467,0.04567174,0.24342602,-0.77285576,0.23985383,-0.44410184,-0.84330824,0.39447122,-0.03017786
10.70000000,0.27656331,0.77648754,-0.22907263,-0.47361267,0.84751888,0.39980467,0.04567174,0.24342602,-0.77285576,0.23985383,-0.44410184,-0.84330824,0.39447122,-0.03017786
10.72000000,0.27656331,0.77648754,-0.22907263,-0.47361267,0.84751888,0.39980467,0.04567174,0.24342602,-0.77285576,0.23985383,-0.44410184,-0.84330824,0.39447122,-0.03017786
10.74000000,0.27656331,0.77648754,-0.22907263,-0.47361267,0.84751888,0.39980467,0.04567174,0.24342602,-0.77285576,0.23985383,-0.44410184,-0.84330824,0.39447122,-0.03017786
10.76000000,0.27656331,0.77648754,-0.22907263,-0.47361267,0.84751888,0.39980467,0.04567174,0.24342602,-0.77285576,0.23985383,-0.44410184,-0.84330824,0.39447122,-0.03017786
10.78000000,0.27656331,0.77648754,-0.22907263,-0.47361267,0.84751888,0.39980467,0.04567174,0.24342602,-0.77285576,0.23985383,-0.44410184,-0.84330824,0.39447122,-0.03017786
10.80000000,0.27656331,0.77648754,-0.22907263,-0.47361267,0.84751888,0.39980467,0.04567174,0.24342602,-0.77285576,0.23985383,-0.44410184,-0.84330824,0.39447122,-0.03017786
10.82000000,0.27656331,0.77648754,-0.22907263,-0.47361267,0.84751888,0.39980467,0.04567174,0.24342602,-0.77285576,0.23985383,-0.44410184,-0.84330824,0.39447122,-0.03017786
10.84000000,0.27656331,0.77648754,-0.22907263,-0.47361267,0.84751888,0.39980467,0.04567174,0.24342602,-0.77285576,0.23985383,-0.44410184,-0.84330824,0.39447122,-0.03017786
10.86000000,0.27656331,0.77648754,-0.22907263,-0.47361267,0.84751888,0.39980467,0.04567174,0.24342602,-0.77285576,0.23985383,-0.44410184,-0.84330824,0.39447122,-0.03017786
10.88000000,0.27656331,0.77648754,-0.22907263,-0.47361267,0.84751888,0.39980467,0.04567174,0.24342602,-0.77285576,0.23985383,-0.44410184,-0.84330824,0.39447122,-0.03017786
10.90000000,0.27656331,0.77648754,-0.22907263,-0.47361267,0.84751888,0.39980467,0.04567174,0.24342602,-0.77285576,0.23985383,-0.44410184,-0.84330824,0.39447122,-0.03017786
10.92000000,0.27656331,0.77648754,-0.22907263,-0.47361267,0.84751888,0.39980467,0.04567174,0.24342602,-0.77285576,0.23985383,-0.44410184,-0.84330824,0.39447122,-0.03017786
10.94000000,0.27656331,0.77648754,-0.22907263,-0.47361267,0.84751888,0.39980467,0.04567174,0.24342602,-0.77285576,0.23985383,-0.44410184,-0.84330824,0.39447122,-0.03017786
10.96000000,0.27656331,0.77648754,-0.22907263,-0.47361267,0.84751888,0.39980467,0.04567174,0.24342602,-0.77285576,0.23985383,-0.44410184,-0.84330824,0.39447122,-0.03017786
10.98000000,0.27656331,0.77648754,-0.22907263,-0.47361267,0.84751888,0.39980467,0.04567174,0.24342602,-0.77285576,0.23985383,-0.44410184,-0.84330824,0.39447122,-0.03017786
11.00000000,0.27656331,0.77648754,-0.22907263,-0.47361267,0.84751888,0.39980467,0.04567174,0.24342602,-0.77285576,0.23985383,-0.44410184,-0.84330824,0.39447122,-0.03017786
11.02000000,0.27656331,0.77648754,-0.22907263,-0.47361267,0.84751888,0.39980467,0.04567174,0.24342602,-0.77285576,0.23985383,-0.44410184,-0.84330824,0.39447122,-0.03017786
11.04000000,0.27656331,0.77648754,-0.22907263,-0.47361267,0.84751888,0.39980467,0.04567174,0.24342602,-0.77285576,0.23985383,-0.44410184,-0.84330824,0.39447122,-0.03017786
11.06000000,0.27656331,0.77648754,-0.22907263,-0.47361267,0.84751888,0.39980467,0.04567174,0.24342602,-0.77285576,0.23985383,-0.44410184,-0.84330824,0.39447122,-0.03017786
11.08000000,0.27656331,0.77648754,-0.22907263,-0.47361267,0.84751888,0.39980467,0.04567174,0.24342602,-0.77285576,0.23985383,-0.44410184,-0.84330824,0.39447122,-0.03017786
11.10000000,0.27656331,0.77648754,-0.22907263,-0.47361267,0.84751888,0.39980467,0.04567174,0.24342602,-0.77285576,0.23985383,-0.44410184,-0.84330824,0.39447122,-0.03017786
11.12000000,0.27656331,0.77648754,-0.22907263,-0.47361267,0.84751888,0.39980467,0.04567174,0.24342602,-0.77285576,0.23985383,-0.44410184,-0.84330824,0.39447122,-0.03017786
11.14000000,0.27656331,0.77648754,-0.22907263,-0.47361267,0.84751888,0.39980467,0.04567174,0.24342602,-0.77285576,0.23985383,-0.44410184,-0.84330824,0.39447122,-0.03017786
11.16000000,0.27656331,0.77648754,-0.22907263,-0.47361267,0.84751888,0.39980467,0.04567174,0.24342602,-0.77285576,0.23985383,-0.44410184,-0.84330824,0.39447122,-0.03017786
11.18000000,0.27656331,0.77648754,-0.22907263,-0.47361267,0.84751888,0.39980467,0.04567174,0.24342602,-0.77285576,0.23985383,-0.44410184,-0.84330824,0.39447122,-0.03017786
11.20000000,0.27656331,0.77648754,-0.22907263,-0.47361267,0.84751888,0.39980467,0.04567174,0.24342602,-0.77285576,0.23985383,-0.44410184,-0.84330824,0.39447122,-0.03017786
11.22000000,0.27656331,0.77648754,-0.22907263,-0.47361267,0.84751888,0.39980467,0.04567174,0.24342602,-0.77285576,0.23985383,-0.44410184,-0.84330824,0.39447122,-0.03017786
11.24000000,0.27656331,0.77648754,-0.22907263,-0.47361267,0.84751888,0.39980467,0.04567174,0.24342602,-0.77285576,0.23985383,-0.44410184,-0.84330824,0.39447122,-0.03017786
11.26000000,0.27656331,0.77648754,-0.22907263,-0.47361267,0.84751888,0.39980467,0.04567174,0.24342602,-0.77285576,0.23985383,-0.44410184,-0.84330824,0.39447122,-0.03017786
11.28000000,0.27656331,0.77648754,-0.22907263,-0.47361267,0.84751888,0.39980467,0.04567174,0.24342602,-0.77285576,0.23985383,-0.44410184,-0.84330824,0.39447122,-0.03017786
11.30000000,0.27656331,0.77648754,-0.22907263,-0.47361267,0.84751888,0.39980467,0.04567174,0.24342602,-0.77285576,0.23985383,-0.44410184,-0.84330824,0.39447122,-0.03017786
11.32000000,0.27656331,0.77648754,-0.22907263,-0.47361267,0.84751888,0.39980467,0.04567174,0.24342602,-0.77285576,0.23985383,-0.44410184,-0.84330824,0.39447122,-0.03017786
11.34000000,0.27656331,0.77648754,-0.22907263,-0.47361267,0.84751888,0.39980467,0.04567174,0.24342602,-0.77285576,0.23985383,-0.44410184,-0.84330824,0.39447122,-0.03017786
11.36000000,0.27656331,0.77648754,-0.22907263,-0.47361267,0.84751888,0.39980467,0.04567174,0.24342602,-0.77285576,0.23985383,-0.44410184,-0.84330824,0.39447122,-0.03017786
11.38000000,0.27656331,0.77648754,-0.22907263,-0.47361267,0.84751888,0.39980467,0.04567174,0.24342602,-0.77285576,0.23985383,-0.44410184,-0.84330824,0.39447122,-0.03017786
11.40000000,0.27656331,0.77648754,-0.22907263,-0.47361267,0.84751888,0.39980467,0.04567174,0.24342602,-0.77285576,0.23985383,-0.44410184,-0.84330824,0.39447122,-0.03017786
11.42000000,0.27656331,0.77648754,-0.22907263,-0.47361267,0.84751888,0.39980467,0.04567174,0.24342602,-0.77285576,0.23985383,-0.44410184,-0.84330824,0.39447122,-0.03017786
11.44000000,0.27656331,0.77648754,-0.22907263,-0.47361267,0.84751888,0.39980467,0.04567174,0.24342602,-0.77285576,0.23985383,-0.44410184,-0.84330824,0.39447122,-0.03017786
11.46000000,0.27656331,0.77648754,-0.22907263,-0.47361267,0.84751888,0.39980467,0.04567174,0.24342602,-0.77285576,0.23985383,-0.44410184,-0.84330824,0.39447122,-0.03017786
11.48000000,0.27656331,0.77648754,-0.22907263,-0.47361267,0.84751888,0.39980467,0.04567174,0.24342602,-0.77285576,0.23985383,-0.44410184,-0.84330824,0.39447122,-0.03017786
11.50000000,0.27656331,0.77648754,-0.22907263,-0.47361267,0.84751888,0.39980467,0.04567174,0.24342602,-0.77285576,0.23985383,-0.44410184,-0.84330824,0.39447122,-0.03017786
11.52000000,0.27656331,0.77648754,-0.22907263,-0.47361267,0.84751888,0.39980467,0.04567174,0.24342602,-0.77285576,0.23985383,-0.44410184,-0.84330824,0.39447122,-0.03017786
11.54000000,0.27656331,0.77648754,-0.22907263,-0.47361267,0.84751888,0.39980467,0.04567174,0.24342602,-0.77285576,0.23985383,-0.44410184,-0.84330824,0.39447122,-0.03017786
11.56000000,0.27656331,0.77648754,-0.22907263,-0.47361267,0.84751888,0.39980467,0.04567174,0.24342602,-0.77285576,0.23985383,-0.44410184,-0.84330824,0.39447122,-0.03017786
11.58000000,0.27656331,0.77648754,-0.22907263,-0.47361267,0.84751888,0.39980467,0.04567174,0.24342602,-0.77285576,0.23985383,-0.44410184,-0.84330824,0.39447122,-0.03017786
11.60000000,0.27656331,0.77648754,-0.22907263,-0.47361267,0.84751888,0.39980467,0.04567174,0.24342602,-0.77285576,0.23985383,-0.44410184,-0.84330824,0.39447122,-0.03017786
11.62000000,0.27656331,0.77648754,-0.22907263,-0.47361267,0.84751888,0.39980467,0.04567174,0.24342602,-0.77285576,0.23985383,-0.44410184,-0.84330824,0.39447122,-0.03017786
