gracetata/LocomotionHEC/legged_lab/Reference Data/ArmHack/StandPerturb/TestData/ArmOnly/poses/randomized/randomized_arm_pose_03_seed20260715_hold20s_50hz.csv
time_s,left_shoulder_pitch_joint,left_shoulder_roll_joint,left_shoulder_yaw_joint,left_elbow_joint,left_wrist_roll_joint,left_wrist_pitch_joint,left_wrist_yaw_joint,right_shoulder_pitch_joint,right_shoulder_roll_joint,right_shoulder_yaw_joint,right_elbow_joint,right_wrist_roll_joint,right_wrist_pitch_joint,right_wrist_yaw_joint
0.00000000,-0.71492096,0.69057610,-0.48411484,0.16645596,0.66620857,0.24703983,-0.59028058,0.27902406,-0.77822409,0.22974929,-0.47601847,-0.84804618,0.40061730,-0.04664953
0.02000000,-0.71492096,0.69057610,-0.48411484,0.16645596,0.66620857,0.24703983,-0.59028058,0.27902406,-0.77822409,0.22974929,-0.47601847,-0.84804618,0.40061730,-0.04664953
0.04000000,-0.71492096,0.69057610,-0.48411484,0.16645596,0.66620857,0.24703983,-0.59028058,0.27902406,-0.77822409,0.22974929,-0.47601847,-0.84804618,0.40061730,-0.04664953
0.06000000,-0.71492096,0.69057610,-0.48411484,0.16645596,0.66620857,0.24703983,-0.59028058,0.27902406,-0.77822409,0.22974929,-0.47601847,-0.84804618,0.40061730,-0.04664953
0.08000000,-0.71492096,0.69057610,-0.48411484,0.16645596,0.66620857,0.24703983,-0.59028058,0.27902406,-0.77822409,0.22974929,-0.47601847,-0.84804618,0.40061730,-0.04664953
0.10000000,-0.71492096,0.69057610,-0.48411484,0.16645596,0.66620857,0.24703983,-0.59028058,0.27902406,-0.77822409,0.22974929,-0.47601847,-0.84804618,0.40061730,-0.04664953
0.12000000,-0.71492096,0.69057610,-0.48411484,0.16645596,0.66620857,0.24703983,-0.59028058,0.27902406,-0.77822409,0.22974929,-0.47601847,-0.84804618,0.40061730,-0.04664953
0.14000000,-0.71492096,0.69057610,-0.48411484,0.16645596,0.66620857,0.24703983,-0.59028058,0.27902406,-0.77822409,0.22974929,-0.47601847,-0.84804618,0.40061730,-0.04664953
0.16000000,-0.71492096,0.69057610,-0.48411484,0.16645596,0.66620857,0.24703983,-0.59028058,0.27902406,-0.77822409,0.22974929,-0.47601847,-0.84804618,0.40061730,-0.04664953
0.18000000,-0.71492096,0.69057610,-0.48411484,0.16645596,0.66620857,0.24703983,-0.59028058,0.27902406,-0.77822409,0.22974929,-0.47601847,-0.84804618,0.40061730,-0.04664953
0.20000000,-0.71492096,0.69057610,-0.48411484,0.16645596,0.66620857,0.24703983,-0.59028058,0.27902406,-0.77822409,0.22974929,-0.47601847,-0.84804618,0.40061730,-0.04664953
0.22000000,-0.71492096,0.69057610,-0.48411484,0.16645596,0.66620857,0.24703983,-0.59028058,0.27902406,-0.77822409,0.22974929,-0.47601847,-0.84804618,0.40061730,-0.04664953
0.24000000,-0.71492096,0.69057610,-0.48411484,0.16645596,0.66620857,0.24703983,-0.59028058,0.27902406,-0.77822409,0.22974929,-0.47601847,-0.84804618,0.40061730,-0.04664953
0.26000000,-0.71492096,0.69057610,-0.48411484,0.16645596,0.66620857,0.24703983,-0.59028058,0.27902406,-0.77822409,0.22974929,-0.47601847,-0.84804618,0.40061730,-0.04664953
0.28000000,-0.71492096,0.69057610,-0.48411484,0.16645596,0.66620857,0.24703983,-0.59028058,0.27902406,-0.77822409,0.22974929,-0.47601847,-0.84804618,0.40061730,-0.04664953
0.30000000,-0.71492096,0.69057610,-0.48411484,0.16645596,0.66620857,0.24703983,-0.59028058,0.27902406,-0.77822409,0.22974929,-0.47601847,-0.84804618,0.40061730,-0.04664953
0.32000000,-0.71492096,0.69057610,-0.48411484,0.16645596,0.66620857,0.24703983,-0.59028058,0.27902406,-0.77822409,0.22974929,-0.47601847,-0.84804618,0.40061730,-0.04664953
0.34000000,-0.71492096,0.69057610,-0.48411484,0.16645596,0.66620857,0.24703983,-0.59028058,0.27902406,-0.77822409,0.22974929,-0.47601847,-0.84804618,0.40061730,-0.04664953
0.36000000,-0.71492096,0.69057610,-0.48411484,0.16645596,0.66620857,0.24703983,-0.59028058,0.27902406,-0.77822409,0.22974929,-0.47601847,-0.84804618,0.40061730,-0.04664953
0.38000000,-0.71492096,0.69057610,-0.48411484,0.16645596,0.66620857,0.24703983,-0.59028058,0.27902406,-0.77822409,0.22974929,-0.47601847,-0.84804618,0.40061730,-0.04664953
0.40000000,-0.71492096,0.69057610,-0.48411484,0.16645596,0.66620857,0.24703983,-0.59028058,0.27902406,-0.77822409,0.22974929,-0.47601847,-0.84804618,0.40061730,-0.04664953
0.42000000,-0.71492096,0.69057610,-0.48411484,0.16645596,0.66620857,0.24703983,-0.59028058,0.27902406,-0.77822409,0.22974929,-0.47601847,-0.84804618,0.40061730,-0.04664953
0.44000000,-0.71492096,0.69057610,-0.48411484,0.16645596,0.66620857,0.24703983,-0.59028058,0.27902406,-0.77822409,0.22974929,-0.47601847,-0.84804618,0.40061730,-0.04664953
0.46000000,-0.71492096,0.69057610,-0.48411484,0.16645596,0.66620857,0.24703983,-0.59028058,0.27902406,-0.77822409,0.22974929,-0.47601847,-0.84804618,0.40061730,-0.04664953
0.48000000,-0.71492096,0.69057610,-0.48411484,0.16645596,0.66620857,0.24703983,-0.59028058,0.27902406,-0.77822409,0.22974929,-0.47601847,-0.84804618,0.40061730,-0.04664953
0.50000000,-0.71492096,0.69057610,-0.48411484,0.16645596,0.66620857,0.24703983,-0.59028058,0.27902406,-0.77822409,0.22974929,-0.47601847,-0.84804618,0.40061730,-0.04664953
0.52000000,-0.71492096,0.69057610,-0.48411484,0.16645596,0.66620857,0.24703983,-0.59028058,0.27902406,-0.77822409,0.22974929,-0.47601847,-0.84804618,0.40061730,-0.04664953
0.54000000,-0.71492096,0.69057610,-0.48411484,0.16645596,0.66620857,0.24703983,-0.59028058,0.27902406,-0.77822409,0.22974929,-0.47601847,-0.84804618,0.40061730,-0.04664953
0.56000000,-0.71492096,0.69057610,-0.48411484,0.16645596,0.66620857,0.24703983,-0.59028058,0.27902406,-0.77822409,0.22974929,-0.47601847,-0.84804618,0.40061730,-0.04664953
0.58000000,-0.71492096,0.69057610,-0.48411484,0.16645596,0.66620857,0.24703983,-0.59028058,0.27902406,-0.77822409,0.22974929,-0.47601847,-0.84804618,0.40061730,-0.04664953
0.60000000,-0.71492096,0.69057610,-0.48411484,0.16645596,0.66620857,0.24703983,-0.59028058,0.27902406,-0.77822409,0.22974929,-0.47601847,-0.84804618,0.40061730,-0.04664953
0.62000000,-0.71492096,0.69057610,-0.48411484,0.16645596,0.66620857,0.24703983,-0.59028058,0.27902406,-0.77822409,0.22974929,-0.47601847,-0.84804618,0.40061730,-0.04664953
0.64000000,-0.71492096,0.69057610,-0.48411484,0.16645596,0.66620857,0.24703983,-0.59028058,0.27902406,-0.77822409,0.22974929,-0.47601847,-0.84804618,0.40061730,-0.04664953
0.66000000,-0.71492096,0.69057610,-0.48411484,0.16645596,0.66620857,0.24703983,-0.59028058,0.27902406,-0.77822409,0.22974929,-0.47601847,-0.84804618,0.40061730,-0.04664953
0.68000000,-0.71492096,0.69057610,-0.48411484,0.16645596,0.66620857,0.24703983,-0.59028058,0.27902406,-0.77822409,0.22974929,-0.47601847,-0.84804618,0.40061730,-0.04664953
0.70000000,-0.71492096,0.69057610,-0.48411484,0.16645596,0.66620857,0.24703983,-0.59028058,0.27902406,-0.77822409,0.22974929,-0.47601847,-0.84804618,0.40061730,-0.04664953
0.72000000,-0.71492096,0.69057610,-0.48411484,0.16645596,0.66620857,0.24703983,-0.59028058,0.27902406,-0.77822409,0.22974929,-0.47601847,-0.84804618,0.40061730,-0.04664953
0.74000000,-0.71492096,0.69057610,-0.48411484,0.16645596,0.66620857,0.24703983,-0.59028058,0.27902406,-0.77822409,0.22974929,-0.47601847,-0.84804618,0.40061730,-0.04664953
0.76000000,-0.71492096,0.69057610,-0.48411484,0.16645596,0.66620857,0.24703983,-0.59028058,0.27902406,-0.77822409,0.22974929,-0.47601847,-0.84804618,0.40061730,-0.04664953
0.78000000,-0.71492096,0.69057610,-0.48411484,0.16645596,0.66620857,0.24703983,-0.59028058,0.27902406,-0.77822409,0.22974929,-0.47601847,-0.84804618,0.40061730,-0.04664953
0.80000000,-0.71492096,0.69057610,-0.48411484,0.16645596,0.66620857,0.24703983,-0.59028058,0.27902406,-0.77822409,0.22974929,-0.47601847,-0.84804618,0.40061730,-0.04664953
0.82000000,-0.71492096,0.69057610,-0.48411484,0.16645596,0.66620857,0.24703983,-0.59028058,0.27902406,-0.77822409,0.22974929,-0.47601847,-0.84804618,0.40061730,-0.04664953
0.84000000,-0.71492096,0.69057610,-0.48411484,0.16645596,0.66620857,0.24703983,-0.59028058,0.27902406,-0.77822409,0.22974929,-0.47601847,-0.84804618,0.40061730,-0.04664953
0.86000000,-0.71492096,0.69057610,-0.48411484,0.16645596,0.66620857,0.24703983,-0.59028058,0.27902406,-0.77822409,0.22974929,-0.47601847,-0.84804618,0.40061730,-0.04664953
0.88000000,-0.71492096,0.69057610,-0.48411484,0.16645596,0.66620857,0.24703983,-0.59028058,0.27902406,-0.77822409,0.22974929,-0.47601847,-0.84804618,0.40061730,-0.04664953
0.90000000,-0.71492096,0.69057610,-0.48411484,0.16645596,0.66620857,0.24703983,-0.59028058,0.27902406,-0.77822409,0.22974929,-0.47601847,-0.84804618,0.40061730,-0.04664953
0.92000000,-0.71492096,0.69057610,-0.48411484,0.16645596,0.66620857,0.24703983,-0.59028058,0.27902406,-0.77822409,0.22974929,-0.47601847,-0.84804618,0.40061730,-0.04664953
0.94000000,-0.71492096,0.69057610,-0.48411484,0.16645596,0.66620857,0.24703983,-0.59028058,0.27902406,-0.77822409,0.22974929,-0.47601847,-0.84804618,0.40061730,-0.04664953
0.96000000,-0.71492096,0.69057610,-0.48411484,0.16645596,0.66620857,0.24703983,-0.59028058,0.27902406,-0.77822409,0.22974929,-0.47601847,-0.84804618,0.40061730,-0.04664953
0.98000000,-0.71492096,0.69057610,-0.48411484,0.16645596,0.66620857,0.24703983,-0.59028058,0.27902406,-0.77822409,0.22974929,-0.47601847,-0.84804618,0.40061730,-0.04664953
1.00000000,-0.71492096,0.69057610,-0.48411484,0.16645596,0.66620857,0.24703983,-0.59028058,0.27902406,-0.77822409,0.22974929,-0.47601847,-0.84804618,0.40061730,-0.04664953
1.02000000,-0.71492096,0.69057610,-0.48411484,0.16645596,0.66620857,0.24703983,-0.59028058,0.27902406,-0.77822409,0.22974929,-0.47601847,-0.84804618,0.40061730,-0.04664953
1.04000000,-0.71492096,0.69057610,-0.48411484,0.16645596,0.66620857,0.24703983,-0.59028058,0.27902406,-0.77822409,0.22974929,-0.47601847,-0.84804618,0.40061730,-0.04664953
1.06000000,-0.71492096,0.69057610,-0.48411484,0.16645596,0.66620857,0.24703983,-0.59028058,0.27902406,-0.77822409,0.22974929,-0.47601847,-0.84804618,0.40061730,-0.04664953
1.08000000,-0.71492096,0.69057610,-0.48411484,0.16645596,0.66620857,0.24703983,-0.59028058,0.27902406,-0.77822409,0.22974929,-0.47601847,-0.84804618,0.40061730,-0.04664953
1.10000000,-0.71492096,0.69057610,-0.48411484,0.16645596,0.66620857,0.24703983,-0.59028058,0.27902406,-0.77822409,0.22974929,-0.47601847,-0.84804618,0.40061730,-0.04664953
1.12000000,-0.71492096,0.69057610,-0.48411484,0.16645596,0.66620857,0.24703983,-0.59028058,0.27902406,-0.77822409,0.22974929,-0.47601847,-0.84804618,0.40061730,-0.04664953
1.14000000,-0.71492096,0.69057610,-0.48411484,0.16645596,0.66620857,0.24703983,-0.59028058,0.27902406,-0.77822409,0.22974929,-0.47601847,-0.84804618,0.40061730,-0.04664953
1.16000000,-0.71492096,0.69057610,-0.48411484,0.16645596,0.66620857,0.24703983,-0.59028058,0.27902406,-0.77822409,0.22974929,-0.47601847,-0.84804618,0.40061730,-0.04664953
1.18000000,-0.71492096,0.69057610,-0.48411484,0.16645596,0.66620857,0.24703983,-0.59028058,0.27902406,-0.77822409,0.22974929,-0.47601847,-0.84804618,0.40061730,-0.04664953
1.20000000,-0.71492096,0.69057610,-0.48411484,0.16645596,0.66620857,0.24703983,-0.59028058,0.27902406,-0.77822409,0.22974929,-0.47601847,-0.84804618,0.40061730,-0.04664953
1.22000000,-0.71492096,0.69057610,-0.48411484,0.16645596,0.66620857,0.24703983,-0.59028058,0.27902406,-0.77822409,0.22974929,-0.47601847,-0.84804618,0.40061730,-0.04664953
1.24000000,-0.71492096,0.69057610,-0.48411484,0.16645596,0.66620857,0.24703983,-0.59028058,0.27902406,-0.77822409,0.22974929,-0.47601847,-0.84804618,0.40061730,-0.04664953
1.26000000,-0.71492096,0.69057610,-0.48411484,0.16645596,0.66620857,0.24703983,-0.59028058,0.27902406,-0.77822409,0.22974929,-0.47601847,-0.84804618,0.40061730,-0.04664953
1.28000000,-0.71492096,0.69057610,-0.48411484,0.16645596,0.66620857,0.24703983,-0.59028058,0.27902406,-0.77822409,0.22974929,-0.47601847,-0.84804618,0.40061730,-0.04664953
1.30000000,-0.71492096,0.69057610,-0.48411484,0.16645596,0.66620857,0.24703983,-0.59028058,0.27902406,-0.77822409,0.22974929,-0.47601847,-0.84804618,0.40061730,-0.04664953
1.32000000,-0.71492096,0.69057610,-0.48411484,0.16645596,0.66620857,0.24703983,-0.59028058,0.27902406,-0.77822409,0.22974929,-0.47601847,-0.84804618,0.40061730,-0.04664953
1.34000000,-0.71492096,0.69057610,-0.48411484,0.16645596,0.66620857,0.24703983,-0.59028058,0.27902406,-0.77822409,0.22974929,-0.47601847,-0.84804618,0.40061730,-0.04664953
1.36000000,-0.71492096,0.69057610,-0.48411484,0.16645596,0.66620857,0.24703983,-0.59028058,0.27902406,-0.77822409,0.22974929,-0.47601847,-0.84804618,0.40061730,-0.04664953
1.38000000,-0.71492096,0.69057610,-0.48411484,0.16645596,0.66620857,0.24703983,-0.59028058,0.27902406,-0.77822409,0.22974929,-0.47601847,-0.84804618,0.40061730,-0.04664953
1.40000000,-0.71492096,0.69057610,-0.48411484,0.16645596,0.66620857,0.24703983,-0.59028058,0.27902406,-0.77822409,0.22974929,-0.47601847,-0.84804618,0.40061730,-0.04664953
1.42000000,-0.71492096,0.69057610,-0.48411484,0.16645596,0.66620857,0.24703983,-0.59028058,0.27902406,-0.77822409,0.22974929,-0.47601847,-0.84804618,0.40061730,-0.04664953
1.44000000,-0.71492096,0.69057610,-0.48411484,0.16645596,0.66620857,0.24703983,-0.59028058,0.27902406,-0.77822409,0.22974929,-0.47601847,-0.84804618,0.40061730,-0.04664953
1.46000000,-0.71492096,0.69057610,-0.48411484,0.16645596,0.66620857,0.24703983,-0.59028058,0.27902406,-0.77822409,0.22974929,-0.47601847,-0.84804618,0.40061730,-0.04664953
1.48000000,-0.71492096,0.69057610,-0.48411484,0.16645596,0.66620857,0.24703983,-0.59028058,0.27902406,-0.77822409,0.22974929,-0.47601847,-0.84804618,0.40061730,-0.04664953
1.50000000,-0.71492096,0.69057610,-0.48411484,0.16645596,0.66620857,0.24703983,-0.59028058,0.27902406,-0.77822409,0.22974929,-0.47601847,-0.84804618,0.40061730,-0.04664953
1.52000000,-0.71492096,0.69057610,-0.48411484,0.16645596,0.66620857,0.24703983,-0.59028058,0.27902406,-0.77822409,0.22974929,-0.47601847,-0.84804618,0.40061730,-0.04664953
1.54000000,-0.71492096,0.69057610,-0.48411484,0.16645596,0.66620857,0.24703983,-0.59028058,0.27902406,-0.77822409,0.22974929,-0.47601847,-0.84804618,0.40061730,-0.04664953
1.56000000,-0.71492096,0.69057610,-0.48411484,0.16645596,0.66620857,0.24703983,-0.59028058,0.27902406,-0.77822409,0.22974929,-0.47601847,-0.84804618,0.40061730,-0.04664953
1.58000000,-0.71492096,0.69057610,-0.48411484,0.16645596,0.66620857,0.24703983,-0.59028058,0.27902406,-0.77822409,0.22974929,-0.47601847,-0.84804618,0.40061730,-0.04664953
1.60000000,-0.71492096,0.69057610,-0.48411484,0.16645596,0.66620857,0.24703983,-0.59028058,0.27902406,-0.77822409,0.22974929,-0.47601847,-0.84804618,0.40061730,-0.04664953
1.62000000,-0.71492096,0.69057610,-0.48411484,0.16645596,0.66620857,0.24703983,-0.59028058,0.27902406,-0.77822409,0.22974929,-0.47601847,-0.84804618,0.40061730,-0.04664953
1.64000000,-0.71492096,0.69057610,-0.48411484,0.16645596,0.66620857,0.24703983,-0.59028058,0.27902406,-0.77822409,0.22974929,-0.47601847,-0.84804618,0.40061730,-0.04664953
1.66000000,-0.71492096,0.69057610,-0.48411484,0.16645596,0.66620857,0.24703983,-0.59028058,0.27902406,-0.77822409,0.22974929,-0.47601847,-0.84804618,0.40061730,-0.04664953
1.68000000,-0.71492096,0.69057610,-0.48411484,0.16645596,0.66620857,0.24703983,-0.59028058,0.27902406,-0.77822409,0.22974929,-0.47601847,-0.84804618,0.40061730,-0.04664953
1.70000000,-0.71492096,0.69057610,-0.48411484,0.16645596,0.66620857,0.24703983,-0.59028058,0.27902406,-0.77822409,0.22974929,-0.47601847,-0.84804618,0.40061730,-0.04664953
1.72000000,-0.71492096,0.69057610,-0.48411484,0.16645596,0.66620857,0.24703983,-0.59028058,0.27902406,-0.77822409,0.22974929,-0.47601847,-0.84804618,0.40061730,-0.04664953
1.74000000,-0.71492096,0.69057610,-0.48411484,0.16645596,0.66620857,0.24703983,-0.59028058,0.27902406,-0.77822409,0.22974929,-0.47601847,-0.84804618,0.40061730,-0.04664953
1.76000000,-0.71492096,0.69057610,-0.48411484,0.16645596,0.66620857,0.24703983,-0.59028058,0.27902406,-0.77822409,0.22974929,-0.47601847,-0.84804618,0.40061730,-0.04664953
1.78000000,-0.71492096,0.69057610,-0.48411484,0.16645596,0.66620857,0.24703983,-0.59028058,0.27902406,-0.77822409,0.22974929,-0.47601847,-0.84804618,0.40061730,-0.04664953
1.80000000,-0.71492096,0.69057610,-0.48411484,0.16645596,0.66620857,0.24703983,-0.59028058,0.27902406,-0.77822409,0.22974929,-0.47601847,-0.84804618,0.40061730,-0.04664953
1.82000000,-0.71492096,0.69057610,-0.48411484,0.16645596,0.66620857,0.24703983,-0.59028058,0.27902406,-0.77822409,0.22974929,-0.47601847,-0.84804618,0.40061730,-0.04664953
1.84000000,-0.71492096,0.69057610,-0.48411484,0.16645596,0.66620857,0.24703983,-0.59028058,0.27902406,-0.77822409,0.22974929,-0.47601847,-0.84804618,0.40061730,-0.04664953
1.86000000,-0.71492096,0.69057610,-0.48411484,0.16645596,0.66620857,0.24703983,-0.59028058,0.27902406,-0.77822409,0.22974929,-0.47601847,-0.84804618,0.40061730,-0.04664953
1.88000000,-0.71492096,0.69057610,-0.48411484,0.16645596,0.66620857,0.24703983,-0.59028058,0.27902406,-0.77822409,0.22974929,-0.47601847,-0.84804618,0.40061730,-0.04664953
1.90000000,-0.71492096,0.69057610,-0.48411484,0.16645596,0.66620857,0.24703983,-0.59028058,0.27902406,-0.77822409,0.22974929,-0.47601847,-0.84804618,0.40061730,-0.04664953
1.92000000,-0.71492096,0.69057610,-0.48411484,0.16645596,0.66620857,0.24703983,-0.59028058,0.27902406,-0.77822409,0.22974929,-0.47601847,-0.84804618,0.40061730,-0.04664953
1.94000000,-0.71492096,0.69057610,-0.48411484,0.16645596,0.66620857,0.24703983,-0.59028058,0.27902406,-0.77822409,0.22974929,-0.47601847,-0.84804618,0.40061730,-0.04664953
1.96000000,-0.71492096,0.69057610,-0.48411484,0.16645596,0.66620857,0.24703983,-0.59028058,0.27902406,-0.77822409,0.22974929,-0.47601847,-0.84804618,0.40061730,-0.04664953
1.98000000,-0.71492096,0.69057610,-0.48411484,0.16645596,0.66620857,0.24703983,-0.59028058,0.27902406,-0.77822409,0.22974929,-0.47601847,-0.84804618,0.40061730,-0.04664953
2.00000000,-0.71492096,0.69057610,-0.48411484,0.16645596,0.66620857,0.24703983,-0.59028058,0.27902406,-0.77822409,0.22974929,-0.47601847,-0.84804618,0.40061730,-0.04664953
2.02000000,-0.71492096,0.69057610,-0.48411484,0.16645596,0.66620857,0.24703983,-0.59028058,0.27902406,-0.77822409,0.22974929,-0.47601847,-0.84804618,0.40061730,-0.04664953
2.04000000,-0.71492096,0.69057610,-0.48411484,0.16645596,0.66620857,0.24703983,-0.59028058,0.27902406,-0.77822409,0.22974929,-0.47601847,-0.84804618,0.40061730,-0.04664953
2.06000000,-0.71492096,0.69057610,-0.48411484,0.16645596,0.66620857,0.24703983,-0.59028058,0.27902406,-0.77822409,0.22974929,-0.47601847,-0.84804618,0.40061730,-0.04664953
2.08000000,-0.71492096,0.69057610,-0.48411484,0.16645596,0.66620857,0.24703983,-0.59028058,0.27902406,-0.77822409,0.22974929,-0.47601847,-0.84804618,0.40061730,-0.04664953
2.10000000,-0.71492096,0.69057610,-0.48411484,0.16645596,0.66620857,0.24703983,-0.59028058,0.27902406,-0.77822409,0.22974929,-0.47601847,-0.84804618,0.40061730,-0.04664953
2.12000000,-0.71492096,0.69057610,-0.48411484,0.16645596,0.66620857,0.24703983,-0.59028058,0.27902406,-0.77822409,0.22974929,-0.47601847,-0.84804618,0.40061730,-0.04664953
2.14000000,-0.71492096,0.69057610,-0.48411484,0.16645596,0.66620857,0.24703983,-0.59028058,0.27902406,-0.77822409,0.22974929,-0.47601847,-0.84804618,0.40061730,-0.04664953
2.16000000,-0.71492096,0.69057610,-0.48411484,0.16645596,0.66620857,0.24703983,-0.59028058,0.27902406,-0.77822409,0.22974929,-0.47601847,-0.84804618,0.40061730,-0.04664953
2.18000000,-0.71492096,0.69057610,-0.48411484,0.16645596,0.66620857,0.24703983,-0.59028058,0.27902406,-0.77822409,0.22974929,-0.47601847,-0.84804618,0.40061730,-0.04664953
2.20000000,-0.71492096,0.69057610,-0.48411484,0.16645596,0.66620857,0.24703983,-0.59028058,0.27902406,-0.77822409,0.22974929,-0.47601847,-0.84804618,0.40061730,-0.04664953
2.22000000,-0.71492096,0.69057610,-0.48411484,0.16645596,0.66620857,0.24703983,-0.59028058,0.27902406,-0.77822409,0.22974929,-0.47601847,-0.84804618,0.40061730,-0.04664953
2.24000000,-0.71492096,0.69057610,-0.48411484,0.16645596,0.66620857,0.24703983,-0.59028058,0.27902406,-0.77822409,0.22974929,-0.47601847,-0.84804618,0.40061730,-0.04664953
2.26000000,-0.71492096,0.69057610,-0.48411484,0.16645596,0.66620857,0.24703983,-0.59028058,0.27902406,-0.77822409,0.22974929,-0.47601847,-0.84804618,0.40061730,-0.04664953
2.28000000,-0.71492096,0.69057610,-0.48411484,0.16645596,0.66620857,0.24703983,-0.59028058,0.27902406,-0.77822409,0.22974929,-0.47601847,-0.84804618,0.40061730,-0.04664953
2.30000000,-0.71492096,0.69057610,-0.48411484,0.16645596,0.66620857,0.24703983,-0.59028058,0.27902406,-0.77822409,0.22974929,-0.47601847,-0.84804618,0.40061730,-0.04664953
2.32000000,-0.71492096,0.69057610,-0.48411484,0.16645596,0.66620857,0.24703983,-0.59028058,0.27902406,-0.77822409,0.22974929,-0.47601847,-0.84804618,0.40061730,-0.04664953
2.34000000,-0.71492096,0.69057610,-0.48411484,0.16645596,0.66620857,0.24703983,-0.59028058,0.27902406,-0.77822409,0.22974929,-0.47601847,-0.84804618,0.40061730,-0.04664953
2.36000000,-0.71492096,0.69057610,-0.48411484,0.16645596,0.66620857,0.24703983,-0.59028058,0.27902406,-0.77822409,0.22974929,-0.47601847,-0.84804618,0.40061730,-0.04664953
2.38000000,-0.71492096,0.69057610,-0.48411484,0.16645596,0.66620857,0.24703983,-0.59028058,0.27902406,-0.77822409,0.22974929,-0.47601847,-0.84804618,0.40061730,-0.04664953
2.40000000,-0.71492096,0.69057610,-0.48411484,0.16645596,0.66620857,0.24703983,-0.59028058,0.27902406,-0.77822409,0.22974929,-0.47601847,-0.84804618,0.40061730,-0.04664953
2.42000000,-0.71492096,0.69057610,-0.48411484,0.16645596,0.66620857,0.24703983,-0.59028058,0.27902406,-0.77822409,0.22974929,-0.47601847,-0.84804618,0.40061730,-0.04664953
2.44000000,-0.71492096,0.69057610,-0.48411484,0.16645596,0.66620857,0.24703983,-0.59028058,0.27902406,-0.77822409,0.22974929,-0.47601847,-0.84804618,0.40061730,-0.04664953
2.46000000,-0.71492096,0.69057610,-0.48411484,0.16645596,0.66620857,0.24703983,-0.59028058,0.27902406,-0.77822409,0.22974929,-0.47601847,-0.84804618,0.40061730,-0.04664953
2.48000000,-0.71492096,0.69057610,-0.48411484,0.16645596,0.66620857,0.24703983,-0.59028058,0.27902406,-0.77822409,0.22974929,-0.47601847,-0.84804618,0.40061730,-0.04664953
2.50000000,-0.71492096,0.69057610,-0.48411484,0.16645596,0.66620857,0.24703983,-0.59028058,0.27902406,-0.77822409,0.22974929,-0.47601847,-0.84804618,0.40061730,-0.04664953
2.52000000,-0.71492096,0.69057610,-0.48411484,0.16645596,0.66620857,0.24703983,-0.59028058,0.27902406,-0.77822409,0.22974929,-0.47601847,-0.84804618,0.40061730,-0.04664953
2.54000000,-0.71492096,0.69057610,-0.48411484,0.16645596,0.66620857,0.24703983,-0.59028058,0.27902406,-0.77822409,0.22974929,-0.47601847,-0.84804618,0.40061730,-0.04664953
2.56000000,-0.71492096,0.69057610,-0.48411484,0.16645596,0.66620857,0.24703983,-0.59028058,0.27902406,-0.77822409,0.22974929,-0.47601847,-0.84804618,0.40061730,-0.04664953
2.58000000,-0.71492096,0.69057610,-0.48411484,0.16645596,0.66620857,0.24703983,-0.59028058,0.27902406,-0.77822409,0.22974929,-0.47601847,-0.84804618,0.40061730,-0.04664953
2.60000000,-0.71492096,0.69057610,-0.48411484,0.16645596,0.66620857,0.24703983,-0.59028058,0.27902406,-0.77822409,0.22974929,-0.47601847,-0.84804618,0.40061730,-0.04664953
2.62000000,-0.71492096,0.69057610,-0.48411484,0.16645596,0.66620857,0.24703983,-0.59028058,0.27902406,-0.77822409,0.22974929,-0.47601847,-0.84804618,0.40061730,-0.04664953
2.64000000,-0.71492096,0.69057610,-0.48411484,0.16645596,0.66620857,0.24703983,-0.59028058,0.27902406,-0.77822409,0.22974929,-0.47601847,-0.84804618,0.40061730,-0.04664953
2.66000000,-0.71492096,0.69057610,-0.48411484,0.16645596,0.66620857,0.24703983,-0.59028058,0.27902406,-0.77822409,0.22974929,-0.47601847,-0.84804618,0.40061730,-0.04664953
2.68000000,-0.71492096,0.69057610,-0.48411484,0.16645596,0.66620857,0.24703983,-0.59028058,0.27902406,-0.77822409,0.22974929,-0.47601847,-0.84804618,0.40061730,-0.04664953
2.70000000,-0.71492096,0.69057610,-0.48411484,0.16645596,0.66620857,0.24703983,-0.59028058,0.27902406,-0.77822409,0.22974929,-0.47601847,-0.84804618,0.40061730,-0.04664953
2.72000000,-0.71492096,0.69057610,-0.48411484,0.16645596,0.66620857,0.24703983,-0.59028058,0.27902406,-0.77822409,0.22974929,-0.47601847,-0.84804618,0.40061730,-0.04664953
2.74000000,-0.71492096,0.69057610,-0.48411484,0.16645596,0.66620857,0.24703983,-0.59028058,0.27902406,-0.77822409,0.22974929,-0.47601847,-0.84804618,0.40061730,-0.04664953
2.76000000,-0.71492096,0.69057610,-0.48411484,0.16645596,0.66620857,0.24703983,-0.59028058,0.27902406,-0.77822409,0.22974929,-0.47601847,-0.84804618,0.40061730,-0.04664953
2.78000000,-0.71492096,0.69057610,-0.48411484,0.16645596,0.66620857,0.24703983,-0.59028058,0.27902406,-0.77822409,0.22974929,-0.47601847,-0.84804618,0.40061730,-0.04664953
2.80000000,-0.71492096,0.69057610,-0.48411484,0.16645596,0.66620857,0.24703983,-0.59028058,0.27902406,-0.77822409,0.22974929,-0.47601847,-0.84804618,0.40061730,-0.04664953
2.82000000,-0.71492096,0.69057610,-0.48411484,0.16645596,0.66620857,0.24703983,-0.59028058,0.27902406,-0.77822409,0.22974929,-0.47601847,-0.84804618,0.40061730,-0.04664953
2.84000000,-0.71492096,0.69057610,-0.48411484,0.16645596,0.66620857,0.24703983,-0.59028058,0.27902406,-0.77822409,0.22974929,-0.47601847,-0.84804618,0.40061730,-0.04664953
2.86000000,-0.71492096,0.69057610,-0.48411484,0.16645596,0.66620857,0.24703983,-0.59028058,0.27902406,-0.77822409,0.22974929,-0.47601847,-0.84804618,0.40061730,-0.04664953
2.88000000,-0.71492096,0.69057610,-0.48411484,0.16645596,0.66620857,0.24703983,-0.59028058,0.27902406,-0.77822409,0.22974929,-0.47601847,-0.84804618,0.40061730,-0.04664953
2.90000000,-0.71492096,0.69057610,-0.48411484,0.16645596,0.66620857,0.24703983,-0.59028058,0.27902406,-0.77822409,0.22974929,-0.47601847,-0.84804618,0.40061730,-0.04664953
2.92000000,-0.71492096,0.69057610,-0.48411484,0.16645596,0.66620857,0.24703983,-0.59028058,0.27902406,-0.77822409,0.22974929,-0.47601847,-0.84804618,0.40061730,-0.04664953
2.94000000,-0.71492096,0.69057610,-0.48411484,0.16645596,0.66620857,0.24703983,-0.59028058,0.27902406,-0.77822409,0.22974929,-0.47601847,-0.84804618,0.40061730,-0.04664953
2.96000000,-0.71492096,0.69057610,-0.48411484,0.16645596,0.66620857,0.24703983,-0.59028058,0.27902406,-0.77822409,0.22974929,-0.47601847,-0.84804618,0.40061730,-0.04664953
2.98000000,-0.71492096,0.69057610,-0.48411484,0.16645596,0.66620857,0.24703983,-0.59028058,0.27902406,-0.77822409,0.22974929,-0.47601847,-0.84804618,0.40061730,-0.04664953
3.00000000,-0.71492096,0.69057610,-0.48411484,0.16645596,0.66620857,0.24703983,-0.59028058,0.27902406,-0.77822409,0.22974929,-0.47601847,-0.84804618,0.40061730,-0.04664953
3.02000000,-0.71492096,0.69057610,-0.48411484,0.16645596,0.66620857,0.24703983,-0.59028058,0.27902406,-0.77822409,0.22974929,-0.47601847,-0.84804618,0.40061730,-0.04664953
3.04000000,-0.71492096,0.69057610,-0.48411484,0.16645596,0.66620857,0.24703983,-0.59028058,0.27902406,-0.77822409,0.22974929,-0.47601847,-0.84804618,0.40061730,-0.04664953
3.06000000,-0.71492096,0.69057610,-0.48411484,0.16645596,0.66620857,0.24703983,-0.59028058,0.27902406,-0.77822409,0.22974929,-0.47601847,-0.84804618,0.40061730,-0.04664953
3.08000000,-0.71492096,0.69057610,-0.48411484,0.16645596,0.66620857,0.24703983,-0.59028058,0.27902406,-0.77822409,0.22974929,-0.47601847,-0.84804618,0.40061730,-0.04664953
3.10000000,-0.71492096,0.69057610,-0.48411484,0.16645596,0.66620857,0.24703983,-0.59028058,0.27902406,-0.77822409,0.22974929,-0.47601847,-0.84804618,0.40061730,-0.04664953
3.12000000,-0.71492096,0.69057610,-0.48411484,0.16645596,0.66620857,0.24703983,-0.59028058,0.27902406,-0.77822409,0.22974929,-0.47601847,-0.84804618,0.40061730,-0.04664953
3.14000000,-0.71492096,0.69057610,-0.48411484,0.16645596,0.66620857,0.24703983,-0.59028058,0.27902406,-0.77822409,0.22974929,-0.47601847,-0.84804618,0.40061730,-0.04664953
3.16000000,-0.71492096,0.69057610,-0.48411484,0.16645596,0.66620857,0.24703983,-0.59028058,0.27902406,-0.77822409,0.22974929,-0.47601847,-0.84804618,0.40061730,-0.04664953
3.18000000,-0.71492096,0.69057610,-0.48411484,0.16645596,0.66620857,0.24703983,-0.59028058,0.27902406,-0.77822409,0.22974929,-0.47601847,-0.84804618,0.40061730,-0.04664953
3.20000000,-0.71492096,0.69057610,-0.48411484,0.16645596,0.66620857,0.24703983,-0.59028058,0.27902406,-0.77822409,0.22974929,-0.47601847,-0.84804618,0.40061730,-0.04664953
3.22000000,-0.71492096,0.69057610,-0.48411484,0.16645596,0.66620857,0.24703983,-0.59028058,0.27902406,-0.77822409,0.22974929,-0.47601847,-0.84804618,0.40061730,-0.04664953
3.24000000,-0.71492096,0.69057610,-0.48411484,0.16645596,0.66620857,0.24703983,-0.59028058,0.27902406,-0.77822409,0.22974929,-0.47601847,-0.84804618,0.40061730,-0.04664953
3.26000000,-0.71492096,0.69057610,-0.48411484,0.16645596,0.66620857,0.24703983,-0.59028058,0.27902406,-0.77822409,0.22974929,-0.47601847,-0.84804618,0.40061730,-0.04664953
3.28000000,-0.71492096,0.69057610,-0.48411484,0.16645596,0.66620857,0.24703983,-0.59028058,0.27902406,-0.77822409,0.22974929,-0.47601847,-0.84804618,0.40061730,-0.04664953
3.30000000,-0.71492096,0.69057610,-0.48411484,0.16645596,0.66620857,0.24703983,-0.59028058,0.27902406,-0.77822409,0.22974929,-0.47601847,-0.84804618,0.40061730,-0.04664953
3.32000000,-0.71492096,0.69057610,-0.48411484,0.16645596,0.66620857,0.24703983,-0.59028058,0.27902406,-0.77822409,0.22974929,-0.47601847,-0.84804618,0.40061730,-0.04664953
3.34000000,-0.71492096,0.69057610,-0.48411484,0.16645596,0.66620857,0.24703983,-0.59028058,0.27902406,-0.77822409,0.22974929,-0.47601847,-0.84804618,0.40061730,-0.04664953
3.36000000,-0.71492096,0.69057610,-0.48411484,0.16645596,0.66620857,0.24703983,-0.59028058,0.27902406,-0.77822409,0.22974929,-0.47601847,-0.84804618,0.40061730,-0.04664953
3.38000000,-0.71492096,0.69057610,-0.48411484,0.16645596,0.66620857,0.24703983,-0.59028058,0.27902406,-0.77822409,0.22974929,-0.47601847,-0.84804618,0.40061730,-0.04664953
3.40000000,-0.71492096,0.69057610,-0.48411484,0.16645596,0.66620857,0.24703983,-0.59028058,0.27902406,-0.77822409,0.22974929,-0.47601847,-0.84804618,0.40061730,-0.04664953
3.42000000,-0.71492096,0.69057610,-0.48411484,0.16645596,0.66620857,0.24703983,-0.59028058,0.27902406,-0.77822409,0.22974929,-0.47601847,-0.84804618,0.40061730,-0.04664953
3.44000000,-0.71492096,0.69057610,-0.48411484,0.16645596,0.66620857,0.24703983,-0.59028058,0.27902406,-0.77822409,0.22974929,-0.47601847,-0.84804618,0.40061730,-0.04664953
3.46000000,-0.71492096,0.69057610,-0.48411484,0.16645596,0.66620857,0.24703983,-0.59028058,0.27902406,-0.77822409,0.22974929,-0.47601847,-0.84804618,0.40061730,-0.04664953
3.48000000,-0.71492096,0.69057610,-0.48411484,0.16645596,0.66620857,0.24703983,-0.59028058,0.27902406,-0.77822409,0.22974929,-0.47601847,-0.84804618,0.40061730,-0.04664953
3.50000000,-0.71492096,0.69057610,-0.48411484,0.16645596,0.66620857,0.24703983,-0.59028058,0.27902406,-0.77822409,0.22974929,-0.47601847,-0.84804618,0.40061730,-0.04664953
3.52000000,-0.71492096,0.69057610,-0.48411484,0.16645596,0.66620857,0.24703983,-0.59028058,0.27902406,-0.77822409,0.22974929,-0.47601847,-0.84804618,0.40061730,-0.04664953
3.54000000,-0.71492096,0.69057610,-0.48411484,0.16645596,0.66620857,0.24703983,-0.59028058,0.27902406,-0.77822409,0.22974929,-0.47601847,-0.84804618,0.40061730,-0.04664953
3.56000000,-0.71492096,0.69057610,-0.48411484,0.16645596,0.66620857,0.24703983,-0.59028058,0.27902406,-0.77822409,0.22974929,-0.47601847,-0.84804618,0.40061730,-0.04664953
3.58000000,-0.71492096,0.69057610,-0.48411484,0.16645596,0.66620857,0.24703983,-0.59028058,0.27902406,-0.77822409,0.22974929,-0.47601847,-0.84804618,0.40061730,-0.04664953
3.60000000,-0.71492096,0.69057610,-0.48411484,0.16645596,0.66620857,0.24703983,-0.59028058,0.27902406,-0.77822409,0.22974929,-0.47601847,-0.84804618,0.40061730,-0.04664953
3.62000000,-0.71492096,0.69057610,-0.48411484,0.16645596,0.66620857,0.24703983,-0.59028058,0.27902406,-0.77822409,0.22974929,-0.47601847,-0.84804618,0.40061730,-0.04664953
3.64000000,-0.71492096,0.69057610,-0.48411484,0.16645596,0.66620857,0.24703983,-0.59028058,0.27902406,-0.77822409,0.22974929,-0.47601847,-0.84804618,0.40061730,-0.04664953
3.66000000,-0.71492096,0.69057610,-0.48411484,0.16645596,0.66620857,0.24703983,-0.59028058,0.27902406,-0.77822409,0.22974929,-0.47601847,-0.84804618,0.40061730,-0.04664953
3.68000000,-0.71492096,0.69057610,-0.48411484,0.16645596,0.66620857,0.24703983,-0.59028058,0.27902406,-0.77822409,0.22974929,-0.47601847,-0.84804618,0.40061730,-0.04664953
3.70000000,-0.71492096,0.69057610,-0.48411484,0.16645596,0.66620857,0.24703983,-0.59028058,0.27902406,-0.77822409,0.22974929,-0.47601847,-0.84804618,0.40061730,-0.04664953
3.72000000,-0.71492096,0.69057610,-0.48411484,0.16645596,0.66620857,0.24703983,-0.59028058,0.27902406,-0.77822409,0.22974929,-0.47601847,-0.84804618,0.40061730,-0.04664953
3.74000000,-0.71492096,0.69057610,-0.48411484,0.16645596,0.66620857,0.24703983,-0.59028058,0.27902406,-0.77822409,0.22974929,-0.47601847,-0.84804618,0.40061730,-0.04664953
3.76000000,-0.71492096,0.69057610,-0.48411484,0.16645596,0.66620857,0.24703983,-0.59028058,0.27902406,-0.77822409,0.22974929,-0.47601847,-0.84804618,0.40061730,-0.04664953
3.78000000,-0.71492096,0.69057610,-0.48411484,0.16645596,0.66620857,0.24703983,-0.59028058,0.27902406,-0.77822409,0.22974929,-0.47601847,-0.84804618,0.40061730,-0.04664953
3.80000000,-0.71492096,0.69057610,-0.48411484,0.16645596,0.66620857,0.24703983,-0.59028058,0.27902406,-0.77822409,0.22974929,-0.47601847,-0.84804618,0.40061730,-0.04664953
3.82000000,-0.71492096,0.69057610,-0.48411484,0.16645596,0.66620857,0.24703983,-0.59028058,0.27902406,-0.77822409,0.22974929,-0.47601847,-0.84804618,0.40061730,-0.04664953
3.84000000,-0.71492096,0.69057610,-0.48411484,0.16645596,0.66620857,0.24703983,-0.59028058,0.27902406,-0.77822409,0.22974929,-0.47601847,-0.84804618,0.40061730,-0.04664953
3.86000000,-0.71492096,0.69057610,-0.48411484,0.16645596,0.66620857,0.24703983,-0.59028058,0.27902406,-0.77822409,0.22974929,-0.47601847,-0.84804618,0.40061730,-0.04664953
3.88000000,-0.71492096,0.69057610,-0.48411484,0.16645596,0.66620857,0.24703983,-0.59028058,0.27902406,-0.77822409,0.22974929,-0.47601847,-0.84804618,0.40061730,-0.04664953
3.90000000,-0.71492096,0.69057610,-0.48411484,0.16645596,0.66620857,0.24703983,-0.59028058,0.27902406,-0.77822409,0.22974929,-0.47601847,-0.84804618,0.40061730,-0.04664953
3.92000000,-0.71492096,0.69057610,-0.48411484,0.16645596,0.66620857,0.24703983,-0.59028058,0.27902406,-0.77822409,0.22974929,-0.47601847,-0.84804618,0.40061730,-0.04664953
3.94000000,-0.71492096,0.69057610,-0.48411484,0.16645596,0.66620857,0.24703983,-0.59028058,0.27902406,-0.77822409,0.22974929,-0.47601847,-0.84804618,0.40061730,-0.04664953
3.96000000,-0.71492096,0.69057610,-0.48411484,0.16645596,0.66620857,0.24703983,-0.59028058,0.27902406,-0.77822409,0.22974929,-0.47601847,-0.84804618,0.40061730,-0.04664953
3.98000000,-0.71492096,0.69057610,-0.48411484,0.16645596,0.66620857,0.24703983,-0.59028058,0.27902406,-0.77822409,0.22974929,-0.47601847,-0.84804618,0.40061730,-0.04664953
4.00000000,-0.71492096,0.69057610,-0.48411484,0.16645596,0.66620857,0.24703983,-0.59028058,0.27902406,-0.77822409,0.22974929,-0.47601847,-0.84804618,0.40061730,-0.04664953
4.02000000,-0.71492096,0.69057610,-0.48411484,0.16645596,0.66620857,0.24703983,-0.59028058,0.27902406,-0.77822409,0.22974929,-0.47601847,-0.84804618,0.40061730,-0.04664953
4.04000000,-0.71492096,0.69057610,-0.48411484,0.16645596,0.66620857,0.24703983,-0.59028058,0.27902406,-0.77822409,0.22974929,-0.47601847,-0.84804618,0.40061730,-0.04664953
4.06000000,-0.71492096,0.69057610,-0.48411484,0.16645596,0.66620857,0.24703983,-0.59028058,0.27902406,-0.77822409,0.22974929,-0.47601847,-0.84804618,0.40061730,-0.04664953
4.08000000,-0.71492096,0.69057610,-0.48411484,0.16645596,0.66620857,0.24703983,-0.59028058,0.27902406,-0.77822409,0.22974929,-0.47601847,-0.84804618,0.40061730,-0.04664953
4.10000000,-0.71492096,0.69057610,-0.48411484,0.16645596,0.66620857,0.24703983,-0.59028058,0.27902406,-0.77822409,0.22974929,-0.47601847,-0.84804618,0.40061730,-0.04664953
4.12000000,-0.71492096,0.69057610,-0.48411484,0.16645596,0.66620857,0.24703983,-0.59028058,0.27902406,-0.77822409,0.22974929,-0.47601847,-0.84804618,0.40061730,-0.04664953
4.14000000,-0.71492096,0.69057610,-0.48411484,0.16645596,0.66620857,0.24703983,-0.59028058,0.27902406,-0.77822409,0.22974929,-0.47601847,-0.84804618,0.40061730,-0.04664953
4.16000000,-0.71492096,0.69057610,-0.48411484,0.16645596,0.66620857,0.24703983,-0.59028058,0.27902406,-0.77822409,0.22974929,-0.47601847,-0.84804618,0.40061730,-0.04664953
4.18000000,-0.71492096,0.69057610,-0.48411484,0.16645596,0.66620857,0.24703983,-0.59028058,0.27902406,-0.77822409,0.22974929,-0.47601847,-0.84804618,0.40061730,-0.04664953
4.20000000,-0.71492096,0.69057610,-0.48411484,0.16645596,0.66620857,0.24703983,-0.59028058,0.27902406,-0.77822409,0.22974929,-0.47601847,-0.84804618,0.40061730,-0.04664953
4.22000000,-0.71492096,0.69057610,-0.48411484,0.16645596,0.66620857,0.24703983,-0.59028058,0.27902406,-0.77822409,0.22974929,-0.47601847,-0.84804618,0.40061730,-0.04664953
4.24000000,-0.71492096,0.69057610,-0.48411484,0.16645596,0.66620857,0.24703983,-0.59028058,0.27902406,-0.77822409,0.22974929,-0.47601847,-0.84804618,0.40061730,-0.04664953
4.26000000,-0.71492096,0.69057610,-0.48411484,0.16645596,0.66620857,0.24703983,-0.59028058,0.27902406,-0.77822409,0.22974929,-0.47601847,-0.84804618,0.40061730,-0.04664953
4.28000000,-0.71492096,0.69057610,-0.48411484,0.16645596,0.66620857,0.24703983,-0.59028058,0.27902406,-0.77822409,0.22974929,-0.47601847,-0.84804618,0.40061730,-0.04664953
4.30000000,-0.71492096,0.69057610,-0.48411484,0.16645596,0.66620857,0.24703983,-0.59028058,0.27902406,-0.77822409,0.22974929,-0.47601847,-0.84804618,0.40061730,-0.04664953
4.32000000,-0.71492096,0.69057610,-0.48411484,0.16645596,0.66620857,0.24703983,-0.59028058,0.27902406,-0.77822409,0.22974929,-0.47601847,-0.84804618,0.40061730,-0.04664953
4.34000000,-0.71492096,0.69057610,-0.48411484,0.16645596,0.66620857,0.24703983,-0.59028058,0.27902406,-0.77822409,0.22974929,-0.47601847,-0.84804618,0.40061730,-0.04664953
4.36000000,-0.71492096,0.69057610,-0.48411484,0.16645596,0.66620857,0.24703983,-0.59028058,0.27902406,-0.77822409,0.22974929,-0.47601847,-0.84804618,0.40061730,-0.04664953
4.38000000,-0.71492096,0.69057610,-0.48411484,0.16645596,0.66620857,0.24703983,-0.59028058,0.27902406,-0.77822409,0.22974929,-0.47601847,-0.84804618,0.40061730,-0.04664953
4.40000000,-0.71492096,0.69057610,-0.48411484,0.16645596,0.66620857,0.24703983,-0.59028058,0.27902406,-0.77822409,0.22974929,-0.47601847,-0.84804618,0.40061730,-0.04664953
4.42000000,-0.71492096,0.69057610,-0.48411484,0.16645596,0.66620857,0.24703983,-0.59028058,0.27902406,-0.77822409,0.22974929,-0.47601847,-0.84804618,0.40061730,-0.04664953
4.44000000,-0.71492096,0.69057610,-0.48411484,0.16645596,0.66620857,0.24703983,-0.59028058,0.27902406,-0.77822409,0.22974929,-0.47601847,-0.84804618,0.40061730,-0.04664953
4.46000000,-0.71492096,0.69057610,-0.48411484,0.16645596,0.66620857,0.24703983,-0.59028058,0.27902406,-0.77822409,0.22974929,-0.47601847,-0.84804618,0.40061730,-0.04664953
4.48000000,-0.71492096,0.69057610,-0.48411484,0.16645596,0.66620857,0.24703983,-0.59028058,0.27902406,-0.77822409,0.22974929,-0.47601847,-0.84804618,0.40061730,-0.04664953
4.50000000,-0.71492096,0.69057610,-0.48411484,0.16645596,0.66620857,0.24703983,-0.59028058,0.27902406,-0.77822409,0.22974929,-0.47601847,-0.84804618,0.40061730,-0.04664953
4.52000000,-0.71492096,0.69057610,-0.48411484,0.16645596,0.66620857,0.24703983,-0.59028058,0.27902406,-0.77822409,0.22974929,-0.47601847,-0.84804618,0.40061730,-0.04664953
4.54000000,-0.71492096,0.69057610,-0.48411484,0.16645596,0.66620857,0.24703983,-0.59028058,0.27902406,-0.77822409,0.22974929,-0.47601847,-0.84804618,0.40061730,-0.04664953
4.56000000,-0.71492096,0.69057610,-0.48411484,0.16645596,0.66620857,0.24703983,-0.59028058,0.27902406,-0.77822409,0.22974929,-0.47601847,-0.84804618,0.40061730,-0.04664953
4.58000000,-0.71492096,0.69057610,-0.48411484,0.16645596,0.66620857,0.24703983,-0.59028058,0.27902406,-0.77822409,0.22974929,-0.47601847,-0.84804618,0.40061730,-0.04664953
4.60000000,-0.71492096,0.69057610,-0.48411484,0.16645596,0.66620857,0.24703983,-0.59028058,0.27902406,-0.77822409,0.22974929,-0.47601847,-0.84804618,0.40061730,-0.04664953
4.62000000,-0.71492096,0.69057610,-0.48411484,0.16645596,0.66620857,0.24703983,-0.59028058,0.27902406,-0.77822409,0.22974929,-0.47601847,-0.84804618,0.40061730,-0.04664953
4.64000000,-0.71492096,0.69057610,-0.48411484,0.16645596,0.66620857,0.24703983,-0.59028058,0.27902406,-0.77822409,0.22974929,-0.47601847,-0.84804618,0.40061730,-0.04664953
4.66000000,-0.71492096,0.69057610,-0.48411484,0.16645596,0.66620857,0.24703983,-0.59028058,0.27902406,-0.77822409,0.22974929,-0.47601847,-0.84804618,0.40061730,-0.04664953
4.68000000,-0.71492096,0.69057610,-0.48411484,0.16645596,0.66620857,0.24703983,-0.59028058,0.27902406,-0.77822409,0.22974929,-0.47601847,-0.84804618,0.40061730,-0.04664953
4.70000000,-0.71492096,0.69057610,-0.48411484,0.16645596,0.66620857,0.24703983,-0.59028058,0.27902406,-0.77822409,0.22974929,-0.47601847,-0.84804618,0.40061730,-0.04664953
4.72000000,-0.71492096,0.69057610,-0.48411484,0.16645596,0.66620857,0.24703983,-0.59028058,0.27902406,-0.77822409,0.22974929,-0.47601847,-0.84804618,0.40061730,-0.04664953
4.74000000,-0.71492096,0.69057610,-0.48411484,0.16645596,0.66620857,0.24703983,-0.59028058,0.27902406,-0.77822409,0.22974929,-0.47601847,-0.84804618,0.40061730,-0.04664953
4.76000000,-0.71492096,0.69057610,-0.48411484,0.16645596,0.66620857,0.24703983,-0.59028058,0.27902406,-0.77822409,0.22974929,-0.47601847,-0.84804618,0.40061730,-0.04664953
4.78000000,-0.71492096,0.69057610,-0.48411484,0.16645596,0.66620857,0.24703983,-0.59028058,0.27902406,-0.77822409,0.22974929,-0.47601847,-0.84804618,0.40061730,-0.04664953
4.80000000,-0.71492096,0.69057610,-0.48411484,0.16645596,0.66620857,0.24703983,-0.59028058,0.27902406,-0.77822409,0.22974929,-0.47601847,-0.84804618,0.40061730,-0.04664953
4.82000000,-0.71492096,0.69057610,-0.48411484,0.16645596,0.66620857,0.24703983,-0.59028058,0.27902406,-0.77822409,0.22974929,-0.47601847,-0.84804618,0.40061730,-0.04664953
4.84000000,-0.71492096,0.69057610,-0.48411484,0.16645596,0.66620857,0.24703983,-0.59028058,0.27902406,-0.77822409,0.22974929,-0.47601847,-0.84804618,0.40061730,-0.04664953
4.86000000,-0.71492096,0.69057610,-0.48411484,0.16645596,0.66620857,0.24703983,-0.59028058,0.27902406,-0.77822409,0.22974929,-0.47601847,-0.84804618,0.40061730,-0.04664953
4.88000000,-0.71492096,0.69057610,-0.48411484,0.16645596,0.66620857,0.24703983,-0.59028058,0.27902406,-0.77822409,0.22974929,-0.47601847,-0.84804618,0.40061730,-0.04664953
4.90000000,-0.71492096,0.69057610,-0.48411484,0.16645596,0.66620857,0.24703983,-0.59028058,0.27902406,-0.77822409,0.22974929,-0.47601847,-0.84804618,0.40061730,-0.04664953
4.92000000,-0.71492096,0.69057610,-0.48411484,0.16645596,0.66620857,0.24703983,-0.59028058,0.27902406,-0.77822409,0.22974929,-0.47601847,-0.84804618,0.40061730,-0.04664953
4.94000000,-0.71492096,0.69057610,-0.48411484,0.16645596,0.66620857,0.24703983,-0.59028058,0.27902406,-0.77822409,0.22974929,-0.47601847,-0.84804618,0.40061730,-0.04664953
4.96000000,-0.71492096,0.69057610,-0.48411484,0.16645596,0.66620857,0.24703983,-0.59028058,0.27902406,-0.77822409,0.22974929,-0.47601847,-0.84804618,0.40061730,-0.04664953
4.98000000,-0.71492096,0.69057610,-0.48411484,0.16645596,0.66620857,0.24703983,-0.59028058,0.27902406,-0.77822409,0.22974929,-0.47601847,-0.84804618,0.40061730,-0.04664953
5.00000000,-0.71492096,0.69057610,-0.48411484,0.16645596,0.66620857,0.24703983,-0.59028058,0.27902406,-0.77822409,0.22974929,-0.47601847,-0.84804618,0.40061730,-0.04664953
5.02000000,-0.71492096,0.69057610,-0.48411484,0.16645596,0.66620857,0.24703983,-0.59028058,0.27902406,-0.77822409,0.22974929,-0.47601847,-0.84804618,0.40061730,-0.04664953
5.04000000,-0.71492096,0.69057610,-0.48411484,0.16645596,0.66620857,0.24703983,-0.59028058,0.27902406,-0.77822409,0.22974929,-0.47601847,-0.84804618,0.40061730,-0.04664953
5.06000000,-0.71492096,0.69057610,-0.48411484,0.16645596,0.66620857,0.24703983,-0.59028058,0.27902406,-0.77822409,0.22974929,-0.47601847,-0.84804618,0.40061730,-0.04664953
5.08000000,-0.71492096,0.69057610,-0.48411484,0.16645596,0.66620857,0.24703983,-0.59028058,0.27902406,-0.77822409,0.22974929,-0.47601847,-0.84804618,0.40061730,-0.04664953
5.10000000,-0.71492096,0.69057610,-0.48411484,0.16645596,0.66620857,0.24703983,-0.59028058,0.27902406,-0.77822409,0.22974929,-0.47601847,-0.84804618,0.40061730,-0.04664953
5.12000000,-0.71492096,0.69057610,-0.48411484,0.16645596,0.66620857,0.24703983,-0.59028058,0.27902406,-0.77822409,0.22974929,-0.47601847,-0.84804618,0.40061730,-0.04664953
5.14000000,-0.71492096,0.69057610,-0.48411484,0.16645596,0.66620857,0.24703983,-0.59028058,0.27902406,-0.77822409,0.22974929,-0.47601847,-0.84804618,0.40061730,-0.04664953
5.16000000,-0.71492096,0.69057610,-0.48411484,0.16645596,0.66620857,0.24703983,-0.59028058,0.27902406,-0.77822409,0.22974929,-0.47601847,-0.84804618,0.40061730,-0.04664953
5.18000000,-0.71492096,0.69057610,-0.48411484,0.16645596,0.66620857,0.24703983,-0.59028058,0.27902406,-0.77822409,0.22974929,-0.47601847,-0.84804618,0.40061730,-0.04664953
5.20000000,-0.71492096,0.69057610,-0.48411484,0.16645596,0.66620857,0.24703983,-0.59028058,0.27902406,-0.77822409,0.22974929,-0.47601847,-0.84804618,0.40061730,-0.04664953
5.22000000,-0.71492096,0.69057610,-0.48411484,0.16645596,0.66620857,0.24703983,-0.59028058,0.27902406,-0.77822409,0.22974929,-0.47601847,-0.84804618,0.40061730,-0.04664953
5.24000000,-0.71492096,0.69057610,-0.48411484,0.16645596,0.66620857,0.24703983,-0.59028058,0.27902406,-0.77822409,0.22974929,-0.47601847,-0.84804618,0.40061730,-0.04664953
5.26000000,-0.71492096,0.69057610,-0.48411484,0.16645596,0.66620857,0.24703983,-0.59028058,0.27902406,-0.77822409,0.22974929,-0.47601847,-0.84804618,0.40061730,-0.04664953
5.28000000,-0.71492096,0.69057610,-0.48411484,0.16645596,0.66620857,0.24703983,-0.59028058,0.27902406,-0.77822409,0.22974929,-0.47601847,-0.84804618,0.40061730,-0.04664953
5.30000000,-0.71492096,0.69057610,-0.48411484,0.16645596,0.66620857,0.24703983,-0.59028058,0.27902406,-0.77822409,0.22974929,-0.47601847,-0.84804618,0.40061730,-0.04664953
5.32000000,-0.71492096,0.69057610,-0.48411484,0.16645596,0.66620857,0.24703983,-0.59028058,0.27902406,-0.77822409,0.22974929,-0.47601847,-0.84804618,0.40061730,-0.04664953
5.34000000,-0.71492096,0.69057610,-0.48411484,0.16645596,0.66620857,0.24703983,-0.59028058,0.27902406,-0.77822409,0.22974929,-0.47601847,-0.84804618,0.40061730,-0.04664953
5.36000000,-0.71492096,0.69057610,-0.48411484,0.16645596,0.66620857,0.24703983,-0.59028058,0.27902406,-0.77822409,0.22974929,-0.47601847,-0.84804618,0.40061730,-0.04664953
5.38000000,-0.71492096,0.69057610,-0.48411484,0.16645596,0.66620857,0.24703983,-0.59028058,0.27902406,-0.77822409,0.22974929,-0.47601847,-0.84804618,0.40061730,-0.04664953
5.40000000,-0.71492096,0.69057610,-0.48411484,0.16645596,0.66620857,0.24703983,-0.59028058,0.27902406,-0.77822409,0.22974929,-0.47601847,-0.84804618,0.40061730,-0.04664953
5.42000000,-0.71492096,0.69057610,-0.48411484,0.16645596,0.66620857,0.24703983,-0.59028058,0.27902406,-0.77822409,0.22974929,-0.47601847,-0.84804618,0.40061730,-0.04664953
5.44000000,-0.71492096,0.69057610,-0.48411484,0.16645596,0.66620857,0.24703983,-0.59028058,0.27902406,-0.77822409,0.22974929,-0.47601847,-0.84804618,0.40061730,-0.04664953
5.46000000,-0.71492096,0.69057610,-0.48411484,0.16645596,0.66620857,0.24703983,-0.59028058,0.27902406,-0.77822409,0.22974929,-0.47601847,-0.84804618,0.40061730,-0.04664953
5.48000000,-0.71492096,0.69057610,-0.48411484,0.16645596,0.66620857,0.24703983,-0.59028058,0.27902406,-0.77822409,0.22974929,-0.47601847,-0.84804618,0.40061730,-0.04664953
5.50000000,-0.71492096,0.69057610,-0.48411484,0.16645596,0.66620857,0.24703983,-0.59028058,0.27902406,-0.77822409,0.22974929,-0.47601847,-0.84804618,0.40061730,-0.04664953
5.52000000,-0.71492096,0.69057610,-0.48411484,0.16645596,0.66620857,0.24703983,-0.59028058,0.27902406,-0.77822409,0.22974929,-0.47601847,-0.84804618,0.40061730,-0.04664953
5.54000000,-0.71492096,0.69057610,-0.48411484,0.16645596,0.66620857,0.24703983,-0.59028058,0.27902406,-0.77822409,0.22974929,-0.47601847,-0.84804618,0.40061730,-0.04664953
5.56000000,-0.71492096,0.69057610,-0.48411484,0.16645596,0.66620857,0.24703983,-0.59028058,0.27902406,-0.77822409,0.22974929,-0.47601847,-0.84804618,0.40061730,-0.04664953
5.58000000,-0.71492096,0.69057610,-0.48411484,0.16645596,0.66620857,0.24703983,-0.59028058,0.27902406,-0.77822409,0.22974929,-0.47601847,-0.84804618,0.40061730,-0.04664953
5.60000000,-0.71492096,0.69057610,-0.48411484,0.16645596,0.66620857,0.24703983,-0.59028058,0.27902406,-0.77822409,0.22974929,-0.47601847,-0.84804618,0.40061730,-0.04664953
5.62000000,-0.71492096,0.69057610,-0.48411484,0.16645596,0.66620857,0.24703983,-0.59028058,0.27902406,-0.77822409,0.22974929,-0.47601847,-0.84804618,0.40061730,-0.04664953
5.64000000,-0.71492096,0.69057610,-0.48411484,0.16645596,0.66620857,0.24703983,-0.59028058,0.27902406,-0.77822409,0.22974929,-0.47601847,-0.84804618,0.40061730,-0.04664953
5.66000000,-0.71492096,0.69057610,-0.48411484,0.16645596,0.66620857,0.24703983,-0.59028058,0.27902406,-0.77822409,0.22974929,-0.47601847,-0.84804618,0.40061730,-0.04664953
5.68000000,-0.71492096,0.69057610,-0.48411484,0.16645596,0.66620857,0.24703983,-0.59028058,0.27902406,-0.77822409,0.22974929,-0.47601847,-0.84804618,0.40061730,-0.04664953
5.70000000,-0.71492096,0.69057610,-0.48411484,0.16645596,0.66620857,0.24703983,-0.59028058,0.27902406,-0.77822409,0.22974929,-0.47601847,-0.84804618,0.40061730,-0.04664953
5.72000000,-0.71492096,0.69057610,-0.48411484,0.16645596,0.66620857,0.24703983,-0.59028058,0.27902406,-0.77822409,0.22974929,-0.47601847,-0.84804618,0.40061730,-0.04664953
5.74000000,-0.71492096,0.69057610,-0.48411484,0.16645596,0.66620857,0.24703983,-0.59028058,0.27902406,-0.77822409,0.22974929,-0.47601847,-0.84804618,0.40061730,-0.04664953
5.76000000,-0.71492096,0.69057610,-0.48411484,0.16645596,0.66620857,0.24703983,-0.59028058,0.27902406,-0.77822409,0.22974929,-0.47601847,-0.84804618,0.40061730,-0.04664953
5.78000000,-0.71492096,0.69057610,-0.48411484,0.16645596,0.66620857,0.24703983,-0.59028058,0.27902406,-0.77822409,0.22974929,-0.47601847,-0.84804618,0.40061730,-0.04664953
5.80000000,-0.71492096,0.69057610,-0.48411484,0.16645596,0.66620857,0.24703983,-0.59028058,0.27902406,-0.77822409,0.22974929,-0.47601847,-0.84804618,0.40061730,-0.04664953
5.82000000,-0.71492096,0.69057610,-0.48411484,0.16645596,0.66620857,0.24703983,-0.59028058,0.27902406,-0.77822409,0.22974929,-0.47601847,-0.84804618,0.40061730,-0.04664953
5.84000000,-0.71492096,0.69057610,-0.48411484,0.16645596,0.66620857,0.24703983,-0.59028058,0.27902406,-0.77822409,0.22974929,-0.47601847,-0.84804618,0.40061730,-0.04664953
5.86000000,-0.71492096,0.69057610,-0.48411484,0.16645596,0.66620857,0.24703983,-0.59028058,0.27902406,-0.77822409,0.22974929,-0.47601847,-0.84804618,0.40061730,-0.04664953
5.88000000,-0.71492096,0.69057610,-0.48411484,0.16645596,0.66620857,0.24703983,-0.59028058,0.27902406,-0.77822409,0.22974929,-0.47601847,-0.84804618,0.40061730,-0.04664953
5.90000000,-0.71492096,0.69057610,-0.48411484,0.16645596,0.66620857,0.24703983,-0.59028058,0.27902406,-0.77822409,0.22974929,-0.47601847,-0.84804618,0.40061730,-0.04664953
5.92000000,-0.71492096,0.69057610,-0.48411484,0.16645596,0.66620857,0.24703983,-0.59028058,0.27902406,-0.77822409,0.22974929,-0.47601847,-0.84804618,0.40061730,-0.04664953
5.94000000,-0.71492096,0.69057610,-0.48411484,0.16645596,0.66620857,0.24703983,-0.59028058,0.27902406,-0.77822409,0.22974929,-0.47601847,-0.84804618,0.40061730,-0.04664953
5.96000000,-0.71492096,0.69057610,-0.48411484,0.16645596,0.66620857,0.24703983,-0.59028058,0.27902406,-0.77822409,0.22974929,-0.47601847,-0.84804618,0.40061730,-0.04664953
5.98000000,-0.71492096,0.69057610,-0.48411484,0.16645596,0.66620857,0.24703983,-0.59028058,0.27902406,-0.77822409,0.22974929,-0.47601847,-0.84804618,0.40061730,-0.04664953
6.00000000,-0.71492096,0.69057610,-0.48411484,0.16645596,0.66620857,0.24703983,-0.59028058,0.27902406,-0.77822409,0.22974929,-0.47601847,-0.84804618,0.40061730,-0.04664953
6.02000000,-0.71492096,0.69057610,-0.48411484,0.16645596,0.66620857,0.24703983,-0.59028058,0.27902406,-0.77822409,0.22974929,-0.47601847,-0.84804618,0.40061730,-0.04664953
6.04000000,-0.71492096,0.69057610,-0.48411484,0.16645596,0.66620857,0.24703983,-0.59028058,0.27902406,-0.77822409,0.22974929,-0.47601847,-0.84804618,0.40061730,-0.04664953
6.06000000,-0.71492096,0.69057610,-0.48411484,0.16645596,0.66620857,0.24703983,-0.59028058,0.27902406,-0.77822409,0.22974929,-0.47601847,-0.84804618,0.40061730,-0.04664953
6.08000000,-0.71492096,0.69057610,-0.48411484,0.16645596,0.66620857,0.24703983,-0.59028058,0.27902406,-0.77822409,0.22974929,-0.47601847,-0.84804618,0.40061730,-0.04664953
6.10000000,-0.71492096,0.69057610,-0.48411484,0.16645596,0.66620857,0.24703983,-0.59028058,0.27902406,-0.77822409,0.22974929,-0.47601847,-0.84804618,0.40061730,-0.04664953
6.12000000,-0.71492096,0.69057610,-0.48411484,0.16645596,0.66620857,0.24703983,-0.59028058,0.27902406,-0.77822409,0.22974929,-0.47601847,-0.84804618,0.40061730,-0.04664953
6.14000000,-0.71492096,0.69057610,-0.48411484,0.16645596,0.66620857,0.24703983,-0.59028058,0.27902406,-0.77822409,0.22974929,-0.47601847,-0.84804618,0.40061730,-0.04664953
6.16000000,-0.71492096,0.69057610,-0.48411484,0.16645596,0.66620857,0.24703983,-0.59028058,0.27902406,-0.77822409,0.22974929,-0.47601847,-0.84804618,0.40061730,-0.04664953
6.18000000,-0.71492096,0.69057610,-0.48411484,0.16645596,0.66620857,0.24703983,-0.59028058,0.27902406,-0.77822409,0.22974929,-0.47601847,-0.84804618,0.40061730,-0.04664953
6.20000000,-0.71492096,0.69057610,-0.48411484,0.16645596,0.66620857,0.24703983,-0.59028058,0.27902406,-0.77822409,0.22974929,-0.47601847,-0.84804618,0.40061730,-0.04664953
6.22000000,-0.71492096,0.69057610,-0.48411484,0.16645596,0.66620857,0.24703983,-0.59028058,0.27902406,-0.77822409,0.22974929,-0.47601847,-0.84804618,0.40061730,-0.04664953
6.24000000,-0.71492096,0.69057610,-0.48411484,0.16645596,0.66620857,0.24703983,-0.59028058,0.27902406,-0.77822409,0.22974929,-0.47601847,-0.84804618,0.40061730,-0.04664953
6.26000000,-0.71492096,0.69057610,-0.48411484,0.16645596,0.66620857,0.24703983,-0.59028058,0.27902406,-0.77822409,0.22974929,-0.47601847,-0.84804618,0.40061730,-0.04664953
6.28000000,-0.71492096,0.69057610,-0.48411484,0.16645596,0.66620857,0.24703983,-0.59028058,0.27902406,-0.77822409,0.22974929,-0.47601847,-0.84804618,0.40061730,-0.04664953
6.30000000,-0.71492096,0.69057610,-0.48411484,0.16645596,0.66620857,0.24703983,-0.59028058,0.27902406,-0.77822409,0.22974929,-0.47601847,-0.84804618,0.40061730,-0.04664953
6.32000000,-0.71492096,0.69057610,-0.48411484,0.16645596,0.66620857,0.24703983,-0.59028058,0.27902406,-0.77822409,0.22974929,-0.47601847,-0.84804618,0.40061730,-0.04664953
6.34000000,-0.71492096,0.69057610,-0.48411484,0.16645596,0.66620857,0.24703983,-0.59028058,0.27902406,-0.77822409,0.22974929,-0.47601847,-0.84804618,0.40061730,-0.04664953
6.36000000,-0.71492096,0.69057610,-0.48411484,0.16645596,0.66620857,0.24703983,-0.59028058,0.27902406,-0.77822409,0.22974929,-0.47601847,-0.84804618,0.40061730,-0.04664953
6.38000000,-0.71492096,0.69057610,-0.48411484,0.16645596,0.66620857,0.24703983,-0.59028058,0.27902406,-0.77822409,0.22974929,-0.47601847,-0.84804618,0.40061730,-0.04664953
6.40000000,-0.71492096,0.69057610,-0.48411484,0.16645596,0.66620857,0.24703983,-0.59028058,0.27902406,-0.77822409,0.22974929,-0.47601847,-0.84804618,0.40061730,-0.04664953
6.42000000,-0.71492096,0.69057610,-0.48411484,0.16645596,0.66620857,0.24703983,-0.59028058,0.27902406,-0.77822409,0.22974929,-0.47601847,-0.84804618,0.40061730,-0.04664953
6.44000000,-0.71492096,0.69057610,-0.48411484,0.16645596,0.66620857,0.24703983,-0.59028058,0.27902406,-0.77822409,0.22974929,-0.47601847,-0.84804618,0.40061730,-0.04664953
6.46000000,-0.71492096,0.69057610,-0.48411484,0.16645596,0.66620857,0.24703983,-0.59028058,0.27902406,-0.77822409,0.22974929,-0.47601847,-0.84804618,0.40061730,-0.04664953
6.48000000,-0.71492096,0.69057610,-0.48411484,0.16645596,0.66620857,0.24703983,-0.59028058,0.27902406,-0.77822409,0.22974929,-0.47601847,-0.84804618,0.40061730,-0.04664953
6.50000000,-0.71492096,0.69057610,-0.48411484,0.16645596,0.66620857,0.24703983,-0.59028058,0.27902406,-0.77822409,0.22974929,-0.47601847,-0.84804618,0.40061730,-0.04664953
6.52000000,-0.71492096,0.69057610,-0.48411484,0.16645596,0.66620857,0.24703983,-0.59028058,0.27902406,-0.77822409,0.22974929,-0.47601847,-0.84804618,0.40061730,-0.04664953
6.54000000,-0.71492096,0.69057610,-0.48411484,0.16645596,0.66620857,0.24703983,-0.59028058,0.27902406,-0.77822409,0.22974929,-0.47601847,-0.84804618,0.40061730,-0.04664953
6.56000000,-0.71492096,0.69057610,-0.48411484,0.16645596,0.66620857,0.24703983,-0.59028058,0.27902406,-0.77822409,0.22974929,-0.47601847,-0.84804618,0.40061730,-0.04664953
6.58000000,-0.71492096,0.69057610,-0.48411484,0.16645596,0.66620857,0.24703983,-0.59028058,0.27902406,-0.77822409,0.22974929,-0.47601847,-0.84804618,0.40061730,-0.04664953
6.60000000,-0.71492096,0.69057610,-0.48411484,0.16645596,0.66620857,0.24703983,-0.59028058,0.27902406,-0.77822409,0.22974929,-0.47601847,-0.84804618,0.40061730,-0.04664953
6.62000000,-0.71492096,0.69057610,-0.48411484,0.16645596,0.66620857,0.24703983,-0.59028058,0.27902406,-0.77822409,0.22974929,-0.47601847,-0.84804618,0.40061730,-0.04664953
6.64000000,-0.71492096,0.69057610,-0.48411484,0.16645596,0.66620857,0.24703983,-0.59028058,0.27902406,-0.77822409,0.22974929,-0.47601847,-0.84804618,0.40061730,-0.04664953
6.66000000,-0.71492096,0.69057610,-0.48411484,0.16645596,0.66620857,0.24703983,-0.59028058,0.27902406,-0.77822409,0.22974929,-0.47601847,-0.84804618,0.40061730,-0.04664953
6.68000000,-0.71492096,0.69057610,-0.48411484,0.16645596,0.66620857,0.24703983,-0.59028058,0.27902406,-0.77822409,0.22974929,-0.47601847,-0.84804618,0.40061730,-0.04664953
6.70000000,-0.71492096,0.69057610,-0.48411484,0.16645596,0.66620857,0.24703983,-0.59028058,0.27902406,-0.77822409,0.22974929,-0.47601847,-0.84804618,0.40061730,-0.04664953
6.72000000,-0.71492096,0.69057610,-0.48411484,0.16645596,0.66620857,0.24703983,-0.59028058,0.27902406,-0.77822409,0.22974929,-0.47601847,-0.84804618,0.40061730,-0.04664953
6.74000000,-0.71492096,0.69057610,-0.48411484,0.16645596,0.66620857,0.24703983,-0.59028058,0.27902406,-0.77822409,0.22974929,-0.47601847,-0.84804618,0.40061730,-0.04664953
6.76000000,-0.71492096,0.69057610,-0.48411484,0.16645596,0.66620857,0.24703983,-0.59028058,0.27902406,-0.77822409,0.22974929,-0.47601847,-0.84804618,0.40061730,-0.04664953
6.78000000,-0.71492096,0.69057610,-0.48411484,0.16645596,0.66620857,0.24703983,-0.59028058,0.27902406,-0.77822409,0.22974929,-0.47601847,-0.84804618,0.40061730,-0.04664953
6.80000000,-0.71492096,0.69057610,-0.48411484,0.16645596,0.66620857,0.24703983,-0.59028058,0.27902406,-0.77822409,0.22974929,-0.47601847,-0.84804618,0.40061730,-0.04664953
6.82000000,-0.71492096,0.69057610,-0.48411484,0.16645596,0.66620857,0.24703983,-0.59028058,0.27902406,-0.77822409,0.22974929,-0.47601847,-0.84804618,0.40061730,-0.04664953
6.84000000,-0.71492096,0.69057610,-0.48411484,0.16645596,0.66620857,0.24703983,-0.59028058,0.27902406,-0.77822409,0.22974929,-0.47601847,-0.84804618,0.40061730,-0.04664953
6.86000000,-0.71492096,0.69057610,-0.48411484,0.16645596,0.66620857,0.24703983,-0.59028058,0.27902406,-0.77822409,0.22974929,-0.47601847,-0.84804618,0.40061730,-0.04664953
6.88000000,-0.71492096,0.69057610,-0.48411484,0.16645596,0.66620857,0.24703983,-0.59028058,0.27902406,-0.77822409,0.22974929,-0.47601847,-0.84804618,0.40061730,-0.04664953
6.90000000,-0.71492096,0.69057610,-0.48411484,0.16645596,0.66620857,0.24703983,-0.59028058,0.27902406,-0.77822409,0.22974929,-0.47601847,-0.84804618,0.40061730,-0.04664953
6.92000000,-0.71492096,0.69057610,-0.48411484,0.16645596,0.66620857,0.24703983,-0.59028058,0.27902406,-0.77822409,0.22974929,-0.47601847,-0.84804618,0.40061730,-0.04664953
6.94000000,-0.71492096,0.69057610,-0.48411484,0.16645596,0.66620857,0.24703983,-0.59028058,0.27902406,-0.77822409,0.22974929,-0.47601847,-0.84804618,0.40061730,-0.04664953
6.96000000,-0.71492096,0.69057610,-0.48411484,0.16645596,0.66620857,0.24703983,-0.59028058,0.27902406,-0.77822409,0.22974929,-0.47601847,-0.84804618,0.40061730,-0.04664953
6.98000000,-0.71492096,0.69057610,-0.48411484,0.16645596,0.66620857,0.24703983,-0.59028058,0.27902406,-0.77822409,0.22974929,-0.47601847,-0.84804618,0.40061730,-0.04664953
7.00000000,-0.71492096,0.69057610,-0.48411484,0.16645596,0.66620857,0.24703983,-0.59028058,0.27902406,-0.77822409,0.22974929,-0.47601847,-0.84804618,0.40061730,-0.04664953
7.02000000,-0.71492096,0.69057610,-0.48411484,0.16645596,0.66620857,0.24703983,-0.59028058,0.27902406,-0.77822409,0.22974929,-0.47601847,-0.84804618,0.40061730,-0.04664953
7.04000000,-0.71492096,0.69057610,-0.48411484,0.16645596,0.66620857,0.24703983,-0.59028058,0.27902406,-0.77822409,0.22974929,-0.47601847,-0.84804618,0.40061730,-0.04664953
7.06000000,-0.71492096,0.69057610,-0.48411484,0.16645596,0.66620857,0.24703983,-0.59028058,0.27902406,-0.77822409,0.22974929,-0.47601847,-0.84804618,0.40061730,-0.04664953
7.08000000,-0.71492096,0.69057610,-0.48411484,0.16645596,0.66620857,0.24703983,-0.59028058,0.27902406,-0.77822409,0.22974929,-0.47601847,-0.84804618,0.40061730,-0.04664953
7.10000000,-0.71492096,0.69057610,-0.48411484,0.16645596,0.66620857,0.24703983,-0.59028058,0.27902406,-0.77822409,0.22974929,-0.47601847,-0.84804618,0.40061730,-0.04664953
7.12000000,-0.71492096,0.69057610,-0.48411484,0.16645596,0.66620857,0.24703983,-0.59028058,0.27902406,-0.77822409,0.22974929,-0.47601847,-0.84804618,0.40061730,-0.04664953
7.14000000,-0.71492096,0.69057610,-0.48411484,0.16645596,0.66620857,0.24703983,-0.59028058,0.27902406,-0.77822409,0.22974929,-0.47601847,-0.84804618,0.40061730,-0.04664953
7.16000000,-0.71492096,0.69057610,-0.48411484,0.16645596,0.66620857,0.24703983,-0.59028058,0.27902406,-0.77822409,0.22974929,-0.47601847,-0.84804618,0.40061730,-0.04664953
7.18000000,-0.71492096,0.69057610,-0.48411484,0.16645596,0.66620857,0.24703983,-0.59028058,0.27902406,-0.77822409,0.22974929,-0.47601847,-0.84804618,0.40061730,-0.04664953
7.20000000,-0.71492096,0.69057610,-0.48411484,0.16645596,0.66620857,0.24703983,-0.59028058,0.27902406,-0.77822409,0.22974929,-0.47601847,-0.84804618,0.40061730,-0.04664953
7.22000000,-0.71492096,0.69057610,-0.48411484,0.16645596,0.66620857,0.24703983,-0.59028058,0.27902406,-0.77822409,0.22974929,-0.47601847,-0.84804618,0.40061730,-0.04664953
7.24000000,-0.71492096,0.69057610,-0.48411484,0.16645596,0.66620857,0.24703983,-0.59028058,0.27902406,-0.77822409,0.22974929,-0.47601847,-0.84804618,0.40061730,-0.04664953
7.26000000,-0.71492096,0.69057610,-0.48411484,0.16645596,0.66620857,0.24703983,-0.59028058,0.27902406,-0.77822409,0.22974929,-0.47601847,-0.84804618,0.40061730,-0.04664953
7.28000000,-0.71492096,0.69057610,-0.48411484,0.16645596,0.66620857,0.24703983,-0.59028058,0.27902406,-0.77822409,0.22974929,-0.47601847,-0.84804618,0.40061730,-0.04664953
7.30000000,-0.71492096,0.69057610,-0.48411484,0.16645596,0.66620857,0.24703983,-0.59028058,0.27902406,-0.77822409,0.22974929,-0.47601847,-0.84804618,0.40061730,-0.04664953
7.32000000,-0.71492096,0.69057610,-0.48411484,0.16645596,0.66620857,0.24703983,-0.59028058,0.27902406,-0.77822409,0.22974929,-0.47601847,-0.84804618,0.40061730,-0.04664953
7.34000000,-0.71492096,0.69057610,-0.48411484,0.16645596,0.66620857,0.24703983,-0.59028058,0.27902406,-0.77822409,0.22974929,-0.47601847,-0.84804618,0.40061730,-0.04664953
7.36000000,-0.71492096,0.69057610,-0.48411484,0.16645596,0.66620857,0.24703983,-0.59028058,0.27902406,-0.77822409,0.22974929,-0.47601847,-0.84804618,0.40061730,-0.04664953
7.38000000,-0.71492096,0.69057610,-0.48411484,0.16645596,0.66620857,0.24703983,-0.59028058,0.27902406,-0.77822409,0.22974929,-0.47601847,-0.84804618,0.40061730,-0.04664953
7.40000000,-0.71492096,0.69057610,-0.48411484,0.16645596,0.66620857,0.24703983,-0.59028058,0.27902406,-0.77822409,0.22974929,-0.47601847,-0.84804618,0.40061730,-0.04664953
7.42000000,-0.71492096,0.69057610,-0.48411484,0.16645596,0.66620857,0.24703983,-0.59028058,0.27902406,-0.77822409,0.22974929,-0.47601847,-0.84804618,0.40061730,-0.04664953
7.44000000,-0.71492096,0.69057610,-0.48411484,0.16645596,0.66620857,0.24703983,-0.59028058,0.27902406,-0.77822409,0.22974929,-0.47601847,-0.84804618,0.40061730,-0.04664953
7.46000000,-0.71492096,0.69057610,-0.48411484,0.16645596,0.66620857,0.24703983,-0.59028058,0.27902406,-0.77822409,0.22974929,-0.47601847,-0.84804618,0.40061730,-0.04664953
7.48000000,-0.71492096,0.69057610,-0.48411484,0.16645596,0.66620857,0.24703983,-0.59028058,0.27902406,-0.77822409,0.22974929,-0.47601847,-0.84804618,0.40061730,-0.04664953
7.50000000,-0.71492096,0.69057610,-0.48411484,0.16645596,0.66620857,0.24703983,-0.59028058,0.27902406,-0.77822409,0.22974929,-0.47601847,-0.84804618,0.40061730,-0.04664953
7.52000000,-0.71492096,0.69057610,-0.48411484,0.16645596,0.66620857,0.24703983,-0.59028058,0.27902406,-0.77822409,0.22974929,-0.47601847,-0.84804618,0.40061730,-0.04664953
7.54000000,-0.71492096,0.69057610,-0.48411484,0.16645596,0.66620857,0.24703983,-0.59028058,0.27902406,-0.77822409,0.22974929,-0.47601847,-0.84804618,0.40061730,-0.04664953
7.56000000,-0.71492096,0.69057610,-0.48411484,0.16645596,0.66620857,0.24703983,-0.59028058,0.27902406,-0.77822409,0.22974929,-0.47601847,-0.84804618,0.40061730,-0.04664953
7.58000000,-0.71492096,0.69057610,-0.48411484,0.16645596,0.66620857,0.24703983,-0.59028058,0.27902406,-0.77822409,0.22974929,-0.47601847,-0.84804618,0.40061730,-0.04664953
7.60000000,-0.71492096,0.69057610,-0.48411484,0.16645596,0.66620857,0.24703983,-0.59028058,0.27902406,-0.77822409,0.22974929,-0.47601847,-0.84804618,0.40061730,-0.04664953
7.62000000,-0.71492096,0.69057610,-0.48411484,0.16645596,0.66620857,0.24703983,-0.59028058,0.27902406,-0.77822409,0.22974929,-0.47601847,-0.84804618,0.40061730,-0.04664953
7.64000000,-0.71492096,0.69057610,-0.48411484,0.16645596,0.66620857,0.24703983,-0.59028058,0.27902406,-0.77822409,0.22974929,-0.47601847,-0.84804618,0.40061730,-0.04664953
7.66000000,-0.71492096,0.69057610,-0.48411484,0.16645596,0.66620857,0.24703983,-0.59028058,0.27902406,-0.77822409,0.22974929,-0.47601847,-0.84804618,0.40061730,-0.04664953
7.68000000,-0.71492096,0.69057610,-0.48411484,0.16645596,0.66620857,0.24703983,-0.59028058,0.27902406,-0.77822409,0.22974929,-0.47601847,-0.84804618,0.40061730,-0.04664953
7.70000000,-0.71492096,0.69057610,-0.48411484,0.16645596,0.66620857,0.24703983,-0.59028058,0.27902406,-0.77822409,0.22974929,-0.47601847,-0.84804618,0.40061730,-0.04664953
7.72000000,-0.71492096,0.69057610,-0.48411484,0.16645596,0.66620857,0.24703983,-0.59028058,0.27902406,-0.77822409,0.22974929,-0.47601847,-0.84804618,0.40061730,-0.04664953
7.74000000,-0.71492096,0.69057610,-0.48411484,0.16645596,0.66620857,0.24703983,-0.59028058,0.27902406,-0.77822409,0.22974929,-0.47601847,-0.84804618,0.40061730,-0.04664953
7.76000000,-0.71492096,0.69057610,-0.48411484,0.16645596,0.66620857,0.24703983,-0.59028058,0.27902406,-0.77822409,0.22974929,-0.47601847,-0.84804618,0.40061730,-0.04664953
7.78000000,-0.71492096,0.69057610,-0.48411484,0.16645596,0.66620857,0.24703983,-0.59028058,0.27902406,-0.77822409,0.22974929,-0.47601847,-0.84804618,0.40061730,-0.04664953
7.80000000,-0.71492096,0.69057610,-0.48411484,0.16645596,0.66620857,0.24703983,-0.59028058,0.27902406,-0.77822409,0.22974929,-0.47601847,-0.84804618,0.40061730,-0.04664953
7.82000000,-0.71492096,0.69057610,-0.48411484,0.16645596,0.66620857,0.24703983,-0.59028058,0.27902406,-0.77822409,0.22974929,-0.47601847,-0.84804618,0.40061730,-0.04664953
7.84000000,-0.71492096,0.69057610,-0.48411484,0.16645596,0.66620857,0.24703983,-0.59028058,0.27902406,-0.77822409,0.22974929,-0.47601847,-0.84804618,0.40061730,-0.04664953
7.86000000,-0.71492096,0.69057610,-0.48411484,0.16645596,0.66620857,0.24703983,-0.59028058,0.27902406,-0.77822409,0.22974929,-0.47601847,-0.84804618,0.40061730,-0.04664953
7.88000000,-0.71492096,0.69057610,-0.48411484,0.16645596,0.66620857,0.24703983,-0.59028058,0.27902406,-0.77822409,0.22974929,-0.47601847,-0.84804618,0.40061730,-0.04664953
7.90000000,-0.71492096,0.69057610,-0.48411484,0.16645596,0.66620857,0.24703983,-0.59028058,0.27902406,-0.77822409,0.22974929,-0.47601847,-0.84804618,0.40061730,-0.04664953
7.92000000,-0.71492096,0.69057610,-0.48411484,0.16645596,0.66620857,0.24703983,-0.59028058,0.27902406,-0.77822409,0.22974929,-0.47601847,-0.84804618,0.40061730,-0.04664953
7.94000000,-0.71492096,0.69057610,-0.48411484,0.16645596,0.66620857,0.24703983,-0.59028058,0.27902406,-0.77822409,0.22974929,-0.47601847,-0.84804618,0.40061730,-0.04664953
7.96000000,-0.71492096,0.69057610,-0.48411484,0.16645596,0.66620857,0.24703983,-0.59028058,0.27902406,-0.77822409,0.22974929,-0.47601847,-0.84804618,0.40061730,-0.04664953
7.98000000,-0.71492096,0.69057610,-0.48411484,0.16645596,0.66620857,0.24703983,-0.59028058,0.27902406,-0.77822409,0.22974929,-0.47601847,-0.84804618,0.40061730,-0.04664953
8.00000000,-0.71492096,0.69057610,-0.48411484,0.16645596,0.66620857,0.24703983,-0.59028058,0.27902406,-0.77822409,0.22974929,-0.47601847,-0.84804618,0.40061730,-0.04664953
8.02000000,-0.71492096,0.69057610,-0.48411484,0.16645596,0.66620857,0.24703983,-0.59028058,0.27902406,-0.77822409,0.22974929,-0.47601847,-0.84804618,0.40061730,-0.04664953
8.04000000,-0.71492096,0.69057610,-0.48411484,0.16645596,0.66620857,0.24703983,-0.59028058,0.27902406,-0.77822409,0.22974929,-0.47601847,-0.84804618,0.40061730,-0.04664953
8.06000000,-0.71492096,0.69057610,-0.48411484,0.16645596,0.66620857,0.24703983,-0.59028058,0.27902406,-0.77822409,0.22974929,-0.47601847,-0.84804618,0.40061730,-0.04664953
8.08000000,-0.71492096,0.69057610,-0.48411484,0.16645596,0.66620857,0.24703983,-0.59028058,0.27902406,-0.77822409,0.22974929,-0.47601847,-0.84804618,0.40061730,-0.04664953
8.10000000,-0.71492096,0.69057610,-0.48411484,0.16645596,0.66620857,0.24703983,-0.59028058,0.27902406,-0.77822409,0.22974929,-0.47601847,-0.84804618,0.40061730,-0.04664953
8.12000000,-0.71492096,0.69057610,-0.48411484,0.16645596,0.66620857,0.24703983,-0.59028058,0.27902406,-0.77822409,0.22974929,-0.47601847,-0.84804618,0.40061730,-0.04664953
8.14000000,-0.71492096,0.69057610,-0.48411484,0.16645596,0.66620857,0.24703983,-0.59028058,0.27902406,-0.77822409,0.22974929,-0.47601847,-0.84804618,0.40061730,-0.04664953
8.16000000,-0.71492096,0.69057610,-0.48411484,0.16645596,0.66620857,0.24703983,-0.59028058,0.27902406,-0.77822409,0.22974929,-0.47601847,-0.84804618,0.40061730,-0.04664953
8.18000000,-0.71492096,0.69057610,-0.48411484,0.16645596,0.66620857,0.24703983,-0.59028058,0.27902406,-0.77822409,0.22974929,-0.47601847,-0.84804618,0.40061730,-0.04664953
8.20000000,-0.71492096,0.69057610,-0.48411484,0.16645596,0.66620857,0.24703983,-0.59028058,0.27902406,-0.77822409,0.22974929,-0.47601847,-0.84804618,0.40061730,-0.04664953
8.22000000,-0.71492096,0.69057610,-0.48411484,0.16645596,0.66620857,0.24703983,-0.59028058,0.27902406,-0.77822409,0.22974929,-0.47601847,-0.84804618,0.40061730,-0.04664953
8.24000000,-0.71492096,0.69057610,-0.48411484,0.16645596,0.66620857,0.24703983,-0.59028058,0.27902406,-0.77822409,0.22974929,-0.47601847,-0.84804618,0.40061730,-0.04664953
8.26000000,-0.71492096,0.69057610,-0.48411484,0.16645596,0.66620857,0.24703983,-0.59028058,0.27902406,-0.77822409,0.22974929,-0.47601847,-0.84804618,0.40061730,-0.04664953
8.28000000,-0.71492096,0.69057610,-0.48411484,0.16645596,0.66620857,0.24703983,-0.59028058,0.27902406,-0.77822409,0.22974929,-0.47601847,-0.84804618,0.40061730,-0.04664953
8.30000000,-0.71492096,0.69057610,-0.48411484,0.16645596,0.66620857,0.24703983,-0.59028058,0.27902406,-0.77822409,0.22974929,-0.47601847,-0.84804618,0.40061730,-0.04664953
8.32000000,-0.71492096,0.69057610,-0.48411484,0.16645596,0.66620857,0.24703983,-0.59028058,0.27902406,-0.77822409,0.22974929,-0.47601847,-0.84804618,0.40061730,-0.04664953
8.34000000,-0.71492096,0.69057610,-0.48411484,0.16645596,0.66620857,0.24703983,-0.59028058,0.27902406,-0.77822409,0.22974929,-0.47601847,-0.84804618,0.40061730,-0.04664953
8.36000000,-0.71492096,0.69057610,-0.48411484,0.16645596,0.66620857,0.24703983,-0.59028058,0.27902406,-0.77822409,0.22974929,-0.47601847,-0.84804618,0.40061730,-0.04664953
8.38000000,-0.71492096,0.69057610,-0.48411484,0.16645596,0.66620857,0.24703983,-0.59028058,0.27902406,-0.77822409,0.22974929,-0.47601847,-0.84804618,0.40061730,-0.04664953
8.40000000,-0.71492096,0.69057610,-0.48411484,0.16645596,0.66620857,0.24703983,-0.59028058,0.27902406,-0.77822409,0.22974929,-0.47601847,-0.84804618,0.40061730,-0.04664953
8.42000000,-0.71492096,0.69057610,-0.48411484,0.16645596,0.66620857,0.24703983,-0.59028058,0.27902406,-0.77822409,0.22974929,-0.47601847,-0.84804618,0.40061730,-0.04664953
8.44000000,-0.71492096,0.69057610,-0.48411484,0.16645596,0.66620857,0.24703983,-0.59028058,0.27902406,-0.77822409,0.22974929,-0.47601847,-0.84804618,0.40061730,-0.04664953
8.46000000,-0.71492096,0.69057610,-0.48411484,0.16645596,0.66620857,0.24703983,-0.59028058,0.27902406,-0.77822409,0.22974929,-0.47601847,-0.84804618,0.40061730,-0.04664953
8.48000000,-0.71492096,0.69057610,-0.48411484,0.16645596,0.66620857,0.24703983,-0.59028058,0.27902406,-0.77822409,0.22974929,-0.47601847,-0.84804618,0.40061730,-0.04664953
8.50000000,-0.71492096,0.69057610,-0.48411484,0.16645596,0.66620857,0.24703983,-0.59028058,0.27902406,-0.77822409,0.22974929,-0.47601847,-0.84804618,0.40061730,-0.04664953
8.52000000,-0.71492096,0.69057610,-0.48411484,0.16645596,0.66620857,0.24703983,-0.59028058,0.27902406,-0.77822409,0.22974929,-0.47601847,-0.84804618,0.40061730,-0.04664953
8.54000000,-0.71492096,0.69057610,-0.48411484,0.16645596,0.66620857,0.24703983,-0.59028058,0.27902406,-0.77822409,0.22974929,-0.47601847,-0.84804618,0.40061730,-0.04664953
8.56000000,-0.71492096,0.69057610,-0.48411484,0.16645596,0.66620857,0.24703983,-0.59028058,0.27902406,-0.77822409,0.22974929,-0.47601847,-0.84804618,0.40061730,-0.04664953
8.58000000,-0.71492096,0.69057610,-0.48411484,0.16645596,0.66620857,0.24703983,-0.59028058,0.27902406,-0.77822409,0.22974929,-0.47601847,-0.84804618,0.40061730,-0.04664953
8.60000000,-0.71492096,0.69057610,-0.48411484,0.16645596,0.66620857,0.24703983,-0.59028058,0.27902406,-0.77822409,0.22974929,-0.47601847,-0.84804618,0.40061730,-0.04664953
8.62000000,-0.71492096,0.69057610,-0.48411484,0.16645596,0.66620857,0.24703983,-0.59028058,0.27902406,-0.77822409,0.22974929,-0.47601847,-0.84804618,0.40061730,-0.04664953
8.64000000,-0.71492096,0.69057610,-0.48411484,0.16645596,0.66620857,0.24703983,-0.59028058,0.27902406,-0.77822409,0.22974929,-0.47601847,-0.84804618,0.40061730,-0.04664953
8.66000000,-0.71492096,0.69057610,-0.48411484,0.16645596,0.66620857,0.24703983,-0.59028058,0.27902406,-0.77822409,0.22974929,-0.47601847,-0.84804618,0.40061730,-0.04664953
8.68000000,-0.71492096,0.69057610,-0.48411484,0.16645596,0.66620857,0.24703983,-0.59028058,0.27902406,-0.77822409,0.22974929,-0.47601847,-0.84804618,0.40061730,-0.04664953
8.70000000,-0.71492096,0.69057610,-0.48411484,0.16645596,0.66620857,0.24703983,-0.59028058,0.27902406,-0.77822409,0.22974929,-0.47601847,-0.84804618,0.40061730,-0.04664953
8.72000000,-0.71492096,0.69057610,-0.48411484,0.16645596,0.66620857,0.24703983,-0.59028058,0.27902406,-0.77822409,0.22974929,-0.47601847,-0.84804618,0.40061730,-0.04664953
8.74000000,-0.71492096,0.69057610,-0.48411484,0.16645596,0.66620857,0.24703983,-0.59028058,0.27902406,-0.77822409,0.22974929,-0.47601847,-0.84804618,0.40061730,-0.04664953
8.76000000,-0.71492096,0.69057610,-0.48411484,0.16645596,0.66620857,0.24703983,-0.59028058,0.27902406,-0.77822409,0.22974929,-0.47601847,-0.84804618,0.40061730,-0.04664953
8.78000000,-0.71492096,0.69057610,-0.48411484,0.16645596,0.66620857,0.24703983,-0.59028058,0.27902406,-0.77822409,0.22974929,-0.47601847,-0.84804618,0.40061730,-0.04664953
8.80000000,-0.71492096,0.69057610,-0.48411484,0.16645596,0.66620857,0.24703983,-0.59028058,0.27902406,-0.77822409,0.22974929,-0.47601847,-0.84804618,0.40061730,-0.04664953
8.82000000,-0.71492096,0.69057610,-0.48411484,0.16645596,0.66620857,0.24703983,-0.59028058,0.27902406,-0.77822409,0.22974929,-0.47601847,-0.84804618,0.40061730,-0.04664953
8.84000000,-0.71492096,0.69057610,-0.48411484,0.16645596,0.66620857,0.24703983,-0.59028058,0.27902406,-0.77822409,0.22974929,-0.47601847,-0.84804618,0.40061730,-0.04664953
8.86000000,-0.71492096,0.69057610,-0.48411484,0.16645596,0.66620857,0.24703983,-0.59028058,0.27902406,-0.77822409,0.22974929,-0.47601847,-0.84804618,0.40061730,-0.04664953
8.88000000,-0.71492096,0.69057610,-0.48411484,0.16645596,0.66620857,0.24703983,-0.59028058,0.27902406,-0.77822409,0.22974929,-0.47601847,-0.84804618,0.40061730,-0.04664953
8.90000000,-0.71492096,0.69057610,-0.48411484,0.16645596,0.66620857,0.24703983,-0.59028058,0.27902406,-0.77822409,0.22974929,-0.47601847,-0.84804618,0.40061730,-0.04664953
8.92000000,-0.71492096,0.69057610,-0.48411484,0.16645596,0.66620857,0.24703983,-0.59028058,0.27902406,-0.77822409,0.22974929,-0.47601847,-0.84804618,0.40061730,-0.04664953
8.94000000,-0.71492096,0.69057610,-0.48411484,0.16645596,0.66620857,0.24703983,-0.59028058,0.27902406,-0.77822409,0.22974929,-0.47601847,-0.84804618,0.40061730,-0.04664953
8.96000000,-0.71492096,0.69057610,-0.48411484,0.16645596,0.66620857,0.24703983,-0.59028058,0.27902406,-0.77822409,0.22974929,-0.47601847,-0.84804618,0.40061730,-0.04664953
8.98000000,-0.71492096,0.69057610,-0.48411484,0.16645596,0.66620857,0.24703983,-0.59028058,0.27902406,-0.77822409,0.22974929,-0.47601847,-0.84804618,0.40061730,-0.04664953
9.00000000,-0.71492096,0.69057610,-0.48411484,0.16645596,0.66620857,0.24703983,-0.59028058,0.27902406,-0.77822409,0.22974929,-0.47601847,-0.84804618,0.40061730,-0.04664953
9.02000000,-0.71492096,0.69057610,-0.48411484,0.16645596,0.66620857,0.24703983,-0.59028058,0.27902406,-0.77822409,0.22974929,-0.47601847,-0.84804618,0.40061730,-0.04664953
9.04000000,-0.71492096,0.69057610,-0.48411484,0.16645596,0.66620857,0.24703983,-0.59028058,0.27902406,-0.77822409,0.22974929,-0.47601847,-0.84804618,0.40061730,-0.04664953
9.06000000,-0.71492096,0.69057610,-0.48411484,0.16645596,0.66620857,0.24703983,-0.59028058,0.27902406,-0.77822409,0.22974929,-0.47601847,-0.84804618,0.40061730,-0.04664953
9.08000000,-0.71492096,0.69057610,-0.48411484,0.16645596,0.66620857,0.24703983,-0.59028058,0.27902406,-0.77822409,0.22974929,-0.47601847,-0.84804618,0.40061730,-0.04664953
9.10000000,-0.71492096,0.69057610,-0.48411484,0.16645596,0.66620857,0.24703983,-0.59028058,0.27902406,-0.77822409,0.22974929,-0.47601847,-0.84804618,0.40061730,-0.04664953
9.12000000,-0.71492096,0.69057610,-0.48411484,0.16645596,0.66620857,0.24703983,-0.59028058,0.27902406,-0.77822409,0.22974929,-0.47601847,-0.84804618,0.40061730,-0.04664953
9.14000000,-0.71492096,0.69057610,-0.48411484,0.16645596,0.66620857,0.24703983,-0.59028058,0.27902406,-0.77822409,0.22974929,-0.47601847,-0.84804618,0.40061730,-0.04664953
9.16000000,-0.71492096,0.69057610,-0.48411484,0.16645596,0.66620857,0.24703983,-0.59028058,0.27902406,-0.77822409,0.22974929,-0.47601847,-0.84804618,0.40061730,-0.04664953
9.18000000,-0.71492096,0.69057610,-0.48411484,0.16645596,0.66620857,0.24703983,-0.59028058,0.27902406,-0.77822409,0.22974929,-0.47601847,-0.84804618,0.40061730,-0.04664953
9.20000000,-0.71492096,0.69057610,-0.48411484,0.16645596,0.66620857,0.24703983,-0.59028058,0.27902406,-0.77822409,0.22974929,-0.47601847,-0.84804618,0.40061730,-0.04664953
9.22000000,-0.71492096,0.69057610,-0.48411484,0.16645596,0.66620857,0.24703983,-0.59028058,0.27902406,-0.77822409,0.22974929,-0.47601847,-0.84804618,0.40061730,-0.04664953
9.24000000,-0.71492096,0.69057610,-0.48411484,0.16645596,0.66620857,0.24703983,-0.59028058,0.27902406,-0.77822409,0.22974929,-0.47601847,-0.84804618,0.40061730,-0.04664953
9.26000000,-0.71492096,0.69057610,-0.48411484,0.16645596,0.66620857,0.24703983,-0.59028058,0.27902406,-0.77822409,0.22974929,-0.47601847,-0.84804618,0.40061730,-0.04664953
9.28000000,-0.71492096,0.69057610,-0.48411484,0.16645596,0.66620857,0.24703983,-0.59028058,0.27902406,-0.77822409,0.22974929,-0.47601847,-0.84804618,0.40061730,-0.04664953
9.30000000,-0.71492096,0.69057610,-0.48411484,0.16645596,0.66620857,0.24703983,-0.59028058,0.27902406,-0.77822409,0.22974929,-0.47601847,-0.84804618,0.40061730,-0.04664953
9.32000000,-0.71492096,0.69057610,-0.48411484,0.16645596,0.66620857,0.24703983,-0.59028058,0.27902406,-0.77822409,0.22974929,-0.47601847,-0.84804618,0.40061730,-0.04664953
9.34000000,-0.71492096,0.69057610,-0.48411484,0.16645596,0.66620857,0.24703983,-0.59028058,0.27902406,-0.77822409,0.22974929,-0.47601847,-0.84804618,0.40061730,-0.04664953
9.36000000,-0.71492096,0.69057610,-0.48411484,0.16645596,0.66620857,0.24703983,-0.59028058,0.27902406,-0.77822409,0.22974929,-0.47601847,-0.84804618,0.40061730,-0.04664953
9.38000000,-0.71492096,0.69057610,-0.48411484,0.16645596,0.66620857,0.24703983,-0.59028058,0.27902406,-0.77822409,0.22974929,-0.47601847,-0.84804618,0.40061730,-0.04664953
9.40000000,-0.71492096,0.69057610,-0.48411484,0.16645596,0.66620857,0.24703983,-0.59028058,0.27902406,-0.77822409,0.22974929,-0.47601847,-0.84804618,0.40061730,-0.04664953
9.42000000,-0.71492096,0.69057610,-0.48411484,0.16645596,0.66620857,0.24703983,-0.59028058,0.27902406,-0.77822409,0.22974929,-0.47601847,-0.84804618,0.40061730,-0.04664953
9.44000000,-0.71492096,0.69057610,-0.48411484,0.16645596,0.66620857,0.24703983,-0.59028058,0.27902406,-0.77822409,0.22974929,-0.47601847,-0.84804618,0.40061730,-0.04664953
9.46000000,-0.71492096,0.69057610,-0.48411484,0.16645596,0.66620857,0.24703983,-0.59028058,0.27902406,-0.77822409,0.22974929,-0.47601847,-0.84804618,0.40061730,-0.04664953
9.48000000,-0.71492096,0.69057610,-0.48411484,0.16645596,0.66620857,0.24703983,-0.59028058,0.27902406,-0.77822409,0.22974929,-0.47601847,-0.84804618,0.40061730,-0.04664953
9.50000000,-0.71492096,0.69057610,-0.48411484,0.16645596,0.66620857,0.24703983,-0.59028058,0.27902406,-0.77822409,0.22974929,-0.47601847,-0.84804618,0.40061730,-0.04664953
9.52000000,-0.71492096,0.69057610,-0.48411484,0.16645596,0.66620857,0.24703983,-0.59028058,0.27902406,-0.77822409,0.22974929,-0.47601847,-0.84804618,0.40061730,-0.04664953
9.54000000,-0.71492096,0.69057610,-0.48411484,0.16645596,0.66620857,0.24703983,-0.59028058,0.27902406,-0.77822409,0.22974929,-0.47601847,-0.84804618,0.40061730,-0.04664953
9.56000000,-0.71492096,0.69057610,-0.48411484,0.16645596,0.66620857,0.24703983,-0.59028058,0.27902406,-0.77822409,0.22974929,-0.47601847,-0.84804618,0.40061730,-0.04664953
9.58000000,-0.71492096,0.69057610,-0.48411484,0.16645596,0.66620857,0.24703983,-0.59028058,0.27902406,-0.77822409,0.22974929,-0.47601847,-0.84804618,0.40061730,-0.04664953
9.60000000,-0.71492096,0.69057610,-0.48411484,0.16645596,0.66620857,0.24703983,-0.59028058,0.27902406,-0.77822409,0.22974929,-0.47601847,-0.84804618,0.40061730,-0.04664953
9.62000000,-0.71492096,0.69057610,-0.48411484,0.16645596,0.66620857,0.24703983,-0.59028058,0.27902406,-0.77822409,0.22974929,-0.47601847,-0.84804618,0.40061730,-0.04664953
9.64000000,-0.71492096,0.69057610,-0.48411484,0.16645596,0.66620857,0.24703983,-0.59028058,0.27902406,-0.77822409,0.22974929,-0.47601847,-0.84804618,0.40061730,-0.04664953
9.66000000,-0.71492096,0.69057610,-0.48411484,0.16645596,0.66620857,0.24703983,-0.59028058,0.27902406,-0.77822409,0.22974929,-0.47601847,-0.84804618,0.40061730,-0.04664953
9.68000000,-0.71492096,0.69057610,-0.48411484,0.16645596,0.66620857,0.24703983,-0.59028058,0.27902406,-0.77822409,0.22974929,-0.47601847,-0.84804618,0.40061730,-0.04664953
9.70000000,-0.71492096,0.69057610,-0.48411484,0.16645596,0.66620857,0.24703983,-0.59028058,0.27902406,-0.77822409,0.22974929,-0.47601847,-0.84804618,0.40061730,-0.04664953
9.72000000,-0.71492096,0.69057610,-0.48411484,0.16645596,0.66620857,0.24703983,-0.59028058,0.27902406,-0.77822409,0.22974929,-0.47601847,-0.84804618,0.40061730,-0.04664953
9.74000000,-0.71492096,0.69057610,-0.48411484,0.16645596,0.66620857,0.24703983,-0.59028058,0.27902406,-0.77822409,0.22974929,-0.47601847,-0.84804618,0.40061730,-0.04664953
9.76000000,-0.71492096,0.69057610,-0.48411484,0.16645596,0.66620857,0.24703983,-0.59028058,0.27902406,-0.77822409,0.22974929,-0.47601847,-0.84804618,0.40061730,-0.04664953
9.78000000,-0.71492096,0.69057610,-0.48411484,0.16645596,0.66620857,0.24703983,-0.59028058,0.27902406,-0.77822409,0.22974929,-0.47601847,-0.84804618,0.40061730,-0.04664953
9.80000000,-0.71492096,0.69057610,-0.48411484,0.16645596,0.66620857,0.24703983,-0.59028058,0.27902406,-0.77822409,0.22974929,-0.47601847,-0.84804618,0.40061730,-0.04664953
9.82000000,-0.71492096,0.69057610,-0.48411484,0.16645596,0.66620857,0.24703983,-0.59028058,0.27902406,-0.77822409,0.22974929,-0.47601847,-0.84804618,0.40061730,-0.04664953
9.84000000,-0.71492096,0.69057610,-0.48411484,0.16645596,0.66620857,0.24703983,-0.59028058,0.27902406,-0.77822409,0.22974929,-0.47601847,-0.84804618,0.40061730,-0.04664953
9.86000000,-0.71492096,0.69057610,-0.48411484,0.16645596,0.66620857,0.24703983,-0.59028058,0.27902406,-0.77822409,0.22974929,-0.47601847,-0.84804618,0.40061730,-0.04664953
9.88000000,-0.71492096,0.69057610,-0.48411484,0.16645596,0.66620857,0.24703983,-0.59028058,0.27902406,-0.77822409,0.22974929,-0.47601847,-0.84804618,0.40061730,-0.04664953
9.90000000,-0.71492096,0.69057610,-0.48411484,0.16645596,0.66620857,0.24703983,-0.59028058,0.27902406,-0.77822409,0.22974929,-0.47601847,-0.84804618,0.40061730,-0.04664953
9.92000000,-0.71492096,0.69057610,-0.48411484,0.16645596,0.66620857,0.24703983,-0.59028058,0.27902406,-0.77822409,0.22974929,-0.47601847,-0.84804618,0.40061730,-0.04664953
9.94000000,-0.71492096,0.69057610,-0.48411484,0.16645596,0.66620857,0.24703983,-0.59028058,0.27902406,-0.77822409,0.22974929,-0.47601847,-0.84804618,0.40061730,-0.04664953
9.96000000,-0.71492096,0.69057610,-0.48411484,0.16645596,0.66620857,0.24703983,-0.59028058,0.27902406,-0.77822409,0.22974929,-0.47601847,-0.84804618,0.40061730,-0.04664953
9.98000000,-0.71492096,0.69057610,-0.48411484,0.16645596,0.66620857,0.24703983,-0.59028058,0.27902406,-0.77822409,0.22974929,-0.47601847,-0.84804618,0.40061730,-0.04664953
10.00000000,-0.71492096,0.69057610,-0.48411484,0.16645596,0.66620857,0.24703983,-0.59028058,0.27902406,-0.77822409,0.22974929,-0.47601847,-0.84804618,0.40061730,-0.04664953
10.02000000,-0.71492096,0.69057610,-0.48411484,0.16645596,0.66620857,0.24703983,-0.59028058,0.27902406,-0.77822409,0.22974929,-0.47601847,-0.84804618,0.40061730,-0.04664953
10.04000000,-0.71492096,0.69057610,-0.48411484,0.16645596,0.66620857,0.24703983,-0.59028058,0.27902406,-0.77822409,0.22974929,-0.47601847,-0.84804618,0.40061730,-0.04664953
10.06000000,-0.71492096,0.69057610,-0.48411484,0.16645596,0.66620857,0.24703983,-0.59028058,0.27902406,-0.77822409,0.22974929,-0.47601847,-0.84804618,0.40061730,-0.04664953
10.08000000,-0.71492096,0.69057610,-0.48411484,0.16645596,0.66620857,0.24703983,-0.59028058,0.27902406,-0.77822409,0.22974929,-0.47601847,-0.84804618,0.40061730,-0.04664953
10.10000000,-0.71492096,0.69057610,-0.48411484,0.16645596,0.66620857,0.24703983,-0.59028058,0.27902406,-0.77822409,0.22974929,-0.47601847,-0.84804618,0.40061730,-0.04664953
10.12000000,-0.71492096,0.69057610,-0.48411484,0.16645596,0.66620857,0.24703983,-0.59028058,0.27902406,-0.77822409,0.22974929,-0.47601847,-0.84804618,0.40061730,-0.04664953
10.14000000,-0.71492096,0.69057610,-0.48411484,0.16645596,0.66620857,0.24703983,-0.59028058,0.27902406,-0.77822409,0.22974929,-0.47601847,-0.84804618,0.40061730,-0.04664953
10.16000000,-0.71492096,0.69057610,-0.48411484,0.16645596,0.66620857,0.24703983,-0.59028058,0.27902406,-0.77822409,0.22974929,-0.47601847,-0.84804618,0.40061730,-0.04664953
10.18000000,-0.71492096,0.69057610,-0.48411484,0.16645596,0.66620857,0.24703983,-0.59028058,0.27902406,-0.77822409,0.22974929,-0.47601847,-0.84804618,0.40061730,-0.04664953
10.20000000,-0.71492096,0.69057610,-0.48411484,0.16645596,0.66620857,0.24703983,-0.59028058,0.27902406,-0.77822409,0.22974929,-0.47601847,-0.84804618,0.40061730,-0.04664953
10.22000000,-0.71492096,0.69057610,-0.48411484,0.16645596,0.66620857,0.24703983,-0.59028058,0.27902406,-0.77822409,0.22974929,-0.47601847,-0.84804618,0.40061730,-0.04664953
10.24000000,-0.71492096,0.69057610,-0.48411484,0.16645596,0.66620857,0.24703983,-0.59028058,0.27902406,-0.77822409,0.22974929,-0.47601847,-0.84804618,0.40061730,-0.04664953
10.26000000,-0.71492096,0.69057610,-0.48411484,0.16645596,0.66620857,0.24703983,-0.59028058,0.27902406,-0.77822409,0.22974929,-0.47601847,-0.84804618,0.40061730,-0.04664953
10.28000000,-0.71492096,0.69057610,-0.48411484,0.16645596,0.66620857,0.24703983,-0.59028058,0.27902406,-0.77822409,0.22974929,-0.47601847,-0.84804618,0.40061730,-0.04664953
10.30000000,-0.71492096,0.69057610,-0.48411484,0.16645596,0.66620857,0.24703983,-0.59028058,0.27902406,-0.77822409,0.22974929,-0.47601847,-0.84804618,0.40061730,-0.04664953
10.32000000,-0.71492096,0.69057610,-0.48411484,0.16645596,0.66620857,0.24703983,-0.59028058,0.27902406,-0.77822409,0.22974929,-0.47601847,-0.84804618,0.40061730,-0.04664953
10.34000000,-0.71492096,0.69057610,-0.48411484,0.16645596,0.66620857,0.24703983,-0.59028058,0.27902406,-0.77822409,0.22974929,-0.47601847,-0.84804618,0.40061730,-0.04664953
10.36000000,-0.71492096,0.69057610,-0.48411484,0.16645596,0.66620857,0.24703983,-0.59028058,0.27902406,-0.77822409,0.22974929,-0.47601847,-0.84804618,0.40061730,-0.04664953
10.38000000,-0.71492096,0.69057610,-0.48411484,0.16645596,0.66620857,0.24703983,-0.59028058,0.27902406,-0.77822409,0.22974929,-0.47601847,-0.84804618,0.40061730,-0.04664953
10.40000000,-0.71492096,0.69057610,-0.48411484,0.16645596,0.66620857,0.24703983,-0.59028058,0.27902406,-0.77822409,0.22974929,-0.47601847,-0.84804618,0.40061730,-0.04664953
10.42000000,-0.71492096,0.69057610,-0.48411484,0.16645596,0.66620857,0.24703983,-0.59028058,0.27902406,-0.77822409,0.22974929,-0.47601847,-0.84804618,0.40061730,-0.04664953
10.44000000,-0.71492096,0.69057610,-0.48411484,0.16645596,0.66620857,0.24703983,-0.59028058,0.27902406,-0.77822409,0.22974929,-0.47601847,-0.84804618,0.40061730,-0.04664953
10.46000000,-0.71492096,0.69057610,-0.48411484,0.16645596,0.66620857,0.24703983,-0.59028058,0.27902406,-0.77822409,0.22974929,-0.47601847,-0.84804618,0.40061730,-0.04664953
10.48000000,-0.71492096,0.69057610,-0.48411484,0.16645596,0.66620857,0.24703983,-0.59028058,0.27902406,-0.77822409,0.22974929,-0.47601847,-0.84804618,0.40061730,-0.04664953
10.50000000,-0.71492096,0.69057610,-0.48411484,0.16645596,0.66620857,0.24703983,-0.59028058,0.27902406,-0.77822409,0.22974929,-0.47601847,-0.84804618,0.40061730,-0.04664953
10.52000000,-0.71492096,0.69057610,-0.48411484,0.16645596,0.66620857,0.24703983,-0.59028058,0.27902406,-0.77822409,0.22974929,-0.47601847,-0.84804618,0.40061730,-0.04664953
10.54000000,-0.71492096,0.69057610,-0.48411484,0.16645596,0.66620857,0.24703983,-0.59028058,0.27902406,-0.77822409,0.22974929,-0.47601847,-0.84804618,0.40061730,-0.04664953
10.56000000,-0.71492096,0.69057610,-0.48411484,0.16645596,0.66620857,0.24703983,-0.59028058,0.27902406,-0.77822409,0.22974929,-0.47601847,-0.84804618,0.40061730,-0.04664953
10.58000000,-0.71492096,0.69057610,-0.48411484,0.16645596,0.66620857,0.24703983,-0.59028058,0.27902406,-0.77822409,0.22974929,-0.47601847,-0.84804618,0.40061730,-0.04664953
10.60000000,-0.71492096,0.69057610,-0.48411484,0.16645596,0.66620857,0.24703983,-0.59028058,0.27902406,-0.77822409,0.22974929,-0.47601847,-0.84804618,0.40061730,-0.04664953
10.62000000,-0.71492096,0.69057610,-0.48411484,0.16645596,0.66620857,0.24703983,-0.59028058,0.27902406,-0.77822409,0.22974929,-0.47601847,-0.84804618,0.40061730,-0.04664953
10.64000000,-0.71492096,0.69057610,-0.48411484,0.16645596,0.66620857,0.24703983,-0.59028058,0.27902406,-0.77822409,0.22974929,-0.47601847,-0.84804618,0.40061730,-0.04664953
10.66000000,-0.71492096,0.69057610,-0.48411484,0.16645596,0.66620857,0.24703983,-0.59028058,0.27902406,-0.77822409,0.22974929,-0.47601847,-0.84804618,0.40061730,-0.04664953
10.68000000,-0.71492096,0.69057610,-0.48411484,0.16645596,0.66620857,0.24703983,-0.59028058,0.27902406,-0.77822409,0.22974929,-0.47601847,-0.84804618,0.40061730,-0.04664953
10.70000000,-0.71492096,0.69057610,-0.48411484,0.16645596,0.66620857,0.24703983,-0.59028058,0.27902406,-0.77822409,0.22974929,-0.47601847,-0.84804618,0.40061730,-0.04664953
10.72000000,-0.71492096,0.69057610,-0.48411484,0.16645596,0.66620857,0.24703983,-0.59028058,0.27902406,-0.77822409,0.22974929,-0.47601847,-0.84804618,0.40061730,-0.04664953
10.74000000,-0.71492096,0.69057610,-0.48411484,0.16645596,0.66620857,0.24703983,-0.59028058,0.27902406,-0.77822409,0.22974929,-0.47601847,-0.84804618,0.40061730,-0.04664953
10.76000000,-0.71492096,0.69057610,-0.48411484,0.16645596,0.66620857,0.24703983,-0.59028058,0.27902406,-0.77822409,0.22974929,-0.47601847,-0.84804618,0.40061730,-0.04664953
10.78000000,-0.71492096,0.69057610,-0.48411484,0.16645596,0.66620857,0.24703983,-0.59028058,0.27902406,-0.77822409,0.22974929,-0.47601847,-0.84804618,0.40061730,-0.04664953
10.80000000,-0.71492096,0.69057610,-0.48411484,0.16645596,0.66620857,0.24703983,-0.59028058,0.27902406,-0.77822409,0.22974929,-0.47601847,-0.84804618,0.40061730,-0.04664953
10.82000000,-0.71492096,0.69057610,-0.48411484,0.16645596,0.66620857,0.24703983,-0.59028058,0.27902406,-0.77822409,0.22974929,-0.47601847,-0.84804618,0.40061730,-0.04664953
10.84000000,-0.71492096,0.69057610,-0.48411484,0.16645596,0.66620857,0.24703983,-0.59028058,0.27902406,-0.77822409,0.22974929,-0.47601847,-0.84804618,0.40061730,-0.04664953
10.86000000,-0.71492096,0.69057610,-0.48411484,0.16645596,0.66620857,0.24703983,-0.59028058,0.27902406,-0.77822409,0.22974929,-0.47601847,-0.84804618,0.40061730,-0.04664953
10.88000000,-0.71492096,0.69057610,-0.48411484,0.16645596,0.66620857,0.24703983,-0.59028058,0.27902406,-0.77822409,0.22974929,-0.47601847,-0.84804618,0.40061730,-0.04664953
10.90000000,-0.71492096,0.69057610,-0.48411484,0.16645596,0.66620857,0.24703983,-0.59028058,0.27902406,-0.77822409,0.22974929,-0.47601847,-0.84804618,0.40061730,-0.04664953
10.92000000,-0.71492096,0.69057610,-0.48411484,0.16645596,0.66620857,0.24703983,-0.59028058,0.27902406,-0.77822409,0.22974929,-0.47601847,-0.84804618,0.40061730,-0.04664953
10.94000000,-0.71492096,0.69057610,-0.48411484,0.16645596,0.66620857,0.24703983,-0.59028058,0.27902406,-0.77822409,0.22974929,-0.47601847,-0.84804618,0.40061730,-0.04664953
10.96000000,-0.71492096,0.69057610,-0.48411484,0.16645596,0.66620857,0.24703983,-0.59028058,0.27902406,-0.77822409,0.22974929,-0.47601847,-0.84804618,0.40061730,-0.04664953
10.98000000,-0.71492096,0.69057610,-0.48411484,0.16645596,0.66620857,0.24703983,-0.59028058,0.27902406,-0.77822409,0.22974929,-0.47601847,-0.84804618,0.40061730,-0.04664953
11.00000000,-0.71492096,0.69057610,-0.48411484,0.16645596,0.66620857,0.24703983,-0.59028058,0.27902406,-0.77822409,0.22974929,-0.47601847,-0.84804618,0.40061730,-0.04664953
11.02000000,-0.71492096,0.69057610,-0.48411484,0.16645596,0.66620857,0.24703983,-0.59028058,0.27902406,-0.77822409,0.22974929,-0.47601847,-0.84804618,0.40061730,-0.04664953
11.04000000,-0.71492096,0.69057610,-0.48411484,0.16645596,0.66620857,0.24703983,-0.59028058,0.27902406,-0.77822409,0.22974929,-0.47601847,-0.84804618,0.40061730,-0.04664953
11.06000000,-0.71492096,0.69057610,-0.48411484,0.16645596,0.66620857,0.24703983,-0.59028058,0.27902406,-0.77822409,0.22974929,-0.47601847,-0.84804618,0.40061730,-0.04664953
11.08000000,-0.71492096,0.69057610,-0.48411484,0.16645596,0.66620857,0.24703983,-0.59028058,0.27902406,-0.77822409,0.22974929,-0.47601847,-0.84804618,0.40061730,-0.04664953
11.10000000,-0.71492096,0.69057610,-0.48411484,0.16645596,0.66620857,0.24703983,-0.59028058,0.27902406,-0.77822409,0.22974929,-0.47601847,-0.84804618,0.40061730,-0.04664953
11.12000000,-0.71492096,0.69057610,-0.48411484,0.16645596,0.66620857,0.24703983,-0.59028058,0.27902406,-0.77822409,0.22974929,-0.47601847,-0.84804618,0.40061730,-0.04664953
11.14000000,-0.71492096,0.69057610,-0.48411484,0.16645596,0.66620857,0.24703983,-0.59028058,0.27902406,-0.77822409,0.22974929,-0.47601847,-0.84804618,0.40061730,-0.04664953
11.16000000,-0.71492096,0.69057610,-0.48411484,0.16645596,0.66620857,0.24703983,-0.59028058,0.27902406,-0.77822409,0.22974929,-0.47601847,-0.84804618,0.40061730,-0.04664953
11.18000000,-0.71492096,0.69057610,-0.48411484,0.16645596,0.66620857,0.24703983,-0.59028058,0.27902406,-0.77822409,0.22974929,-0.47601847,-0.84804618,0.40061730,-0.04664953
11.20000000,-0.71492096,0.69057610,-0.48411484,0.16645596,0.66620857,0.24703983,-0.59028058,0.27902406,-0.77822409,0.22974929,-0.47601847,-0.84804618,0.40061730,-0.04664953
11.22000000,-0.71492096,0.69057610,-0.48411484,0.16645596,0.66620857,0.24703983,-0.59028058,0.27902406,-0.77822409,0.22974929,-0.47601847,-0.84804618,0.40061730,-0.04664953
11.24000000,-0.71492096,0.69057610,-0.48411484,0.16645596,0.66620857,0.24703983,-0.59028058,0.27902406,-0.77822409,0.22974929,-0.47601847,-0.84804618,0.40061730,-0.04664953
11.26000000,-0.71492096,0.69057610,-0.48411484,0.16645596,0.66620857,0.24703983,-0.59028058,0.27902406,-0.77822409,0.22974929,-0.47601847,-0.84804618,0.40061730,-0.04664953
11.28000000,-0.71492096,0.69057610,-0.48411484,0.16645596,0.66620857,0.24703983,-0.59028058,0.27902406,-0.77822409,0.22974929,-0.47601847,-0.84804618,0.40061730,-0.04664953
11.30000000,-0.71492096,0.69057610,-0.48411484,0.16645596,0.66620857,0.24703983,-0.59028058,0.27902406,-0.77822409,0.22974929,-0.47601847,-0.84804618,0.40061730,-0.04664953
11.32000000,-0.71492096,0.69057610,-0.48411484,0.16645596,0.66620857,0.24703983,-0.59028058,0.27902406,-0.77822409,0.22974929,-0.47601847,-0.84804618,0.40061730,-0.04664953
11.34000000,-0.71492096,0.69057610,-0.48411484,0.16645596,0.66620857,0.24703983,-0.59028058,0.27902406,-0.77822409,0.22974929,-0.47601847,-0.84804618,0.40061730,-0.04664953
11.36000000,-0.71492096,0.69057610,-0.48411484,0.16645596,0.66620857,0.24703983,-0.59028058,0.27902406,-0.77822409,0.22974929,-0.47601847,-0.84804618,0.40061730,-0.04664953
11.38000000,-0.71492096,0.69057610,-0.48411484,0.16645596,0.66620857,0.24703983,-0.59028058,0.27902406,-0.77822409,0.22974929,-0.47601847,-0.84804618,0.40061730,-0.04664953
11.40000000,-0.71492096,0.69057610,-0.48411484,0.16645596,0.66620857,0.24703983,-0.59028058,0.27902406,-0.77822409,0.22974929,-0.47601847,-0.84804618,0.40061730,-0.04664953
11.42000000,-0.71492096,0.69057610,-0.48411484,0.16645596,0.66620857,0.24703983,-0.59028058,0.27902406,-0.77822409,0.22974929,-0.47601847,-0.84804618,0.40061730,-0.04664953
11.44000000,-0.71492096,0.69057610,-0.48411484,0.16645596,0.66620857,0.24703983,-0.59028058,0.27902406,-0.77822409,0.22974929,-0.47601847,-0.84804618,0.40061730,-0.04664953
11.46000000,-0.71492096,0.69057610,-0.48411484,0.16645596,0.66620857,0.24703983,-0.59028058,0.27902406,-0.77822409,0.22974929,-0.47601847,-0.84804618,0.40061730,-0.04664953
11.48000000,-0.71492096,0.69057610,-0.48411484,0.16645596,0.66620857,0.24703983,-0.59028058,0.27902406,-0.77822409,0.22974929,-0.47601847,-0.84804618,0.40061730,-0.04664953
11.50000000,-0.71492096,0.69057610,-0.48411484,0.16645596,0.66620857,0.24703983,-0.59028058,0.27902406,-0.77822409,0.22974929,-0.47601847,-0.84804618,0.40061730,-0.04664953
11.52000000,-0.71492096,0.69057610,-0.48411484,0.16645596,0.66620857,0.24703983,-0.59028058,0.27902406,-0.77822409,0.22974929,-0.47601847,-0.84804618,0.40061730,-0.04664953
11.54000000,-0.71492096,0.69057610,-0.48411484,0.16645596,0.66620857,0.24703983,-0.59028058,0.27902406,-0.77822409,0.22974929,-0.47601847,-0.84804618,0.40061730,-0.04664953
11.56000000,-0.71492096,0.69057610,-0.48411484,0.16645596,0.66620857,0.24703983,-0.59028058,0.27902406,-0.77822409,0.22974929,-0.47601847,-0.84804618,0.40061730,-0.04664953
