gracetata/LocomotionHEC/legged_lab/Reference Data/ArmHack/StandPerturb/TestData/ArmOnly/poses/randomized/randomized_arm_pose_07_seed20260715_hold20s_50hz.csv
time_s,left_shoulder_pitch_joint,left_shoulder_roll_joint,left_shoulder_yaw_joint,left_elbow_joint,left_wrist_roll_joint,left_wrist_pitch_joint,left_wrist_yaw_joint,right_shoulder_pitch_joint,right_shoulder_roll_joint,right_shoulder_yaw_joint,right_elbow_joint,right_wrist_roll_joint,right_wrist_pitch_joint,right_wrist_yaw_joint
0.00000000,-0.16367175,0.90304919,-0.23711575,-0.52873176,0.58839470,0.28955773,-0.50392943,0.14771040,-0.77214312,0.15672542,-0.30066494,-0.85215312,0.26649489,0.00400113
0.02000000,-0.16367175,0.90304919,-0.23711575,-0.52873176,0.58839470,0.28955773,-0.50392943,0.14771040,-0.77214312,0.15672542,-0.30066494,-0.85215312,0.26649489,0.00400113
0.04000000,-0.16367175,0.90304919,-0.23711575,-0.52873176,0.58839470,0.28955773,-0.50392943,0.14771040,-0.77214312,0.15672542,-0.30066494,-0.85215312,0.26649489,0.00400113
0.06000000,-0.16367175,0.90304919,-0.23711575,-0.52873176,0.58839470,0.28955773,-0.50392943,0.14771040,-0.77214312,0.15672542,-0.30066494,-0.85215312,0.26649489,0.00400113
0.08000000,-0.16367175,0.90304919,-0.23711575,-0.52873176,0.58839470,0.28955773,-0.50392943,0.14771040,-0.77214312,0.15672542,-0.30066494,-0.85215312,0.26649489,0.00400113
0.10000000,-0.16367175,0.90304919,-0.23711575,-0.52873176,0.58839470,0.28955773,-0.50392943,0.14771040,-0.77214312,0.15672542,-0.30066494,-0.85215312,0.26649489,0.00400113
0.12000000,-0.16367175,0.90304919,-0.23711575,-0.52873176,0.58839470,0.28955773,-0.50392943,0.14771040,-0.77214312,0.15672542,-0.30066494,-0.85215312,0.26649489,0.00400113
0.14000000,-0.16367175,0.90304919,-0.23711575,-0.52873176,0.58839470,0.28955773,-0.50392943,0.14771040,-0.77214312,0.15672542,-0.30066494,-0.85215312,0.26649489,0.00400113
0.16000000,-0.16367175,0.90304919,-0.23711575,-0.52873176,0.58839470,0.28955773,-0.50392943,0.14771040,-0.77214312,0.15672542,-0.30066494,-0.85215312,0.26649489,0.00400113
0.18000000,-0.16367175,0.90304919,-0.23711575,-0.52873176,0.58839470,0.28955773,-0.50392943,0.14771040,-0.77214312,0.15672542,-0.30066494,-0.85215312,0.26649489,0.00400113
0.20000000,-0.16367175,0.90304919,-0.23711575,-0.52873176,0.58839470,0.28955773,-0.50392943,0.14771040,-0.77214312,0.15672542,-0.30066494,-0.85215312,0.26649489,0.00400113
0.22000000,-0.16367175,0.90304919,-0.23711575,-0.52873176,0.58839470,0.28955773,-0.50392943,0.14771040,-0.77214312,0.15672542,-0.30066494,-0.85215312,0.26649489,0.00400113
0.24000000,-0.16367175,0.90304919,-0.23711575,-0.52873176,0.58839470,0.28955773,-0.50392943,0.14771040,-0.77214312,0.15672542,-0.30066494,-0.85215312,0.26649489,0.00400113
0.26000000,-0.16367175,0.90304919,-0.23711575,-0.52873176,0.58839470,0.28955773,-0.50392943,0.14771040,-0.77214312,0.15672542,-0.30066494,-0.85215312,0.26649489,0.00400113
0.28000000,-0.16367175,0.90304919,-0.23711575,-0.52873176,0.58839470,0.28955773,-0.50392943,0.14771040,-0.77214312,0.15672542,-0.30066494,-0.85215312,0.26649489,0.00400113
0.30000000,-0.16367175,0.90304919,-0.23711575,-0.52873176,0.58839470,0.28955773,-0.50392943,0.14771040,-0.77214312,0.15672542,-0.30066494,-0.85215312,0.26649489,0.00400113
0.32000000,-0.16367175,0.90304919,-0.23711575,-0.52873176,0.58839470,0.28955773,-0.50392943,0.14771040,-0.77214312,0.15672542,-0.30066494,-0.85215312,0.26649489,0.00400113
0.34000000,-0.16367175,0.90304919,-0.23711575,-0.52873176,0.58839470,0.28955773,-0.50392943,0.14771040,-0.77214312,0.15672542,-0.30066494,-0.85215312,0.26649489,0.00400113
0.36000000,-0.16367175,0.90304919,-0.23711575,-0.52873176,0.58839470,0.28955773,-0.50392943,0.14771040,-0.77214312,0.15672542,-0.30066494,-0.85215312,0.26649489,0.00400113
0.38000000,-0.16367175,0.90304919,-0.23711575,-0.52873176,0.58839470,0.28955773,-0.50392943,0.14771040,-0.77214312,0.15672542,-0.30066494,-0.85215312,0.26649489,0.00400113
0.40000000,-0.16367175,0.90304919,-0.23711575,-0.52873176,0.58839470,0.28955773,-0.50392943,0.14771040,-0.77214312,0.15672542,-0.30066494,-0.85215312,0.26649489,0.00400113
0.42000000,-0.16367175,0.90304919,-0.23711575,-0.52873176,0.58839470,0.28955773,-0.50392943,0.14771040,-0.77214312,0.15672542,-0.30066494,-0.85215312,0.26649489,0.00400113
0.44000000,-0.16367175,0.90304919,-0.23711575,-0.52873176,0.58839470,0.28955773,-0.50392943,0.14771040,-0.77214312,0.15672542,-0.30066494,-0.85215312,0.26649489,0.00400113
0.46000000,-0.16367175,0.90304919,-0.23711575,-0.52873176,0.58839470,0.28955773,-0.50392943,0.14771040,-0.77214312,0.15672542,-0.30066494,-0.85215312,0.26649489,0.00400113
0.48000000,-0.16367175,0.90304919,-0.23711575,-0.52873176,0.58839470,0.28955773,-0.50392943,0.14771040,-0.77214312,0.15672542,-0.30066494,-0.85215312,0.26649489,0.00400113
0.50000000,-0.16367175,0.90304919,-0.23711575,-0.52873176,0.58839470,0.28955773,-0.50392943,0.14771040,-0.77214312,0.15672542,-0.30066494,-0.85215312,0.26649489,0.00400113
0.52000000,-0.16367175,0.90304919,-0.23711575,-0.52873176,0.58839470,0.28955773,-0.50392943,0.14771040,-0.77214312,0.15672542,-0.30066494,-0.85215312,0.26649489,0.00400113
0.54000000,-0.16367175,0.90304919,-0.23711575,-0.52873176,0.58839470,0.28955773,-0.50392943,0.14771040,-0.77214312,0.15672542,-0.30066494,-0.85215312,0.26649489,0.00400113
0.56000000,-0.16367175,0.90304919,-0.23711575,-0.52873176,0.58839470,0.28955773,-0.50392943,0.14771040,-0.77214312,0.15672542,-0.30066494,-0.85215312,0.26649489,0.00400113
0.58000000,-0.16367175,0.90304919,-0.23711575,-0.52873176,0.58839470,0.28955773,-0.50392943,0.14771040,-0.77214312,0.15672542,-0.30066494,-0.85215312,0.26649489,0.00400113
0.60000000,-0.16367175,0.90304919,-0.23711575,-0.52873176,0.58839470,0.28955773,-0.50392943,0.14771040,-0.77214312,0.15672542,-0.30066494,-0.85215312,0.26649489,0.00400113
0.62000000,-0.16367175,0.90304919,-0.23711575,-0.52873176,0.58839470,0.28955773,-0.50392943,0.14771040,-0.77214312,0.15672542,-0.30066494,-0.85215312,0.26649489,0.00400113
0.64000000,-0.16367175,0.90304919,-0.23711575,-0.52873176,0.58839470,0.28955773,-0.50392943,0.14771040,-0.77214312,0.15672542,-0.30066494,-0.85215312,0.26649489,0.00400113
0.66000000,-0.16367175,0.90304919,-0.23711575,-0.52873176,0.58839470,0.28955773,-0.50392943,0.14771040,-0.77214312,0.15672542,-0.30066494,-0.85215312,0.26649489,0.00400113
0.68000000,-0.16367175,0.90304919,-0.23711575,-0.52873176,0.58839470,0.28955773,-0.50392943,0.14771040,-0.77214312,0.15672542,-0.30066494,-0.85215312,0.26649489,0.00400113
0.70000000,-0.16367175,0.90304919,-0.23711575,-0.52873176,0.58839470,0.28955773,-0.50392943,0.14771040,-0.77214312,0.15672542,-0.30066494,-0.85215312,0.26649489,0.00400113
0.72000000,-0.16367175,0.90304919,-0.23711575,-0.52873176,0.58839470,0.28955773,-0.50392943,0.14771040,-0.77214312,0.15672542,-0.30066494,-0.85215312,0.26649489,0.00400113
0.74000000,-0.16367175,0.90304919,-0.23711575,-0.52873176,0.58839470,0.28955773,-0.50392943,0.14771040,-0.77214312,0.15672542,-0.30066494,-0.85215312,0.26649489,0.00400113
0.76000000,-0.16367175,0.90304919,-0.23711575,-0.52873176,0.58839470,0.28955773,-0.50392943,0.14771040,-0.77214312,0.15672542,-0.30066494,-0.85215312,0.26649489,0.00400113
0.78000000,-0.16367175,0.90304919,-0.23711575,-0.52873176,0.58839470,0.28955773,-0.50392943,0.14771040,-0.77214312,0.15672542,-0.30066494,-0.85215312,0.26649489,0.00400113
0.80000000,-0.16367175,0.90304919,-0.23711575,-0.52873176,0.58839470,0.28955773,-0.50392943,0.14771040,-0.77214312,0.15672542,-0.30066494,-0.85215312,0.26649489,0.00400113
0.82000000,-0.16367175,0.90304919,-0.23711575,-0.52873176,0.58839470,0.28955773,-0.50392943,0.14771040,-0.77214312,0.15672542,-0.30066494,-0.85215312,0.26649489,0.00400113
0.84000000,-0.16367175,0.90304919,-0.23711575,-0.52873176,0.58839470,0.28955773,-0.50392943,0.14771040,-0.77214312,0.15672542,-0.30066494,-0.85215312,0.26649489,0.00400113
0.86000000,-0.16367175,0.90304919,-0.23711575,-0.52873176,0.58839470,0.28955773,-0.50392943,0.14771040,-0.77214312,0.15672542,-0.30066494,-0.85215312,0.26649489,0.00400113
0.88000000,-0.16367175,0.90304919,-0.23711575,-0.52873176,0.58839470,0.28955773,-0.50392943,0.14771040,-0.77214312,0.15672542,-0.30066494,-0.85215312,0.26649489,0.00400113
0.90000000,-0.16367175,0.90304919,-0.23711575,-0.52873176,0.58839470,0.28955773,-0.50392943,0.14771040,-0.77214312,0.15672542,-0.30066494,-0.85215312,0.26649489,0.00400113
0.92000000,-0.16367175,0.90304919,-0.23711575,-0.52873176,0.58839470,0.28955773,-0.50392943,0.14771040,-0.77214312,0.15672542,-0.30066494,-0.85215312,0.26649489,0.00400113
0.94000000,-0.16367175,0.90304919,-0.23711575,-0.52873176,0.58839470,0.28955773,-0.50392943,0.14771040,-0.77214312,0.15672542,-0.30066494,-0.85215312,0.26649489,0.00400113
0.96000000,-0.16367175,0.90304919,-0.23711575,-0.52873176,0.58839470,0.28955773,-0.50392943,0.14771040,-0.77214312,0.15672542,-0.30066494,-0.85215312,0.26649489,0.00400113
0.98000000,-0.16367175,0.90304919,-0.23711575,-0.52873176,0.58839470,0.28955773,-0.50392943,0.14771040,-0.77214312,0.15672542,-0.30066494,-0.85215312,0.26649489,0.00400113
1.00000000,-0.16367175,0.90304919,-0.23711575,-0.52873176,0.58839470,0.28955773,-0.50392943,0.14771040,-0.77214312,0.15672542,-0.30066494,-0.85215312,0.26649489,0.00400113
1.02000000,-0.16367175,0.90304919,-0.23711575,-0.52873176,0.58839470,0.28955773,-0.50392943,0.14771040,-0.77214312,0.15672542,-0.30066494,-0.85215312,0.26649489,0.00400113
1.04000000,-0.16367175,0.90304919,-0.23711575,-0.52873176,0.58839470,0.28955773,-0.50392943,0.14771040,-0.77214312,0.15672542,-0.30066494,-0.85215312,0.26649489,0.00400113
1.06000000,-0.16367175,0.90304919,-0.23711575,-0.52873176,0.58839470,0.28955773,-0.50392943,0.14771040,-0.77214312,0.15672542,-0.30066494,-0.85215312,0.26649489,0.00400113
1.08000000,-0.16367175,0.90304919,-0.23711575,-0.52873176,0.58839470,0.28955773,-0.50392943,0.14771040,-0.77214312,0.15672542,-0.30066494,-0.85215312,0.26649489,0.00400113
1.10000000,-0.16367175,0.90304919,-0.23711575,-0.52873176,0.58839470,0.28955773,-0.50392943,0.14771040,-0.77214312,0.15672542,-0.30066494,-0.85215312,0.26649489,0.00400113
1.12000000,-0.16367175,0.90304919,-0.23711575,-0.52873176,0.58839470,0.28955773,-0.50392943,0.14771040,-0.77214312,0.15672542,-0.30066494,-0.85215312,0.26649489,0.00400113
1.14000000,-0.16367175,0.90304919,-0.23711575,-0.52873176,0.58839470,0.28955773,-0.50392943,0.14771040,-0.77214312,0.15672542,-0.30066494,-0.85215312,0.26649489,0.00400113
1.16000000,-0.16367175,0.90304919,-0.23711575,-0.52873176,0.58839470,0.28955773,-0.50392943,0.14771040,-0.77214312,0.15672542,-0.30066494,-0.85215312,0.26649489,0.00400113
1.18000000,-0.16367175,0.90304919,-0.23711575,-0.52873176,0.58839470,0.28955773,-0.50392943,0.14771040,-0.77214312,0.15672542,-0.30066494,-0.85215312,0.26649489,0.00400113
1.20000000,-0.16367175,0.90304919,-0.23711575,-0.52873176,0.58839470,0.28955773,-0.50392943,0.14771040,-0.77214312,0.15672542,-0.30066494,-0.85215312,0.26649489,0.00400113
1.22000000,-0.16367175,0.90304919,-0.23711575,-0.52873176,0.58839470,0.28955773,-0.50392943,0.14771040,-0.77214312,0.15672542,-0.30066494,-0.85215312,0.26649489,0.00400113
1.24000000,-0.16367175,0.90304919,-0.23711575,-0.52873176,0.58839470,0.28955773,-0.50392943,0.14771040,-0.77214312,0.15672542,-0.30066494,-0.85215312,0.26649489,0.00400113
1.26000000,-0.16367175,0.90304919,-0.23711575,-0.52873176,0.58839470,0.28955773,-0.50392943,0.14771040,-0.77214312,0.15672542,-0.30066494,-0.85215312,0.26649489,0.00400113
1.28000000,-0.16367175,0.90304919,-0.23711575,-0.52873176,0.58839470,0.28955773,-0.50392943,0.14771040,-0.77214312,0.15672542,-0.30066494,-0.85215312,0.26649489,0.00400113
1.30000000,-0.16367175,0.90304919,-0.23711575,-0.52873176,0.58839470,0.28955773,-0.50392943,0.14771040,-0.77214312,0.15672542,-0.30066494,-0.85215312,0.26649489,0.00400113
1.32000000,-0.16367175,0.90304919,-0.23711575,-0.52873176,0.58839470,0.28955773,-0.50392943,0.14771040,-0.77214312,0.15672542,-0.30066494,-0.85215312,0.26649489,0.00400113
1.34000000,-0.16367175,0.90304919,-0.23711575,-0.52873176,0.58839470,0.28955773,-0.50392943,0.14771040,-0.77214312,0.15672542,-0.30066494,-0.85215312,0.26649489,0.00400113
1.36000000,-0.16367175,0.90304919,-0.23711575,-0.52873176,0.58839470,0.28955773,-0.50392943,0.14771040,-0.77214312,0.15672542,-0.30066494,-0.85215312,0.26649489,0.00400113
1.38000000,-0.16367175,0.90304919,-0.23711575,-0.52873176,0.58839470,0.28955773,-0.50392943,0.14771040,-0.77214312,0.15672542,-0.30066494,-0.85215312,0.26649489,0.00400113
1.40000000,-0.16367175,0.90304919,-0.23711575,-0.52873176,0.58839470,0.28955773,-0.50392943,0.14771040,-0.77214312,0.15672542,-0.30066494,-0.85215312,0.26649489,0.00400113
1.42000000,-0.16367175,0.90304919,-0.23711575,-0.52873176,0.58839470,0.28955773,-0.50392943,0.14771040,-0.77214312,0.15672542,-0.30066494,-0.85215312,0.26649489,0.00400113
1.44000000,-0.16367175,0.90304919,-0.23711575,-0.52873176,0.58839470,0.28955773,-0.50392943,0.14771040,-0.77214312,0.15672542,-0.30066494,-0.85215312,0.26649489,0.00400113
1.46000000,-0.16367175,0.90304919,-0.23711575,-0.52873176,0.58839470,0.28955773,-0.50392943,0.14771040,-0.77214312,0.15672542,-0.30066494,-0.85215312,0.26649489,0.00400113
1.48000000,-0.16367175,0.90304919,-0.23711575,-0.52873176,0.58839470,0.28955773,-0.50392943,0.14771040,-0.77214312,0.15672542,-0.30066494,-0.85215312,0.26649489,0.00400113
1.50000000,-0.16367175,0.90304919,-0.23711575,-0.52873176,0.58839470,0.28955773,-0.50392943,0.14771040,-0.77214312,0.15672542,-0.30066494,-0.85215312,0.26649489,0.00400113
1.52000000,-0.16367175,0.90304919,-0.23711575,-0.52873176,0.58839470,0.28955773,-0.50392943,0.14771040,-0.77214312,0.15672542,-0.30066494,-0.85215312,0.26649489,0.00400113
1.54000000,-0.16367175,0.90304919,-0.23711575,-0.52873176,0.58839470,0.28955773,-0.50392943,0.14771040,-0.77214312,0.15672542,-0.30066494,-0.85215312,0.26649489,0.00400113
1.56000000,-0.16367175,0.90304919,-0.23711575,-0.52873176,0.58839470,0.28955773,-0.50392943,0.14771040,-0.77214312,0.15672542,-0.30066494,-0.85215312,0.26649489,0.00400113
1.58000000,-0.16367175,0.90304919,-0.23711575,-0.52873176,0.58839470,0.28955773,-0.50392943,0.14771040,-0.77214312,0.15672542,-0.30066494,-0.85215312,0.26649489,0.00400113
1.60000000,-0.16367175,0.90304919,-0.23711575,-0.52873176,0.58839470,0.28955773,-0.50392943,0.14771040,-0.77214312,0.15672542,-0.30066494,-0.85215312,0.26649489,0.00400113
1.62000000,-0.16367175,0.90304919,-0.23711575,-0.52873176,0.58839470,0.28955773,-0.50392943,0.14771040,-0.77214312,0.15672542,-0.30066494,-0.85215312,0.26649489,0.00400113
1.64000000,-0.16367175,0.90304919,-0.23711575,-0.52873176,0.58839470,0.28955773,-0.50392943,0.14771040,-0.77214312,0.15672542,-0.30066494,-0.85215312,0.26649489,0.00400113
1.66000000,-0.16367175,0.90304919,-0.23711575,-0.52873176,0.58839470,0.28955773,-0.50392943,0.14771040,-0.77214312,0.15672542,-0.30066494,-0.85215312,0.26649489,0.00400113
1.68000000,-0.16367175,0.90304919,-0.23711575,-0.52873176,0.58839470,0.28955773,-0.50392943,0.14771040,-0.77214312,0.15672542,-0.30066494,-0.85215312,0.26649489,0.00400113
1.70000000,-0.16367175,0.90304919,-0.23711575,-0.52873176,0.58839470,0.28955773,-0.50392943,0.14771040,-0.77214312,0.15672542,-0.30066494,-0.85215312,0.26649489,0.00400113
1.72000000,-0.16367175,0.90304919,-0.23711575,-0.52873176,0.58839470,0.28955773,-0.50392943,0.14771040,-0.77214312,0.15672542,-0.30066494,-0.85215312,0.26649489,0.00400113
1.74000000,-0.16367175,0.90304919,-0.23711575,-0.52873176,0.58839470,0.28955773,-0.50392943,0.14771040,-0.77214312,0.15672542,-0.30066494,-0.85215312,0.26649489,0.00400113
1.76000000,-0.16367175,0.90304919,-0.23711575,-0.52873176,0.58839470,0.28955773,-0.50392943,0.14771040,-0.77214312,0.15672542,-0.30066494,-0.85215312,0.26649489,0.00400113
1.78000000,-0.16367175,0.90304919,-0.23711575,-0.52873176,0.58839470,0.28955773,-0.50392943,0.14771040,-0.77214312,0.15672542,-0.30066494,-0.85215312,0.26649489,0.00400113
1.80000000,-0.16367175,0.90304919,-0.23711575,-0.52873176,0.58839470,0.28955773,-0.50392943,0.14771040,-0.77214312,0.15672542,-0.30066494,-0.85215312,0.26649489,0.00400113
1.82000000,-0.16367175,0.90304919,-0.23711575,-0.52873176,0.58839470,0.28955773,-0.50392943,0.14771040,-0.77214312,0.15672542,-0.30066494,-0.85215312,0.26649489,0.00400113
1.84000000,-0.16367175,0.90304919,-0.23711575,-0.52873176,0.58839470,0.28955773,-0.50392943,0.14771040,-0.77214312,0.15672542,-0.30066494,-0.85215312,0.26649489,0.00400113
1.86000000,-0.16367175,0.90304919,-0.23711575,-0.52873176,0.58839470,0.28955773,-0.50392943,0.14771040,-0.77214312,0.15672542,-0.30066494,-0.85215312,0.26649489,0.00400113
1.88000000,-0.16367175,0.90304919,-0.23711575,-0.52873176,0.58839470,0.28955773,-0.50392943,0.14771040,-0.77214312,0.15672542,-0.30066494,-0.85215312,0.26649489,0.00400113
1.90000000,-0.16367175,0.90304919,-0.23711575,-0.52873176,0.58839470,0.28955773,-0.50392943,0.14771040,-0.77214312,0.15672542,-0.30066494,-0.85215312,0.26649489,0.00400113
1.92000000,-0.16367175,0.90304919,-0.23711575,-0.52873176,0.58839470,0.28955773,-0.50392943,0.14771040,-0.77214312,0.15672542,-0.30066494,-0.85215312,0.26649489,0.00400113
1.94000000,-0.16367175,0.90304919,-0.23711575,-0.52873176,0.58839470,0.28955773,-0.50392943,0.14771040,-0.77214312,0.15672542,-0.30066494,-0.85215312,0.26649489,0.00400113
1.96000000,-0.16367175,0.90304919,-0.23711575,-0.52873176,0.58839470,0.28955773,-0.50392943,0.14771040,-0.77214312,0.15672542,-0.30066494,-0.85215312,0.26649489,0.00400113
1.98000000,-0.16367175,0.90304919,-0.23711575,-0.52873176,0.58839470,0.28955773,-0.50392943,0.14771040,-0.77214312,0.15672542,-0.30066494,-0.85215312,0.26649489,0.00400113
2.00000000,-0.16367175,0.90304919,-0.23711575,-0.52873176,0.58839470,0.28955773,-0.50392943,0.14771040,-0.77214312,0.15672542,-0.30066494,-0.85215312,0.26649489,0.00400113
2.02000000,-0.16367175,0.90304919,-0.23711575,-0.52873176,0.58839470,0.28955773,-0.50392943,0.14771040,-0.77214312,0.15672542,-0.30066494,-0.85215312,0.26649489,0.00400113
2.04000000,-0.16367175,0.90304919,-0.23711575,-0.52873176,0.58839470,0.28955773,-0.50392943,0.14771040,-0.77214312,0.15672542,-0.30066494,-0.85215312,0.26649489,0.00400113
2.06000000,-0.16367175,0.90304919,-0.23711575,-0.52873176,0.58839470,0.28955773,-0.50392943,0.14771040,-0.77214312,0.15672542,-0.30066494,-0.85215312,0.26649489,0.00400113
2.08000000,-0.16367175,0.90304919,-0.23711575,-0.52873176,0.58839470,0.28955773,-0.50392943,0.14771040,-0.77214312,0.15672542,-0.30066494,-0.85215312,0.26649489,0.00400113
2.10000000,-0.16367175,0.90304919,-0.23711575,-0.52873176,0.58839470,0.28955773,-0.50392943,0.14771040,-0.77214312,0.15672542,-0.30066494,-0.85215312,0.26649489,0.00400113
2.12000000,-0.16367175,0.90304919,-0.23711575,-0.52873176,0.58839470,0.28955773,-0.50392943,0.14771040,-0.77214312,0.15672542,-0.30066494,-0.85215312,0.26649489,0.00400113
2.14000000,-0.16367175,0.90304919,-0.23711575,-0.52873176,0.58839470,0.28955773,-0.50392943,0.14771040,-0.77214312,0.15672542,-0.30066494,-0.85215312,0.26649489,0.00400113
2.16000000,-0.16367175,0.90304919,-0.23711575,-0.52873176,0.58839470,0.28955773,-0.50392943,0.14771040,-0.77214312,0.15672542,-0.30066494,-0.85215312,0.26649489,0.00400113
2.18000000,-0.16367175,0.90304919,-0.23711575,-0.52873176,0.58839470,0.28955773,-0.50392943,0.14771040,-0.77214312,0.15672542,-0.30066494,-0.85215312,0.26649489,0.00400113
2.20000000,-0.16367175,0.90304919,-0.23711575,-0.52873176,0.58839470,0.28955773,-0.50392943,0.14771040,-0.77214312,0.15672542,-0.30066494,-0.85215312,0.26649489,0.00400113
2.22000000,-0.16367175,0.90304919,-0.23711575,-0.52873176,0.58839470,0.28955773,-0.50392943,0.14771040,-0.77214312,0.15672542,-0.30066494,-0.85215312,0.26649489,0.00400113
2.24000000,-0.16367175,0.90304919,-0.23711575,-0.52873176,0.58839470,0.28955773,-0.50392943,0.14771040,-0.77214312,0.15672542,-0.30066494,-0.85215312,0.26649489,0.00400113
2.26000000,-0.16367175,0.90304919,-0.23711575,-0.52873176,0.58839470,0.28955773,-0.50392943,0.14771040,-0.77214312,0.15672542,-0.30066494,-0.85215312,0.26649489,0.00400113
2.28000000,-0.16367175,0.90304919,-0.23711575,-0.52873176,0.58839470,0.28955773,-0.50392943,0.14771040,-0.77214312,0.15672542,-0.30066494,-0.85215312,0.26649489,0.00400113
2.30000000,-0.16367175,0.90304919,-0.23711575,-0.52873176,0.58839470,0.28955773,-0.50392943,0.14771040,-0.77214312,0.15672542,-0.30066494,-0.85215312,0.26649489,0.00400113
2.32000000,-0.16367175,0.90304919,-0.23711575,-0.52873176,0.58839470,0.28955773,-0.50392943,0.14771040,-0.77214312,0.15672542,-0.30066494,-0.85215312,0.26649489,0.00400113
2.34000000,-0.16367175,0.90304919,-0.23711575,-0.52873176,0.58839470,0.28955773,-0.50392943,0.14771040,-0.77214312,0.15672542,-0.30066494,-0.85215312,0.26649489,0.00400113
2.36000000,-0.16367175,0.90304919,-0.23711575,-0.52873176,0.58839470,0.28955773,-0.50392943,0.14771040,-0.77214312,0.15672542,-0.30066494,-0.85215312,0.26649489,0.00400113
2.38000000,-0.16367175,0.90304919,-0.23711575,-0.52873176,0.58839470,0.28955773,-0.50392943,0.14771040,-0.77214312,0.15672542,-0.30066494,-0.85215312,0.26649489,0.00400113
2.40000000,-0.16367175,0.90304919,-0.23711575,-0.52873176,0.58839470,0.28955773,-0.50392943,0.14771040,-0.77214312,0.15672542,-0.30066494,-0.85215312,0.26649489,0.00400113
2.42000000,-0.16367175,0.90304919,-0.23711575,-0.52873176,0.58839470,0.28955773,-0.50392943,0.14771040,-0.77214312,0.15672542,-0.30066494,-0.85215312,0.26649489,0.00400113
2.44000000,-0.16367175,0.90304919,-0.23711575,-0.52873176,0.58839470,0.28955773,-0.50392943,0.14771040,-0.77214312,0.15672542,-0.30066494,-0.85215312,0.26649489,0.00400113
2.46000000,-0.16367175,0.90304919,-0.23711575,-0.52873176,0.58839470,0.28955773,-0.50392943,0.14771040,-0.77214312,0.15672542,-0.30066494,-0.85215312,0.26649489,0.00400113
2.48000000,-0.16367175,0.90304919,-0.23711575,-0.52873176,0.58839470,0.28955773,-0.50392943,0.14771040,-0.77214312,0.15672542,-0.30066494,-0.85215312,0.26649489,0.00400113
2.50000000,-0.16367175,0.90304919,-0.23711575,-0.52873176,0.58839470,0.28955773,-0.50392943,0.14771040,-0.77214312,0.15672542,-0.30066494,-0.85215312,0.26649489,0.00400113
2.52000000,-0.16367175,0.90304919,-0.23711575,-0.52873176,0.58839470,0.28955773,-0.50392943,0.14771040,-0.77214312,0.15672542,-0.30066494,-0.85215312,0.26649489,0.00400113
2.54000000,-0.16367175,0.90304919,-0.23711575,-0.52873176,0.58839470,0.28955773,-0.50392943,0.14771040,-0.77214312,0.15672542,-0.30066494,-0.85215312,0.26649489,0.00400113
2.56000000,-0.16367175,0.90304919,-0.23711575,-0.52873176,0.58839470,0.28955773,-0.50392943,0.14771040,-0.77214312,0.15672542,-0.30066494,-0.85215312,0.26649489,0.00400113
2.58000000,-0.16367175,0.90304919,-0.23711575,-0.52873176,0.58839470,0.28955773,-0.50392943,0.14771040,-0.77214312,0.15672542,-0.30066494,-0.85215312,0.26649489,0.00400113
2.60000000,-0.16367175,0.90304919,-0.23711575,-0.52873176,0.58839470,0.28955773,-0.50392943,0.14771040,-0.77214312,0.15672542,-0.30066494,-0.85215312,0.26649489,0.00400113
2.62000000,-0.16367175,0.90304919,-0.23711575,-0.52873176,0.58839470,0.28955773,-0.50392943,0.14771040,-0.77214312,0.15672542,-0.30066494,-0.85215312,0.26649489,0.00400113
2.64000000,-0.16367175,0.90304919,-0.23711575,-0.52873176,0.58839470,0.28955773,-0.50392943,0.14771040,-0.77214312,0.15672542,-0.30066494,-0.85215312,0.26649489,0.00400113
2.66000000,-0.16367175,0.90304919,-0.23711575,-0.52873176,0.58839470,0.28955773,-0.50392943,0.14771040,-0.77214312,0.15672542,-0.30066494,-0.85215312,0.26649489,0.00400113
2.68000000,-0.16367175,0.90304919,-0.23711575,-0.52873176,0.58839470,0.28955773,-0.50392943,0.14771040,-0.77214312,0.15672542,-0.30066494,-0.85215312,0.26649489,0.00400113
2.70000000,-0.16367175,0.90304919,-0.23711575,-0.52873176,0.58839470,0.28955773,-0.50392943,0.14771040,-0.77214312,0.15672542,-0.30066494,-0.85215312,0.26649489,0.00400113
2.72000000,-0.16367175,0.90304919,-0.23711575,-0.52873176,0.58839470,0.28955773,-0.50392943,0.14771040,-0.77214312,0.15672542,-0.30066494,-0.85215312,0.26649489,0.00400113
2.74000000,-0.16367175,0.90304919,-0.23711575,-0.52873176,0.58839470,0.28955773,-0.50392943,0.14771040,-0.77214312,0.15672542,-0.30066494,-0.85215312,0.26649489,0.00400113
2.76000000,-0.16367175,0.90304919,-0.23711575,-0.52873176,0.58839470,0.28955773,-0.50392943,0.14771040,-0.77214312,0.15672542,-0.30066494,-0.85215312,0.26649489,0.00400113
2.78000000,-0.16367175,0.90304919,-0.23711575,-0.52873176,0.58839470,0.28955773,-0.50392943,0.14771040,-0.77214312,0.15672542,-0.30066494,-0.85215312,0.26649489,0.00400113
2.80000000,-0.16367175,0.90304919,-0.23711575,-0.52873176,0.58839470,0.28955773,-0.50392943,0.14771040,-0.77214312,0.15672542,-0.30066494,-0.85215312,0.26649489,0.00400113
2.82000000,-0.16367175,0.90304919,-0.23711575,-0.52873176,0.58839470,0.28955773,-0.50392943,0.14771040,-0.77214312,0.15672542,-0.30066494,-0.85215312,0.26649489,0.00400113
2.84000000,-0.16367175,0.90304919,-0.23711575,-0.52873176,0.58839470,0.28955773,-0.50392943,0.14771040,-0.77214312,0.15672542,-0.30066494,-0.85215312,0.26649489,0.00400113
2.86000000,-0.16367175,0.90304919,-0.23711575,-0.52873176,0.58839470,0.28955773,-0.50392943,0.14771040,-0.77214312,0.15672542,-0.30066494,-0.85215312,0.26649489,0.00400113
2.88000000,-0.16367175,0.90304919,-0.23711575,-0.52873176,0.58839470,0.28955773,-0.50392943,0.14771040,-0.77214312,0.15672542,-0.30066494,-0.85215312,0.26649489,0.00400113
2.90000000,-0.16367175,0.90304919,-0.23711575,-0.52873176,0.58839470,0.28955773,-0.50392943,0.14771040,-0.77214312,0.15672542,-0.30066494,-0.85215312,0.26649489,0.00400113
2.92000000,-0.16367175,0.90304919,-0.23711575,-0.52873176,0.58839470,0.28955773,-0.50392943,0.14771040,-0.77214312,0.15672542,-0.30066494,-0.85215312,0.26649489,0.00400113
2.94000000,-0.16367175,0.90304919,-0.23711575,-0.52873176,0.58839470,0.28955773,-0.50392943,0.14771040,-0.77214312,0.15672542,-0.30066494,-0.85215312,0.26649489,0.00400113
2.96000000,-0.16367175,0.90304919,-0.23711575,-0.52873176,0.58839470,0.28955773,-0.50392943,0.14771040,-0.77214312,0.15672542,-0.30066494,-0.85215312,0.26649489,0.00400113
2.98000000,-0.16367175,0.90304919,-0.23711575,-0.52873176,0.58839470,0.28955773,-0.50392943,0.14771040,-0.77214312,0.15672542,-0.30066494,-0.85215312,0.26649489,0.00400113
3.00000000,-0.16367175,0.90304919,-0.23711575,-0.52873176,0.58839470,0.28955773,-0.50392943,0.14771040,-0.77214312,0.15672542,-0.30066494,-0.85215312,0.26649489,0.00400113
3.02000000,-0.16367175,0.90304919,-0.23711575,-0.52873176,0.58839470,0.28955773,-0.50392943,0.14771040,-0.77214312,0.15672542,-0.30066494,-0.85215312,0.26649489,0.00400113
3.04000000,-0.16367175,0.90304919,-0.23711575,-0.52873176,0.58839470,0.28955773,-0.50392943,0.14771040,-0.77214312,0.15672542,-0.30066494,-0.85215312,0.26649489,0.00400113
3.06000000,-0.16367175,0.90304919,-0.23711575,-0.52873176,0.58839470,0.28955773,-0.50392943,0.14771040,-0.77214312,0.15672542,-0.30066494,-0.85215312,0.26649489,0.00400113
3.08000000,-0.16367175,0.90304919,-0.23711575,-0.52873176,0.58839470,0.28955773,-0.50392943,0.14771040,-0.77214312,0.15672542,-0.30066494,-0.85215312,0.26649489,0.00400113
3.10000000,-0.16367175,0.90304919,-0.23711575,-0.52873176,0.58839470,0.28955773,-0.50392943,0.14771040,-0.77214312,0.15672542,-0.30066494,-0.85215312,0.26649489,0.00400113
3.12000000,-0.16367175,0.90304919,-0.23711575,-0.52873176,0.58839470,0.28955773,-0.50392943,0.14771040,-0.77214312,0.15672542,-0.30066494,-0.85215312,0.26649489,0.00400113
3.14000000,-0.16367175,0.90304919,-0.23711575,-0.52873176,0.58839470,0.28955773,-0.50392943,0.14771040,-0.77214312,0.15672542,-0.30066494,-0.85215312,0.26649489,0.00400113
3.16000000,-0.16367175,0.90304919,-0.23711575,-0.52873176,0.58839470,0.28955773,-0.50392943,0.14771040,-0.77214312,0.15672542,-0.30066494,-0.85215312,0.26649489,0.00400113
3.18000000,-0.16367175,0.90304919,-0.23711575,-0.52873176,0.58839470,0.28955773,-0.50392943,0.14771040,-0.77214312,0.15672542,-0.30066494,-0.85215312,0.26649489,0.00400113
3.20000000,-0.16367175,0.90304919,-0.23711575,-0.52873176,0.58839470,0.28955773,-0.50392943,0.14771040,-0.77214312,0.15672542,-0.30066494,-0.85215312,0.26649489,0.00400113
3.22000000,-0.16367175,0.90304919,-0.23711575,-0.52873176,0.58839470,0.28955773,-0.50392943,0.14771040,-0.77214312,0.15672542,-0.30066494,-0.85215312,0.26649489,0.00400113
3.24000000,-0.16367175,0.90304919,-0.23711575,-0.52873176,0.58839470,0.28955773,-0.50392943,0.14771040,-0.77214312,0.15672542,-0.30066494,-0.85215312,0.26649489,0.00400113
3.26000000,-0.16367175,0.90304919,-0.23711575,-0.52873176,0.58839470,0.28955773,-0.50392943,0.14771040,-0.77214312,0.15672542,-0.30066494,-0.85215312,0.26649489,0.00400113
3.28000000,-0.16367175,0.90304919,-0.23711575,-0.52873176,0.58839470,0.28955773,-0.50392943,0.14771040,-0.77214312,0.15672542,-0.30066494,-0.85215312,0.26649489,0.00400113
3.30000000,-0.16367175,0.90304919,-0.23711575,-0.52873176,0.58839470,0.28955773,-0.50392943,0.14771040,-0.77214312,0.15672542,-0.30066494,-0.85215312,0.26649489,0.00400113
3.32000000,-0.16367175,0.90304919,-0.23711575,-0.52873176,0.58839470,0.28955773,-0.50392943,0.14771040,-0.77214312,0.15672542,-0.30066494,-0.85215312,0.26649489,0.00400113
3.34000000,-0.16367175,0.90304919,-0.23711575,-0.52873176,0.58839470,0.28955773,-0.50392943,0.14771040,-0.77214312,0.15672542,-0.30066494,-0.85215312,0.26649489,0.00400113
3.36000000,-0.16367175,0.90304919,-0.23711575,-0.52873176,0.58839470,0.28955773,-0.50392943,0.14771040,-0.77214312,0.15672542,-0.30066494,-0.85215312,0.26649489,0.00400113
3.38000000,-0.16367175,0.90304919,-0.23711575,-0.52873176,0.58839470,0.28955773,-0.50392943,0.14771040,-0.77214312,0.15672542,-0.30066494,-0.85215312,0.26649489,0.00400113
3.40000000,-0.16367175,0.90304919,-0.23711575,-0.52873176,0.58839470,0.28955773,-0.50392943,0.14771040,-0.77214312,0.15672542,-0.30066494,-0.85215312,0.26649489,0.00400113
3.42000000,-0.16367175,0.90304919,-0.23711575,-0.52873176,0.58839470,0.28955773,-0.50392943,0.14771040,-0.77214312,0.15672542,-0.30066494,-0.85215312,0.26649489,0.00400113
3.44000000,-0.16367175,0.90304919,-0.23711575,-0.52873176,0.58839470,0.28955773,-0.50392943,0.14771040,-0.77214312,0.15672542,-0.30066494,-0.85215312,0.26649489,0.00400113
3.46000000,-0.16367175,0.90304919,-0.23711575,-0.52873176,0.58839470,0.28955773,-0.50392943,0.14771040,-0.77214312,0.15672542,-0.30066494,-0.85215312,0.26649489,0.00400113
3.48000000,-0.16367175,0.90304919,-0.23711575,-0.52873176,0.58839470,0.28955773,-0.50392943,0.14771040,-0.77214312,0.15672542,-0.30066494,-0.85215312,0.26649489,0.00400113
3.50000000,-0.16367175,0.90304919,-0.23711575,-0.52873176,0.58839470,0.28955773,-0.50392943,0.14771040,-0.77214312,0.15672542,-0.30066494,-0.85215312,0.26649489,0.00400113
3.52000000,-0.16367175,0.90304919,-0.23711575,-0.52873176,0.58839470,0.28955773,-0.50392943,0.14771040,-0.77214312,0.15672542,-0.30066494,-0.85215312,0.26649489,0.00400113
3.54000000,-0.16367175,0.90304919,-0.23711575,-0.52873176,0.58839470,0.28955773,-0.50392943,0.14771040,-0.77214312,0.15672542,-0.30066494,-0.85215312,0.26649489,0.00400113
3.56000000,-0.16367175,0.90304919,-0.23711575,-0.52873176,0.58839470,0.28955773,-0.50392943,0.14771040,-0.77214312,0.15672542,-0.30066494,-0.85215312,0.26649489,0.00400113
3.58000000,-0.16367175,0.90304919,-0.23711575,-0.52873176,0.58839470,0.28955773,-0.50392943,0.14771040,-0.77214312,0.15672542,-0.30066494,-0.85215312,0.26649489,0.00400113
3.60000000,-0.16367175,0.90304919,-0.23711575,-0.52873176,0.58839470,0.28955773,-0.50392943,0.14771040,-0.77214312,0.15672542,-0.30066494,-0.85215312,0.26649489,0.00400113
3.62000000,-0.16367175,0.90304919,-0.23711575,-0.52873176,0.58839470,0.28955773,-0.50392943,0.14771040,-0.77214312,0.15672542,-0.30066494,-0.85215312,0.26649489,0.00400113
3.64000000,-0.16367175,0.90304919,-0.23711575,-0.52873176,0.58839470,0.28955773,-0.50392943,0.14771040,-0.77214312,0.15672542,-0.30066494,-0.85215312,0.26649489,0.00400113
3.66000000,-0.16367175,0.90304919,-0.23711575,-0.52873176,0.58839470,0.28955773,-0.50392943,0.14771040,-0.77214312,0.15672542,-0.30066494,-0.85215312,0.26649489,0.00400113
3.68000000,-0.16367175,0.90304919,-0.23711575,-0.52873176,0.58839470,0.28955773,-0.50392943,0.14771040,-0.77214312,0.15672542,-0.30066494,-0.85215312,0.26649489,0.00400113
3.70000000,-0.16367175,0.90304919,-0.23711575,-0.52873176,0.58839470,0.28955773,-0.50392943,0.14771040,-0.77214312,0.15672542,-0.30066494,-0.85215312,0.26649489,0.00400113
3.72000000,-0.16367175,0.90304919,-0.23711575,-0.52873176,0.58839470,0.28955773,-0.50392943,0.14771040,-0.77214312,0.15672542,-0.30066494,-0.85215312,0.26649489,0.00400113
3.74000000,-0.16367175,0.90304919,-0.23711575,-0.52873176,0.58839470,0.28955773,-0.50392943,0.14771040,-0.77214312,0.15672542,-0.30066494,-0.85215312,0.26649489,0.00400113
3.76000000,-0.16367175,0.90304919,-0.23711575,-0.52873176,0.58839470,0.28955773,-0.50392943,0.14771040,-0.77214312,0.15672542,-0.30066494,-0.85215312,0.26649489,0.00400113
3.78000000,-0.16367175,0.90304919,-0.23711575,-0.52873176,0.58839470,0.28955773,-0.50392943,0.14771040,-0.77214312,0.15672542,-0.30066494,-0.85215312,0.26649489,0.00400113
3.80000000,-0.16367175,0.90304919,-0.23711575,-0.52873176,0.58839470,0.28955773,-0.50392943,0.14771040,-0.77214312,0.15672542,-0.30066494,-0.85215312,0.26649489,0.00400113
3.82000000,-0.16367175,0.90304919,-0.23711575,-0.52873176,0.58839470,0.28955773,-0.50392943,0.14771040,-0.77214312,0.15672542,-0.30066494,-0.85215312,0.26649489,0.00400113
3.84000000,-0.16367175,0.90304919,-0.23711575,-0.52873176,0.58839470,0.28955773,-0.50392943,0.14771040,-0.77214312,0.15672542,-0.30066494,-0.85215312,0.26649489,0.00400113
3.86000000,-0.16367175,0.90304919,-0.23711575,-0.52873176,0.58839470,0.28955773,-0.50392943,0.14771040,-0.77214312,0.15672542,-0.30066494,-0.85215312,0.26649489,0.00400113
3.88000000,-0.16367175,0.90304919,-0.23711575,-0.52873176,0.58839470,0.28955773,-0.50392943,0.14771040,-0.77214312,0.15672542,-0.30066494,-0.85215312,0.26649489,0.00400113
3.90000000,-0.16367175,0.90304919,-0.23711575,-0.52873176,0.58839470,0.28955773,-0.50392943,0.14771040,-0.77214312,0.15672542,-0.30066494,-0.85215312,0.26649489,0.00400113
3.92000000,-0.16367175,0.90304919,-0.23711575,-0.52873176,0.58839470,0.28955773,-0.50392943,0.14771040,-0.77214312,0.15672542,-0.30066494,-0.85215312,0.26649489,0.00400113
3.94000000,-0.16367175,0.90304919,-0.23711575,-0.52873176,0.58839470,0.28955773,-0.50392943,0.14771040,-0.77214312,0.15672542,-0.30066494,-0.85215312,0.26649489,0.00400113
3.96000000,-0.16367175,0.90304919,-0.23711575,-0.52873176,0.58839470,0.28955773,-0.50392943,0.14771040,-0.77214312,0.15672542,-0.30066494,-0.85215312,0.26649489,0.00400113
3.98000000,-0.16367175,0.90304919,-0.23711575,-0.52873176,0.58839470,0.28955773,-0.50392943,0.14771040,-0.77214312,0.15672542,-0.30066494,-0.85215312,0.26649489,0.00400113
4.00000000,-0.16367175,0.90304919,-0.23711575,-0.52873176,0.58839470,0.28955773,-0.50392943,0.14771040,-0.77214312,0.15672542,-0.30066494,-0.85215312,0.26649489,0.00400113
4.02000000,-0.16367175,0.90304919,-0.23711575,-0.52873176,0.58839470,0.28955773,-0.50392943,0.14771040,-0.77214312,0.15672542,-0.30066494,-0.85215312,0.26649489,0.00400113
4.04000000,-0.16367175,0.90304919,-0.23711575,-0.52873176,0.58839470,0.28955773,-0.50392943,0.14771040,-0.77214312,0.15672542,-0.30066494,-0.85215312,0.26649489,0.00400113
4.06000000,-0.16367175,0.90304919,-0.23711575,-0.52873176,0.58839470,0.28955773,-0.50392943,0.14771040,-0.77214312,0.15672542,-0.30066494,-0.85215312,0.26649489,0.00400113
4.08000000,-0.16367175,0.90304919,-0.23711575,-0.52873176,0.58839470,0.28955773,-0.50392943,0.14771040,-0.77214312,0.15672542,-0.30066494,-0.85215312,0.26649489,0.00400113
4.10000000,-0.16367175,0.90304919,-0.23711575,-0.52873176,0.58839470,0.28955773,-0.50392943,0.14771040,-0.77214312,0.15672542,-0.30066494,-0.85215312,0.26649489,0.00400113
4.12000000,-0.16367175,0.90304919,-0.23711575,-0.52873176,0.58839470,0.28955773,-0.50392943,0.14771040,-0.77214312,0.15672542,-0.30066494,-0.85215312,0.26649489,0.00400113
4.14000000,-0.16367175,0.90304919,-0.23711575,-0.52873176,0.58839470,0.28955773,-0.50392943,0.14771040,-0.77214312,0.15672542,-0.30066494,-0.85215312,0.26649489,0.00400113
4.16000000,-0.16367175,0.90304919,-0.23711575,-0.52873176,0.58839470,0.28955773,-0.50392943,0.14771040,-0.77214312,0.15672542,-0.30066494,-0.85215312,0.26649489,0.00400113
4.18000000,-0.16367175,0.90304919,-0.23711575,-0.52873176,0.58839470,0.28955773,-0.50392943,0.14771040,-0.77214312,0.15672542,-0.30066494,-0.85215312,0.26649489,0.00400113
4.20000000,-0.16367175,0.90304919,-0.23711575,-0.52873176,0.58839470,0.28955773,-0.50392943,0.14771040,-0.77214312,0.15672542,-0.30066494,-0.85215312,0.26649489,0.00400113
4.22000000,-0.16367175,0.90304919,-0.23711575,-0.52873176,0.58839470,0.28955773,-0.50392943,0.14771040,-0.77214312,0.15672542,-0.30066494,-0.85215312,0.26649489,0.00400113
4.24000000,-0.16367175,0.90304919,-0.23711575,-0.52873176,0.58839470,0.28955773,-0.50392943,0.14771040,-0.77214312,0.15672542,-0.30066494,-0.85215312,0.26649489,0.00400113
4.26000000,-0.16367175,0.90304919,-0.23711575,-0.52873176,0.58839470,0.28955773,-0.50392943,0.14771040,-0.77214312,0.15672542,-0.30066494,-0.85215312,0.26649489,0.00400113
4.28000000,-0.16367175,0.90304919,-0.23711575,-0.52873176,0.58839470,0.28955773,-0.50392943,0.14771040,-0.77214312,0.15672542,-0.30066494,-0.85215312,0.26649489,0.00400113
4.30000000,-0.16367175,0.90304919,-0.23711575,-0.52873176,0.58839470,0.28955773,-0.50392943,0.14771040,-0.77214312,0.15672542,-0.30066494,-0.85215312,0.26649489,0.00400113
4.32000000,-0.16367175,0.90304919,-0.23711575,-0.52873176,0.58839470,0.28955773,-0.50392943,0.14771040,-0.77214312,0.15672542,-0.30066494,-0.85215312,0.26649489,0.00400113
4.34000000,-0.16367175,0.90304919,-0.23711575,-0.52873176,0.58839470,0.28955773,-0.50392943,0.14771040,-0.77214312,0.15672542,-0.30066494,-0.85215312,0.26649489,0.00400113
4.36000000,-0.16367175,0.90304919,-0.23711575,-0.52873176,0.58839470,0.28955773,-0.50392943,0.14771040,-0.77214312,0.15672542,-0.30066494,-0.85215312,0.26649489,0.00400113
4.38000000,-0.16367175,0.90304919,-0.23711575,-0.52873176,0.58839470,0.28955773,-0.50392943,0.14771040,-0.77214312,0.15672542,-0.30066494,-0.85215312,0.26649489,0.00400113
4.40000000,-0.16367175,0.90304919,-0.23711575,-0.52873176,0.58839470,0.28955773,-0.50392943,0.14771040,-0.77214312,0.15672542,-0.30066494,-0.85215312,0.26649489,0.00400113
4.42000000,-0.16367175,0.90304919,-0.23711575,-0.52873176,0.58839470,0.28955773,-0.50392943,0.14771040,-0.77214312,0.15672542,-0.30066494,-0.85215312,0.26649489,0.00400113
4.44000000,-0.16367175,0.90304919,-0.23711575,-0.52873176,0.58839470,0.28955773,-0.50392943,0.14771040,-0.77214312,0.15672542,-0.30066494,-0.85215312,0.26649489,0.00400113
4.46000000,-0.16367175,0.90304919,-0.23711575,-0.52873176,0.58839470,0.28955773,-0.50392943,0.14771040,-0.77214312,0.15672542,-0.30066494,-0.85215312,0.26649489,0.00400113
4.48000000,-0.16367175,0.90304919,-0.23711575,-0.52873176,0.58839470,0.28955773,-0.50392943,0.14771040,-0.77214312,0.15672542,-0.30066494,-0.85215312,0.26649489,0.00400113
4.50000000,-0.16367175,0.90304919,-0.23711575,-0.52873176,0.58839470,0.28955773,-0.50392943,0.14771040,-0.77214312,0.15672542,-0.30066494,-0.85215312,0.26649489,0.00400113
4.52000000,-0.16367175,0.90304919,-0.23711575,-0.52873176,0.58839470,0.28955773,-0.50392943,0.14771040,-0.77214312,0.15672542,-0.30066494,-0.85215312,0.26649489,0.00400113
4.54000000,-0.16367175,0.90304919,-0.23711575,-0.52873176,0.58839470,0.28955773,-0.50392943,0.14771040,-0.77214312,0.15672542,-0.30066494,-0.85215312,0.26649489,0.00400113
4.56000000,-0.16367175,0.90304919,-0.23711575,-0.52873176,0.58839470,0.28955773,-0.50392943,0.14771040,-0.77214312,0.15672542,-0.30066494,-0.85215312,0.26649489,0.00400113
4.58000000,-0.16367175,0.90304919,-0.23711575,-0.52873176,0.58839470,0.28955773,-0.50392943,0.14771040,-0.77214312,0.15672542,-0.30066494,-0.85215312,0.26649489,0.00400113
4.60000000,-0.16367175,0.90304919,-0.23711575,-0.52873176,0.58839470,0.28955773,-0.50392943,0.14771040,-0.77214312,0.15672542,-0.30066494,-0.85215312,0.26649489,0.00400113
4.62000000,-0.16367175,0.90304919,-0.23711575,-0.52873176,0.58839470,0.28955773,-0.50392943,0.14771040,-0.77214312,0.15672542,-0.30066494,-0.85215312,0.26649489,0.00400113
4.64000000,-0.16367175,0.90304919,-0.23711575,-0.52873176,0.58839470,0.28955773,-0.50392943,0.14771040,-0.77214312,0.15672542,-0.30066494,-0.85215312,0.26649489,0.00400113
4.66000000,-0.16367175,0.90304919,-0.23711575,-0.52873176,0.58839470,0.28955773,-0.50392943,0.14771040,-0.77214312,0.15672542,-0.30066494,-0.85215312,0.26649489,0.00400113
4.68000000,-0.16367175,0.90304919,-0.23711575,-0.52873176,0.58839470,0.28955773,-0.50392943,0.14771040,-0.77214312,0.15672542,-0.30066494,-0.85215312,0.26649489,0.00400113
4.70000000,-0.16367175,0.90304919,-0.23711575,-0.52873176,0.58839470,0.28955773,-0.50392943,0.14771040,-0.77214312,0.15672542,-0.30066494,-0.85215312,0.26649489,0.00400113
4.72000000,-0.16367175,0.90304919,-0.23711575,-0.52873176,0.58839470,0.28955773,-0.50392943,0.14771040,-0.77214312,0.15672542,-0.30066494,-0.85215312,0.26649489,0.00400113
4.74000000,-0.16367175,0.90304919,-0.23711575,-0.52873176,0.58839470,0.28955773,-0.50392943,0.14771040,-0.77214312,0.15672542,-0.30066494,-0.85215312,0.26649489,0.00400113
4.76000000,-0.16367175,0.90304919,-0.23711575,-0.52873176,0.58839470,0.28955773,-0.50392943,0.14771040,-0.77214312,0.15672542,-0.30066494,-0.85215312,0.26649489,0.00400113
4.78000000,-0.16367175,0.90304919,-0.23711575,-0.52873176,0.58839470,0.28955773,-0.50392943,0.14771040,-0.77214312,0.15672542,-0.30066494,-0.85215312,0.26649489,0.00400113
4.80000000,-0.16367175,0.90304919,-0.23711575,-0.52873176,0.58839470,0.28955773,-0.50392943,0.14771040,-0.77214312,0.15672542,-0.30066494,-0.85215312,0.26649489,0.00400113
4.82000000,-0.16367175,0.90304919,-0.23711575,-0.52873176,0.58839470,0.28955773,-0.50392943,0.14771040,-0.77214312,0.15672542,-0.30066494,-0.85215312,0.26649489,0.00400113
4.84000000,-0.16367175,0.90304919,-0.23711575,-0.52873176,0.58839470,0.28955773,-0.50392943,0.14771040,-0.77214312,0.15672542,-0.30066494,-0.85215312,0.26649489,0.00400113
4.86000000,-0.16367175,0.90304919,-0.23711575,-0.52873176,0.58839470,0.28955773,-0.50392943,0.14771040,-0.77214312,0.15672542,-0.30066494,-0.85215312,0.26649489,0.00400113
4.88000000,-0.16367175,0.90304919,-0.23711575,-0.52873176,0.58839470,0.28955773,-0.50392943,0.14771040,-0.77214312,0.15672542,-0.30066494,-0.85215312,0.26649489,0.00400113
4.90000000,-0.16367175,0.90304919,-0.23711575,-0.52873176,0.58839470,0.28955773,-0.50392943,0.14771040,-0.77214312,0.15672542,-0.30066494,-0.85215312,0.26649489,0.00400113
4.92000000,-0.16367175,0.90304919,-0.23711575,-0.52873176,0.58839470,0.28955773,-0.50392943,0.14771040,-0.77214312,0.15672542,-0.30066494,-0.85215312,0.26649489,0.00400113
4.94000000,-0.16367175,0.90304919,-0.23711575,-0.52873176,0.58839470,0.28955773,-0.50392943,0.14771040,-0.77214312,0.15672542,-0.30066494,-0.85215312,0.26649489,0.00400113
4.96000000,-0.16367175,0.90304919,-0.23711575,-0.52873176,0.58839470,0.28955773,-0.50392943,0.14771040,-0.77214312,0.15672542,-0.30066494,-0.85215312,0.26649489,0.00400113
4.98000000,-0.16367175,0.90304919,-0.23711575,-0.52873176,0.58839470,0.28955773,-0.50392943,0.14771040,-0.77214312,0.15672542,-0.30066494,-0.85215312,0.26649489,0.00400113
5.00000000,-0.16367175,0.90304919,-0.23711575,-0.52873176,0.58839470,0.28955773,-0.50392943,0.14771040,-0.77214312,0.15672542,-0.30066494,-0.85215312,0.26649489,0.00400113
5.02000000,-0.16367175,0.90304919,-0.23711575,-0.52873176,0.58839470,0.28955773,-0.50392943,0.14771040,-0.77214312,0.15672542,-0.30066494,-0.85215312,0.26649489,0.00400113
5.04000000,-0.16367175,0.90304919,-0.23711575,-0.52873176,0.58839470,0.28955773,-0.50392943,0.14771040,-0.77214312,0.15672542,-0.30066494,-0.85215312,0.26649489,0.00400113
5.06000000,-0.16367175,0.90304919,-0.23711575,-0.52873176,0.58839470,0.28955773,-0.50392943,0.14771040,-0.77214312,0.15672542,-0.30066494,-0.85215312,0.26649489,0.00400113
5.08000000,-0.16367175,0.90304919,-0.23711575,-0.52873176,0.58839470,0.28955773,-0.50392943,0.14771040,-0.77214312,0.15672542,-0.30066494,-0.85215312,0.26649489,0.00400113
5.10000000,-0.16367175,0.90304919,-0.23711575,-0.52873176,0.58839470,0.28955773,-0.50392943,0.14771040,-0.77214312,0.15672542,-0.30066494,-0.85215312,0.26649489,0.00400113
5.12000000,-0.16367175,0.90304919,-0.23711575,-0.52873176,0.58839470,0.28955773,-0.50392943,0.14771040,-0.77214312,0.15672542,-0.30066494,-0.85215312,0.26649489,0.00400113
5.14000000,-0.16367175,0.90304919,-0.23711575,-0.52873176,0.58839470,0.28955773,-0.50392943,0.14771040,-0.77214312,0.15672542,-0.30066494,-0.85215312,0.26649489,0.00400113
5.16000000,-0.16367175,0.90304919,-0.23711575,-0.52873176,0.58839470,0.28955773,-0.50392943,0.14771040,-0.77214312,0.15672542,-0.30066494,-0.85215312,0.26649489,0.00400113
5.18000000,-0.16367175,0.90304919,-0.23711575,-0.52873176,0.58839470,0.28955773,-0.50392943,0.14771040,-0.77214312,0.15672542,-0.30066494,-0.85215312,0.26649489,0.00400113
5.20000000,-0.16367175,0.90304919,-0.23711575,-0.52873176,0.58839470,0.28955773,-0.50392943,0.14771040,-0.77214312,0.15672542,-0.30066494,-0.85215312,0.26649489,0.00400113
5.22000000,-0.16367175,0.90304919,-0.23711575,-0.52873176,0.58839470,0.28955773,-0.50392943,0.14771040,-0.77214312,0.15672542,-0.30066494,-0.85215312,0.26649489,0.00400113
5.24000000,-0.16367175,0.90304919,-0.23711575,-0.52873176,0.58839470,0.28955773,-0.50392943,0.14771040,-0.77214312,0.15672542,-0.30066494,-0.85215312,0.26649489,0.00400113
5.26000000,-0.16367175,0.90304919,-0.23711575,-0.52873176,0.58839470,0.28955773,-0.50392943,0.14771040,-0.77214312,0.15672542,-0.30066494,-0.85215312,0.26649489,0.00400113
5.28000000,-0.16367175,0.90304919,-0.23711575,-0.52873176,0.58839470,0.28955773,-0.50392943,0.14771040,-0.77214312,0.15672542,-0.30066494,-0.85215312,0.26649489,0.00400113
5.30000000,-0.16367175,0.90304919,-0.23711575,-0.52873176,0.58839470,0.28955773,-0.50392943,0.14771040,-0.77214312,0.15672542,-0.30066494,-0.85215312,0.26649489,0.00400113
5.32000000,-0.16367175,0.90304919,-0.23711575,-0.52873176,0.58839470,0.28955773,-0.50392943,0.14771040,-0.77214312,0.15672542,-0.30066494,-0.85215312,0.26649489,0.00400113
5.34000000,-0.16367175,0.90304919,-0.23711575,-0.52873176,0.58839470,0.28955773,-0.50392943,0.14771040,-0.77214312,0.15672542,-0.30066494,-0.85215312,0.26649489,0.00400113
5.36000000,-0.16367175,0.90304919,-0.23711575,-0.52873176,0.58839470,0.28955773,-0.50392943,0.14771040,-0.77214312,0.15672542,-0.30066494,-0.85215312,0.26649489,0.00400113
5.38000000,-0.16367175,0.90304919,-0.23711575,-0.52873176,0.58839470,0.28955773,-0.50392943,0.14771040,-0.77214312,0.15672542,-0.30066494,-0.85215312,0.26649489,0.00400113
5.40000000,-0.16367175,0.90304919,-0.23711575,-0.52873176,0.58839470,0.28955773,-0.50392943,0.14771040,-0.77214312,0.15672542,-0.30066494,-0.85215312,0.26649489,0.00400113
5.42000000,-0.16367175,0.90304919,-0.23711575,-0.52873176,0.58839470,0.28955773,-0.50392943,0.14771040,-0.77214312,0.15672542,-0.30066494,-0.85215312,0.26649489,0.00400113
5.44000000,-0.16367175,0.90304919,-0.23711575,-0.52873176,0.58839470,0.28955773,-0.50392943,0.14771040,-0.77214312,0.15672542,-0.30066494,-0.85215312,0.26649489,0.00400113
5.46000000,-0.16367175,0.90304919,-0.23711575,-0.52873176,0.58839470,0.28955773,-0.50392943,0.14771040,-0.77214312,0.15672542,-0.30066494,-0.85215312,0.26649489,0.00400113
5.48000000,-0.16367175,0.90304919,-0.23711575,-0.52873176,0.58839470,0.28955773,-0.50392943,0.14771040,-0.77214312,0.15672542,-0.30066494,-0.85215312,0.26649489,0.00400113
5.50000000,-0.16367175,0.90304919,-0.23711575,-0.52873176,0.58839470,0.28955773,-0.50392943,0.14771040,-0.77214312,0.15672542,-0.30066494,-0.85215312,0.26649489,0.00400113
5.52000000,-0.16367175,0.90304919,-0.23711575,-0.52873176,0.58839470,0.28955773,-0.50392943,0.14771040,-0.77214312,0.15672542,-0.30066494,-0.85215312,0.26649489,0.00400113
5.54000000,-0.16367175,0.90304919,-0.23711575,-0.52873176,0.58839470,0.28955773,-0.50392943,0.14771040,-0.77214312,0.15672542,-0.30066494,-0.85215312,0.26649489,0.00400113
5.56000000,-0.16367175,0.90304919,-0.23711575,-0.52873176,0.58839470,0.28955773,-0.50392943,0.14771040,-0.77214312,0.15672542,-0.30066494,-0.85215312,0.26649489,0.00400113
5.58000000,-0.16367175,0.90304919,-0.23711575,-0.52873176,0.58839470,0.28955773,-0.50392943,0.14771040,-0.77214312,0.15672542,-0.30066494,-0.85215312,0.26649489,0.00400113
5.60000000,-0.16367175,0.90304919,-0.23711575,-0.52873176,0.58839470,0.28955773,-0.50392943,0.14771040,-0.77214312,0.15672542,-0.30066494,-0.85215312,0.26649489,0.00400113
5.62000000,-0.16367175,0.90304919,-0.23711575,-0.52873176,0.58839470,0.28955773,-0.50392943,0.14771040,-0.77214312,0.15672542,-0.30066494,-0.85215312,0.26649489,0.00400113
5.64000000,-0.16367175,0.90304919,-0.23711575,-0.52873176,0.58839470,0.28955773,-0.50392943,0.14771040,-0.77214312,0.15672542,-0.30066494,-0.85215312,0.26649489,0.00400113
5.66000000,-0.16367175,0.90304919,-0.23711575,-0.52873176,0.58839470,0.28955773,-0.50392943,0.14771040,-0.77214312,0.15672542,-0.30066494,-0.85215312,0.26649489,0.00400113
5.68000000,-0.16367175,0.90304919,-0.23711575,-0.52873176,0.58839470,0.28955773,-0.50392943,0.14771040,-0.77214312,0.15672542,-0.30066494,-0.85215312,0.26649489,0.00400113
5.70000000,-0.16367175,0.90304919,-0.23711575,-0.52873176,0.58839470,0.28955773,-0.50392943,0.14771040,-0.77214312,0.15672542,-0.30066494,-0.85215312,0.26649489,0.00400113
5.72000000,-0.16367175,0.90304919,-0.23711575,-0.52873176,0.58839470,0.28955773,-0.50392943,0.14771040,-0.77214312,0.15672542,-0.30066494,-0.85215312,0.26649489,0.00400113
5.74000000,-0.16367175,0.90304919,-0.23711575,-0.52873176,0.58839470,0.28955773,-0.50392943,0.14771040,-0.77214312,0.15672542,-0.30066494,-0.85215312,0.26649489,0.00400113
5.76000000,-0.16367175,0.90304919,-0.23711575,-0.52873176,0.58839470,0.28955773,-0.50392943,0.14771040,-0.77214312,0.15672542,-0.30066494,-0.85215312,0.26649489,0.00400113
5.78000000,-0.16367175,0.90304919,-0.23711575,-0.52873176,0.58839470,0.28955773,-0.50392943,0.14771040,-0.77214312,0.15672542,-0.30066494,-0.85215312,0.26649489,0.00400113
5.80000000,-0.16367175,0.90304919,-0.23711575,-0.52873176,0.58839470,0.28955773,-0.50392943,0.14771040,-0.77214312,0.15672542,-0.30066494,-0.85215312,0.26649489,0.00400113
5.82000000,-0.16367175,0.90304919,-0.23711575,-0.52873176,0.58839470,0.28955773,-0.50392943,0.14771040,-0.77214312,0.15672542,-0.30066494,-0.85215312,0.26649489,0.00400113
5.84000000,-0.16367175,0.90304919,-0.23711575,-0.52873176,0.58839470,0.28955773,-0.50392943,0.14771040,-0.77214312,0.15672542,-0.30066494,-0.85215312,0.26649489,0.00400113
5.86000000,-0.16367175,0.90304919,-0.23711575,-0.52873176,0.58839470,0.28955773,-0.50392943,0.14771040,-0.77214312,0.15672542,-0.30066494,-0.85215312,0.26649489,0.00400113
5.88000000,-0.16367175,0.90304919,-0.23711575,-0.52873176,0.58839470,0.28955773,-0.50392943,0.14771040,-0.77214312,0.15672542,-0.30066494,-0.85215312,0.26649489,0.00400113
5.90000000,-0.16367175,0.90304919,-0.23711575,-0.52873176,0.58839470,0.28955773,-0.50392943,0.14771040,-0.77214312,0.15672542,-0.30066494,-0.85215312,0.26649489,0.00400113
5.92000000,-0.16367175,0.90304919,-0.23711575,-0.52873176,0.58839470,0.28955773,-0.50392943,0.14771040,-0.77214312,0.15672542,-0.30066494,-0.85215312,0.26649489,0.00400113
5.94000000,-0.16367175,0.90304919,-0.23711575,-0.52873176,0.58839470,0.28955773,-0.50392943,0.14771040,-0.77214312,0.15672542,-0.30066494,-0.85215312,0.26649489,0.00400113
5.96000000,-0.16367175,0.90304919,-0.23711575,-0.52873176,0.58839470,0.28955773,-0.50392943,0.14771040,-0.77214312,0.15672542,-0.30066494,-0.85215312,0.26649489,0.00400113
5.98000000,-0.16367175,0.90304919,-0.23711575,-0.52873176,0.58839470,0.28955773,-0.50392943,0.14771040,-0.77214312,0.15672542,-0.30066494,-0.85215312,0.26649489,0.00400113
6.00000000,-0.16367175,0.90304919,-0.23711575,-0.52873176,0.58839470,0.28955773,-0.50392943,0.14771040,-0.77214312,0.15672542,-0.30066494,-0.85215312,0.26649489,0.00400113
6.02000000,-0.16367175,0.90304919,-0.23711575,-0.52873176,0.58839470,0.28955773,-0.50392943,0.14771040,-0.77214312,0.15672542,-0.30066494,-0.85215312,0.26649489,0.00400113
6.04000000,-0.16367175,0.90304919,-0.23711575,-0.52873176,0.58839470,0.28955773,-0.50392943,0.14771040,-0.77214312,0.15672542,-0.30066494,-0.85215312,0.26649489,0.00400113
6.06000000,-0.16367175,0.90304919,-0.23711575,-0.52873176,0.58839470,0.28955773,-0.50392943,0.14771040,-0.77214312,0.15672542,-0.30066494,-0.85215312,0.26649489,0.00400113
6.08000000,-0.16367175,0.90304919,-0.23711575,-0.52873176,0.58839470,0.28955773,-0.50392943,0.14771040,-0.77214312,0.15672542,-0.30066494,-0.85215312,0.26649489,0.00400113
6.10000000,-0.16367175,0.90304919,-0.23711575,-0.52873176,0.58839470,0.28955773,-0.50392943,0.14771040,-0.77214312,0.15672542,-0.30066494,-0.85215312,0.26649489,0.00400113
6.12000000,-0.16367175,0.90304919,-0.23711575,-0.52873176,0.58839470,0.28955773,-0.50392943,0.14771040,-0.77214312,0.15672542,-0.30066494,-0.85215312,0.26649489,0.00400113
6.14000000,-0.16367175,0.90304919,-0.23711575,-0.52873176,0.58839470,0.28955773,-0.50392943,0.14771040,-0.77214312,0.15672542,-0.30066494,-0.85215312,0.26649489,0.00400113
6.16000000,-0.16367175,0.90304919,-0.23711575,-0.52873176,0.58839470,0.28955773,-0.50392943,0.14771040,-0.77214312,0.15672542,-0.30066494,-0.85215312,0.26649489,0.00400113
6.18000000,-0.16367175,0.90304919,-0.23711575,-0.52873176,0.58839470,0.28955773,-0.50392943,0.14771040,-0.77214312,0.15672542,-0.30066494,-0.85215312,0.26649489,0.00400113
6.20000000,-0.16367175,0.90304919,-0.23711575,-0.52873176,0.58839470,0.28955773,-0.50392943,0.14771040,-0.77214312,0.15672542,-0.30066494,-0.85215312,0.26649489,0.00400113
6.22000000,-0.16367175,0.90304919,-0.23711575,-0.52873176,0.58839470,0.28955773,-0.50392943,0.14771040,-0.77214312,0.15672542,-0.30066494,-0.85215312,0.26649489,0.00400113
6.24000000,-0.16367175,0.90304919,-0.23711575,-0.52873176,0.58839470,0.28955773,-0.50392943,0.14771040,-0.77214312,0.15672542,-0.30066494,-0.85215312,0.26649489,0.00400113
6.26000000,-0.16367175,0.90304919,-0.23711575,-0.52873176,0.58839470,0.28955773,-0.50392943,0.14771040,-0.77214312,0.15672542,-0.30066494,-0.85215312,0.26649489,0.00400113
6.28000000,-0.16367175,0.90304919,-0.23711575,-0.52873176,0.58839470,0.28955773,-0.50392943,0.14771040,-0.77214312,0.15672542,-0.30066494,-0.85215312,0.26649489,0.00400113
6.30000000,-0.16367175,0.90304919,-0.23711575,-0.52873176,0.58839470,0.28955773,-0.50392943,0.14771040,-0.77214312,0.15672542,-0.30066494,-0.85215312,0.26649489,0.00400113
6.32000000,-0.16367175,0.90304919,-0.23711575,-0.52873176,0.58839470,0.28955773,-0.50392943,0.14771040,-0.77214312,0.15672542,-0.30066494,-0.85215312,0.26649489,0.00400113
6.34000000,-0.16367175,0.90304919,-0.23711575,-0.52873176,0.58839470,0.28955773,-0.50392943,0.14771040,-0.77214312,0.15672542,-0.30066494,-0.85215312,0.26649489,0.00400113
6.36000000,-0.16367175,0.90304919,-0.23711575,-0.52873176,0.58839470,0.28955773,-0.50392943,0.14771040,-0.77214312,0.15672542,-0.30066494,-0.85215312,0.26649489,0.00400113
6.38000000,-0.16367175,0.90304919,-0.23711575,-0.52873176,0.58839470,0.28955773,-0.50392943,0.14771040,-0.77214312,0.15672542,-0.30066494,-0.85215312,0.26649489,0.00400113
6.40000000,-0.16367175,0.90304919,-0.23711575,-0.52873176,0.58839470,0.28955773,-0.50392943,0.14771040,-0.77214312,0.15672542,-0.30066494,-0.85215312,0.26649489,0.00400113
6.42000000,-0.16367175,0.90304919,-0.23711575,-0.52873176,0.58839470,0.28955773,-0.50392943,0.14771040,-0.77214312,0.15672542,-0.30066494,-0.85215312,0.26649489,0.00400113
6.44000000,-0.16367175,0.90304919,-0.23711575,-0.52873176,0.58839470,0.28955773,-0.50392943,0.14771040,-0.77214312,0.15672542,-0.30066494,-0.85215312,0.26649489,0.00400113
6.46000000,-0.16367175,0.90304919,-0.23711575,-0.52873176,0.58839470,0.28955773,-0.50392943,0.14771040,-0.77214312,0.15672542,-0.30066494,-0.85215312,0.26649489,0.00400113
6.48000000,-0.16367175,0.90304919,-0.23711575,-0.52873176,0.58839470,0.28955773,-0.50392943,0.14771040,-0.77214312,0.15672542,-0.30066494,-0.85215312,0.26649489,0.00400113
6.50000000,-0.16367175,0.90304919,-0.23711575,-0.52873176,0.58839470,0.28955773,-0.50392943,0.14771040,-0.77214312,0.15672542,-0.30066494,-0.85215312,0.26649489,0.00400113
6.52000000,-0.16367175,0.90304919,-0.23711575,-0.52873176,0.58839470,0.28955773,-0.50392943,0.14771040,-0.77214312,0.15672542,-0.30066494,-0.85215312,0.26649489,0.00400113
6.54000000,-0.16367175,0.90304919,-0.23711575,-0.52873176,0.58839470,0.28955773,-0.50392943,0.14771040,-0.77214312,0.15672542,-0.30066494,-0.85215312,0.26649489,0.00400113
6.56000000,-0.16367175,0.90304919,-0.23711575,-0.52873176,0.58839470,0.28955773,-0.50392943,0.14771040,-0.77214312,0.15672542,-0.30066494,-0.85215312,0.26649489,0.00400113
6.58000000,-0.16367175,0.90304919,-0.23711575,-0.52873176,0.58839470,0.28955773,-0.50392943,0.14771040,-0.77214312,0.15672542,-0.30066494,-0.85215312,0.26649489,0.00400113
6.60000000,-0.16367175,0.90304919,-0.23711575,-0.52873176,0.58839470,0.28955773,-0.50392943,0.14771040,-0.77214312,0.15672542,-0.30066494,-0.85215312,0.26649489,0.00400113
6.62000000,-0.16367175,0.90304919,-0.23711575,-0.52873176,0.58839470,0.28955773,-0.50392943,0.14771040,-0.77214312,0.15672542,-0.30066494,-0.85215312,0.26649489,0.00400113
6.64000000,-0.16367175,0.90304919,-0.23711575,-0.52873176,0.58839470,0.28955773,-0.50392943,0.14771040,-0.77214312,0.15672542,-0.30066494,-0.85215312,0.26649489,0.00400113
6.66000000,-0.16367175,0.90304919,-0.23711575,-0.52873176,0.58839470,0.28955773,-0.50392943,0.14771040,-0.77214312,0.15672542,-0.30066494,-0.85215312,0.26649489,0.00400113
6.68000000,-0.16367175,0.90304919,-0.23711575,-0.52873176,0.58839470,0.28955773,-0.50392943,0.14771040,-0.77214312,0.15672542,-0.30066494,-0.85215312,0.26649489,0.00400113
6.70000000,-0.16367175,0.90304919,-0.23711575,-0.52873176,0.58839470,0.28955773,-0.50392943,0.14771040,-0.77214312,0.15672542,-0.30066494,-0.85215312,0.26649489,0.00400113
6.72000000,-0.16367175,0.90304919,-0.23711575,-0.52873176,0.58839470,0.28955773,-0.50392943,0.14771040,-0.77214312,0.15672542,-0.30066494,-0.85215312,0.26649489,0.00400113
6.74000000,-0.16367175,0.90304919,-0.23711575,-0.52873176,0.58839470,0.28955773,-0.50392943,0.14771040,-0.77214312,0.15672542,-0.30066494,-0.85215312,0.26649489,0.00400113
6.76000000,-0.16367175,0.90304919,-0.23711575,-0.52873176,0.58839470,0.28955773,-0.50392943,0.14771040,-0.77214312,0.15672542,-0.30066494,-0.85215312,0.26649489,0.00400113
6.78000000,-0.16367175,0.90304919,-0.23711575,-0.52873176,0.58839470,0.28955773,-0.50392943,0.14771040,-0.77214312,0.15672542,-0.30066494,-0.85215312,0.26649489,0.00400113
6.80000000,-0.16367175,0.90304919,-0.23711575,-0.52873176,0.58839470,0.28955773,-0.50392943,0.14771040,-0.77214312,0.15672542,-0.30066494,-0.85215312,0.26649489,0.00400113
6.82000000,-0.16367175,0.90304919,-0.23711575,-0.52873176,0.58839470,0.28955773,-0.50392943,0.14771040,-0.77214312,0.15672542,-0.30066494,-0.85215312,0.26649489,0.00400113
6.84000000,-0.16367175,0.90304919,-0.23711575,-0.52873176,0.58839470,0.28955773,-0.50392943,0.14771040,-0.77214312,0.15672542,-0.30066494,-0.85215312,0.26649489,0.00400113
6.86000000,-0.16367175,0.90304919,-0.23711575,-0.52873176,0.58839470,0.28955773,-0.50392943,0.14771040,-0.77214312,0.15672542,-0.30066494,-0.85215312,0.26649489,0.00400113
6.88000000,-0.16367175,0.90304919,-0.23711575,-0.52873176,0.58839470,0.28955773,-0.50392943,0.14771040,-0.77214312,0.15672542,-0.30066494,-0.85215312,0.26649489,0.00400113
6.90000000,-0.16367175,0.90304919,-0.23711575,-0.52873176,0.58839470,0.28955773,-0.50392943,0.14771040,-0.77214312,0.15672542,-0.30066494,-0.85215312,0.26649489,0.00400113
6.92000000,-0.16367175,0.90304919,-0.23711575,-0.52873176,0.58839470,0.28955773,-0.50392943,0.14771040,-0.77214312,0.15672542,-0.30066494,-0.85215312,0.26649489,0.00400113
6.94000000,-0.16367175,0.90304919,-0.23711575,-0.52873176,0.58839470,0.28955773,-0.50392943,0.14771040,-0.77214312,0.15672542,-0.30066494,-0.85215312,0.26649489,0.00400113
6.96000000,-0.16367175,0.90304919,-0.23711575,-0.52873176,0.58839470,0.28955773,-0.50392943,0.14771040,-0.77214312,0.15672542,-0.30066494,-0.85215312,0.26649489,0.00400113
6.98000000,-0.16367175,0.90304919,-0.23711575,-0.52873176,0.58839470,0.28955773,-0.50392943,0.14771040,-0.77214312,0.15672542,-0.30066494,-0.85215312,0.26649489,0.00400113
7.00000000,-0.16367175,0.90304919,-0.23711575,-0.52873176,0.58839470,0.28955773,-0.50392943,0.14771040,-0.77214312,0.15672542,-0.30066494,-0.85215312,0.26649489,0.00400113
7.02000000,-0.16367175,0.90304919,-0.23711575,-0.52873176,0.58839470,0.28955773,-0.50392943,0.14771040,-0.77214312,0.15672542,-0.30066494,-0.85215312,0.26649489,0.00400113
7.04000000,-0.16367175,0.90304919,-0.23711575,-0.52873176,0.58839470,0.28955773,-0.50392943,0.14771040,-0.77214312,0.15672542,-0.30066494,-0.85215312,0.26649489,0.00400113
7.06000000,-0.16367175,0.90304919,-0.23711575,-0.52873176,0.58839470,0.28955773,-0.50392943,0.14771040,-0.77214312,0.15672542,-0.30066494,-0.85215312,0.26649489,0.00400113
7.08000000,-0.16367175,0.90304919,-0.23711575,-0.52873176,0.58839470,0.28955773,-0.50392943,0.14771040,-0.77214312,0.15672542,-0.30066494,-0.85215312,0.26649489,0.00400113
7.10000000,-0.16367175,0.90304919,-0.23711575,-0.52873176,0.58839470,0.28955773,-0.50392943,0.14771040,-0.77214312,0.15672542,-0.30066494,-0.85215312,0.26649489,0.00400113
7.12000000,-0.16367175,0.90304919,-0.23711575,-0.52873176,0.58839470,0.28955773,-0.50392943,0.14771040,-0.77214312,0.15672542,-0.30066494,-0.85215312,0.26649489,0.00400113
7.14000000,-0.16367175,0.90304919,-0.23711575,-0.52873176,0.58839470,0.28955773,-0.50392943,0.14771040,-0.77214312,0.15672542,-0.30066494,-0.85215312,0.26649489,0.00400113
7.16000000,-0.16367175,0.90304919,-0.23711575,-0.52873176,0.58839470,0.28955773,-0.50392943,0.14771040,-0.77214312,0.15672542,-0.30066494,-0.85215312,0.26649489,0.00400113
7.18000000,-0.16367175,0.90304919,-0.23711575,-0.52873176,0.58839470,0.28955773,-0.50392943,0.14771040,-0.77214312,0.15672542,-0.30066494,-0.85215312,0.26649489,0.00400113
7.20000000,-0.16367175,0.90304919,-0.23711575,-0.52873176,0.58839470,0.28955773,-0.50392943,0.14771040,-0.77214312,0.15672542,-0.30066494,-0.85215312,0.26649489,0.00400113
7.22000000,-0.16367175,0.90304919,-0.23711575,-0.52873176,0.58839470,0.28955773,-0.50392943,0.14771040,-0.77214312,0.15672542,-0.30066494,-0.85215312,0.26649489,0.00400113
7.24000000,-0.16367175,0.90304919,-0.23711575,-0.52873176,0.58839470,0.28955773,-0.50392943,0.14771040,-0.77214312,0.15672542,-0.30066494,-0.85215312,0.26649489,0.00400113
7.26000000,-0.16367175,0.90304919,-0.23711575,-0.52873176,0.58839470,0.28955773,-0.50392943,0.14771040,-0.77214312,0.15672542,-0.30066494,-0.85215312,0.26649489,0.00400113
7.28000000,-0.16367175,0.90304919,-0.23711575,-0.52873176,0.58839470,0.28955773,-0.50392943,0.14771040,-0.77214312,0.15672542,-0.30066494,-0.85215312,0.26649489,0.00400113
7.30000000,-0.16367175,0.90304919,-0.23711575,-0.52873176,0.58839470,0.28955773,-0.50392943,0.14771040,-0.77214312,0.15672542,-0.30066494,-0.85215312,0.26649489,0.00400113
7.32000000,-0.16367175,0.90304919,-0.23711575,-0.52873176,0.58839470,0.28955773,-0.50392943,0.14771040,-0.77214312,0.15672542,-0.30066494,-0.85215312,0.26649489,0.00400113
7.34000000,-0.16367175,0.90304919,-0.23711575,-0.52873176,0.58839470,0.28955773,-0.50392943,0.14771040,-0.77214312,0.15672542,-0.30066494,-0.85215312,0.26649489,0.00400113
7.36000000,-0.16367175,0.90304919,-0.23711575,-0.52873176,0.58839470,0.28955773,-0.50392943,0.14771040,-0.77214312,0.15672542,-0.30066494,-0.85215312,0.26649489,0.00400113
7.38000000,-0.16367175,0.90304919,-0.23711575,-0.52873176,0.58839470,0.28955773,-0.50392943,0.14771040,-0.77214312,0.15672542,-0.30066494,-0.85215312,0.26649489,0.00400113
7.40000000,-0.16367175,0.90304919,-0.23711575,-0.52873176,0.58839470,0.28955773,-0.50392943,0.14771040,-0.77214312,0.15672542,-0.30066494,-0.85215312,0.26649489,0.00400113
7.42000000,-0.16367175,0.90304919,-0.23711575,-0.52873176,0.58839470,0.28955773,-0.50392943,0.14771040,-0.77214312,0.15672542,-0.30066494,-0.85215312,0.26649489,0.00400113
7.44000000,-0.16367175,0.90304919,-0.23711575,-0.52873176,0.58839470,0.28955773,-0.50392943,0.14771040,-0.77214312,0.15672542,-0.30066494,-0.85215312,0.26649489,0.00400113
7.46000000,-0.16367175,0.90304919,-0.23711575,-0.52873176,0.58839470,0.28955773,-0.50392943,0.14771040,-0.77214312,0.15672542,-0.30066494,-0.85215312,0.26649489,0.00400113
7.48000000,-0.16367175,0.90304919,-0.23711575,-0.52873176,0.58839470,0.28955773,-0.50392943,0.14771040,-0.77214312,0.15672542,-0.30066494,-0.85215312,0.26649489,0.00400113
7.50000000,-0.16367175,0.90304919,-0.23711575,-0.52873176,0.58839470,0.28955773,-0.50392943,0.14771040,-0.77214312,0.15672542,-0.30066494,-0.85215312,0.26649489,0.00400113
7.52000000,-0.16367175,0.90304919,-0.23711575,-0.52873176,0.58839470,0.28955773,-0.50392943,0.14771040,-0.77214312,0.15672542,-0.30066494,-0.85215312,0.26649489,0.00400113
7.54000000,-0.16367175,0.90304919,-0.23711575,-0.52873176,0.58839470,0.28955773,-0.50392943,0.14771040,-0.77214312,0.15672542,-0.30066494,-0.85215312,0.26649489,0.00400113
7.56000000,-0.16367175,0.90304919,-0.23711575,-0.52873176,0.58839470,0.28955773,-0.50392943,0.14771040,-0.77214312,0.15672542,-0.30066494,-0.85215312,0.26649489,0.00400113
7.58000000,-0.16367175,0.90304919,-0.23711575,-0.52873176,0.58839470,0.28955773,-0.50392943,0.14771040,-0.77214312,0.15672542,-0.30066494,-0.85215312,0.26649489,0.00400113
7.60000000,-0.16367175,0.90304919,-0.23711575,-0.52873176,0.58839470,0.28955773,-0.50392943,0.14771040,-0.77214312,0.15672542,-0.30066494,-0.85215312,0.26649489,0.00400113
7.62000000,-0.16367175,0.90304919,-0.23711575,-0.52873176,0.58839470,0.28955773,-0.50392943,0.14771040,-0.77214312,0.15672542,-0.30066494,-0.85215312,0.26649489,0.00400113
7.64000000,-0.16367175,0.90304919,-0.23711575,-0.52873176,0.58839470,0.28955773,-0.50392943,0.14771040,-0.77214312,0.15672542,-0.30066494,-0.85215312,0.26649489,0.00400113
7.66000000,-0.16367175,0.90304919,-0.23711575,-0.52873176,0.58839470,0.28955773,-0.50392943,0.14771040,-0.77214312,0.15672542,-0.30066494,-0.85215312,0.26649489,0.00400113
7.68000000,-0.16367175,0.90304919,-0.23711575,-0.52873176,0.58839470,0.28955773,-0.50392943,0.14771040,-0.77214312,0.15672542,-0.30066494,-0.85215312,0.26649489,0.00400113
7.70000000,-0.16367175,0.90304919,-0.23711575,-0.52873176,0.58839470,0.28955773,-0.50392943,0.14771040,-0.77214312,0.15672542,-0.30066494,-0.85215312,0.26649489,0.00400113
7.72000000,-0.16367175,0.90304919,-0.23711575,-0.52873176,0.58839470,0.28955773,-0.50392943,0.14771040,-0.77214312,0.15672542,-0.30066494,-0.85215312,0.26649489,0.00400113
7.74000000,-0.16367175,0.90304919,-0.23711575,-0.52873176,0.58839470,0.28955773,-0.50392943,0.14771040,-0.77214312,0.15672542,-0.30066494,-0.85215312,0.26649489,0.00400113
7.76000000,-0.16367175,0.90304919,-0.23711575,-0.52873176,0.58839470,0.28955773,-0.50392943,0.14771040,-0.77214312,0.15672542,-0.30066494,-0.85215312,0.26649489,0.00400113
7.78000000,-0.16367175,0.90304919,-0.23711575,-0.52873176,0.58839470,0.28955773,-0.50392943,0.14771040,-0.77214312,0.15672542,-0.30066494,-0.85215312,0.26649489,0.00400113
7.80000000,-0.16367175,0.90304919,-0.23711575,-0.52873176,0.58839470,0.28955773,-0.50392943,0.14771040,-0.77214312,0.15672542,-0.30066494,-0.85215312,0.26649489,0.00400113
7.82000000,-0.16367175,0.90304919,-0.23711575,-0.52873176,0.58839470,0.28955773,-0.50392943,0.14771040,-0.77214312,0.15672542,-0.30066494,-0.85215312,0.26649489,0.00400113
7.84000000,-0.16367175,0.90304919,-0.23711575,-0.52873176,0.58839470,0.28955773,-0.50392943,0.14771040,-0.77214312,0.15672542,-0.30066494,-0.85215312,0.26649489,0.00400113
7.86000000,-0.16367175,0.90304919,-0.23711575,-0.52873176,0.58839470,0.28955773,-0.50392943,0.14771040,-0.77214312,0.15672542,-0.30066494,-0.85215312,0.26649489,0.00400113
7.88000000,-0.16367175,0.90304919,-0.23711575,-0.52873176,0.58839470,0.28955773,-0.50392943,0.14771040,-0.77214312,0.15672542,-0.30066494,-0.85215312,0.26649489,0.00400113
7.90000000,-0.16367175,0.90304919,-0.23711575,-0.52873176,0.58839470,0.28955773,-0.50392943,0.14771040,-0.77214312,0.15672542,-0.30066494,-0.85215312,0.26649489,0.00400113
7.92000000,-0.16367175,0.90304919,-0.23711575,-0.52873176,0.58839470,0.28955773,-0.50392943,0.14771040,-0.77214312,0.15672542,-0.30066494,-0.85215312,0.26649489,0.00400113
7.94000000,-0.16367175,0.90304919,-0.23711575,-0.52873176,0.58839470,0.28955773,-0.50392943,0.14771040,-0.77214312,0.15672542,-0.30066494,-0.85215312,0.26649489,0.00400113
7.96000000,-0.16367175,0.90304919,-0.23711575,-0.52873176,0.58839470,0.28955773,-0.50392943,0.14771040,-0.77214312,0.15672542,-0.30066494,-0.85215312,0.26649489,0.00400113
7.98000000,-0.16367175,0.90304919,-0.23711575,-0.52873176,0.58839470,0.28955773,-0.50392943,0.14771040,-0.77214312,0.15672542,-0.30066494,-0.85215312,0.26649489,0.00400113
8.00000000,-0.16367175,0.90304919,-0.23711575,-0.52873176,0.58839470,0.28955773,-0.50392943,0.14771040,-0.77214312,0.15672542,-0.30066494,-0.85215312,0.26649489,0.00400113
8.02000000,-0.16367175,0.90304919,-0.23711575,-0.52873176,0.58839470,0.28955773,-0.50392943,0.14771040,-0.77214312,0.15672542,-0.30066494,-0.85215312,0.26649489,0.00400113
8.04000000,-0.16367175,0.90304919,-0.23711575,-0.52873176,0.58839470,0.28955773,-0.50392943,0.14771040,-0.77214312,0.15672542,-0.30066494,-0.85215312,0.26649489,0.00400113
8.06000000,-0.16367175,0.90304919,-0.23711575,-0.52873176,0.58839470,0.28955773,-0.50392943,0.14771040,-0.77214312,0.15672542,-0.30066494,-0.85215312,0.26649489,0.00400113
8.08000000,-0.16367175,0.90304919,-0.23711575,-0.52873176,0.58839470,0.28955773,-0.50392943,0.14771040,-0.77214312,0.15672542,-0.30066494,-0.85215312,0.26649489,0.00400113
8.10000000,-0.16367175,0.90304919,-0.23711575,-0.52873176,0.58839470,0.28955773,-0.50392943,0.14771040,-0.77214312,0.15672542,-0.30066494,-0.85215312,0.26649489,0.00400113
8.12000000,-0.16367175,0.90304919,-0.23711575,-0.52873176,0.58839470,0.28955773,-0.50392943,0.14771040,-0.77214312,0.15672542,-0.30066494,-0.85215312,0.26649489,0.00400113
8.14000000,-0.16367175,0.90304919,-0.23711575,-0.52873176,0.58839470,0.28955773,-0.50392943,0.14771040,-0.77214312,0.15672542,-0.30066494,-0.85215312,0.26649489,0.00400113
8.16000000,-0.16367175,0.90304919,-0.23711575,-0.52873176,0.58839470,0.28955773,-0.50392943,0.14771040,-0.77214312,0.15672542,-0.30066494,-0.85215312,0.26649489,0.00400113
8.18000000,-0.16367175,0.90304919,-0.23711575,-0.52873176,0.58839470,0.28955773,-0.50392943,0.14771040,-0.77214312,0.15672542,-0.30066494,-0.85215312,0.26649489,0.00400113
8.20000000,-0.16367175,0.90304919,-0.23711575,-0.52873176,0.58839470,0.28955773,-0.50392943,0.14771040,-0.77214312,0.15672542,-0.30066494,-0.85215312,0.26649489,0.00400113
8.22000000,-0.16367175,0.90304919,-0.23711575,-0.52873176,0.58839470,0.28955773,-0.50392943,0.14771040,-0.77214312,0.15672542,-0.30066494,-0.85215312,0.26649489,0.00400113
8.24000000,-0.16367175,0.90304919,-0.23711575,-0.52873176,0.58839470,0.28955773,-0.50392943,0.14771040,-0.77214312,0.15672542,-0.30066494,-0.85215312,0.26649489,0.00400113
8.26000000,-0.16367175,0.90304919,-0.23711575,-0.52873176,0.58839470,0.28955773,-0.50392943,0.14771040,-0.77214312,0.15672542,-0.30066494,-0.85215312,0.26649489,0.00400113
8.28000000,-0.16367175,0.90304919,-0.23711575,-0.52873176,0.58839470,0.28955773,-0.50392943,0.14771040,-0.77214312,0.15672542,-0.30066494,-0.85215312,0.26649489,0.00400113
8.30000000,-0.16367175,0.90304919,-0.23711575,-0.52873176,0.58839470,0.28955773,-0.50392943,0.14771040,-0.77214312,0.15672542,-0.30066494,-0.85215312,0.26649489,0.00400113
8.32000000,-0.16367175,0.90304919,-0.23711575,-0.52873176,0.58839470,0.28955773,-0.50392943,0.14771040,-0.77214312,0.15672542,-0.30066494,-0.85215312,0.26649489,0.00400113
8.34000000,-0.16367175,0.90304919,-0.23711575,-0.52873176,0.58839470,0.28955773,-0.50392943,0.14771040,-0.77214312,0.15672542,-0.30066494,-0.85215312,0.26649489,0.00400113
8.36000000,-0.16367175,0.90304919,-0.23711575,-0.52873176,0.58839470,0.28955773,-0.50392943,0.14771040,-0.77214312,0.15672542,-0.30066494,-0.85215312,0.26649489,0.00400113
8.38000000,-0.16367175,0.90304919,-0.23711575,-0.52873176,0.58839470,0.28955773,-0.50392943,0.14771040,-0.77214312,0.15672542,-0.30066494,-0.85215312,0.26649489,0.00400113
8.40000000,-0.16367175,0.90304919,-0.23711575,-0.52873176,0.58839470,0.28955773,-0.50392943,0.14771040,-0.77214312,0.15672542,-0.30066494,-0.85215312,0.26649489,0.00400113
8.42000000,-0.16367175,0.90304919,-0.23711575,-0.52873176,0.58839470,0.28955773,-0.50392943,0.14771040,-0.77214312,0.15672542,-0.30066494,-0.85215312,0.26649489,0.00400113
8.44000000,-0.16367175,0.90304919,-0.23711575,-0.52873176,0.58839470,0.28955773,-0.50392943,0.14771040,-0.77214312,0.15672542,-0.30066494,-0.85215312,0.26649489,0.00400113
8.46000000,-0.16367175,0.90304919,-0.23711575,-0.52873176,0.58839470,0.28955773,-0.50392943,0.14771040,-0.77214312,0.15672542,-0.30066494,-0.85215312,0.26649489,0.00400113
8.48000000,-0.16367175,0.90304919,-0.23711575,-0.52873176,0.58839470,0.28955773,-0.50392943,0.14771040,-0.77214312,0.15672542,-0.30066494,-0.85215312,0.26649489,0.00400113
8.50000000,-0.16367175,0.90304919,-0.23711575,-0.52873176,0.58839470,0.28955773,-0.50392943,0.14771040,-0.77214312,0.15672542,-0.30066494,-0.85215312,0.26649489,0.00400113
8.52000000,-0.16367175,0.90304919,-0.23711575,-0.52873176,0.58839470,0.28955773,-0.50392943,0.14771040,-0.77214312,0.15672542,-0.30066494,-0.85215312,0.26649489,0.00400113
8.54000000,-0.16367175,0.90304919,-0.23711575,-0.52873176,0.58839470,0.28955773,-0.50392943,0.14771040,-0.77214312,0.15672542,-0.30066494,-0.85215312,0.26649489,0.00400113
8.56000000,-0.16367175,0.90304919,-0.23711575,-0.52873176,0.58839470,0.28955773,-0.50392943,0.14771040,-0.77214312,0.15672542,-0.30066494,-0.85215312,0.26649489,0.00400113
8.58000000,-0.16367175,0.90304919,-0.23711575,-0.52873176,0.58839470,0.28955773,-0.50392943,0.14771040,-0.77214312,0.15672542,-0.30066494,-0.85215312,0.26649489,0.00400113
8.60000000,-0.16367175,0.90304919,-0.23711575,-0.52873176,0.58839470,0.28955773,-0.50392943,0.14771040,-0.77214312,0.15672542,-0.30066494,-0.85215312,0.26649489,0.00400113
8.62000000,-0.16367175,0.90304919,-0.23711575,-0.52873176,0.58839470,0.28955773,-0.50392943,0.14771040,-0.77214312,0.15672542,-0.30066494,-0.85215312,0.26649489,0.00400113
8.64000000,-0.16367175,0.90304919,-0.23711575,-0.52873176,0.58839470,0.28955773,-0.50392943,0.14771040,-0.77214312,0.15672542,-0.30066494,-0.85215312,0.26649489,0.00400113
8.66000000,-0.16367175,0.90304919,-0.23711575,-0.52873176,0.58839470,0.28955773,-0.50392943,0.14771040,-0.77214312,0.15672542,-0.30066494,-0.85215312,0.26649489,0.00400113
8.68000000,-0.16367175,0.90304919,-0.23711575,-0.52873176,0.58839470,0.28955773,-0.50392943,0.14771040,-0.77214312,0.15672542,-0.30066494,-0.85215312,0.26649489,0.00400113
8.70000000,-0.16367175,0.90304919,-0.23711575,-0.52873176,0.58839470,0.28955773,-0.50392943,0.14771040,-0.77214312,0.15672542,-0.30066494,-0.85215312,0.26649489,0.00400113
8.72000000,-0.16367175,0.90304919,-0.23711575,-0.52873176,0.58839470,0.28955773,-0.50392943,0.14771040,-0.77214312,0.15672542,-0.30066494,-0.85215312,0.26649489,0.00400113
8.74000000,-0.16367175,0.90304919,-0.23711575,-0.52873176,0.58839470,0.28955773,-0.50392943,0.14771040,-0.77214312,0.15672542,-0.30066494,-0.85215312,0.26649489,0.00400113
8.76000000,-0.16367175,0.90304919,-0.23711575,-0.52873176,0.58839470,0.28955773,-0.50392943,0.14771040,-0.77214312,0.15672542,-0.30066494,-0.85215312,0.26649489,0.00400113
8.78000000,-0.16367175,0.90304919,-0.23711575,-0.52873176,0.58839470,0.28955773,-0.50392943,0.14771040,-0.77214312,0.15672542,-0.30066494,-0.85215312,0.26649489,0.00400113
8.80000000,-0.16367175,0.90304919,-0.23711575,-0.52873176,0.58839470,0.28955773,-0.50392943,0.14771040,-0.77214312,0.15672542,-0.30066494,-0.85215312,0.26649489,0.00400113
8.82000000,-0.16367175,0.90304919,-0.23711575,-0.52873176,0.58839470,0.28955773,-0.50392943,0.14771040,-0.77214312,0.15672542,-0.30066494,-0.85215312,0.26649489,0.00400113
8.84000000,-0.16367175,0.90304919,-0.23711575,-0.52873176,0.58839470,0.28955773,-0.50392943,0.14771040,-0.77214312,0.15672542,-0.30066494,-0.85215312,0.26649489,0.00400113
8.86000000,-0.16367175,0.90304919,-0.23711575,-0.52873176,0.58839470,0.28955773,-0.50392943,0.14771040,-0.77214312,0.15672542,-0.30066494,-0.85215312,0.26649489,0.00400113
8.88000000,-0.16367175,0.90304919,-0.23711575,-0.52873176,0.58839470,0.28955773,-0.50392943,0.14771040,-0.77214312,0.15672542,-0.30066494,-0.85215312,0.26649489,0.00400113
8.90000000,-0.16367175,0.90304919,-0.23711575,-0.52873176,0.58839470,0.28955773,-0.50392943,0.14771040,-0.77214312,0.15672542,-0.30066494,-0.85215312,0.26649489,0.00400113
8.92000000,-0.16367175,0.90304919,-0.23711575,-0.52873176,0.58839470,0.28955773,-0.50392943,0.14771040,-0.77214312,0.15672542,-0.30066494,-0.85215312,0.26649489,0.00400113
8.94000000,-0.16367175,0.90304919,-0.23711575,-0.52873176,0.58839470,0.28955773,-0.50392943,0.14771040,-0.77214312,0.15672542,-0.30066494,-0.85215312,0.26649489,0.00400113
8.96000000,-0.16367175,0.90304919,-0.23711575,-0.52873176,0.58839470,0.28955773,-0.50392943,0.14771040,-0.77214312,0.15672542,-0.30066494,-0.85215312,0.26649489,0.00400113
8.98000000,-0.16367175,0.90304919,-0.23711575,-0.52873176,0.58839470,0.28955773,-0.50392943,0.14771040,-0.77214312,0.15672542,-0.30066494,-0.85215312,0.26649489,0.00400113
9.00000000,-0.16367175,0.90304919,-0.23711575,-0.52873176,0.58839470,0.28955773,-0.50392943,0.14771040,-0.77214312,0.15672542,-0.30066494,-0.85215312,0.26649489,0.00400113
9.02000000,-0.16367175,0.90304919,-0.23711575,-0.52873176,0.58839470,0.28955773,-0.50392943,0.14771040,-0.77214312,0.15672542,-0.30066494,-0.85215312,0.26649489,0.00400113
9.04000000,-0.16367175,0.90304919,-0.23711575,-0.52873176,0.58839470,0.28955773,-0.50392943,0.14771040,-0.77214312,0.15672542,-0.30066494,-0.85215312,0.26649489,0.00400113
9.06000000,-0.16367175,0.90304919,-0.23711575,-0.52873176,0.58839470,0.28955773,-0.50392943,0.14771040,-0.77214312,0.15672542,-0.30066494,-0.85215312,0.26649489,0.00400113
9.08000000,-0.16367175,0.90304919,-0.23711575,-0.52873176,0.58839470,0.28955773,-0.50392943,0.14771040,-0.77214312,0.15672542,-0.30066494,-0.85215312,0.26649489,0.00400113
9.10000000,-0.16367175,0.90304919,-0.23711575,-0.52873176,0.58839470,0.28955773,-0.50392943,0.14771040,-0.77214312,0.15672542,-0.30066494,-0.85215312,0.26649489,0.00400113
9.12000000,-0.16367175,0.90304919,-0.23711575,-0.52873176,0.58839470,0.28955773,-0.50392943,0.14771040,-0.77214312,0.15672542,-0.30066494,-0.85215312,0.26649489,0.00400113
9.14000000,-0.16367175,0.90304919,-0.23711575,-0.52873176,0.58839470,0.28955773,-0.50392943,0.14771040,-0.77214312,0.15672542,-0.30066494,-0.85215312,0.26649489,0.00400113
9.16000000,-0.16367175,0.90304919,-0.23711575,-0.52873176,0.58839470,0.28955773,-0.50392943,0.14771040,-0.77214312,0.15672542,-0.30066494,-0.85215312,0.26649489,0.00400113
9.18000000,-0.16367175,0.90304919,-0.23711575,-0.52873176,0.58839470,0.28955773,-0.50392943,0.14771040,-0.77214312,0.15672542,-0.30066494,-0.85215312,0.26649489,0.00400113
9.20000000,-0.16367175,0.90304919,-0.23711575,-0.52873176,0.58839470,0.28955773,-0.50392943,0.14771040,-0.77214312,0.15672542,-0.30066494,-0.85215312,0.26649489,0.00400113
9.22000000,-0.16367175,0.90304919,-0.23711575,-0.52873176,0.58839470,0.28955773,-0.50392943,0.14771040,-0.77214312,0.15672542,-0.30066494,-0.85215312,0.26649489,0.00400113
9.24000000,-0.16367175,0.90304919,-0.23711575,-0.52873176,0.58839470,0.28955773,-0.50392943,0.14771040,-0.77214312,0.15672542,-0.30066494,-0.85215312,0.26649489,0.00400113
9.26000000,-0.16367175,0.90304919,-0.23711575,-0.52873176,0.58839470,0.28955773,-0.50392943,0.14771040,-0.77214312,0.15672542,-0.30066494,-0.85215312,0.26649489,0.00400113
9.28000000,-0.16367175,0.90304919,-0.23711575,-0.52873176,0.58839470,0.28955773,-0.50392943,0.14771040,-0.77214312,0.15672542,-0.30066494,-0.85215312,0.26649489,0.00400113
9.30000000,-0.16367175,0.90304919,-0.23711575,-0.52873176,0.58839470,0.28955773,-0.50392943,0.14771040,-0.77214312,0.15672542,-0.30066494,-0.85215312,0.26649489,0.00400113
9.32000000,-0.16367175,0.90304919,-0.23711575,-0.52873176,0.58839470,0.28955773,-0.50392943,0.14771040,-0.77214312,0.15672542,-0.30066494,-0.85215312,0.26649489,0.00400113
9.34000000,-0.16367175,0.90304919,-0.23711575,-0.52873176,0.58839470,0.28955773,-0.50392943,0.14771040,-0.77214312,0.15672542,-0.30066494,-0.85215312,0.26649489,0.00400113
9.36000000,-0.16367175,0.90304919,-0.23711575,-0.52873176,0.58839470,0.28955773,-0.50392943,0.14771040,-0.77214312,0.15672542,-0.30066494,-0.85215312,0.26649489,0.00400113
9.38000000,-0.16367175,0.90304919,-0.23711575,-0.52873176,0.58839470,0.28955773,-0.50392943,0.14771040,-0.77214312,0.15672542,-0.30066494,-0.85215312,0.26649489,0.00400113
9.40000000,-0.16367175,0.90304919,-0.23711575,-0.52873176,0.58839470,0.28955773,-0.50392943,0.14771040,-0.77214312,0.15672542,-0.30066494,-0.85215312,0.26649489,0.00400113
9.42000000,-0.16367175,0.90304919,-0.23711575,-0.52873176,0.58839470,0.28955773,-0.50392943,0.14771040,-0.77214312,0.15672542,-0.30066494,-0.85215312,0.26649489,0.00400113
9.44000000,-0.16367175,0.90304919,-0.23711575,-0.52873176,0.58839470,0.28955773,-0.50392943,0.14771040,-0.77214312,0.15672542,-0.30066494,-0.85215312,0.26649489,0.00400113
9.46000000,-0.16367175,0.90304919,-0.23711575,-0.52873176,0.58839470,0.28955773,-0.50392943,0.14771040,-0.77214312,0.15672542,-0.30066494,-0.85215312,0.26649489,0.00400113
9.48000000,-0.16367175,0.90304919,-0.23711575,-0.52873176,0.58839470,0.28955773,-0.50392943,0.14771040,-0.77214312,0.15672542,-0.30066494,-0.85215312,0.26649489,0.00400113
9.50000000,-0.16367175,0.90304919,-0.23711575,-0.52873176,0.58839470,0.28955773,-0.50392943,0.14771040,-0.77214312,0.15672542,-0.30066494,-0.85215312,0.26649489,0.00400113
9.52000000,-0.16367175,0.90304919,-0.23711575,-0.52873176,0.58839470,0.28955773,-0.50392943,0.14771040,-0.77214312,0.15672542,-0.30066494,-0.85215312,0.26649489,0.00400113
9.54000000,-0.16367175,0.90304919,-0.23711575,-0.52873176,0.58839470,0.28955773,-0.50392943,0.14771040,-0.77214312,0.15672542,-0.30066494,-0.85215312,0.26649489,0.00400113
9.56000000,-0.16367175,0.90304919,-0.23711575,-0.52873176,0.58839470,0.28955773,-0.50392943,0.14771040,-0.77214312,0.15672542,-0.30066494,-0.85215312,0.26649489,0.00400113
9.58000000,-0.16367175,0.90304919,-0.23711575,-0.52873176,0.58839470,0.28955773,-0.50392943,0.14771040,-0.77214312,0.15672542,-0.30066494,-0.85215312,0.26649489,0.00400113
9.60000000,-0.16367175,0.90304919,-0.23711575,-0.52873176,0.58839470,0.28955773,-0.50392943,0.14771040,-0.77214312,0.15672542,-0.30066494,-0.85215312,0.26649489,0.00400113
9.62000000,-0.16367175,0.90304919,-0.23711575,-0.52873176,0.58839470,0.28955773,-0.50392943,0.14771040,-0.77214312,0.15672542,-0.30066494,-0.85215312,0.26649489,0.00400113
9.64000000,-0.16367175,0.90304919,-0.23711575,-0.52873176,0.58839470,0.28955773,-0.50392943,0.14771040,-0.77214312,0.15672542,-0.30066494,-0.85215312,0.26649489,0.00400113
9.66000000,-0.16367175,0.90304919,-0.23711575,-0.52873176,0.58839470,0.28955773,-0.50392943,0.14771040,-0.77214312,0.15672542,-0.30066494,-0.85215312,0.26649489,0.00400113
9.68000000,-0.16367175,0.90304919,-0.23711575,-0.52873176,0.58839470,0.28955773,-0.50392943,0.14771040,-0.77214312,0.15672542,-0.30066494,-0.85215312,0.26649489,0.00400113
9.70000000,-0.16367175,0.90304919,-0.23711575,-0.52873176,0.58839470,0.28955773,-0.50392943,0.14771040,-0.77214312,0.15672542,-0.30066494,-0.85215312,0.26649489,0.00400113
9.72000000,-0.16367175,0.90304919,-0.23711575,-0.52873176,0.58839470,0.28955773,-0.50392943,0.14771040,-0.77214312,0.15672542,-0.30066494,-0.85215312,0.26649489,0.00400113
9.74000000,-0.16367175,0.90304919,-0.23711575,-0.52873176,0.58839470,0.28955773,-0.50392943,0.14771040,-0.77214312,0.15672542,-0.30066494,-0.85215312,0.26649489,0.00400113
9.76000000,-0.16367175,0.90304919,-0.23711575,-0.52873176,0.58839470,0.28955773,-0.50392943,0.14771040,-0.77214312,0.15672542,-0.30066494,-0.85215312,0.26649489,0.00400113
9.78000000,-0.16367175,0.90304919,-0.23711575,-0.52873176,0.58839470,0.28955773,-0.50392943,0.14771040,-0.77214312,0.15672542,-0.30066494,-0.85215312,0.26649489,0.00400113
9.80000000,-0.16367175,0.90304919,-0.23711575,-0.52873176,0.58839470,0.28955773,-0.50392943,0.14771040,-0.77214312,0.15672542,-0.30066494,-0.85215312,0.26649489,0.00400113
9.82000000,-0.16367175,0.90304919,-0.23711575,-0.52873176,0.58839470,0.28955773,-0.50392943,0.14771040,-0.77214312,0.15672542,-0.30066494,-0.85215312,0.26649489,0.00400113
9.84000000,-0.16367175,0.90304919,-0.23711575,-0.52873176,0.58839470,0.28955773,-0.50392943,0.14771040,-0.77214312,0.15672542,-0.30066494,-0.85215312,0.26649489,0.00400113
9.86000000,-0.16367175,0.90304919,-0.23711575,-0.52873176,0.58839470,0.28955773,-0.50392943,0.14771040,-0.77214312,0.15672542,-0.30066494,-0.85215312,0.26649489,0.00400113
9.88000000,-0.16367175,0.90304919,-0.23711575,-0.52873176,0.58839470,0.28955773,-0.50392943,0.14771040,-0.77214312,0.15672542,-0.30066494,-0.85215312,0.26649489,0.00400113
9.90000000,-0.16367175,0.90304919,-0.23711575,-0.52873176,0.58839470,0.28955773,-0.50392943,0.14771040,-0.77214312,0.15672542,-0.30066494,-0.85215312,0.26649489,0.00400113
9.92000000,-0.16367175,0.90304919,-0.23711575,-0.52873176,0.58839470,0.28955773,-0.50392943,0.14771040,-0.77214312,0.15672542,-0.30066494,-0.85215312,0.26649489,0.00400113
9.94000000,-0.16367175,0.90304919,-0.23711575,-0.52873176,0.58839470,0.28955773,-0.50392943,0.14771040,-0.77214312,0.15672542,-0.30066494,-0.85215312,0.26649489,0.00400113
9.96000000,-0.16367175,0.90304919,-0.23711575,-0.52873176,0.58839470,0.28955773,-0.50392943,0.14771040,-0.77214312,0.15672542,-0.30066494,-0.85215312,0.26649489,0.00400113
9.98000000,-0.16367175,0.90304919,-0.23711575,-0.52873176,0.58839470,0.28955773,-0.50392943,0.14771040,-0.77214312,0.15672542,-0.30066494,-0.85215312,0.26649489,0.00400113
10.00000000,-0.16367175,0.90304919,-0.23711575,-0.52873176,0.58839470,0.28955773,-0.50392943,0.14771040,-0.77214312,0.15672542,-0.30066494,-0.85215312,0.26649489,0.00400113
10.02000000,-0.16367175,0.90304919,-0.23711575,-0.52873176,0.58839470,0.28955773,-0.50392943,0.14771040,-0.77214312,0.15672542,-0.30066494,-0.85215312,0.26649489,0.00400113
10.04000000,-0.16367175,0.90304919,-0.23711575,-0.52873176,0.58839470,0.28955773,-0.50392943,0.14771040,-0.77214312,0.15672542,-0.30066494,-0.85215312,0.26649489,0.00400113
10.06000000,-0.16367175,0.90304919,-0.23711575,-0.52873176,0.58839470,0.28955773,-0.50392943,0.14771040,-0.77214312,0.15672542,-0.30066494,-0.85215312,0.26649489,0.00400113
10.08000000,-0.16367175,0.90304919,-0.23711575,-0.52873176,0.58839470,0.28955773,-0.50392943,0.14771040,-0.77214312,0.15672542,-0.30066494,-0.85215312,0.26649489,0.00400113
10.10000000,-0.16367175,0.90304919,-0.23711575,-0.52873176,0.58839470,0.28955773,-0.50392943,0.14771040,-0.77214312,0.15672542,-0.30066494,-0.85215312,0.26649489,0.00400113
10.12000000,-0.16367175,0.90304919,-0.23711575,-0.52873176,0.58839470,0.28955773,-0.50392943,0.14771040,-0.77214312,0.15672542,-0.30066494,-0.85215312,0.26649489,0.00400113
10.14000000,-0.16367175,0.90304919,-0.23711575,-0.52873176,0.58839470,0.28955773,-0.50392943,0.14771040,-0.77214312,0.15672542,-0.30066494,-0.85215312,0.26649489,0.00400113
10.16000000,-0.16367175,0.90304919,-0.23711575,-0.52873176,0.58839470,0.28955773,-0.50392943,0.14771040,-0.77214312,0.15672542,-0.30066494,-0.85215312,0.26649489,0.00400113
10.18000000,-0.16367175,0.90304919,-0.23711575,-0.52873176,0.58839470,0.28955773,-0.50392943,0.14771040,-0.77214312,0.15672542,-0.30066494,-0.85215312,0.26649489,0.00400113
10.20000000,-0.16367175,0.90304919,-0.23711575,-0.52873176,0.58839470,0.28955773,-0.50392943,0.14771040,-0.77214312,0.15672542,-0.30066494,-0.85215312,0.26649489,0.00400113
10.22000000,-0.16367175,0.90304919,-0.23711575,-0.52873176,0.58839470,0.28955773,-0.50392943,0.14771040,-0.77214312,0.15672542,-0.30066494,-0.85215312,0.26649489,0.00400113
10.24000000,-0.16367175,0.90304919,-0.23711575,-0.52873176,0.58839470,0.28955773,-0.50392943,0.14771040,-0.77214312,0.15672542,-0.30066494,-0.85215312,0.26649489,0.00400113
10.26000000,-0.16367175,0.90304919,-0.23711575,-0.52873176,0.58839470,0.28955773,-0.50392943,0.14771040,-0.77214312,0.15672542,-0.30066494,-0.85215312,0.26649489,0.00400113
10.28000000,-0.16367175,0.90304919,-0.23711575,-0.52873176,0.58839470,0.28955773,-0.50392943,0.14771040,-0.77214312,0.15672542,-0.30066494,-0.85215312,0.26649489,0.00400113
10.30000000,-0.16367175,0.90304919,-0.23711575,-0.52873176,0.58839470,0.28955773,-0.50392943,0.14771040,-0.77214312,0.15672542,-0.30066494,-0.85215312,0.26649489,0.00400113
10.32000000,-0.16367175,0.90304919,-0.23711575,-0.52873176,0.58839470,0.28955773,-0.50392943,0.14771040,-0.77214312,0.15672542,-0.30066494,-0.85215312,0.26649489,0.00400113
10.34000000,-0.16367175,0.90304919,-0.23711575,-0.52873176,0.58839470,0.28955773,-0.50392943,0.14771040,-0.77214312,0.15672542,-0.30066494,-0.85215312,0.26649489,0.00400113
10.36000000,-0.16367175,0.90304919,-0.23711575,-0.52873176,0.58839470,0.28955773,-0.50392943,0.14771040,-0.77214312,0.15672542,-0.30066494,-0.85215312,0.26649489,0.00400113
10.38000000,-0.16367175,0.90304919,-0.23711575,-0.52873176,0.58839470,0.28955773,-0.50392943,0.14771040,-0.77214312,0.15672542,-0.30066494,-0.85215312,0.26649489,0.00400113
10.40000000,-0.16367175,0.90304919,-0.23711575,-0.52873176,0.58839470,0.28955773,-0.50392943,0.14771040,-0.77214312,0.15672542,-0.30066494,-0.85215312,0.26649489,0.00400113
10.42000000,-0.16367175,0.90304919,-0.23711575,-0.52873176,0.58839470,0.28955773,-0.50392943,0.14771040,-0.77214312,0.15672542,-0.30066494,-0.85215312,0.26649489,0.00400113
10.44000000,-0.16367175,0.90304919,-0.23711575,-0.52873176,0.58839470,0.28955773,-0.50392943,0.14771040,-0.77214312,0.15672542,-0.30066494,-0.85215312,0.26649489,0.00400113
10.46000000,-0.16367175,0.90304919,-0.23711575,-0.52873176,0.58839470,0.28955773,-0.50392943,0.14771040,-0.77214312,0.15672542,-0.30066494,-0.85215312,0.26649489,0.00400113
10.48000000,-0.16367175,0.90304919,-0.23711575,-0.52873176,0.58839470,0.28955773,-0.50392943,0.14771040,-0.77214312,0.15672542,-0.30066494,-0.85215312,0.26649489,0.00400113
10.50000000,-0.16367175,0.90304919,-0.23711575,-0.52873176,0.58839470,0.28955773,-0.50392943,0.14771040,-0.77214312,0.15672542,-0.30066494,-0.85215312,0.26649489,0.00400113
10.52000000,-0.16367175,0.90304919,-0.23711575,-0.52873176,0.58839470,0.28955773,-0.50392943,0.14771040,-0.77214312,0.15672542,-0.30066494,-0.85215312,0.26649489,0.00400113
10.54000000,-0.16367175,0.90304919,-0.23711575,-0.52873176,0.58839470,0.28955773,-0.50392943,0.14771040,-0.77214312,0.15672542,-0.30066494,-0.85215312,0.26649489,0.00400113
10.56000000,-0.16367175,0.90304919,-0.23711575,-0.52873176,0.58839470,0.28955773,-0.50392943,0.14771040,-0.77214312,0.15672542,-0.30066494,-0.85215312,0.26649489,0.00400113
10.58000000,-0.16367175,0.90304919,-0.23711575,-0.52873176,0.58839470,0.28955773,-0.50392943,0.14771040,-0.77214312,0.15672542,-0.30066494,-0.85215312,0.26649489,0.00400113
10.60000000,-0.16367175,0.90304919,-0.23711575,-0.52873176,0.58839470,0.28955773,-0.50392943,0.14771040,-0.77214312,0.15672542,-0.30066494,-0.85215312,0.26649489,0.00400113
10.62000000,-0.16367175,0.90304919,-0.23711575,-0.52873176,0.58839470,0.28955773,-0.50392943,0.14771040,-0.77214312,0.15672542,-0.30066494,-0.85215312,0.26649489,0.00400113
10.64000000,-0.16367175,0.90304919,-0.23711575,-0.52873176,0.58839470,0.28955773,-0.50392943,0.14771040,-0.77214312,0.15672542,-0.30066494,-0.85215312,0.26649489,0.00400113
10.66000000,-0.16367175,0.90304919,-0.23711575,-0.52873176,0.58839470,0.28955773,-0.50392943,0.14771040,-0.77214312,0.15672542,-0.30066494,-0.85215312,0.26649489,0.00400113
10.68000000,-0.16367175,0.90304919,-0.23711575,-0.52873176,0.58839470,0.28955773,-0.50392943,0.14771040,-0.77214312,0.15672542,-0.30066494,-0.85215312,0.26649489,0.00400113
10.70000000,-0.16367175,0.90304919,-0.23711575,-0.52873176,0.58839470,0.28955773,-0.50392943,0.14771040,-0.77214312,0.15672542,-0.30066494,-0.85215312,0.26649489,0.00400113
10.72000000,-0.16367175,0.90304919,-0.23711575,-0.52873176,0.58839470,0.28955773,-0.50392943,0.14771040,-0.77214312,0.15672542,-0.30066494,-0.85215312,0.26649489,0.00400113
10.74000000,-0.16367175,0.90304919,-0.23711575,-0.52873176,0.58839470,0.28955773,-0.50392943,0.14771040,-0.77214312,0.15672542,-0.30066494,-0.85215312,0.26649489,0.00400113
10.76000000,-0.16367175,0.90304919,-0.23711575,-0.52873176,0.58839470,0.28955773,-0.50392943,0.14771040,-0.77214312,0.15672542,-0.30066494,-0.85215312,0.26649489,0.00400113
10.78000000,-0.16367175,0.90304919,-0.23711575,-0.52873176,0.58839470,0.28955773,-0.50392943,0.14771040,-0.77214312,0.15672542,-0.30066494,-0.85215312,0.26649489,0.00400113
10.80000000,-0.16367175,0.90304919,-0.23711575,-0.52873176,0.58839470,0.28955773,-0.50392943,0.14771040,-0.77214312,0.15672542,-0.30066494,-0.85215312,0.26649489,0.00400113
10.82000000,-0.16367175,0.90304919,-0.23711575,-0.52873176,0.58839470,0.28955773,-0.50392943,0.14771040,-0.77214312,0.15672542,-0.30066494,-0.85215312,0.26649489,0.00400113
10.84000000,-0.16367175,0.90304919,-0.23711575,-0.52873176,0.58839470,0.28955773,-0.50392943,0.14771040,-0.77214312,0.15672542,-0.30066494,-0.85215312,0.26649489,0.00400113
10.86000000,-0.16367175,0.90304919,-0.23711575,-0.52873176,0.58839470,0.28955773,-0.50392943,0.14771040,-0.77214312,0.15672542,-0.30066494,-0.85215312,0.26649489,0.00400113
10.88000000,-0.16367175,0.90304919,-0.23711575,-0.52873176,0.58839470,0.28955773,-0.50392943,0.14771040,-0.77214312,0.15672542,-0.30066494,-0.85215312,0.26649489,0.00400113
10.90000000,-0.16367175,0.90304919,-0.23711575,-0.52873176,0.58839470,0.28955773,-0.50392943,0.14771040,-0.77214312,0.15672542,-0.30066494,-0.85215312,0.26649489,0.00400113
10.92000000,-0.16367175,0.90304919,-0.23711575,-0.52873176,0.58839470,0.28955773,-0.50392943,0.14771040,-0.77214312,0.15672542,-0.30066494,-0.85215312,0.26649489,0.00400113
10.94000000,-0.16367175,0.90304919,-0.23711575,-0.52873176,0.58839470,0.28955773,-0.50392943,0.14771040,-0.77214312,0.15672542,-0.30066494,-0.85215312,0.26649489,0.00400113
10.96000000,-0.16367175,0.90304919,-0.23711575,-0.52873176,0.58839470,0.28955773,-0.50392943,0.14771040,-0.77214312,0.15672542,-0.30066494,-0.85215312,0.26649489,0.00400113
10.98000000,-0.16367175,0.90304919,-0.23711575,-0.52873176,0.58839470,0.28955773,-0.50392943,0.14771040,-0.77214312,0.15672542,-0.30066494,-0.85215312,0.26649489,0.00400113
11.00000000,-0.16367175,0.90304919,-0.23711575,-0.52873176,0.58839470,0.28955773,-0.50392943,0.14771040,-0.77214312,0.15672542,-0.30066494,-0.85215312,0.26649489,0.00400113
11.02000000,-0.16367175,0.90304919,-0.23711575,-0.52873176,0.58839470,0.28955773,-0.50392943,0.14771040,-0.77214312,0.15672542,-0.30066494,-0.85215312,0.26649489,0.00400113
11.04000000,-0.16367175,0.90304919,-0.23711575,-0.52873176,0.58839470,0.28955773,-0.50392943,0.14771040,-0.77214312,0.15672542,-0.30066494,-0.85215312,0.26649489,0.00400113
11.06000000,-0.16367175,0.90304919,-0.23711575,-0.52873176,0.58839470,0.28955773,-0.50392943,0.14771040,-0.77214312,0.15672542,-0.30066494,-0.85215312,0.26649489,0.00400113
11.08000000,-0.16367175,0.90304919,-0.23711575,-0.52873176,0.58839470,0.28955773,-0.50392943,0.14771040,-0.77214312,0.15672542,-0.30066494,-0.85215312,0.26649489,0.00400113
11.10000000,-0.16367175,0.90304919,-0.23711575,-0.52873176,0.58839470,0.28955773,-0.50392943,0.14771040,-0.77214312,0.15672542,-0.30066494,-0.85215312,0.26649489,0.00400113
11.12000000,-0.16367175,0.90304919,-0.23711575,-0.52873176,0.58839470,0.28955773,-0.50392943,0.14771040,-0.77214312,0.15672542,-0.30066494,-0.85215312,0.26649489,0.00400113
11.14000000,-0.16367175,0.90304919,-0.23711575,-0.52873176,0.58839470,0.28955773,-0.50392943,0.14771040,-0.77214312,0.15672542,-0.30066494,-0.85215312,0.26649489,0.00400113
11.16000000,-0.16367175,0.90304919,-0.23711575,-0.52873176,0.58839470,0.28955773,-0.50392943,0.14771040,-0.77214312,0.15672542,-0.30066494,-0.85215312,0.26649489,0.00400113
11.18000000,-0.16367175,0.90304919,-0.23711575,-0.52873176,0.58839470,0.28955773,-0.50392943,0.14771040,-0.77214312,0.15672542,-0.30066494,-0.85215312,0.26649489,0.00400113
11.20000000,-0.16367175,0.90304919,-0.23711575,-0.52873176,0.58839470,0.28955773,-0.50392943,0.14771040,-0.77214312,0.15672542,-0.30066494,-0.85215312,0.26649489,0.00400113
11.22000000,-0.16367175,0.90304919,-0.23711575,-0.52873176,0.58839470,0.28955773,-0.50392943,0.14771040,-0.77214312,0.15672542,-0.30066494,-0.85215312,0.26649489,0.00400113
11.24000000,-0.16367175,0.90304919,-0.23711575,-0.52873176,0.58839470,0.28955773,-0.50392943,0.14771040,-0.77214312,0.15672542,-0.30066494,-0.85215312,0.26649489,0.00400113
11.26000000,-0.16367175,0.90304919,-0.23711575,-0.52873176,0.58839470,0.28955773,-0.50392943,0.14771040,-0.77214312,0.15672542,-0.30066494,-0.85215312,0.26649489,0.00400113
11.28000000,-0.16367175,0.90304919,-0.23711575,-0.52873176,0.58839470,0.28955773,-0.50392943,0.14771040,-0.77214312,0.15672542,-0.30066494,-0.85215312,0.26649489,0.00400113
11.30000000,-0.16367175,0.90304919,-0.23711575,-0.52873176,0.58839470,0.28955773,-0.50392943,0.14771040,-0.77214312,0.15672542,-0.30066494,-0.85215312,0.26649489,0.00400113
11.32000000,-0.16367175,0.90304919,-0.23711575,-0.52873176,0.58839470,0.28955773,-0.50392943,0.14771040,-0.77214312,0.15672542,-0.30066494,-0.85215312,0.26649489,0.00400113
11.34000000,-0.16367175,0.90304919,-0.23711575,-0.52873176,0.58839470,0.28955773,-0.50392943,0.14771040,-0.77214312,0.15672542,-0.30066494,-0.85215312,0.26649489,0.00400113
11.36000000,-0.16367175,0.90304919,-0.23711575,-0.52873176,0.58839470,0.28955773,-0.50392943,0.14771040,-0.77214312,0.15672542,-0.30066494,-0.85215312,0.26649489,0.00400113
11.38000000,-0.16367175,0.90304919,-0.23711575,-0.52873176,0.58839470,0.28955773,-0.50392943,0.14771040,-0.77214312,0.15672542,-0.30066494,-0.85215312,0.26649489,0.00400113
11.40000000,-0.16367175,0.90304919,-0.23711575,-0.52873176,0.58839470,0.28955773,-0.50392943,0.14771040,-0.77214312,0.15672542,-0.30066494,-0.85215312,0.26649489,0.00400113
11.42000000,-0.16367175,0.90304919,-0.23711575,-0.52873176,0.58839470,0.28955773,-0.50392943,0.14771040,-0.77214312,0.15672542,-0.30066494,-0.85215312,0.26649489,0.00400113
11.44000000,-0.16367175,0.90304919,-0.23711575,-0.52873176,0.58839470,0.28955773,-0.50392943,0.14771040,-0.77214312,0.15672542,-0.30066494,-0.85215312,0.26649489,0.00400113
11.46000000,-0.16367175,0.90304919,-0.23711575,-0.52873176,0.58839470,0.28955773,-0.50392943,0.14771040,-0.77214312,0.15672542,-0.30066494,-0.85215312,0.26649489,0.00400113
11.48000000,-0.16367175,0.90304919,-0.23711575,-0.52873176,0.58839470,0.28955773,-0.50392943,0.14771040,-0.77214312,0.15672542,-0.30066494,-0.85215312,0.26649489,0.00400113
11.50000000,-0.16367175,0.90304919,-0.23711575,-0.52873176,0.58839470,0.28955773,-0.50392943,0.14771040,-0.77214312,0.15672542,-0.30066494,-0.85215312,0.26649489,0.00400113
11.52000000,-0.16367175,0.90304919,-0.23711575,-0.52873176,0.58839470,0.28955773,-0.50392943,0.14771040,-0.77214312,0.15672542,-0.30066494,-0.85215312,0.26649489,0.00400113
11.54000000,-0.16367175,0.90304919,-0.23711575,-0.52873176,0.58839470,0.28955773,-0.50392943,0.14771040,-0.77214312,0.15672542,-0.30066494,-0.85215312,0.26649489,0.00400113
11.56000000,-0.16367175,0.90304919,-0.23711575,-0.52873176,0.58839470,0.28955773,-0.50392943,0.14771040,-0.77214312,0.15672542,-0.30066494,-0.85215312,0.26649489,0.00400113
