gracetata/LocomotionHEC/legged_lab/Reference Data/ArmHack/StandPerturb/TestData/ArmOnly/poses/randomized/randomized_arm_pose_02_seed20260715_hold20s_50hz.csv
time_s,left_shoulder_pitch_joint,left_shoulder_roll_joint,left_shoulder_yaw_joint,left_elbow_joint,left_wrist_roll_joint,left_wrist_pitch_joint,left_wrist_yaw_joint,right_shoulder_pitch_joint,right_shoulder_roll_joint,right_shoulder_yaw_joint,right_elbow_joint,right_wrist_roll_joint,right_wrist_pitch_joint,right_wrist_yaw_joint
0.00000000,-0.03719396,1.04505346,-0.01541629,-0.89152589,0.68955197,0.72818320,-0.93562983,0.27904459,-0.77801805,0.22980795,-0.47602500,-0.84803795,0.40052603,-0.04662413
0.02000000,-0.03719396,1.04505346,-0.01541629,-0.89152589,0.68955197,0.72818320,-0.93562983,0.27904459,-0.77801805,0.22980795,-0.47602500,-0.84803795,0.40052603,-0.04662413
0.04000000,-0.03719396,1.04505346,-0.01541629,-0.89152589,0.68955197,0.72818320,-0.93562983,0.27904459,-0.77801805,0.22980795,-0.47602500,-0.84803795,0.40052603,-0.04662413
0.06000000,-0.03719396,1.04505346,-0.01541629,-0.89152589,0.68955197,0.72818320,-0.93562983,0.27904459,-0.77801805,0.22980795,-0.47602500,-0.84803795,0.40052603,-0.04662413
0.08000000,-0.03719396,1.04505346,-0.01541629,-0.89152589,0.68955197,0.72818320,-0.93562983,0.27904459,-0.77801805,0.22980795,-0.47602500,-0.84803795,0.40052603,-0.04662413
0.10000000,-0.03719396,1.04505346,-0.01541629,-0.89152589,0.68955197,0.72818320,-0.93562983,0.27904459,-0.77801805,0.22980795,-0.47602500,-0.84803795,0.40052603,-0.04662413
0.12000000,-0.03719396,1.04505346,-0.01541629,-0.89152589,0.68955197,0.72818320,-0.93562983,0.27904459,-0.77801805,0.22980795,-0.47602500,-0.84803795,0.40052603,-0.04662413
0.14000000,-0.03719396,1.04505346,-0.01541629,-0.89152589,0.68955197,0.72818320,-0.93562983,0.27904459,-0.77801805,0.22980795,-0.47602500,-0.84803795,0.40052603,-0.04662413
0.16000000,-0.03719396,1.04505346,-0.01541629,-0.89152589,0.68955197,0.72818320,-0.93562983,0.27904459,-0.77801805,0.22980795,-0.47602500,-0.84803795,0.40052603,-0.04662413
0.18000000,-0.03719396,1.04505346,-0.01541629,-0.89152589,0.68955197,0.72818320,-0.93562983,0.27904459,-0.77801805,0.22980795,-0.47602500,-0.84803795,0.40052603,-0.04662413
0.20000000,-0.03719396,1.04505346,-0.01541629,-0.89152589,0.68955197,0.72818320,-0.93562983,0.27904459,-0.77801805,0.22980795,-0.47602500,-0.84803795,0.40052603,-0.04662413
0.22000000,-0.03719396,1.04505346,-0.01541629,-0.89152589,0.68955197,0.72818320,-0.93562983,0.27904459,-0.77801805,0.22980795,-0.47602500,-0.84803795,0.40052603,-0.04662413
0.24000000,-0.03719396,1.04505346,-0.01541629,-0.89152589,0.68955197,0.72818320,-0.93562983,0.27904459,-0.77801805,0.22980795,-0.47602500,-0.84803795,0.40052603,-0.04662413
0.26000000,-0.03719396,1.04505346,-0.01541629,-0.89152589,0.68955197,0.72818320,-0.93562983,0.27904459,-0.77801805,0.22980795,-0.47602500,-0.84803795,0.40052603,-0.04662413
0.28000000,-0.03719396,1.04505346,-0.01541629,-0.89152589,0.68955197,0.72818320,-0.93562983,0.27904459,-0.77801805,0.22980795,-0.47602500,-0.84803795,0.40052603,-0.04662413
0.30000000,-0.03719396,1.04505346,-0.01541629,-0.89152589,0.68955197,0.72818320,-0.93562983,0.27904459,-0.77801805,0.22980795,-0.47602500,-0.84803795,0.40052603,-0.04662413
0.32000000,-0.03719396,1.04505346,-0.01541629,-0.89152589,0.68955197,0.72818320,-0.93562983,0.27904459,-0.77801805,0.22980795,-0.47602500,-0.84803795,0.40052603,-0.04662413
0.34000000,-0.03719396,1.04505346,-0.01541629,-0.89152589,0.68955197,0.72818320,-0.93562983,0.27904459,-0.77801805,0.22980795,-0.47602500,-0.84803795,0.40052603,-0.04662413
0.36000000,-0.03719396,1.04505346,-0.01541629,-0.89152589,0.68955197,0.72818320,-0.93562983,0.27904459,-0.77801805,0.22980795,-0.47602500,-0.84803795,0.40052603,-0.04662413
0.38000000,-0.03719396,1.04505346,-0.01541629,-0.89152589,0.68955197,0.72818320,-0.93562983,0.27904459,-0.77801805,0.22980795,-0.47602500,-0.84803795,0.40052603,-0.04662413
0.40000000,-0.03719396,1.04505346,-0.01541629,-0.89152589,0.68955197,0.72818320,-0.93562983,0.27904459,-0.77801805,0.22980795,-0.47602500,-0.84803795,0.40052603,-0.04662413
0.42000000,-0.03719396,1.04505346,-0.01541629,-0.89152589,0.68955197,0.72818320,-0.93562983,0.27904459,-0.77801805,0.22980795,-0.47602500,-0.84803795,0.40052603,-0.04662413
0.44000000,-0.03719396,1.04505346,-0.01541629,-0.89152589,0.68955197,0.72818320,-0.93562983,0.27904459,-0.77801805,0.22980795,-0.47602500,-0.84803795,0.40052603,-0.04662413
0.46000000,-0.03719396,1.04505346,-0.01541629,-0.89152589,0.68955197,0.72818320,-0.93562983,0.27904459,-0.77801805,0.22980795,-0.47602500,-0.84803795,0.40052603,-0.04662413
0.48000000,-0.03719396,1.04505346,-0.01541629,-0.89152589,0.68955197,0.72818320,-0.93562983,0.27904459,-0.77801805,0.22980795,-0.47602500,-0.84803795,0.40052603,-0.04662413
0.50000000,-0.03719396,1.04505346,-0.01541629,-0.89152589,0.68955197,0.72818320,-0.93562983,0.27904459,-0.77801805,0.22980795,-0.47602500,-0.84803795,0.40052603,-0.04662413
0.52000000,-0.03719396,1.04505346,-0.01541629,-0.89152589,0.68955197,0.72818320,-0.93562983,0.27904459,-0.77801805,0.22980795,-0.47602500,-0.84803795,0.40052603,-0.04662413
0.54000000,-0.03719396,1.04505346,-0.01541629,-0.89152589,0.68955197,0.72818320,-0.93562983,0.27904459,-0.77801805,0.22980795,-0.47602500,-0.84803795,0.40052603,-0.04662413
0.56000000,-0.03719396,1.04505346,-0.01541629,-0.89152589,0.68955197,0.72818320,-0.93562983,0.27904459,-0.77801805,0.22980795,-0.47602500,-0.84803795,0.40052603,-0.04662413
0.58000000,-0.03719396,1.04505346,-0.01541629,-0.89152589,0.68955197,0.72818320,-0.93562983,0.27904459,-0.77801805,0.22980795,-0.47602500,-0.84803795,0.40052603,-0.04662413
0.60000000,-0.03719396,1.04505346,-0.01541629,-0.89152589,0.68955197,0.72818320,-0.93562983,0.27904459,-0.77801805,0.22980795,-0.47602500,-0.84803795,0.40052603,-0.04662413
0.62000000,-0.03719396,1.04505346,-0.01541629,-0.89152589,0.68955197,0.72818320,-0.93562983,0.27904459,-0.77801805,0.22980795,-0.47602500,-0.84803795,0.40052603,-0.04662413
0.64000000,-0.03719396,1.04505346,-0.01541629,-0.89152589,0.68955197,0.72818320,-0.93562983,0.27904459,-0.77801805,0.22980795,-0.47602500,-0.84803795,0.40052603,-0.04662413
0.66000000,-0.03719396,1.04505346,-0.01541629,-0.89152589,0.68955197,0.72818320,-0.93562983,0.27904459,-0.77801805,0.22980795,-0.47602500,-0.84803795,0.40052603,-0.04662413
0.68000000,-0.03719396,1.04505346,-0.01541629,-0.89152589,0.68955197,0.72818320,-0.93562983,0.27904459,-0.77801805,0.22980795,-0.47602500,-0.84803795,0.40052603,-0.04662413
0.70000000,-0.03719396,1.04505346,-0.01541629,-0.89152589,0.68955197,0.72818320,-0.93562983,0.27904459,-0.77801805,0.22980795,-0.47602500,-0.84803795,0.40052603,-0.04662413
0.72000000,-0.03719396,1.04505346,-0.01541629,-0.89152589,0.68955197,0.72818320,-0.93562983,0.27904459,-0.77801805,0.22980795,-0.47602500,-0.84803795,0.40052603,-0.04662413
0.74000000,-0.03719396,1.04505346,-0.01541629,-0.89152589,0.68955197,0.72818320,-0.93562983,0.27904459,-0.77801805,0.22980795,-0.47602500,-0.84803795,0.40052603,-0.04662413
0.76000000,-0.03719396,1.04505346,-0.01541629,-0.89152589,0.68955197,0.72818320,-0.93562983,0.27904459,-0.77801805,0.22980795,-0.47602500,-0.84803795,0.40052603,-0.04662413
0.78000000,-0.03719396,1.04505346,-0.01541629,-0.89152589,0.68955197,0.72818320,-0.93562983,0.27904459,-0.77801805,0.22980795,-0.47602500,-0.84803795,0.40052603,-0.04662413
0.80000000,-0.03719396,1.04505346,-0.01541629,-0.89152589,0.68955197,0.72818320,-0.93562983,0.27904459,-0.77801805,0.22980795,-0.47602500,-0.84803795,0.40052603,-0.04662413
0.82000000,-0.03719396,1.04505346,-0.01541629,-0.89152589,0.68955197,0.72818320,-0.93562983,0.27904459,-0.77801805,0.22980795,-0.47602500,-0.84803795,0.40052603,-0.04662413
0.84000000,-0.03719396,1.04505346,-0.01541629,-0.89152589,0.68955197,0.72818320,-0.93562983,0.27904459,-0.77801805,0.22980795,-0.47602500,-0.84803795,0.40052603,-0.04662413
0.86000000,-0.03719396,1.04505346,-0.01541629,-0.89152589,0.68955197,0.72818320,-0.93562983,0.27904459,-0.77801805,0.22980795,-0.47602500,-0.84803795,0.40052603,-0.04662413
0.88000000,-0.03719396,1.04505346,-0.01541629,-0.89152589,0.68955197,0.72818320,-0.93562983,0.27904459,-0.77801805,0.22980795,-0.47602500,-0.84803795,0.40052603,-0.04662413
0.90000000,-0.03719396,1.04505346,-0.01541629,-0.89152589,0.68955197,0.72818320,-0.93562983,0.27904459,-0.77801805,0.22980795,-0.47602500,-0.84803795,0.40052603,-0.04662413
0.92000000,-0.03719396,1.04505346,-0.01541629,-0.89152589,0.68955197,0.72818320,-0.93562983,0.27904459,-0.77801805,0.22980795,-0.47602500,-0.84803795,0.40052603,-0.04662413
0.94000000,-0.03719396,1.04505346,-0.01541629,-0.89152589,0.68955197,0.72818320,-0.93562983,0.27904459,-0.77801805,0.22980795,-0.47602500,-0.84803795,0.40052603,-0.04662413
0.96000000,-0.03719396,1.04505346,-0.01541629,-0.89152589,0.68955197,0.72818320,-0.93562983,0.27904459,-0.77801805,0.22980795,-0.47602500,-0.84803795,0.40052603,-0.04662413
0.98000000,-0.03719396,1.04505346,-0.01541629,-0.89152589,0.68955197,0.72818320,-0.93562983,0.27904459,-0.77801805,0.22980795,-0.47602500,-0.84803795,0.40052603,-0.04662413
1.00000000,-0.03719396,1.04505346,-0.01541629,-0.89152589,0.68955197,0.72818320,-0.93562983,0.27904459,-0.77801805,0.22980795,-0.47602500,-0.84803795,0.40052603,-0.04662413
1.02000000,-0.03719396,1.04505346,-0.01541629,-0.89152589,0.68955197,0.72818320,-0.93562983,0.27904459,-0.77801805,0.22980795,-0.47602500,-0.84803795,0.40052603,-0.04662413
1.04000000,-0.03719396,1.04505346,-0.01541629,-0.89152589,0.68955197,0.72818320,-0.93562983,0.27904459,-0.77801805,0.22980795,-0.47602500,-0.84803795,0.40052603,-0.04662413
1.06000000,-0.03719396,1.04505346,-0.01541629,-0.89152589,0.68955197,0.72818320,-0.93562983,0.27904459,-0.77801805,0.22980795,-0.47602500,-0.84803795,0.40052603,-0.04662413
1.08000000,-0.03719396,1.04505346,-0.01541629,-0.89152589,0.68955197,0.72818320,-0.93562983,0.27904459,-0.77801805,0.22980795,-0.47602500,-0.84803795,0.40052603,-0.04662413
1.10000000,-0.03719396,1.04505346,-0.01541629,-0.89152589,0.68955197,0.72818320,-0.93562983,0.27904459,-0.77801805,0.22980795,-0.47602500,-0.84803795,0.40052603,-0.04662413
1.12000000,-0.03719396,1.04505346,-0.01541629,-0.89152589,0.68955197,0.72818320,-0.93562983,0.27904459,-0.77801805,0.22980795,-0.47602500,-0.84803795,0.40052603,-0.04662413
1.14000000,-0.03719396,1.04505346,-0.01541629,-0.89152589,0.68955197,0.72818320,-0.93562983,0.27904459,-0.77801805,0.22980795,-0.47602500,-0.84803795,0.40052603,-0.04662413
1.16000000,-0.03719396,1.04505346,-0.01541629,-0.89152589,0.68955197,0.72818320,-0.93562983,0.27904459,-0.77801805,0.22980795,-0.47602500,-0.84803795,0.40052603,-0.04662413
1.18000000,-0.03719396,1.04505346,-0.01541629,-0.89152589,0.68955197,0.72818320,-0.93562983,0.27904459,-0.77801805,0.22980795,-0.47602500,-0.84803795,0.40052603,-0.04662413
1.20000000,-0.03719396,1.04505346,-0.01541629,-0.89152589,0.68955197,0.72818320,-0.93562983,0.27904459,-0.77801805,0.22980795,-0.47602500,-0.84803795,0.40052603,-0.04662413
1.22000000,-0.03719396,1.04505346,-0.01541629,-0.89152589,0.68955197,0.72818320,-0.93562983,0.27904459,-0.77801805,0.22980795,-0.47602500,-0.84803795,0.40052603,-0.04662413
1.24000000,-0.03719396,1.04505346,-0.01541629,-0.89152589,0.68955197,0.72818320,-0.93562983,0.27904459,-0.77801805,0.22980795,-0.47602500,-0.84803795,0.40052603,-0.04662413
1.26000000,-0.03719396,1.04505346,-0.01541629,-0.89152589,0.68955197,0.72818320,-0.93562983,0.27904459,-0.77801805,0.22980795,-0.47602500,-0.84803795,0.40052603,-0.04662413
1.28000000,-0.03719396,1.04505346,-0.01541629,-0.89152589,0.68955197,0.72818320,-0.93562983,0.27904459,-0.77801805,0.22980795,-0.47602500,-0.84803795,0.40052603,-0.04662413
1.30000000,-0.03719396,1.04505346,-0.01541629,-0.89152589,0.68955197,0.72818320,-0.93562983,0.27904459,-0.77801805,0.22980795,-0.47602500,-0.84803795,0.40052603,-0.04662413
1.32000000,-0.03719396,1.04505346,-0.01541629,-0.89152589,0.68955197,0.72818320,-0.93562983,0.27904459,-0.77801805,0.22980795,-0.47602500,-0.84803795,0.40052603,-0.04662413
1.34000000,-0.03719396,1.04505346,-0.01541629,-0.89152589,0.68955197,0.72818320,-0.93562983,0.27904459,-0.77801805,0.22980795,-0.47602500,-0.84803795,0.40052603,-0.04662413
1.36000000,-0.03719396,1.04505346,-0.01541629,-0.89152589,0.68955197,0.72818320,-0.93562983,0.27904459,-0.77801805,0.22980795,-0.47602500,-0.84803795,0.40052603,-0.04662413
1.38000000,-0.03719396,1.04505346,-0.01541629,-0.89152589,0.68955197,0.72818320,-0.93562983,0.27904459,-0.77801805,0.22980795,-0.47602500,-0.84803795,0.40052603,-0.04662413
1.40000000,-0.03719396,1.04505346,-0.01541629,-0.89152589,0.68955197,0.72818320,-0.93562983,0.27904459,-0.77801805,0.22980795,-0.47602500,-0.84803795,0.40052603,-0.04662413
1.42000000,-0.03719396,1.04505346,-0.01541629,-0.89152589,0.68955197,0.72818320,-0.93562983,0.27904459,-0.77801805,0.22980795,-0.47602500,-0.84803795,0.40052603,-0.04662413
1.44000000,-0.03719396,1.04505346,-0.01541629,-0.89152589,0.68955197,0.72818320,-0.93562983,0.27904459,-0.77801805,0.22980795,-0.47602500,-0.84803795,0.40052603,-0.04662413
1.46000000,-0.03719396,1.04505346,-0.01541629,-0.89152589,0.68955197,0.72818320,-0.93562983,0.27904459,-0.77801805,0.22980795,-0.47602500,-0.84803795,0.40052603,-0.04662413
1.48000000,-0.03719396,1.04505346,-0.01541629,-0.89152589,0.68955197,0.72818320,-0.93562983,0.27904459,-0.77801805,0.22980795,-0.47602500,-0.84803795,0.40052603,-0.04662413
1.50000000,-0.03719396,1.04505346,-0.01541629,-0.89152589,0.68955197,0.72818320,-0.93562983,0.27904459,-0.77801805,0.22980795,-0.47602500,-0.84803795,0.40052603,-0.04662413
1.52000000,-0.03719396,1.04505346,-0.01541629,-0.89152589,0.68955197,0.72818320,-0.93562983,0.27904459,-0.77801805,0.22980795,-0.47602500,-0.84803795,0.40052603,-0.04662413
1.54000000,-0.03719396,1.04505346,-0.01541629,-0.89152589,0.68955197,0.72818320,-0.93562983,0.27904459,-0.77801805,0.22980795,-0.47602500,-0.84803795,0.40052603,-0.04662413
1.56000000,-0.03719396,1.04505346,-0.01541629,-0.89152589,0.68955197,0.72818320,-0.93562983,0.27904459,-0.77801805,0.22980795,-0.47602500,-0.84803795,0.40052603,-0.04662413
1.58000000,-0.03719396,1.04505346,-0.01541629,-0.89152589,0.68955197,0.72818320,-0.93562983,0.27904459,-0.77801805,0.22980795,-0.47602500,-0.84803795,0.40052603,-0.04662413
1.60000000,-0.03719396,1.04505346,-0.01541629,-0.89152589,0.68955197,0.72818320,-0.93562983,0.27904459,-0.77801805,0.22980795,-0.47602500,-0.84803795,0.40052603,-0.04662413
1.62000000,-0.03719396,1.04505346,-0.01541629,-0.89152589,0.68955197,0.72818320,-0.93562983,0.27904459,-0.77801805,0.22980795,-0.47602500,-0.84803795,0.40052603,-0.04662413
1.64000000,-0.03719396,1.04505346,-0.01541629,-0.89152589,0.68955197,0.72818320,-0.93562983,0.27904459,-0.77801805,0.22980795,-0.47602500,-0.84803795,0.40052603,-0.04662413
1.66000000,-0.03719396,1.04505346,-0.01541629,-0.89152589,0.68955197,0.72818320,-0.93562983,0.27904459,-0.77801805,0.22980795,-0.47602500,-0.84803795,0.40052603,-0.04662413
1.68000000,-0.03719396,1.04505346,-0.01541629,-0.89152589,0.68955197,0.72818320,-0.93562983,0.27904459,-0.77801805,0.22980795,-0.47602500,-0.84803795,0.40052603,-0.04662413
1.70000000,-0.03719396,1.04505346,-0.01541629,-0.89152589,0.68955197,0.72818320,-0.93562983,0.27904459,-0.77801805,0.22980795,-0.47602500,-0.84803795,0.40052603,-0.04662413
1.72000000,-0.03719396,1.04505346,-0.01541629,-0.89152589,0.68955197,0.72818320,-0.93562983,0.27904459,-0.77801805,0.22980795,-0.47602500,-0.84803795,0.40052603,-0.04662413
1.74000000,-0.03719396,1.04505346,-0.01541629,-0.89152589,0.68955197,0.72818320,-0.93562983,0.27904459,-0.77801805,0.22980795,-0.47602500,-0.84803795,0.40052603,-0.04662413
1.76000000,-0.03719396,1.04505346,-0.01541629,-0.89152589,0.68955197,0.72818320,-0.93562983,0.27904459,-0.77801805,0.22980795,-0.47602500,-0.84803795,0.40052603,-0.04662413
1.78000000,-0.03719396,1.04505346,-0.01541629,-0.89152589,0.68955197,0.72818320,-0.93562983,0.27904459,-0.77801805,0.22980795,-0.47602500,-0.84803795,0.40052603,-0.04662413
1.80000000,-0.03719396,1.04505346,-0.01541629,-0.89152589,0.68955197,0.72818320,-0.93562983,0.27904459,-0.77801805,0.22980795,-0.47602500,-0.84803795,0.40052603,-0.04662413
1.82000000,-0.03719396,1.04505346,-0.01541629,-0.89152589,0.68955197,0.72818320,-0.93562983,0.27904459,-0.77801805,0.22980795,-0.47602500,-0.84803795,0.40052603,-0.04662413
1.84000000,-0.03719396,1.04505346,-0.01541629,-0.89152589,0.68955197,0.72818320,-0.93562983,0.27904459,-0.77801805,0.22980795,-0.47602500,-0.84803795,0.40052603,-0.04662413
1.86000000,-0.03719396,1.04505346,-0.01541629,-0.89152589,0.68955197,0.72818320,-0.93562983,0.27904459,-0.77801805,0.22980795,-0.47602500,-0.84803795,0.40052603,-0.04662413
1.88000000,-0.03719396,1.04505346,-0.01541629,-0.89152589,0.68955197,0.72818320,-0.93562983,0.27904459,-0.77801805,0.22980795,-0.47602500,-0.84803795,0.40052603,-0.04662413
1.90000000,-0.03719396,1.04505346,-0.01541629,-0.89152589,0.68955197,0.72818320,-0.93562983,0.27904459,-0.77801805,0.22980795,-0.47602500,-0.84803795,0.40052603,-0.04662413
1.92000000,-0.03719396,1.04505346,-0.01541629,-0.89152589,0.68955197,0.72818320,-0.93562983,0.27904459,-0.77801805,0.22980795,-0.47602500,-0.84803795,0.40052603,-0.04662413
1.94000000,-0.03719396,1.04505346,-0.01541629,-0.89152589,0.68955197,0.72818320,-0.93562983,0.27904459,-0.77801805,0.22980795,-0.47602500,-0.84803795,0.40052603,-0.04662413
1.96000000,-0.03719396,1.04505346,-0.01541629,-0.89152589,0.68955197,0.72818320,-0.93562983,0.27904459,-0.77801805,0.22980795,-0.47602500,-0.84803795,0.40052603,-0.04662413
1.98000000,-0.03719396,1.04505346,-0.01541629,-0.89152589,0.68955197,0.72818320,-0.93562983,0.27904459,-0.77801805,0.22980795,-0.47602500,-0.84803795,0.40052603,-0.04662413
2.00000000,-0.03719396,1.04505346,-0.01541629,-0.89152589,0.68955197,0.72818320,-0.93562983,0.27904459,-0.77801805,0.22980795,-0.47602500,-0.84803795,0.40052603,-0.04662413
2.02000000,-0.03719396,1.04505346,-0.01541629,-0.89152589,0.68955197,0.72818320,-0.93562983,0.27904459,-0.77801805,0.22980795,-0.47602500,-0.84803795,0.40052603,-0.04662413
2.04000000,-0.03719396,1.04505346,-0.01541629,-0.89152589,0.68955197,0.72818320,-0.93562983,0.27904459,-0.77801805,0.22980795,-0.47602500,-0.84803795,0.40052603,-0.04662413
2.06000000,-0.03719396,1.04505346,-0.01541629,-0.89152589,0.68955197,0.72818320,-0.93562983,0.27904459,-0.77801805,0.22980795,-0.47602500,-0.84803795,0.40052603,-0.04662413
2.08000000,-0.03719396,1.04505346,-0.01541629,-0.89152589,0.68955197,0.72818320,-0.93562983,0.27904459,-0.77801805,0.22980795,-0.47602500,-0.84803795,0.40052603,-0.04662413
2.10000000,-0.03719396,1.04505346,-0.01541629,-0.89152589,0.68955197,0.72818320,-0.93562983,0.27904459,-0.77801805,0.22980795,-0.47602500,-0.84803795,0.40052603,-0.04662413
2.12000000,-0.03719396,1.04505346,-0.01541629,-0.89152589,0.68955197,0.72818320,-0.93562983,0.27904459,-0.77801805,0.22980795,-0.47602500,-0.84803795,0.40052603,-0.04662413
2.14000000,-0.03719396,1.04505346,-0.01541629,-0.89152589,0.68955197,0.72818320,-0.93562983,0.27904459,-0.77801805,0.22980795,-0.47602500,-0.84803795,0.40052603,-0.04662413
2.16000000,-0.03719396,1.04505346,-0.01541629,-0.89152589,0.68955197,0.72818320,-0.93562983,0.27904459,-0.77801805,0.22980795,-0.47602500,-0.84803795,0.40052603,-0.04662413
2.18000000,-0.03719396,1.04505346,-0.01541629,-0.89152589,0.68955197,0.72818320,-0.93562983,0.27904459,-0.77801805,0.22980795,-0.47602500,-0.84803795,0.40052603,-0.04662413
2.20000000,-0.03719396,1.04505346,-0.01541629,-0.89152589,0.68955197,0.72818320,-0.93562983,0.27904459,-0.77801805,0.22980795,-0.47602500,-0.84803795,0.40052603,-0.04662413
2.22000000,-0.03719396,1.04505346,-0.01541629,-0.89152589,0.68955197,0.72818320,-0.93562983,0.27904459,-0.77801805,0.22980795,-0.47602500,-0.84803795,0.40052603,-0.04662413
2.24000000,-0.03719396,1.04505346,-0.01541629,-0.89152589,0.68955197,0.72818320,-0.93562983,0.27904459,-0.77801805,0.22980795,-0.47602500,-0.84803795,0.40052603,-0.04662413
2.26000000,-0.03719396,1.04505346,-0.01541629,-0.89152589,0.68955197,0.72818320,-0.93562983,0.27904459,-0.77801805,0.22980795,-0.47602500,-0.84803795,0.40052603,-0.04662413
2.28000000,-0.03719396,1.04505346,-0.01541629,-0.89152589,0.68955197,0.72818320,-0.93562983,0.27904459,-0.77801805,0.22980795,-0.47602500,-0.84803795,0.40052603,-0.04662413
2.30000000,-0.03719396,1.04505346,-0.01541629,-0.89152589,0.68955197,0.72818320,-0.93562983,0.27904459,-0.77801805,0.22980795,-0.47602500,-0.84803795,0.40052603,-0.04662413
2.32000000,-0.03719396,1.04505346,-0.01541629,-0.89152589,0.68955197,0.72818320,-0.93562983,0.27904459,-0.77801805,0.22980795,-0.47602500,-0.84803795,0.40052603,-0.04662413
2.34000000,-0.03719396,1.04505346,-0.01541629,-0.89152589,0.68955197,0.72818320,-0.93562983,0.27904459,-0.77801805,0.22980795,-0.47602500,-0.84803795,0.40052603,-0.04662413
2.36000000,-0.03719396,1.04505346,-0.01541629,-0.89152589,0.68955197,0.72818320,-0.93562983,0.27904459,-0.77801805,0.22980795,-0.47602500,-0.84803795,0.40052603,-0.04662413
2.38000000,-0.03719396,1.04505346,-0.01541629,-0.89152589,0.68955197,0.72818320,-0.93562983,0.27904459,-0.77801805,0.22980795,-0.47602500,-0.84803795,0.40052603,-0.04662413
2.40000000,-0.03719396,1.04505346,-0.01541629,-0.89152589,0.68955197,0.72818320,-0.93562983,0.27904459,-0.77801805,0.22980795,-0.47602500,-0.84803795,0.40052603,-0.04662413
2.42000000,-0.03719396,1.04505346,-0.01541629,-0.89152589,0.68955197,0.72818320,-0.93562983,0.27904459,-0.77801805,0.22980795,-0.47602500,-0.84803795,0.40052603,-0.04662413
2.44000000,-0.03719396,1.04505346,-0.01541629,-0.89152589,0.68955197,0.72818320,-0.93562983,0.27904459,-0.77801805,0.22980795,-0.47602500,-0.84803795,0.40052603,-0.04662413
2.46000000,-0.03719396,1.04505346,-0.01541629,-0.89152589,0.68955197,0.72818320,-0.93562983,0.27904459,-0.77801805,0.22980795,-0.47602500,-0.84803795,0.40052603,-0.04662413
2.48000000,-0.03719396,1.04505346,-0.01541629,-0.89152589,0.68955197,0.72818320,-0.93562983,0.27904459,-0.77801805,0.22980795,-0.47602500,-0.84803795,0.40052603,-0.04662413
2.50000000,-0.03719396,1.04505346,-0.01541629,-0.89152589,0.68955197,0.72818320,-0.93562983,0.27904459,-0.77801805,0.22980795,-0.47602500,-0.84803795,0.40052603,-0.04662413
2.52000000,-0.03719396,1.04505346,-0.01541629,-0.89152589,0.68955197,0.72818320,-0.93562983,0.27904459,-0.77801805,0.22980795,-0.47602500,-0.84803795,0.40052603,-0.04662413
2.54000000,-0.03719396,1.04505346,-0.01541629,-0.89152589,0.68955197,0.72818320,-0.93562983,0.27904459,-0.77801805,0.22980795,-0.47602500,-0.84803795,0.40052603,-0.04662413
2.56000000,-0.03719396,1.04505346,-0.01541629,-0.89152589,0.68955197,0.72818320,-0.93562983,0.27904459,-0.77801805,0.22980795,-0.47602500,-0.84803795,0.40052603,-0.04662413
2.58000000,-0.03719396,1.04505346,-0.01541629,-0.89152589,0.68955197,0.72818320,-0.93562983,0.27904459,-0.77801805,0.22980795,-0.47602500,-0.84803795,0.40052603,-0.04662413
2.60000000,-0.03719396,1.04505346,-0.01541629,-0.89152589,0.68955197,0.72818320,-0.93562983,0.27904459,-0.77801805,0.22980795,-0.47602500,-0.84803795,0.40052603,-0.04662413
2.62000000,-0.03719396,1.04505346,-0.01541629,-0.89152589,0.68955197,0.72818320,-0.93562983,0.27904459,-0.77801805,0.22980795,-0.47602500,-0.84803795,0.40052603,-0.04662413
2.64000000,-0.03719396,1.04505346,-0.01541629,-0.89152589,0.68955197,0.72818320,-0.93562983,0.27904459,-0.77801805,0.22980795,-0.47602500,-0.84803795,0.40052603,-0.04662413
2.66000000,-0.03719396,1.04505346,-0.01541629,-0.89152589,0.68955197,0.72818320,-0.93562983,0.27904459,-0.77801805,0.22980795,-0.47602500,-0.84803795,0.40052603,-0.04662413
2.68000000,-0.03719396,1.04505346,-0.01541629,-0.89152589,0.68955197,0.72818320,-0.93562983,0.27904459,-0.77801805,0.22980795,-0.47602500,-0.84803795,0.40052603,-0.04662413
2.70000000,-0.03719396,1.04505346,-0.01541629,-0.89152589,0.68955197,0.72818320,-0.93562983,0.27904459,-0.77801805,0.22980795,-0.47602500,-0.84803795,0.40052603,-0.04662413
2.72000000,-0.03719396,1.04505346,-0.01541629,-0.89152589,0.68955197,0.72818320,-0.93562983,0.27904459,-0.77801805,0.22980795,-0.47602500,-0.84803795,0.40052603,-0.04662413
2.74000000,-0.03719396,1.04505346,-0.01541629,-0.89152589,0.68955197,0.72818320,-0.93562983,0.27904459,-0.77801805,0.22980795,-0.47602500,-0.84803795,0.40052603,-0.04662413
2.76000000,-0.03719396,1.04505346,-0.01541629,-0.89152589,0.68955197,0.72818320,-0.93562983,0.27904459,-0.77801805,0.22980795,-0.47602500,-0.84803795,0.40052603,-0.04662413
2.78000000,-0.03719396,1.04505346,-0.01541629,-0.89152589,0.68955197,0.72818320,-0.93562983,0.27904459,-0.77801805,0.22980795,-0.47602500,-0.84803795,0.40052603,-0.04662413
2.80000000,-0.03719396,1.04505346,-0.01541629,-0.89152589,0.68955197,0.72818320,-0.93562983,0.27904459,-0.77801805,0.22980795,-0.47602500,-0.84803795,0.40052603,-0.04662413
2.82000000,-0.03719396,1.04505346,-0.01541629,-0.89152589,0.68955197,0.72818320,-0.93562983,0.27904459,-0.77801805,0.22980795,-0.47602500,-0.84803795,0.40052603,-0.04662413
2.84000000,-0.03719396,1.04505346,-0.01541629,-0.89152589,0.68955197,0.72818320,-0.93562983,0.27904459,-0.77801805,0.22980795,-0.47602500,-0.84803795,0.40052603,-0.04662413
2.86000000,-0.03719396,1.04505346,-0.01541629,-0.89152589,0.68955197,0.72818320,-0.93562983,0.27904459,-0.77801805,0.22980795,-0.47602500,-0.84803795,0.40052603,-0.04662413
2.88000000,-0.03719396,1.04505346,-0.01541629,-0.89152589,0.68955197,0.72818320,-0.93562983,0.27904459,-0.77801805,0.22980795,-0.47602500,-0.84803795,0.40052603,-0.04662413
2.90000000,-0.03719396,1.04505346,-0.01541629,-0.89152589,0.68955197,0.72818320,-0.93562983,0.27904459,-0.77801805,0.22980795,-0.47602500,-0.84803795,0.40052603,-0.04662413
2.92000000,-0.03719396,1.04505346,-0.01541629,-0.89152589,0.68955197,0.72818320,-0.93562983,0.27904459,-0.77801805,0.22980795,-0.47602500,-0.84803795,0.40052603,-0.04662413
2.94000000,-0.03719396,1.04505346,-0.01541629,-0.89152589,0.68955197,0.72818320,-0.93562983,0.27904459,-0.77801805,0.22980795,-0.47602500,-0.84803795,0.40052603,-0.04662413
2.96000000,-0.03719396,1.04505346,-0.01541629,-0.89152589,0.68955197,0.72818320,-0.93562983,0.27904459,-0.77801805,0.22980795,-0.47602500,-0.84803795,0.40052603,-0.04662413
2.98000000,-0.03719396,1.04505346,-0.01541629,-0.89152589,0.68955197,0.72818320,-0.93562983,0.27904459,-0.77801805,0.22980795,-0.47602500,-0.84803795,0.40052603,-0.04662413
3.00000000,-0.03719396,1.04505346,-0.01541629,-0.89152589,0.68955197,0.72818320,-0.93562983,0.27904459,-0.77801805,0.22980795,-0.47602500,-0.84803795,0.40052603,-0.04662413
3.02000000,-0.03719396,1.04505346,-0.01541629,-0.89152589,0.68955197,0.72818320,-0.93562983,0.27904459,-0.77801805,0.22980795,-0.47602500,-0.84803795,0.40052603,-0.04662413
3.04000000,-0.03719396,1.04505346,-0.01541629,-0.89152589,0.68955197,0.72818320,-0.93562983,0.27904459,-0.77801805,0.22980795,-0.47602500,-0.84803795,0.40052603,-0.04662413
3.06000000,-0.03719396,1.04505346,-0.01541629,-0.89152589,0.68955197,0.72818320,-0.93562983,0.27904459,-0.77801805,0.22980795,-0.47602500,-0.84803795,0.40052603,-0.04662413
3.08000000,-0.03719396,1.04505346,-0.01541629,-0.89152589,0.68955197,0.72818320,-0.93562983,0.27904459,-0.77801805,0.22980795,-0.47602500,-0.84803795,0.40052603,-0.04662413
3.10000000,-0.03719396,1.04505346,-0.01541629,-0.89152589,0.68955197,0.72818320,-0.93562983,0.27904459,-0.77801805,0.22980795,-0.47602500,-0.84803795,0.40052603,-0.04662413
3.12000000,-0.03719396,1.04505346,-0.01541629,-0.89152589,0.68955197,0.72818320,-0.93562983,0.27904459,-0.77801805,0.22980795,-0.47602500,-0.84803795,0.40052603,-0.04662413
3.14000000,-0.03719396,1.04505346,-0.01541629,-0.89152589,0.68955197,0.72818320,-0.93562983,0.27904459,-0.77801805,0.22980795,-0.47602500,-0.84803795,0.40052603,-0.04662413
3.16000000,-0.03719396,1.04505346,-0.01541629,-0.89152589,0.68955197,0.72818320,-0.93562983,0.27904459,-0.77801805,0.22980795,-0.47602500,-0.84803795,0.40052603,-0.04662413
3.18000000,-0.03719396,1.04505346,-0.01541629,-0.89152589,0.68955197,0.72818320,-0.93562983,0.27904459,-0.77801805,0.22980795,-0.47602500,-0.84803795,0.40052603,-0.04662413
3.20000000,-0.03719396,1.04505346,-0.01541629,-0.89152589,0.68955197,0.72818320,-0.93562983,0.27904459,-0.77801805,0.22980795,-0.47602500,-0.84803795,0.40052603,-0.04662413
3.22000000,-0.03719396,1.04505346,-0.01541629,-0.89152589,0.68955197,0.72818320,-0.93562983,0.27904459,-0.77801805,0.22980795,-0.47602500,-0.84803795,0.40052603,-0.04662413
3.24000000,-0.03719396,1.04505346,-0.01541629,-0.89152589,0.68955197,0.72818320,-0.93562983,0.27904459,-0.77801805,0.22980795,-0.47602500,-0.84803795,0.40052603,-0.04662413
3.26000000,-0.03719396,1.04505346,-0.01541629,-0.89152589,0.68955197,0.72818320,-0.93562983,0.27904459,-0.77801805,0.22980795,-0.47602500,-0.84803795,0.40052603,-0.04662413
3.28000000,-0.03719396,1.04505346,-0.01541629,-0.89152589,0.68955197,0.72818320,-0.93562983,0.27904459,-0.77801805,0.22980795,-0.47602500,-0.84803795,0.40052603,-0.04662413
3.30000000,-0.03719396,1.04505346,-0.01541629,-0.89152589,0.68955197,0.72818320,-0.93562983,0.27904459,-0.77801805,0.22980795,-0.47602500,-0.84803795,0.40052603,-0.04662413
3.32000000,-0.03719396,1.04505346,-0.01541629,-0.89152589,0.68955197,0.72818320,-0.93562983,0.27904459,-0.77801805,0.22980795,-0.47602500,-0.84803795,0.40052603,-0.04662413
3.34000000,-0.03719396,1.04505346,-0.01541629,-0.89152589,0.68955197,0.72818320,-0.93562983,0.27904459,-0.77801805,0.22980795,-0.47602500,-0.84803795,0.40052603,-0.04662413
3.36000000,-0.03719396,1.04505346,-0.01541629,-0.89152589,0.68955197,0.72818320,-0.93562983,0.27904459,-0.77801805,0.22980795,-0.47602500,-0.84803795,0.40052603,-0.04662413
3.38000000,-0.03719396,1.04505346,-0.01541629,-0.89152589,0.68955197,0.72818320,-0.93562983,0.27904459,-0.77801805,0.22980795,-0.47602500,-0.84803795,0.40052603,-0.04662413
3.40000000,-0.03719396,1.04505346,-0.01541629,-0.89152589,0.68955197,0.72818320,-0.93562983,0.27904459,-0.77801805,0.22980795,-0.47602500,-0.84803795,0.40052603,-0.04662413
3.42000000,-0.03719396,1.04505346,-0.01541629,-0.89152589,0.68955197,0.72818320,-0.93562983,0.27904459,-0.77801805,0.22980795,-0.47602500,-0.84803795,0.40052603,-0.04662413
3.44000000,-0.03719396,1.04505346,-0.01541629,-0.89152589,0.68955197,0.72818320,-0.93562983,0.27904459,-0.77801805,0.22980795,-0.47602500,-0.84803795,0.40052603,-0.04662413
3.46000000,-0.03719396,1.04505346,-0.01541629,-0.89152589,0.68955197,0.72818320,-0.93562983,0.27904459,-0.77801805,0.22980795,-0.47602500,-0.84803795,0.40052603,-0.04662413
3.48000000,-0.03719396,1.04505346,-0.01541629,-0.89152589,0.68955197,0.72818320,-0.93562983,0.27904459,-0.77801805,0.22980795,-0.47602500,-0.84803795,0.40052603,-0.04662413
3.50000000,-0.03719396,1.04505346,-0.01541629,-0.89152589,0.68955197,0.72818320,-0.93562983,0.27904459,-0.77801805,0.22980795,-0.47602500,-0.84803795,0.40052603,-0.04662413
3.52000000,-0.03719396,1.04505346,-0.01541629,-0.89152589,0.68955197,0.72818320,-0.93562983,0.27904459,-0.77801805,0.22980795,-0.47602500,-0.84803795,0.40052603,-0.04662413
3.54000000,-0.03719396,1.04505346,-0.01541629,-0.89152589,0.68955197,0.72818320,-0.93562983,0.27904459,-0.77801805,0.22980795,-0.47602500,-0.84803795,0.40052603,-0.04662413
3.56000000,-0.03719396,1.04505346,-0.01541629,-0.89152589,0.68955197,0.72818320,-0.93562983,0.27904459,-0.77801805,0.22980795,-0.47602500,-0.84803795,0.40052603,-0.04662413
3.58000000,-0.03719396,1.04505346,-0.01541629,-0.89152589,0.68955197,0.72818320,-0.93562983,0.27904459,-0.77801805,0.22980795,-0.47602500,-0.84803795,0.40052603,-0.04662413
3.60000000,-0.03719396,1.04505346,-0.01541629,-0.89152589,0.68955197,0.72818320,-0.93562983,0.27904459,-0.77801805,0.22980795,-0.47602500,-0.84803795,0.40052603,-0.04662413
3.62000000,-0.03719396,1.04505346,-0.01541629,-0.89152589,0.68955197,0.72818320,-0.93562983,0.27904459,-0.77801805,0.22980795,-0.47602500,-0.84803795,0.40052603,-0.04662413
3.64000000,-0.03719396,1.04505346,-0.01541629,-0.89152589,0.68955197,0.72818320,-0.93562983,0.27904459,-0.77801805,0.22980795,-0.47602500,-0.84803795,0.40052603,-0.04662413
3.66000000,-0.03719396,1.04505346,-0.01541629,-0.89152589,0.68955197,0.72818320,-0.93562983,0.27904459,-0.77801805,0.22980795,-0.47602500,-0.84803795,0.40052603,-0.04662413
3.68000000,-0.03719396,1.04505346,-0.01541629,-0.89152589,0.68955197,0.72818320,-0.93562983,0.27904459,-0.77801805,0.22980795,-0.47602500,-0.84803795,0.40052603,-0.04662413
3.70000000,-0.03719396,1.04505346,-0.01541629,-0.89152589,0.68955197,0.72818320,-0.93562983,0.27904459,-0.77801805,0.22980795,-0.47602500,-0.84803795,0.40052603,-0.04662413
3.72000000,-0.03719396,1.04505346,-0.01541629,-0.89152589,0.68955197,0.72818320,-0.93562983,0.27904459,-0.77801805,0.22980795,-0.47602500,-0.84803795,0.40052603,-0.04662413
3.74000000,-0.03719396,1.04505346,-0.01541629,-0.89152589,0.68955197,0.72818320,-0.93562983,0.27904459,-0.77801805,0.22980795,-0.47602500,-0.84803795,0.40052603,-0.04662413
3.76000000,-0.03719396,1.04505346,-0.01541629,-0.89152589,0.68955197,0.72818320,-0.93562983,0.27904459,-0.77801805,0.22980795,-0.47602500,-0.84803795,0.40052603,-0.04662413
3.78000000,-0.03719396,1.04505346,-0.01541629,-0.89152589,0.68955197,0.72818320,-0.93562983,0.27904459,-0.77801805,0.22980795,-0.47602500,-0.84803795,0.40052603,-0.04662413
3.80000000,-0.03719396,1.04505346,-0.01541629,-0.89152589,0.68955197,0.72818320,-0.93562983,0.27904459,-0.77801805,0.22980795,-0.47602500,-0.84803795,0.40052603,-0.04662413
3.82000000,-0.03719396,1.04505346,-0.01541629,-0.89152589,0.68955197,0.72818320,-0.93562983,0.27904459,-0.77801805,0.22980795,-0.47602500,-0.84803795,0.40052603,-0.04662413
3.84000000,-0.03719396,1.04505346,-0.01541629,-0.89152589,0.68955197,0.72818320,-0.93562983,0.27904459,-0.77801805,0.22980795,-0.47602500,-0.84803795,0.40052603,-0.04662413
3.86000000,-0.03719396,1.04505346,-0.01541629,-0.89152589,0.68955197,0.72818320,-0.93562983,0.27904459,-0.77801805,0.22980795,-0.47602500,-0.84803795,0.40052603,-0.04662413
3.88000000,-0.03719396,1.04505346,-0.01541629,-0.89152589,0.68955197,0.72818320,-0.93562983,0.27904459,-0.77801805,0.22980795,-0.47602500,-0.84803795,0.40052603,-0.04662413
3.90000000,-0.03719396,1.04505346,-0.01541629,-0.89152589,0.68955197,0.72818320,-0.93562983,0.27904459,-0.77801805,0.22980795,-0.47602500,-0.84803795,0.40052603,-0.04662413
3.92000000,-0.03719396,1.04505346,-0.01541629,-0.89152589,0.68955197,0.72818320,-0.93562983,0.27904459,-0.77801805,0.22980795,-0.47602500,-0.84803795,0.40052603,-0.04662413
3.94000000,-0.03719396,1.04505346,-0.01541629,-0.89152589,0.68955197,0.72818320,-0.93562983,0.27904459,-0.77801805,0.22980795,-0.47602500,-0.84803795,0.40052603,-0.04662413
3.96000000,-0.03719396,1.04505346,-0.01541629,-0.89152589,0.68955197,0.72818320,-0.93562983,0.27904459,-0.77801805,0.22980795,-0.47602500,-0.84803795,0.40052603,-0.04662413
3.98000000,-0.03719396,1.04505346,-0.01541629,-0.89152589,0.68955197,0.72818320,-0.93562983,0.27904459,-0.77801805,0.22980795,-0.47602500,-0.84803795,0.40052603,-0.04662413
4.00000000,-0.03719396,1.04505346,-0.01541629,-0.89152589,0.68955197,0.72818320,-0.93562983,0.27904459,-0.77801805,0.22980795,-0.47602500,-0.84803795,0.40052603,-0.04662413
4.02000000,-0.03719396,1.04505346,-0.01541629,-0.89152589,0.68955197,0.72818320,-0.93562983,0.27904459,-0.77801805,0.22980795,-0.47602500,-0.84803795,0.40052603,-0.04662413
4.04000000,-0.03719396,1.04505346,-0.01541629,-0.89152589,0.68955197,0.72818320,-0.93562983,0.27904459,-0.77801805,0.22980795,-0.47602500,-0.84803795,0.40052603,-0.04662413
4.06000000,-0.03719396,1.04505346,-0.01541629,-0.89152589,0.68955197,0.72818320,-0.93562983,0.27904459,-0.77801805,0.22980795,-0.47602500,-0.84803795,0.40052603,-0.04662413
4.08000000,-0.03719396,1.04505346,-0.01541629,-0.89152589,0.68955197,0.72818320,-0.93562983,0.27904459,-0.77801805,0.22980795,-0.47602500,-0.84803795,0.40052603,-0.04662413
4.10000000,-0.03719396,1.04505346,-0.01541629,-0.89152589,0.68955197,0.72818320,-0.93562983,0.27904459,-0.77801805,0.22980795,-0.47602500,-0.84803795,0.40052603,-0.04662413
4.12000000,-0.03719396,1.04505346,-0.01541629,-0.89152589,0.68955197,0.72818320,-0.93562983,0.27904459,-0.77801805,0.22980795,-0.47602500,-0.84803795,0.40052603,-0.04662413
4.14000000,-0.03719396,1.04505346,-0.01541629,-0.89152589,0.68955197,0.72818320,-0.93562983,0.27904459,-0.77801805,0.22980795,-0.47602500,-0.84803795,0.40052603,-0.04662413
4.16000000,-0.03719396,1.04505346,-0.01541629,-0.89152589,0.68955197,0.72818320,-0.93562983,0.27904459,-0.77801805,0.22980795,-0.47602500,-0.84803795,0.40052603,-0.04662413
4.18000000,-0.03719396,1.04505346,-0.01541629,-0.89152589,0.68955197,0.72818320,-0.93562983,0.27904459,-0.77801805,0.22980795,-0.47602500,-0.84803795,0.40052603,-0.04662413
4.20000000,-0.03719396,1.04505346,-0.01541629,-0.89152589,0.68955197,0.72818320,-0.93562983,0.27904459,-0.77801805,0.22980795,-0.47602500,-0.84803795,0.40052603,-0.04662413
4.22000000,-0.03719396,1.04505346,-0.01541629,-0.89152589,0.68955197,0.72818320,-0.93562983,0.27904459,-0.77801805,0.22980795,-0.47602500,-0.84803795,0.40052603,-0.04662413
4.24000000,-0.03719396,1.04505346,-0.01541629,-0.89152589,0.68955197,0.72818320,-0.93562983,0.27904459,-0.77801805,0.22980795,-0.47602500,-0.84803795,0.40052603,-0.04662413
4.26000000,-0.03719396,1.04505346,-0.01541629,-0.89152589,0.68955197,0.72818320,-0.93562983,0.27904459,-0.77801805,0.22980795,-0.47602500,-0.84803795,0.40052603,-0.04662413
4.28000000,-0.03719396,1.04505346,-0.01541629,-0.89152589,0.68955197,0.72818320,-0.93562983,0.27904459,-0.77801805,0.22980795,-0.47602500,-0.84803795,0.40052603,-0.04662413
4.30000000,-0.03719396,1.04505346,-0.01541629,-0.89152589,0.68955197,0.72818320,-0.93562983,0.27904459,-0.77801805,0.22980795,-0.47602500,-0.84803795,0.40052603,-0.04662413
4.32000000,-0.03719396,1.04505346,-0.01541629,-0.89152589,0.68955197,0.72818320,-0.93562983,0.27904459,-0.77801805,0.22980795,-0.47602500,-0.84803795,0.40052603,-0.04662413
4.34000000,-0.03719396,1.04505346,-0.01541629,-0.89152589,0.68955197,0.72818320,-0.93562983,0.27904459,-0.77801805,0.22980795,-0.47602500,-0.84803795,0.40052603,-0.04662413
4.36000000,-0.03719396,1.04505346,-0.01541629,-0.89152589,0.68955197,0.72818320,-0.93562983,0.27904459,-0.77801805,0.22980795,-0.47602500,-0.84803795,0.40052603,-0.04662413
4.38000000,-0.03719396,1.04505346,-0.01541629,-0.89152589,0.68955197,0.72818320,-0.93562983,0.27904459,-0.77801805,0.22980795,-0.47602500,-0.84803795,0.40052603,-0.04662413
4.40000000,-0.03719396,1.04505346,-0.01541629,-0.89152589,0.68955197,0.72818320,-0.93562983,0.27904459,-0.77801805,0.22980795,-0.47602500,-0.84803795,0.40052603,-0.04662413
4.42000000,-0.03719396,1.04505346,-0.01541629,-0.89152589,0.68955197,0.72818320,-0.93562983,0.27904459,-0.77801805,0.22980795,-0.47602500,-0.84803795,0.40052603,-0.04662413
4.44000000,-0.03719396,1.04505346,-0.01541629,-0.89152589,0.68955197,0.72818320,-0.93562983,0.27904459,-0.77801805,0.22980795,-0.47602500,-0.84803795,0.40052603,-0.04662413
4.46000000,-0.03719396,1.04505346,-0.01541629,-0.89152589,0.68955197,0.72818320,-0.93562983,0.27904459,-0.77801805,0.22980795,-0.47602500,-0.84803795,0.40052603,-0.04662413
4.48000000,-0.03719396,1.04505346,-0.01541629,-0.89152589,0.68955197,0.72818320,-0.93562983,0.27904459,-0.77801805,0.22980795,-0.47602500,-0.84803795,0.40052603,-0.04662413
4.50000000,-0.03719396,1.04505346,-0.01541629,-0.89152589,0.68955197,0.72818320,-0.93562983,0.27904459,-0.77801805,0.22980795,-0.47602500,-0.84803795,0.40052603,-0.04662413
4.52000000,-0.03719396,1.04505346,-0.01541629,-0.89152589,0.68955197,0.72818320,-0.93562983,0.27904459,-0.77801805,0.22980795,-0.47602500,-0.84803795,0.40052603,-0.04662413
4.54000000,-0.03719396,1.04505346,-0.01541629,-0.89152589,0.68955197,0.72818320,-0.93562983,0.27904459,-0.77801805,0.22980795,-0.47602500,-0.84803795,0.40052603,-0.04662413
4.56000000,-0.03719396,1.04505346,-0.01541629,-0.89152589,0.68955197,0.72818320,-0.93562983,0.27904459,-0.77801805,0.22980795,-0.47602500,-0.84803795,0.40052603,-0.04662413
4.58000000,-0.03719396,1.04505346,-0.01541629,-0.89152589,0.68955197,0.72818320,-0.93562983,0.27904459,-0.77801805,0.22980795,-0.47602500,-0.84803795,0.40052603,-0.04662413
4.60000000,-0.03719396,1.04505346,-0.01541629,-0.89152589,0.68955197,0.72818320,-0.93562983,0.27904459,-0.77801805,0.22980795,-0.47602500,-0.84803795,0.40052603,-0.04662413
4.62000000,-0.03719396,1.04505346,-0.01541629,-0.89152589,0.68955197,0.72818320,-0.93562983,0.27904459,-0.77801805,0.22980795,-0.47602500,-0.84803795,0.40052603,-0.04662413
4.64000000,-0.03719396,1.04505346,-0.01541629,-0.89152589,0.68955197,0.72818320,-0.93562983,0.27904459,-0.77801805,0.22980795,-0.47602500,-0.84803795,0.40052603,-0.04662413
4.66000000,-0.03719396,1.04505346,-0.01541629,-0.89152589,0.68955197,0.72818320,-0.93562983,0.27904459,-0.77801805,0.22980795,-0.47602500,-0.84803795,0.40052603,-0.04662413
4.68000000,-0.03719396,1.04505346,-0.01541629,-0.89152589,0.68955197,0.72818320,-0.93562983,0.27904459,-0.77801805,0.22980795,-0.47602500,-0.84803795,0.40052603,-0.04662413
4.70000000,-0.03719396,1.04505346,-0.01541629,-0.89152589,0.68955197,0.72818320,-0.93562983,0.27904459,-0.77801805,0.22980795,-0.47602500,-0.84803795,0.40052603,-0.04662413
4.72000000,-0.03719396,1.04505346,-0.01541629,-0.89152589,0.68955197,0.72818320,-0.93562983,0.27904459,-0.77801805,0.22980795,-0.47602500,-0.84803795,0.40052603,-0.04662413
4.74000000,-0.03719396,1.04505346,-0.01541629,-0.89152589,0.68955197,0.72818320,-0.93562983,0.27904459,-0.77801805,0.22980795,-0.47602500,-0.84803795,0.40052603,-0.04662413
4.76000000,-0.03719396,1.04505346,-0.01541629,-0.89152589,0.68955197,0.72818320,-0.93562983,0.27904459,-0.77801805,0.22980795,-0.47602500,-0.84803795,0.40052603,-0.04662413
4.78000000,-0.03719396,1.04505346,-0.01541629,-0.89152589,0.68955197,0.72818320,-0.93562983,0.27904459,-0.77801805,0.22980795,-0.47602500,-0.84803795,0.40052603,-0.04662413
4.80000000,-0.03719396,1.04505346,-0.01541629,-0.89152589,0.68955197,0.72818320,-0.93562983,0.27904459,-0.77801805,0.22980795,-0.47602500,-0.84803795,0.40052603,-0.04662413
4.82000000,-0.03719396,1.04505346,-0.01541629,-0.89152589,0.68955197,0.72818320,-0.93562983,0.27904459,-0.77801805,0.22980795,-0.47602500,-0.84803795,0.40052603,-0.04662413
4.84000000,-0.03719396,1.04505346,-0.01541629,-0.89152589,0.68955197,0.72818320,-0.93562983,0.27904459,-0.77801805,0.22980795,-0.47602500,-0.84803795,0.40052603,-0.04662413
4.86000000,-0.03719396,1.04505346,-0.01541629,-0.89152589,0.68955197,0.72818320,-0.93562983,0.27904459,-0.77801805,0.22980795,-0.47602500,-0.84803795,0.40052603,-0.04662413
4.88000000,-0.03719396,1.04505346,-0.01541629,-0.89152589,0.68955197,0.72818320,-0.93562983,0.27904459,-0.77801805,0.22980795,-0.47602500,-0.84803795,0.40052603,-0.04662413
4.90000000,-0.03719396,1.04505346,-0.01541629,-0.89152589,0.68955197,0.72818320,-0.93562983,0.27904459,-0.77801805,0.22980795,-0.47602500,-0.84803795,0.40052603,-0.04662413
4.92000000,-0.03719396,1.04505346,-0.01541629,-0.89152589,0.68955197,0.72818320,-0.93562983,0.27904459,-0.77801805,0.22980795,-0.47602500,-0.84803795,0.40052603,-0.04662413
4.94000000,-0.03719396,1.04505346,-0.01541629,-0.89152589,0.68955197,0.72818320,-0.93562983,0.27904459,-0.77801805,0.22980795,-0.47602500,-0.84803795,0.40052603,-0.04662413
4.96000000,-0.03719396,1.04505346,-0.01541629,-0.89152589,0.68955197,0.72818320,-0.93562983,0.27904459,-0.77801805,0.22980795,-0.47602500,-0.84803795,0.40052603,-0.04662413
4.98000000,-0.03719396,1.04505346,-0.01541629,-0.89152589,0.68955197,0.72818320,-0.93562983,0.27904459,-0.77801805,0.22980795,-0.47602500,-0.84803795,0.40052603,-0.04662413
5.00000000,-0.03719396,1.04505346,-0.01541629,-0.89152589,0.68955197,0.72818320,-0.93562983,0.27904459,-0.77801805,0.22980795,-0.47602500,-0.84803795,0.40052603,-0.04662413
5.02000000,-0.03719396,1.04505346,-0.01541629,-0.89152589,0.68955197,0.72818320,-0.93562983,0.27904459,-0.77801805,0.22980795,-0.47602500,-0.84803795,0.40052603,-0.04662413
5.04000000,-0.03719396,1.04505346,-0.01541629,-0.89152589,0.68955197,0.72818320,-0.93562983,0.27904459,-0.77801805,0.22980795,-0.47602500,-0.84803795,0.40052603,-0.04662413
5.06000000,-0.03719396,1.04505346,-0.01541629,-0.89152589,0.68955197,0.72818320,-0.93562983,0.27904459,-0.77801805,0.22980795,-0.47602500,-0.84803795,0.40052603,-0.04662413
5.08000000,-0.03719396,1.04505346,-0.01541629,-0.89152589,0.68955197,0.72818320,-0.93562983,0.27904459,-0.77801805,0.22980795,-0.47602500,-0.84803795,0.40052603,-0.04662413
5.10000000,-0.03719396,1.04505346,-0.01541629,-0.89152589,0.68955197,0.72818320,-0.93562983,0.27904459,-0.77801805,0.22980795,-0.47602500,-0.84803795,0.40052603,-0.04662413
5.12000000,-0.03719396,1.04505346,-0.01541629,-0.89152589,0.68955197,0.72818320,-0.93562983,0.27904459,-0.77801805,0.22980795,-0.47602500,-0.84803795,0.40052603,-0.04662413
5.14000000,-0.03719396,1.04505346,-0.01541629,-0.89152589,0.68955197,0.72818320,-0.93562983,0.27904459,-0.77801805,0.22980795,-0.47602500,-0.84803795,0.40052603,-0.04662413
5.16000000,-0.03719396,1.04505346,-0.01541629,-0.89152589,0.68955197,0.72818320,-0.93562983,0.27904459,-0.77801805,0.22980795,-0.47602500,-0.84803795,0.40052603,-0.04662413
5.18000000,-0.03719396,1.04505346,-0.01541629,-0.89152589,0.68955197,0.72818320,-0.93562983,0.27904459,-0.77801805,0.22980795,-0.47602500,-0.84803795,0.40052603,-0.04662413
5.20000000,-0.03719396,1.04505346,-0.01541629,-0.89152589,0.68955197,0.72818320,-0.93562983,0.27904459,-0.77801805,0.22980795,-0.47602500,-0.84803795,0.40052603,-0.04662413
5.22000000,-0.03719396,1.04505346,-0.01541629,-0.89152589,0.68955197,0.72818320,-0.93562983,0.27904459,-0.77801805,0.22980795,-0.47602500,-0.84803795,0.40052603,-0.04662413
5.24000000,-0.03719396,1.04505346,-0.01541629,-0.89152589,0.68955197,0.72818320,-0.93562983,0.27904459,-0.77801805,0.22980795,-0.47602500,-0.84803795,0.40052603,-0.04662413
5.26000000,-0.03719396,1.04505346,-0.01541629,-0.89152589,0.68955197,0.72818320,-0.93562983,0.27904459,-0.77801805,0.22980795,-0.47602500,-0.84803795,0.40052603,-0.04662413
5.28000000,-0.03719396,1.04505346,-0.01541629,-0.89152589,0.68955197,0.72818320,-0.93562983,0.27904459,-0.77801805,0.22980795,-0.47602500,-0.84803795,0.40052603,-0.04662413
5.30000000,-0.03719396,1.04505346,-0.01541629,-0.89152589,0.68955197,0.72818320,-0.93562983,0.27904459,-0.77801805,0.22980795,-0.47602500,-0.84803795,0.40052603,-0.04662413
5.32000000,-0.03719396,1.04505346,-0.01541629,-0.89152589,0.68955197,0.72818320,-0.93562983,0.27904459,-0.77801805,0.22980795,-0.47602500,-0.84803795,0.40052603,-0.04662413
5.34000000,-0.03719396,1.04505346,-0.01541629,-0.89152589,0.68955197,0.72818320,-0.93562983,0.27904459,-0.77801805,0.22980795,-0.47602500,-0.84803795,0.40052603,-0.04662413
5.36000000,-0.03719396,1.04505346,-0.01541629,-0.89152589,0.68955197,0.72818320,-0.93562983,0.27904459,-0.77801805,0.22980795,-0.47602500,-0.84803795,0.40052603,-0.04662413
5.38000000,-0.03719396,1.04505346,-0.01541629,-0.89152589,0.68955197,0.72818320,-0.93562983,0.27904459,-0.77801805,0.22980795,-0.47602500,-0.84803795,0.40052603,-0.04662413
5.40000000,-0.03719396,1.04505346,-0.01541629,-0.89152589,0.68955197,0.72818320,-0.93562983,0.27904459,-0.77801805,0.22980795,-0.47602500,-0.84803795,0.40052603,-0.04662413
5.42000000,-0.03719396,1.04505346,-0.01541629,-0.89152589,0.68955197,0.72818320,-0.93562983,0.27904459,-0.77801805,0.22980795,-0.47602500,-0.84803795,0.40052603,-0.04662413
5.44000000,-0.03719396,1.04505346,-0.01541629,-0.89152589,0.68955197,0.72818320,-0.93562983,0.27904459,-0.77801805,0.22980795,-0.47602500,-0.84803795,0.40052603,-0.04662413
5.46000000,-0.03719396,1.04505346,-0.01541629,-0.89152589,0.68955197,0.72818320,-0.93562983,0.27904459,-0.77801805,0.22980795,-0.47602500,-0.84803795,0.40052603,-0.04662413
5.48000000,-0.03719396,1.04505346,-0.01541629,-0.89152589,0.68955197,0.72818320,-0.93562983,0.27904459,-0.77801805,0.22980795,-0.47602500,-0.84803795,0.40052603,-0.04662413
5.50000000,-0.03719396,1.04505346,-0.01541629,-0.89152589,0.68955197,0.72818320,-0.93562983,0.27904459,-0.77801805,0.22980795,-0.47602500,-0.84803795,0.40052603,-0.04662413
5.52000000,-0.03719396,1.04505346,-0.01541629,-0.89152589,0.68955197,0.72818320,-0.93562983,0.27904459,-0.77801805,0.22980795,-0.47602500,-0.84803795,0.40052603,-0.04662413
5.54000000,-0.03719396,1.04505346,-0.01541629,-0.89152589,0.68955197,0.72818320,-0.93562983,0.27904459,-0.77801805,0.22980795,-0.47602500,-0.84803795,0.40052603,-0.04662413
5.56000000,-0.03719396,1.04505346,-0.01541629,-0.89152589,0.68955197,0.72818320,-0.93562983,0.27904459,-0.77801805,0.22980795,-0.47602500,-0.84803795,0.40052603,-0.04662413
5.58000000,-0.03719396,1.04505346,-0.01541629,-0.89152589,0.68955197,0.72818320,-0.93562983,0.27904459,-0.77801805,0.22980795,-0.47602500,-0.84803795,0.40052603,-0.04662413
5.60000000,-0.03719396,1.04505346,-0.01541629,-0.89152589,0.68955197,0.72818320,-0.93562983,0.27904459,-0.77801805,0.22980795,-0.47602500,-0.84803795,0.40052603,-0.04662413
5.62000000,-0.03719396,1.04505346,-0.01541629,-0.89152589,0.68955197,0.72818320,-0.93562983,0.27904459,-0.77801805,0.22980795,-0.47602500,-0.84803795,0.40052603,-0.04662413
5.64000000,-0.03719396,1.04505346,-0.01541629,-0.89152589,0.68955197,0.72818320,-0.93562983,0.27904459,-0.77801805,0.22980795,-0.47602500,-0.84803795,0.40052603,-0.04662413
5.66000000,-0.03719396,1.04505346,-0.01541629,-0.89152589,0.68955197,0.72818320,-0.93562983,0.27904459,-0.77801805,0.22980795,-0.47602500,-0.84803795,0.40052603,-0.04662413
5.68000000,-0.03719396,1.04505346,-0.01541629,-0.89152589,0.68955197,0.72818320,-0.93562983,0.27904459,-0.77801805,0.22980795,-0.47602500,-0.84803795,0.40052603,-0.04662413
5.70000000,-0.03719396,1.04505346,-0.01541629,-0.89152589,0.68955197,0.72818320,-0.93562983,0.27904459,-0.77801805,0.22980795,-0.47602500,-0.84803795,0.40052603,-0.04662413
5.72000000,-0.03719396,1.04505346,-0.01541629,-0.89152589,0.68955197,0.72818320,-0.93562983,0.27904459,-0.77801805,0.22980795,-0.47602500,-0.84803795,0.40052603,-0.04662413
5.74000000,-0.03719396,1.04505346,-0.01541629,-0.89152589,0.68955197,0.72818320,-0.93562983,0.27904459,-0.77801805,0.22980795,-0.47602500,-0.84803795,0.40052603,-0.04662413
5.76000000,-0.03719396,1.04505346,-0.01541629,-0.89152589,0.68955197,0.72818320,-0.93562983,0.27904459,-0.77801805,0.22980795,-0.47602500,-0.84803795,0.40052603,-0.04662413
5.78000000,-0.03719396,1.04505346,-0.01541629,-0.89152589,0.68955197,0.72818320,-0.93562983,0.27904459,-0.77801805,0.22980795,-0.47602500,-0.84803795,0.40052603,-0.04662413
5.80000000,-0.03719396,1.04505346,-0.01541629,-0.89152589,0.68955197,0.72818320,-0.93562983,0.27904459,-0.77801805,0.22980795,-0.47602500,-0.84803795,0.40052603,-0.04662413
5.82000000,-0.03719396,1.04505346,-0.01541629,-0.89152589,0.68955197,0.72818320,-0.93562983,0.27904459,-0.77801805,0.22980795,-0.47602500,-0.84803795,0.40052603,-0.04662413
5.84000000,-0.03719396,1.04505346,-0.01541629,-0.89152589,0.68955197,0.72818320,-0.93562983,0.27904459,-0.77801805,0.22980795,-0.47602500,-0.84803795,0.40052603,-0.04662413
5.86000000,-0.03719396,1.04505346,-0.01541629,-0.89152589,0.68955197,0.72818320,-0.93562983,0.27904459,-0.77801805,0.22980795,-0.47602500,-0.84803795,0.40052603,-0.04662413
5.88000000,-0.03719396,1.04505346,-0.01541629,-0.89152589,0.68955197,0.72818320,-0.93562983,0.27904459,-0.77801805,0.22980795,-0.47602500,-0.84803795,0.40052603,-0.04662413
5.90000000,-0.03719396,1.04505346,-0.01541629,-0.89152589,0.68955197,0.72818320,-0.93562983,0.27904459,-0.77801805,0.22980795,-0.47602500,-0.84803795,0.40052603,-0.04662413
5.92000000,-0.03719396,1.04505346,-0.01541629,-0.89152589,0.68955197,0.72818320,-0.93562983,0.27904459,-0.77801805,0.22980795,-0.47602500,-0.84803795,0.40052603,-0.04662413
5.94000000,-0.03719396,1.04505346,-0.01541629,-0.89152589,0.68955197,0.72818320,-0.93562983,0.27904459,-0.77801805,0.22980795,-0.47602500,-0.84803795,0.40052603,-0.04662413
5.96000000,-0.03719396,1.04505346,-0.01541629,-0.89152589,0.68955197,0.72818320,-0.93562983,0.27904459,-0.77801805,0.22980795,-0.47602500,-0.84803795,0.40052603,-0.04662413
5.98000000,-0.03719396,1.04505346,-0.01541629,-0.89152589,0.68955197,0.72818320,-0.93562983,0.27904459,-0.77801805,0.22980795,-0.47602500,-0.84803795,0.40052603,-0.04662413
6.00000000,-0.03719396,1.04505346,-0.01541629,-0.89152589,0.68955197,0.72818320,-0.93562983,0.27904459,-0.77801805,0.22980795,-0.47602500,-0.84803795,0.40052603,-0.04662413
6.02000000,-0.03719396,1.04505346,-0.01541629,-0.89152589,0.68955197,0.72818320,-0.93562983,0.27904459,-0.77801805,0.22980795,-0.47602500,-0.84803795,0.40052603,-0.04662413
6.04000000,-0.03719396,1.04505346,-0.01541629,-0.89152589,0.68955197,0.72818320,-0.93562983,0.27904459,-0.77801805,0.22980795,-0.47602500,-0.84803795,0.40052603,-0.04662413
6.06000000,-0.03719396,1.04505346,-0.01541629,-0.89152589,0.68955197,0.72818320,-0.93562983,0.27904459,-0.77801805,0.22980795,-0.47602500,-0.84803795,0.40052603,-0.04662413
6.08000000,-0.03719396,1.04505346,-0.01541629,-0.89152589,0.68955197,0.72818320,-0.93562983,0.27904459,-0.77801805,0.22980795,-0.47602500,-0.84803795,0.40052603,-0.04662413
6.10000000,-0.03719396,1.04505346,-0.01541629,-0.89152589,0.68955197,0.72818320,-0.93562983,0.27904459,-0.77801805,0.22980795,-0.47602500,-0.84803795,0.40052603,-0.04662413
6.12000000,-0.03719396,1.04505346,-0.01541629,-0.89152589,0.68955197,0.72818320,-0.93562983,0.27904459,-0.77801805,0.22980795,-0.47602500,-0.84803795,0.40052603,-0.04662413
6.14000000,-0.03719396,1.04505346,-0.01541629,-0.89152589,0.68955197,0.72818320,-0.93562983,0.27904459,-0.77801805,0.22980795,-0.47602500,-0.84803795,0.40052603,-0.04662413
6.16000000,-0.03719396,1.04505346,-0.01541629,-0.89152589,0.68955197,0.72818320,-0.93562983,0.27904459,-0.77801805,0.22980795,-0.47602500,-0.84803795,0.40052603,-0.04662413
6.18000000,-0.03719396,1.04505346,-0.01541629,-0.89152589,0.68955197,0.72818320,-0.93562983,0.27904459,-0.77801805,0.22980795,-0.47602500,-0.84803795,0.40052603,-0.04662413
6.20000000,-0.03719396,1.04505346,-0.01541629,-0.89152589,0.68955197,0.72818320,-0.93562983,0.27904459,-0.77801805,0.22980795,-0.47602500,-0.84803795,0.40052603,-0.04662413
6.22000000,-0.03719396,1.04505346,-0.01541629,-0.89152589,0.68955197,0.72818320,-0.93562983,0.27904459,-0.77801805,0.22980795,-0.47602500,-0.84803795,0.40052603,-0.04662413
6.24000000,-0.03719396,1.04505346,-0.01541629,-0.89152589,0.68955197,0.72818320,-0.93562983,0.27904459,-0.77801805,0.22980795,-0.47602500,-0.84803795,0.40052603,-0.04662413
6.26000000,-0.03719396,1.04505346,-0.01541629,-0.89152589,0.68955197,0.72818320,-0.93562983,0.27904459,-0.77801805,0.22980795,-0.47602500,-0.84803795,0.40052603,-0.04662413
6.28000000,-0.03719396,1.04505346,-0.01541629,-0.89152589,0.68955197,0.72818320,-0.93562983,0.27904459,-0.77801805,0.22980795,-0.47602500,-0.84803795,0.40052603,-0.04662413
6.30000000,-0.03719396,1.04505346,-0.01541629,-0.89152589,0.68955197,0.72818320,-0.93562983,0.27904459,-0.77801805,0.22980795,-0.47602500,-0.84803795,0.40052603,-0.04662413
6.32000000,-0.03719396,1.04505346,-0.01541629,-0.89152589,0.68955197,0.72818320,-0.93562983,0.27904459,-0.77801805,0.22980795,-0.47602500,-0.84803795,0.40052603,-0.04662413
6.34000000,-0.03719396,1.04505346,-0.01541629,-0.89152589,0.68955197,0.72818320,-0.93562983,0.27904459,-0.77801805,0.22980795,-0.47602500,-0.84803795,0.40052603,-0.04662413
6.36000000,-0.03719396,1.04505346,-0.01541629,-0.89152589,0.68955197,0.72818320,-0.93562983,0.27904459,-0.77801805,0.22980795,-0.47602500,-0.84803795,0.40052603,-0.04662413
6.38000000,-0.03719396,1.04505346,-0.01541629,-0.89152589,0.68955197,0.72818320,-0.93562983,0.27904459,-0.77801805,0.22980795,-0.47602500,-0.84803795,0.40052603,-0.04662413
6.40000000,-0.03719396,1.04505346,-0.01541629,-0.89152589,0.68955197,0.72818320,-0.93562983,0.27904459,-0.77801805,0.22980795,-0.47602500,-0.84803795,0.40052603,-0.04662413
6.42000000,-0.03719396,1.04505346,-0.01541629,-0.89152589,0.68955197,0.72818320,-0.93562983,0.27904459,-0.77801805,0.22980795,-0.47602500,-0.84803795,0.40052603,-0.04662413
6.44000000,-0.03719396,1.04505346,-0.01541629,-0.89152589,0.68955197,0.72818320,-0.93562983,0.27904459,-0.77801805,0.22980795,-0.47602500,-0.84803795,0.40052603,-0.04662413
6.46000000,-0.03719396,1.04505346,-0.01541629,-0.89152589,0.68955197,0.72818320,-0.93562983,0.27904459,-0.77801805,0.22980795,-0.47602500,-0.84803795,0.40052603,-0.04662413
6.48000000,-0.03719396,1.04505346,-0.01541629,-0.89152589,0.68955197,0.72818320,-0.93562983,0.27904459,-0.77801805,0.22980795,-0.47602500,-0.84803795,0.40052603,-0.04662413
6.50000000,-0.03719396,1.04505346,-0.01541629,-0.89152589,0.68955197,0.72818320,-0.93562983,0.27904459,-0.77801805,0.22980795,-0.47602500,-0.84803795,0.40052603,-0.04662413
6.52000000,-0.03719396,1.04505346,-0.01541629,-0.89152589,0.68955197,0.72818320,-0.93562983,0.27904459,-0.77801805,0.22980795,-0.47602500,-0.84803795,0.40052603,-0.04662413
6.54000000,-0.03719396,1.04505346,-0.01541629,-0.89152589,0.68955197,0.72818320,-0.93562983,0.27904459,-0.77801805,0.22980795,-0.47602500,-0.84803795,0.40052603,-0.04662413
6.56000000,-0.03719396,1.04505346,-0.01541629,-0.89152589,0.68955197,0.72818320,-0.93562983,0.27904459,-0.77801805,0.22980795,-0.47602500,-0.84803795,0.40052603,-0.04662413
6.58000000,-0.03719396,1.04505346,-0.01541629,-0.89152589,0.68955197,0.72818320,-0.93562983,0.27904459,-0.77801805,0.22980795,-0.47602500,-0.84803795,0.40052603,-0.04662413
6.60000000,-0.03719396,1.04505346,-0.01541629,-0.89152589,0.68955197,0.72818320,-0.93562983,0.27904459,-0.77801805,0.22980795,-0.47602500,-0.84803795,0.40052603,-0.04662413
6.62000000,-0.03719396,1.04505346,-0.01541629,-0.89152589,0.68955197,0.72818320,-0.93562983,0.27904459,-0.77801805,0.22980795,-0.47602500,-0.84803795,0.40052603,-0.04662413
6.64000000,-0.03719396,1.04505346,-0.01541629,-0.89152589,0.68955197,0.72818320,-0.93562983,0.27904459,-0.77801805,0.22980795,-0.47602500,-0.84803795,0.40052603,-0.04662413
6.66000000,-0.03719396,1.04505346,-0.01541629,-0.89152589,0.68955197,0.72818320,-0.93562983,0.27904459,-0.77801805,0.22980795,-0.47602500,-0.84803795,0.40052603,-0.04662413
6.68000000,-0.03719396,1.04505346,-0.01541629,-0.89152589,0.68955197,0.72818320,-0.93562983,0.27904459,-0.77801805,0.22980795,-0.47602500,-0.84803795,0.40052603,-0.04662413
6.70000000,-0.03719396,1.04505346,-0.01541629,-0.89152589,0.68955197,0.72818320,-0.93562983,0.27904459,-0.77801805,0.22980795,-0.47602500,-0.84803795,0.40052603,-0.04662413
6.72000000,-0.03719396,1.04505346,-0.01541629,-0.89152589,0.68955197,0.72818320,-0.93562983,0.27904459,-0.77801805,0.22980795,-0.47602500,-0.84803795,0.40052603,-0.04662413
6.74000000,-0.03719396,1.04505346,-0.01541629,-0.89152589,0.68955197,0.72818320,-0.93562983,0.27904459,-0.77801805,0.22980795,-0.47602500,-0.84803795,0.40052603,-0.04662413
6.76000000,-0.03719396,1.04505346,-0.01541629,-0.89152589,0.68955197,0.72818320,-0.93562983,0.27904459,-0.77801805,0.22980795,-0.47602500,-0.84803795,0.40052603,-0.04662413
6.78000000,-0.03719396,1.04505346,-0.01541629,-0.89152589,0.68955197,0.72818320,-0.93562983,0.27904459,-0.77801805,0.22980795,-0.47602500,-0.84803795,0.40052603,-0.04662413
6.80000000,-0.03719396,1.04505346,-0.01541629,-0.89152589,0.68955197,0.72818320,-0.93562983,0.27904459,-0.77801805,0.22980795,-0.47602500,-0.84803795,0.40052603,-0.04662413
6.82000000,-0.03719396,1.04505346,-0.01541629,-0.89152589,0.68955197,0.72818320,-0.93562983,0.27904459,-0.77801805,0.22980795,-0.47602500,-0.84803795,0.40052603,-0.04662413
6.84000000,-0.03719396,1.04505346,-0.01541629,-0.89152589,0.68955197,0.72818320,-0.93562983,0.27904459,-0.77801805,0.22980795,-0.47602500,-0.84803795,0.40052603,-0.04662413
6.86000000,-0.03719396,1.04505346,-0.01541629,-0.89152589,0.68955197,0.72818320,-0.93562983,0.27904459,-0.77801805,0.22980795,-0.47602500,-0.84803795,0.40052603,-0.04662413
6.88000000,-0.03719396,1.04505346,-0.01541629,-0.89152589,0.68955197,0.72818320,-0.93562983,0.27904459,-0.77801805,0.22980795,-0.47602500,-0.84803795,0.40052603,-0.04662413
6.90000000,-0.03719396,1.04505346,-0.01541629,-0.89152589,0.68955197,0.72818320,-0.93562983,0.27904459,-0.77801805,0.22980795,-0.47602500,-0.84803795,0.40052603,-0.04662413
6.92000000,-0.03719396,1.04505346,-0.01541629,-0.89152589,0.68955197,0.72818320,-0.93562983,0.27904459,-0.77801805,0.22980795,-0.47602500,-0.84803795,0.40052603,-0.04662413
6.94000000,-0.03719396,1.04505346,-0.01541629,-0.89152589,0.68955197,0.72818320,-0.93562983,0.27904459,-0.77801805,0.22980795,-0.47602500,-0.84803795,0.40052603,-0.04662413
6.96000000,-0.03719396,1.04505346,-0.01541629,-0.89152589,0.68955197,0.72818320,-0.93562983,0.27904459,-0.77801805,0.22980795,-0.47602500,-0.84803795,0.40052603,-0.04662413
6.98000000,-0.03719396,1.04505346,-0.01541629,-0.89152589,0.68955197,0.72818320,-0.93562983,0.27904459,-0.77801805,0.22980795,-0.47602500,-0.84803795,0.40052603,-0.04662413
7.00000000,-0.03719396,1.04505346,-0.01541629,-0.89152589,0.68955197,0.72818320,-0.93562983,0.27904459,-0.77801805,0.22980795,-0.47602500,-0.84803795,0.40052603,-0.04662413
7.02000000,-0.03719396,1.04505346,-0.01541629,-0.89152589,0.68955197,0.72818320,-0.93562983,0.27904459,-0.77801805,0.22980795,-0.47602500,-0.84803795,0.40052603,-0.04662413
7.04000000,-0.03719396,1.04505346,-0.01541629,-0.89152589,0.68955197,0.72818320,-0.93562983,0.27904459,-0.77801805,0.22980795,-0.47602500,-0.84803795,0.40052603,-0.04662413
7.06000000,-0.03719396,1.04505346,-0.01541629,-0.89152589,0.68955197,0.72818320,-0.93562983,0.27904459,-0.77801805,0.22980795,-0.47602500,-0.84803795,0.40052603,-0.04662413
7.08000000,-0.03719396,1.04505346,-0.01541629,-0.89152589,0.68955197,0.72818320,-0.93562983,0.27904459,-0.77801805,0.22980795,-0.47602500,-0.84803795,0.40052603,-0.04662413
7.10000000,-0.03719396,1.04505346,-0.01541629,-0.89152589,0.68955197,0.72818320,-0.93562983,0.27904459,-0.77801805,0.22980795,-0.47602500,-0.84803795,0.40052603,-0.04662413
7.12000000,-0.03719396,1.04505346,-0.01541629,-0.89152589,0.68955197,0.72818320,-0.93562983,0.27904459,-0.77801805,0.22980795,-0.47602500,-0.84803795,0.40052603,-0.04662413
7.14000000,-0.03719396,1.04505346,-0.01541629,-0.89152589,0.68955197,0.72818320,-0.93562983,0.27904459,-0.77801805,0.22980795,-0.47602500,-0.84803795,0.40052603,-0.04662413
7.16000000,-0.03719396,1.04505346,-0.01541629,-0.89152589,0.68955197,0.72818320,-0.93562983,0.27904459,-0.77801805,0.22980795,-0.47602500,-0.84803795,0.40052603,-0.04662413
7.18000000,-0.03719396,1.04505346,-0.01541629,-0.89152589,0.68955197,0.72818320,-0.93562983,0.27904459,-0.77801805,0.22980795,-0.47602500,-0.84803795,0.40052603,-0.04662413
7.20000000,-0.03719396,1.04505346,-0.01541629,-0.89152589,0.68955197,0.72818320,-0.93562983,0.27904459,-0.77801805,0.22980795,-0.47602500,-0.84803795,0.40052603,-0.04662413
7.22000000,-0.03719396,1.04505346,-0.01541629,-0.89152589,0.68955197,0.72818320,-0.93562983,0.27904459,-0.77801805,0.22980795,-0.47602500,-0.84803795,0.40052603,-0.04662413
7.24000000,-0.03719396,1.04505346,-0.01541629,-0.89152589,0.68955197,0.72818320,-0.93562983,0.27904459,-0.77801805,0.22980795,-0.47602500,-0.84803795,0.40052603,-0.04662413
7.26000000,-0.03719396,1.04505346,-0.01541629,-0.89152589,0.68955197,0.72818320,-0.93562983,0.27904459,-0.77801805,0.22980795,-0.47602500,-0.84803795,0.40052603,-0.04662413
7.28000000,-0.03719396,1.04505346,-0.01541629,-0.89152589,0.68955197,0.72818320,-0.93562983,0.27904459,-0.77801805,0.22980795,-0.47602500,-0.84803795,0.40052603,-0.04662413
7.30000000,-0.03719396,1.04505346,-0.01541629,-0.89152589,0.68955197,0.72818320,-0.93562983,0.27904459,-0.77801805,0.22980795,-0.47602500,-0.84803795,0.40052603,-0.04662413
7.32000000,-0.03719396,1.04505346,-0.01541629,-0.89152589,0.68955197,0.72818320,-0.93562983,0.27904459,-0.77801805,0.22980795,-0.47602500,-0.84803795,0.40052603,-0.04662413
7.34000000,-0.03719396,1.04505346,-0.01541629,-0.89152589,0.68955197,0.72818320,-0.93562983,0.27904459,-0.77801805,0.22980795,-0.47602500,-0.84803795,0.40052603,-0.04662413
7.36000000,-0.03719396,1.04505346,-0.01541629,-0.89152589,0.68955197,0.72818320,-0.93562983,0.27904459,-0.77801805,0.22980795,-0.47602500,-0.84803795,0.40052603,-0.04662413
7.38000000,-0.03719396,1.04505346,-0.01541629,-0.89152589,0.68955197,0.72818320,-0.93562983,0.27904459,-0.77801805,0.22980795,-0.47602500,-0.84803795,0.40052603,-0.04662413
7.40000000,-0.03719396,1.04505346,-0.01541629,-0.89152589,0.68955197,0.72818320,-0.93562983,0.27904459,-0.77801805,0.22980795,-0.47602500,-0.84803795,0.40052603,-0.04662413
7.42000000,-0.03719396,1.04505346,-0.01541629,-0.89152589,0.68955197,0.72818320,-0.93562983,0.27904459,-0.77801805,0.22980795,-0.47602500,-0.84803795,0.40052603,-0.04662413
7.44000000,-0.03719396,1.04505346,-0.01541629,-0.89152589,0.68955197,0.72818320,-0.93562983,0.27904459,-0.77801805,0.22980795,-0.47602500,-0.84803795,0.40052603,-0.04662413
7.46000000,-0.03719396,1.04505346,-0.01541629,-0.89152589,0.68955197,0.72818320,-0.93562983,0.27904459,-0.77801805,0.22980795,-0.47602500,-0.84803795,0.40052603,-0.04662413
7.48000000,-0.03719396,1.04505346,-0.01541629,-0.89152589,0.68955197,0.72818320,-0.93562983,0.27904459,-0.77801805,0.22980795,-0.47602500,-0.84803795,0.40052603,-0.04662413
7.50000000,-0.03719396,1.04505346,-0.01541629,-0.89152589,0.68955197,0.72818320,-0.93562983,0.27904459,-0.77801805,0.22980795,-0.47602500,-0.84803795,0.40052603,-0.04662413
7.52000000,-0.03719396,1.04505346,-0.01541629,-0.89152589,0.68955197,0.72818320,-0.93562983,0.27904459,-0.77801805,0.22980795,-0.47602500,-0.84803795,0.40052603,-0.04662413
7.54000000,-0.03719396,1.04505346,-0.01541629,-0.89152589,0.68955197,0.72818320,-0.93562983,0.27904459,-0.77801805,0.22980795,-0.47602500,-0.84803795,0.40052603,-0.04662413
7.56000000,-0.03719396,1.04505346,-0.01541629,-0.89152589,0.68955197,0.72818320,-0.93562983,0.27904459,-0.77801805,0.22980795,-0.47602500,-0.84803795,0.40052603,-0.04662413
7.58000000,-0.03719396,1.04505346,-0.01541629,-0.89152589,0.68955197,0.72818320,-0.93562983,0.27904459,-0.77801805,0.22980795,-0.47602500,-0.84803795,0.40052603,-0.04662413
7.60000000,-0.03719396,1.04505346,-0.01541629,-0.89152589,0.68955197,0.72818320,-0.93562983,0.27904459,-0.77801805,0.22980795,-0.47602500,-0.84803795,0.40052603,-0.04662413
7.62000000,-0.03719396,1.04505346,-0.01541629,-0.89152589,0.68955197,0.72818320,-0.93562983,0.27904459,-0.77801805,0.22980795,-0.47602500,-0.84803795,0.40052603,-0.04662413
7.64000000,-0.03719396,1.04505346,-0.01541629,-0.89152589,0.68955197,0.72818320,-0.93562983,0.27904459,-0.77801805,0.22980795,-0.47602500,-0.84803795,0.40052603,-0.04662413
7.66000000,-0.03719396,1.04505346,-0.01541629,-0.89152589,0.68955197,0.72818320,-0.93562983,0.27904459,-0.77801805,0.22980795,-0.47602500,-0.84803795,0.40052603,-0.04662413
7.68000000,-0.03719396,1.04505346,-0.01541629,-0.89152589,0.68955197,0.72818320,-0.93562983,0.27904459,-0.77801805,0.22980795,-0.47602500,-0.84803795,0.40052603,-0.04662413
7.70000000,-0.03719396,1.04505346,-0.01541629,-0.89152589,0.68955197,0.72818320,-0.93562983,0.27904459,-0.77801805,0.22980795,-0.47602500,-0.84803795,0.40052603,-0.04662413
7.72000000,-0.03719396,1.04505346,-0.01541629,-0.89152589,0.68955197,0.72818320,-0.93562983,0.27904459,-0.77801805,0.22980795,-0.47602500,-0.84803795,0.40052603,-0.04662413
7.74000000,-0.03719396,1.04505346,-0.01541629,-0.89152589,0.68955197,0.72818320,-0.93562983,0.27904459,-0.77801805,0.22980795,-0.47602500,-0.84803795,0.40052603,-0.04662413
7.76000000,-0.03719396,1.04505346,-0.01541629,-0.89152589,0.68955197,0.72818320,-0.93562983,0.27904459,-0.77801805,0.22980795,-0.47602500,-0.84803795,0.40052603,-0.04662413
7.78000000,-0.03719396,1.04505346,-0.01541629,-0.89152589,0.68955197,0.72818320,-0.93562983,0.27904459,-0.77801805,0.22980795,-0.47602500,-0.84803795,0.40052603,-0.04662413
7.80000000,-0.03719396,1.04505346,-0.01541629,-0.89152589,0.68955197,0.72818320,-0.93562983,0.27904459,-0.77801805,0.22980795,-0.47602500,-0.84803795,0.40052603,-0.04662413
7.82000000,-0.03719396,1.04505346,-0.01541629,-0.89152589,0.68955197,0.72818320,-0.93562983,0.27904459,-0.77801805,0.22980795,-0.47602500,-0.84803795,0.40052603,-0.04662413
7.84000000,-0.03719396,1.04505346,-0.01541629,-0.89152589,0.68955197,0.72818320,-0.93562983,0.27904459,-0.77801805,0.22980795,-0.47602500,-0.84803795,0.40052603,-0.04662413
7.86000000,-0.03719396,1.04505346,-0.01541629,-0.89152589,0.68955197,0.72818320,-0.93562983,0.27904459,-0.77801805,0.22980795,-0.47602500,-0.84803795,0.40052603,-0.04662413
7.88000000,-0.03719396,1.04505346,-0.01541629,-0.89152589,0.68955197,0.72818320,-0.93562983,0.27904459,-0.77801805,0.22980795,-0.47602500,-0.84803795,0.40052603,-0.04662413
7.90000000,-0.03719396,1.04505346,-0.01541629,-0.89152589,0.68955197,0.72818320,-0.93562983,0.27904459,-0.77801805,0.22980795,-0.47602500,-0.84803795,0.40052603,-0.04662413
7.92000000,-0.03719396,1.04505346,-0.01541629,-0.89152589,0.68955197,0.72818320,-0.93562983,0.27904459,-0.77801805,0.22980795,-0.47602500,-0.84803795,0.40052603,-0.04662413
7.94000000,-0.03719396,1.04505346,-0.01541629,-0.89152589,0.68955197,0.72818320,-0.93562983,0.27904459,-0.77801805,0.22980795,-0.47602500,-0.84803795,0.40052603,-0.04662413
7.96000000,-0.03719396,1.04505346,-0.01541629,-0.89152589,0.68955197,0.72818320,-0.93562983,0.27904459,-0.77801805,0.22980795,-0.47602500,-0.84803795,0.40052603,-0.04662413
7.98000000,-0.03719396,1.04505346,-0.01541629,-0.89152589,0.68955197,0.72818320,-0.93562983,0.27904459,-0.77801805,0.22980795,-0.47602500,-0.84803795,0.40052603,-0.04662413
8.00000000,-0.03719396,1.04505346,-0.01541629,-0.89152589,0.68955197,0.72818320,-0.93562983,0.27904459,-0.77801805,0.22980795,-0.47602500,-0.84803795,0.40052603,-0.04662413
8.02000000,-0.03719396,1.04505346,-0.01541629,-0.89152589,0.68955197,0.72818320,-0.93562983,0.27904459,-0.77801805,0.22980795,-0.47602500,-0.84803795,0.40052603,-0.04662413
8.04000000,-0.03719396,1.04505346,-0.01541629,-0.89152589,0.68955197,0.72818320,-0.93562983,0.27904459,-0.77801805,0.22980795,-0.47602500,-0.84803795,0.40052603,-0.04662413
8.06000000,-0.03719396,1.04505346,-0.01541629,-0.89152589,0.68955197,0.72818320,-0.93562983,0.27904459,-0.77801805,0.22980795,-0.47602500,-0.84803795,0.40052603,-0.04662413
8.08000000,-0.03719396,1.04505346,-0.01541629,-0.89152589,0.68955197,0.72818320,-0.93562983,0.27904459,-0.77801805,0.22980795,-0.47602500,-0.84803795,0.40052603,-0.04662413
8.10000000,-0.03719396,1.04505346,-0.01541629,-0.89152589,0.68955197,0.72818320,-0.93562983,0.27904459,-0.77801805,0.22980795,-0.47602500,-0.84803795,0.40052603,-0.04662413
8.12000000,-0.03719396,1.04505346,-0.01541629,-0.89152589,0.68955197,0.72818320,-0.93562983,0.27904459,-0.77801805,0.22980795,-0.47602500,-0.84803795,0.40052603,-0.04662413
8.14000000,-0.03719396,1.04505346,-0.01541629,-0.89152589,0.68955197,0.72818320,-0.93562983,0.27904459,-0.77801805,0.22980795,-0.47602500,-0.84803795,0.40052603,-0.04662413
8.16000000,-0.03719396,1.04505346,-0.01541629,-0.89152589,0.68955197,0.72818320,-0.93562983,0.27904459,-0.77801805,0.22980795,-0.47602500,-0.84803795,0.40052603,-0.04662413
8.18000000,-0.03719396,1.04505346,-0.01541629,-0.89152589,0.68955197,0.72818320,-0.93562983,0.27904459,-0.77801805,0.22980795,-0.47602500,-0.84803795,0.40052603,-0.04662413
8.20000000,-0.03719396,1.04505346,-0.01541629,-0.89152589,0.68955197,0.72818320,-0.93562983,0.27904459,-0.77801805,0.22980795,-0.47602500,-0.84803795,0.40052603,-0.04662413
8.22000000,-0.03719396,1.04505346,-0.01541629,-0.89152589,0.68955197,0.72818320,-0.93562983,0.27904459,-0.77801805,0.22980795,-0.47602500,-0.84803795,0.40052603,-0.04662413
8.24000000,-0.03719396,1.04505346,-0.01541629,-0.89152589,0.68955197,0.72818320,-0.93562983,0.27904459,-0.77801805,0.22980795,-0.47602500,-0.84803795,0.40052603,-0.04662413
8.26000000,-0.03719396,1.04505346,-0.01541629,-0.89152589,0.68955197,0.72818320,-0.93562983,0.27904459,-0.77801805,0.22980795,-0.47602500,-0.84803795,0.40052603,-0.04662413
8.28000000,-0.03719396,1.04505346,-0.01541629,-0.89152589,0.68955197,0.72818320,-0.93562983,0.27904459,-0.77801805,0.22980795,-0.47602500,-0.84803795,0.40052603,-0.04662413
8.30000000,-0.03719396,1.04505346,-0.01541629,-0.89152589,0.68955197,0.72818320,-0.93562983,0.27904459,-0.77801805,0.22980795,-0.47602500,-0.84803795,0.40052603,-0.04662413
8.32000000,-0.03719396,1.04505346,-0.01541629,-0.89152589,0.68955197,0.72818320,-0.93562983,0.27904459,-0.77801805,0.22980795,-0.47602500,-0.84803795,0.40052603,-0.04662413
8.34000000,-0.03719396,1.04505346,-0.01541629,-0.89152589,0.68955197,0.72818320,-0.93562983,0.27904459,-0.77801805,0.22980795,-0.47602500,-0.84803795,0.40052603,-0.04662413
8.36000000,-0.03719396,1.04505346,-0.01541629,-0.89152589,0.68955197,0.72818320,-0.93562983,0.27904459,-0.77801805,0.22980795,-0.47602500,-0.84803795,0.40052603,-0.04662413
8.38000000,-0.03719396,1.04505346,-0.01541629,-0.89152589,0.68955197,0.72818320,-0.93562983,0.27904459,-0.77801805,0.22980795,-0.47602500,-0.84803795,0.40052603,-0.04662413
8.40000000,-0.03719396,1.04505346,-0.01541629,-0.89152589,0.68955197,0.72818320,-0.93562983,0.27904459,-0.77801805,0.22980795,-0.47602500,-0.84803795,0.40052603,-0.04662413
8.42000000,-0.03719396,1.04505346,-0.01541629,-0.89152589,0.68955197,0.72818320,-0.93562983,0.27904459,-0.77801805,0.22980795,-0.47602500,-0.84803795,0.40052603,-0.04662413
8.44000000,-0.03719396,1.04505346,-0.01541629,-0.89152589,0.68955197,0.72818320,-0.93562983,0.27904459,-0.77801805,0.22980795,-0.47602500,-0.84803795,0.40052603,-0.04662413
8.46000000,-0.03719396,1.04505346,-0.01541629,-0.89152589,0.68955197,0.72818320,-0.93562983,0.27904459,-0.77801805,0.22980795,-0.47602500,-0.84803795,0.40052603,-0.04662413
8.48000000,-0.03719396,1.04505346,-0.01541629,-0.89152589,0.68955197,0.72818320,-0.93562983,0.27904459,-0.77801805,0.22980795,-0.47602500,-0.84803795,0.40052603,-0.04662413
8.50000000,-0.03719396,1.04505346,-0.01541629,-0.89152589,0.68955197,0.72818320,-0.93562983,0.27904459,-0.77801805,0.22980795,-0.47602500,-0.84803795,0.40052603,-0.04662413
8.52000000,-0.03719396,1.04505346,-0.01541629,-0.89152589,0.68955197,0.72818320,-0.93562983,0.27904459,-0.77801805,0.22980795,-0.47602500,-0.84803795,0.40052603,-0.04662413
8.54000000,-0.03719396,1.04505346,-0.01541629,-0.89152589,0.68955197,0.72818320,-0.93562983,0.27904459,-0.77801805,0.22980795,-0.47602500,-0.84803795,0.40052603,-0.04662413
8.56000000,-0.03719396,1.04505346,-0.01541629,-0.89152589,0.68955197,0.72818320,-0.93562983,0.27904459,-0.77801805,0.22980795,-0.47602500,-0.84803795,0.40052603,-0.04662413
8.58000000,-0.03719396,1.04505346,-0.01541629,-0.89152589,0.68955197,0.72818320,-0.93562983,0.27904459,-0.77801805,0.22980795,-0.47602500,-0.84803795,0.40052603,-0.04662413
8.60000000,-0.03719396,1.04505346,-0.01541629,-0.89152589,0.68955197,0.72818320,-0.93562983,0.27904459,-0.77801805,0.22980795,-0.47602500,-0.84803795,0.40052603,-0.04662413
8.62000000,-0.03719396,1.04505346,-0.01541629,-0.89152589,0.68955197,0.72818320,-0.93562983,0.27904459,-0.77801805,0.22980795,-0.47602500,-0.84803795,0.40052603,-0.04662413
8.64000000,-0.03719396,1.04505346,-0.01541629,-0.89152589,0.68955197,0.72818320,-0.93562983,0.27904459,-0.77801805,0.22980795,-0.47602500,-0.84803795,0.40052603,-0.04662413
8.66000000,-0.03719396,1.04505346,-0.01541629,-0.89152589,0.68955197,0.72818320,-0.93562983,0.27904459,-0.77801805,0.22980795,-0.47602500,-0.84803795,0.40052603,-0.04662413
8.68000000,-0.03719396,1.04505346,-0.01541629,-0.89152589,0.68955197,0.72818320,-0.93562983,0.27904459,-0.77801805,0.22980795,-0.47602500,-0.84803795,0.40052603,-0.04662413
8.70000000,-0.03719396,1.04505346,-0.01541629,-0.89152589,0.68955197,0.72818320,-0.93562983,0.27904459,-0.77801805,0.22980795,-0.47602500,-0.84803795,0.40052603,-0.04662413
8.72000000,-0.03719396,1.04505346,-0.01541629,-0.89152589,0.68955197,0.72818320,-0.93562983,0.27904459,-0.77801805,0.22980795,-0.47602500,-0.84803795,0.40052603,-0.04662413
8.74000000,-0.03719396,1.04505346,-0.01541629,-0.89152589,0.68955197,0.72818320,-0.93562983,0.27904459,-0.77801805,0.22980795,-0.47602500,-0.84803795,0.40052603,-0.04662413
8.76000000,-0.03719396,1.04505346,-0.01541629,-0.89152589,0.68955197,0.72818320,-0.93562983,0.27904459,-0.77801805,0.22980795,-0.47602500,-0.84803795,0.40052603,-0.04662413
8.78000000,-0.03719396,1.04505346,-0.01541629,-0.89152589,0.68955197,0.72818320,-0.93562983,0.27904459,-0.77801805,0.22980795,-0.47602500,-0.84803795,0.40052603,-0.04662413
8.80000000,-0.03719396,1.04505346,-0.01541629,-0.89152589,0.68955197,0.72818320,-0.93562983,0.27904459,-0.77801805,0.22980795,-0.47602500,-0.84803795,0.40052603,-0.04662413
8.82000000,-0.03719396,1.04505346,-0.01541629,-0.89152589,0.68955197,0.72818320,-0.93562983,0.27904459,-0.77801805,0.22980795,-0.47602500,-0.84803795,0.40052603,-0.04662413
8.84000000,-0.03719396,1.04505346,-0.01541629,-0.89152589,0.68955197,0.72818320,-0.93562983,0.27904459,-0.77801805,0.22980795,-0.47602500,-0.84803795,0.40052603,-0.04662413
8.86000000,-0.03719396,1.04505346,-0.01541629,-0.89152589,0.68955197,0.72818320,-0.93562983,0.27904459,-0.77801805,0.22980795,-0.47602500,-0.84803795,0.40052603,-0.04662413
8.88000000,-0.03719396,1.04505346,-0.01541629,-0.89152589,0.68955197,0.72818320,-0.93562983,0.27904459,-0.77801805,0.22980795,-0.47602500,-0.84803795,0.40052603,-0.04662413
8.90000000,-0.03719396,1.04505346,-0.01541629,-0.89152589,0.68955197,0.72818320,-0.93562983,0.27904459,-0.77801805,0.22980795,-0.47602500,-0.84803795,0.40052603,-0.04662413
8.92000000,-0.03719396,1.04505346,-0.01541629,-0.89152589,0.68955197,0.72818320,-0.93562983,0.27904459,-0.77801805,0.22980795,-0.47602500,-0.84803795,0.40052603,-0.04662413
8.94000000,-0.03719396,1.04505346,-0.01541629,-0.89152589,0.68955197,0.72818320,-0.93562983,0.27904459,-0.77801805,0.22980795,-0.47602500,-0.84803795,0.40052603,-0.04662413
8.96000000,-0.03719396,1.04505346,-0.01541629,-0.89152589,0.68955197,0.72818320,-0.93562983,0.27904459,-0.77801805,0.22980795,-0.47602500,-0.84803795,0.40052603,-0.04662413
8.98000000,-0.03719396,1.04505346,-0.01541629,-0.89152589,0.68955197,0.72818320,-0.93562983,0.27904459,-0.77801805,0.22980795,-0.47602500,-0.84803795,0.40052603,-0.04662413
9.00000000,-0.03719396,1.04505346,-0.01541629,-0.89152589,0.68955197,0.72818320,-0.93562983,0.27904459,-0.77801805,0.22980795,-0.47602500,-0.84803795,0.40052603,-0.04662413
9.02000000,-0.03719396,1.04505346,-0.01541629,-0.89152589,0.68955197,0.72818320,-0.93562983,0.27904459,-0.77801805,0.22980795,-0.47602500,-0.84803795,0.40052603,-0.04662413
9.04000000,-0.03719396,1.04505346,-0.01541629,-0.89152589,0.68955197,0.72818320,-0.93562983,0.27904459,-0.77801805,0.22980795,-0.47602500,-0.84803795,0.40052603,-0.04662413
9.06000000,-0.03719396,1.04505346,-0.01541629,-0.89152589,0.68955197,0.72818320,-0.93562983,0.27904459,-0.77801805,0.22980795,-0.47602500,-0.84803795,0.40052603,-0.04662413
9.08000000,-0.03719396,1.04505346,-0.01541629,-0.89152589,0.68955197,0.72818320,-0.93562983,0.27904459,-0.77801805,0.22980795,-0.47602500,-0.84803795,0.40052603,-0.04662413
9.10000000,-0.03719396,1.04505346,-0.01541629,-0.89152589,0.68955197,0.72818320,-0.93562983,0.27904459,-0.77801805,0.22980795,-0.47602500,-0.84803795,0.40052603,-0.04662413
9.12000000,-0.03719396,1.04505346,-0.01541629,-0.89152589,0.68955197,0.72818320,-0.93562983,0.27904459,-0.77801805,0.22980795,-0.47602500,-0.84803795,0.40052603,-0.04662413
9.14000000,-0.03719396,1.04505346,-0.01541629,-0.89152589,0.68955197,0.72818320,-0.93562983,0.27904459,-0.77801805,0.22980795,-0.47602500,-0.84803795,0.40052603,-0.04662413
9.16000000,-0.03719396,1.04505346,-0.01541629,-0.89152589,0.68955197,0.72818320,-0.93562983,0.27904459,-0.77801805,0.22980795,-0.47602500,-0.84803795,0.40052603,-0.04662413
9.18000000,-0.03719396,1.04505346,-0.01541629,-0.89152589,0.68955197,0.72818320,-0.93562983,0.27904459,-0.77801805,0.22980795,-0.47602500,-0.84803795,0.40052603,-0.04662413
9.20000000,-0.03719396,1.04505346,-0.01541629,-0.89152589,0.68955197,0.72818320,-0.93562983,0.27904459,-0.77801805,0.22980795,-0.47602500,-0.84803795,0.40052603,-0.04662413
9.22000000,-0.03719396,1.04505346,-0.01541629,-0.89152589,0.68955197,0.72818320,-0.93562983,0.27904459,-0.77801805,0.22980795,-0.47602500,-0.84803795,0.40052603,-0.04662413
9.24000000,-0.03719396,1.04505346,-0.01541629,-0.89152589,0.68955197,0.72818320,-0.93562983,0.27904459,-0.77801805,0.22980795,-0.47602500,-0.84803795,0.40052603,-0.04662413
9.26000000,-0.03719396,1.04505346,-0.01541629,-0.89152589,0.68955197,0.72818320,-0.93562983,0.27904459,-0.77801805,0.22980795,-0.47602500,-0.84803795,0.40052603,-0.04662413
9.28000000,-0.03719396,1.04505346,-0.01541629,-0.89152589,0.68955197,0.72818320,-0.93562983,0.27904459,-0.77801805,0.22980795,-0.47602500,-0.84803795,0.40052603,-0.04662413
9.30000000,-0.03719396,1.04505346,-0.01541629,-0.89152589,0.68955197,0.72818320,-0.93562983,0.27904459,-0.77801805,0.22980795,-0.47602500,-0.84803795,0.40052603,-0.04662413
9.32000000,-0.03719396,1.04505346,-0.01541629,-0.89152589,0.68955197,0.72818320,-0.93562983,0.27904459,-0.77801805,0.22980795,-0.47602500,-0.84803795,0.40052603,-0.04662413
9.34000000,-0.03719396,1.04505346,-0.01541629,-0.89152589,0.68955197,0.72818320,-0.93562983,0.27904459,-0.77801805,0.22980795,-0.47602500,-0.84803795,0.40052603,-0.04662413
9.36000000,-0.03719396,1.04505346,-0.01541629,-0.89152589,0.68955197,0.72818320,-0.93562983,0.27904459,-0.77801805,0.22980795,-0.47602500,-0.84803795,0.40052603,-0.04662413
9.38000000,-0.03719396,1.04505346,-0.01541629,-0.89152589,0.68955197,0.72818320,-0.93562983,0.27904459,-0.77801805,0.22980795,-0.47602500,-0.84803795,0.40052603,-0.04662413
9.40000000,-0.03719396,1.04505346,-0.01541629,-0.89152589,0.68955197,0.72818320,-0.93562983,0.27904459,-0.77801805,0.22980795,-0.47602500,-0.84803795,0.40052603,-0.04662413
9.42000000,-0.03719396,1.04505346,-0.01541629,-0.89152589,0.68955197,0.72818320,-0.93562983,0.27904459,-0.77801805,0.22980795,-0.47602500,-0.84803795,0.40052603,-0.04662413
9.44000000,-0.03719396,1.04505346,-0.01541629,-0.89152589,0.68955197,0.72818320,-0.93562983,0.27904459,-0.77801805,0.22980795,-0.47602500,-0.84803795,0.40052603,-0.04662413
9.46000000,-0.03719396,1.04505346,-0.01541629,-0.89152589,0.68955197,0.72818320,-0.93562983,0.27904459,-0.77801805,0.22980795,-0.47602500,-0.84803795,0.40052603,-0.04662413
9.48000000,-0.03719396,1.04505346,-0.01541629,-0.89152589,0.68955197,0.72818320,-0.93562983,0.27904459,-0.77801805,0.22980795,-0.47602500,-0.84803795,0.40052603,-0.04662413
9.50000000,-0.03719396,1.04505346,-0.01541629,-0.89152589,0.68955197,0.72818320,-0.93562983,0.27904459,-0.77801805,0.22980795,-0.47602500,-0.84803795,0.40052603,-0.04662413
9.52000000,-0.03719396,1.04505346,-0.01541629,-0.89152589,0.68955197,0.72818320,-0.93562983,0.27904459,-0.77801805,0.22980795,-0.47602500,-0.84803795,0.40052603,-0.04662413
9.54000000,-0.03719396,1.04505346,-0.01541629,-0.89152589,0.68955197,0.72818320,-0.93562983,0.27904459,-0.77801805,0.22980795,-0.47602500,-0.84803795,0.40052603,-0.04662413
9.56000000,-0.03719396,1.04505346,-0.01541629,-0.89152589,0.68955197,0.72818320,-0.93562983,0.27904459,-0.77801805,0.22980795,-0.47602500,-0.84803795,0.40052603,-0.04662413
9.58000000,-0.03719396,1.04505346,-0.01541629,-0.89152589,0.68955197,0.72818320,-0.93562983,0.27904459,-0.77801805,0.22980795,-0.47602500,-0.84803795,0.40052603,-0.04662413
9.60000000,-0.03719396,1.04505346,-0.01541629,-0.89152589,0.68955197,0.72818320,-0.93562983,0.27904459,-0.77801805,0.22980795,-0.47602500,-0.84803795,0.40052603,-0.04662413
9.62000000,-0.03719396,1.04505346,-0.01541629,-0.89152589,0.68955197,0.72818320,-0.93562983,0.27904459,-0.77801805,0.22980795,-0.47602500,-0.84803795,0.40052603,-0.04662413
9.64000000,-0.03719396,1.04505346,-0.01541629,-0.89152589,0.68955197,0.72818320,-0.93562983,0.27904459,-0.77801805,0.22980795,-0.47602500,-0.84803795,0.40052603,-0.04662413
9.66000000,-0.03719396,1.04505346,-0.01541629,-0.89152589,0.68955197,0.72818320,-0.93562983,0.27904459,-0.77801805,0.22980795,-0.47602500,-0.84803795,0.40052603,-0.04662413
9.68000000,-0.03719396,1.04505346,-0.01541629,-0.89152589,0.68955197,0.72818320,-0.93562983,0.27904459,-0.77801805,0.22980795,-0.47602500,-0.84803795,0.40052603,-0.04662413
9.70000000,-0.03719396,1.04505346,-0.01541629,-0.89152589,0.68955197,0.72818320,-0.93562983,0.27904459,-0.77801805,0.22980795,-0.47602500,-0.84803795,0.40052603,-0.04662413
9.72000000,-0.03719396,1.04505346,-0.01541629,-0.89152589,0.68955197,0.72818320,-0.93562983,0.27904459,-0.77801805,0.22980795,-0.47602500,-0.84803795,0.40052603,-0.04662413
9.74000000,-0.03719396,1.04505346,-0.01541629,-0.89152589,0.68955197,0.72818320,-0.93562983,0.27904459,-0.77801805,0.22980795,-0.47602500,-0.84803795,0.40052603,-0.04662413
9.76000000,-0.03719396,1.04505346,-0.01541629,-0.89152589,0.68955197,0.72818320,-0.93562983,0.27904459,-0.77801805,0.22980795,-0.47602500,-0.84803795,0.40052603,-0.04662413
9.78000000,-0.03719396,1.04505346,-0.01541629,-0.89152589,0.68955197,0.72818320,-0.93562983,0.27904459,-0.77801805,0.22980795,-0.47602500,-0.84803795,0.40052603,-0.04662413
9.80000000,-0.03719396,1.04505346,-0.01541629,-0.89152589,0.68955197,0.72818320,-0.93562983,0.27904459,-0.77801805,0.22980795,-0.47602500,-0.84803795,0.40052603,-0.04662413
9.82000000,-0.03719396,1.04505346,-0.01541629,-0.89152589,0.68955197,0.72818320,-0.93562983,0.27904459,-0.77801805,0.22980795,-0.47602500,-0.84803795,0.40052603,-0.04662413
9.84000000,-0.03719396,1.04505346,-0.01541629,-0.89152589,0.68955197,0.72818320,-0.93562983,0.27904459,-0.77801805,0.22980795,-0.47602500,-0.84803795,0.40052603,-0.04662413
9.86000000,-0.03719396,1.04505346,-0.01541629,-0.89152589,0.68955197,0.72818320,-0.93562983,0.27904459,-0.77801805,0.22980795,-0.47602500,-0.84803795,0.40052603,-0.04662413
9.88000000,-0.03719396,1.04505346,-0.01541629,-0.89152589,0.68955197,0.72818320,-0.93562983,0.27904459,-0.77801805,0.22980795,-0.47602500,-0.84803795,0.40052603,-0.04662413
9.90000000,-0.03719396,1.04505346,-0.01541629,-0.89152589,0.68955197,0.72818320,-0.93562983,0.27904459,-0.77801805,0.22980795,-0.47602500,-0.84803795,0.40052603,-0.04662413
9.92000000,-0.03719396,1.04505346,-0.01541629,-0.89152589,0.68955197,0.72818320,-0.93562983,0.27904459,-0.77801805,0.22980795,-0.47602500,-0.84803795,0.40052603,-0.04662413
9.94000000,-0.03719396,1.04505346,-0.01541629,-0.89152589,0.68955197,0.72818320,-0.93562983,0.27904459,-0.77801805,0.22980795,-0.47602500,-0.84803795,0.40052603,-0.04662413
9.96000000,-0.03719396,1.04505346,-0.01541629,-0.89152589,0.68955197,0.72818320,-0.93562983,0.27904459,-0.77801805,0.22980795,-0.47602500,-0.84803795,0.40052603,-0.04662413
9.98000000,-0.03719396,1.04505346,-0.01541629,-0.89152589,0.68955197,0.72818320,-0.93562983,0.27904459,-0.77801805,0.22980795,-0.47602500,-0.84803795,0.40052603,-0.04662413
10.00000000,-0.03719396,1.04505346,-0.01541629,-0.89152589,0.68955197,0.72818320,-0.93562983,0.27904459,-0.77801805,0.22980795,-0.47602500,-0.84803795,0.40052603,-0.04662413
10.02000000,-0.03719396,1.04505346,-0.01541629,-0.89152589,0.68955197,0.72818320,-0.93562983,0.27904459,-0.77801805,0.22980795,-0.47602500,-0.84803795,0.40052603,-0.04662413
10.04000000,-0.03719396,1.04505346,-0.01541629,-0.89152589,0.68955197,0.72818320,-0.93562983,0.27904459,-0.77801805,0.22980795,-0.47602500,-0.84803795,0.40052603,-0.04662413
10.06000000,-0.03719396,1.04505346,-0.01541629,-0.89152589,0.68955197,0.72818320,-0.93562983,0.27904459,-0.77801805,0.22980795,-0.47602500,-0.84803795,0.40052603,-0.04662413
10.08000000,-0.03719396,1.04505346,-0.01541629,-0.89152589,0.68955197,0.72818320,-0.93562983,0.27904459,-0.77801805,0.22980795,-0.47602500,-0.84803795,0.40052603,-0.04662413
10.10000000,-0.03719396,1.04505346,-0.01541629,-0.89152589,0.68955197,0.72818320,-0.93562983,0.27904459,-0.77801805,0.22980795,-0.47602500,-0.84803795,0.40052603,-0.04662413
10.12000000,-0.03719396,1.04505346,-0.01541629,-0.89152589,0.68955197,0.72818320,-0.93562983,0.27904459,-0.77801805,0.22980795,-0.47602500,-0.84803795,0.40052603,-0.04662413
10.14000000,-0.03719396,1.04505346,-0.01541629,-0.89152589,0.68955197,0.72818320,-0.93562983,0.27904459,-0.77801805,0.22980795,-0.47602500,-0.84803795,0.40052603,-0.04662413
10.16000000,-0.03719396,1.04505346,-0.01541629,-0.89152589,0.68955197,0.72818320,-0.93562983,0.27904459,-0.77801805,0.22980795,-0.47602500,-0.84803795,0.40052603,-0.04662413
10.18000000,-0.03719396,1.04505346,-0.01541629,-0.89152589,0.68955197,0.72818320,-0.93562983,0.27904459,-0.77801805,0.22980795,-0.47602500,-0.84803795,0.40052603,-0.04662413
10.20000000,-0.03719396,1.04505346,-0.01541629,-0.89152589,0.68955197,0.72818320,-0.93562983,0.27904459,-0.77801805,0.22980795,-0.47602500,-0.84803795,0.40052603,-0.04662413
10.22000000,-0.03719396,1.04505346,-0.01541629,-0.89152589,0.68955197,0.72818320,-0.93562983,0.27904459,-0.77801805,0.22980795,-0.47602500,-0.84803795,0.40052603,-0.04662413
10.24000000,-0.03719396,1.04505346,-0.01541629,-0.89152589,0.68955197,0.72818320,-0.93562983,0.27904459,-0.77801805,0.22980795,-0.47602500,-0.84803795,0.40052603,-0.04662413
10.26000000,-0.03719396,1.04505346,-0.01541629,-0.89152589,0.68955197,0.72818320,-0.93562983,0.27904459,-0.77801805,0.22980795,-0.47602500,-0.84803795,0.40052603,-0.04662413
10.28000000,-0.03719396,1.04505346,-0.01541629,-0.89152589,0.68955197,0.72818320,-0.93562983,0.27904459,-0.77801805,0.22980795,-0.47602500,-0.84803795,0.40052603,-0.04662413
10.30000000,-0.03719396,1.04505346,-0.01541629,-0.89152589,0.68955197,0.72818320,-0.93562983,0.27904459,-0.77801805,0.22980795,-0.47602500,-0.84803795,0.40052603,-0.04662413
10.32000000,-0.03719396,1.04505346,-0.01541629,-0.89152589,0.68955197,0.72818320,-0.93562983,0.27904459,-0.77801805,0.22980795,-0.47602500,-0.84803795,0.40052603,-0.04662413
10.34000000,-0.03719396,1.04505346,-0.01541629,-0.89152589,0.68955197,0.72818320,-0.93562983,0.27904459,-0.77801805,0.22980795,-0.47602500,-0.84803795,0.40052603,-0.04662413
10.36000000,-0.03719396,1.04505346,-0.01541629,-0.89152589,0.68955197,0.72818320,-0.93562983,0.27904459,-0.77801805,0.22980795,-0.47602500,-0.84803795,0.40052603,-0.04662413
10.38000000,-0.03719396,1.04505346,-0.01541629,-0.89152589,0.68955197,0.72818320,-0.93562983,0.27904459,-0.77801805,0.22980795,-0.47602500,-0.84803795,0.40052603,-0.04662413
10.40000000,-0.03719396,1.04505346,-0.01541629,-0.89152589,0.68955197,0.72818320,-0.93562983,0.27904459,-0.77801805,0.22980795,-0.47602500,-0.84803795,0.40052603,-0.04662413
10.42000000,-0.03719396,1.04505346,-0.01541629,-0.89152589,0.68955197,0.72818320,-0.93562983,0.27904459,-0.77801805,0.22980795,-0.47602500,-0.84803795,0.40052603,-0.04662413
10.44000000,-0.03719396,1.04505346,-0.01541629,-0.89152589,0.68955197,0.72818320,-0.93562983,0.27904459,-0.77801805,0.22980795,-0.47602500,-0.84803795,0.40052603,-0.04662413
10.46000000,-0.03719396,1.04505346,-0.01541629,-0.89152589,0.68955197,0.72818320,-0.93562983,0.27904459,-0.77801805,0.22980795,-0.47602500,-0.84803795,0.40052603,-0.04662413
10.48000000,-0.03719396,1.04505346,-0.01541629,-0.89152589,0.68955197,0.72818320,-0.93562983,0.27904459,-0.77801805,0.22980795,-0.47602500,-0.84803795,0.40052603,-0.04662413
10.50000000,-0.03719396,1.04505346,-0.01541629,-0.89152589,0.68955197,0.72818320,-0.93562983,0.27904459,-0.77801805,0.22980795,-0.47602500,-0.84803795,0.40052603,-0.04662413
10.52000000,-0.03719396,1.04505346,-0.01541629,-0.89152589,0.68955197,0.72818320,-0.93562983,0.27904459,-0.77801805,0.22980795,-0.47602500,-0.84803795,0.40052603,-0.04662413
10.54000000,-0.03719396,1.04505346,-0.01541629,-0.89152589,0.68955197,0.72818320,-0.93562983,0.27904459,-0.77801805,0.22980795,-0.47602500,-0.84803795,0.40052603,-0.04662413
10.56000000,-0.03719396,1.04505346,-0.01541629,-0.89152589,0.68955197,0.72818320,-0.93562983,0.27904459,-0.77801805,0.22980795,-0.47602500,-0.84803795,0.40052603,-0.04662413
10.58000000,-0.03719396,1.04505346,-0.01541629,-0.89152589,0.68955197,0.72818320,-0.93562983,0.27904459,-0.77801805,0.22980795,-0.47602500,-0.84803795,0.40052603,-0.04662413
10.60000000,-0.03719396,1.04505346,-0.01541629,-0.89152589,0.68955197,0.72818320,-0.93562983,0.27904459,-0.77801805,0.22980795,-0.47602500,-0.84803795,0.40052603,-0.04662413
10.62000000,-0.03719396,1.04505346,-0.01541629,-0.89152589,0.68955197,0.72818320,-0.93562983,0.27904459,-0.77801805,0.22980795,-0.47602500,-0.84803795,0.40052603,-0.04662413
10.64000000,-0.03719396,1.04505346,-0.01541629,-0.89152589,0.68955197,0.72818320,-0.93562983,0.27904459,-0.77801805,0.22980795,-0.47602500,-0.84803795,0.40052603,-0.04662413
10.66000000,-0.03719396,1.04505346,-0.01541629,-0.89152589,0.68955197,0.72818320,-0.93562983,0.27904459,-0.77801805,0.22980795,-0.47602500,-0.84803795,0.40052603,-0.04662413
10.68000000,-0.03719396,1.04505346,-0.01541629,-0.89152589,0.68955197,0.72818320,-0.93562983,0.27904459,-0.77801805,0.22980795,-0.47602500,-0.84803795,0.40052603,-0.04662413
10.70000000,-0.03719396,1.04505346,-0.01541629,-0.89152589,0.68955197,0.72818320,-0.93562983,0.27904459,-0.77801805,0.22980795,-0.47602500,-0.84803795,0.40052603,-0.04662413
10.72000000,-0.03719396,1.04505346,-0.01541629,-0.89152589,0.68955197,0.72818320,-0.93562983,0.27904459,-0.77801805,0.22980795,-0.47602500,-0.84803795,0.40052603,-0.04662413
10.74000000,-0.03719396,1.04505346,-0.01541629,-0.89152589,0.68955197,0.72818320,-0.93562983,0.27904459,-0.77801805,0.22980795,-0.47602500,-0.84803795,0.40052603,-0.04662413
10.76000000,-0.03719396,1.04505346,-0.01541629,-0.89152589,0.68955197,0.72818320,-0.93562983,0.27904459,-0.77801805,0.22980795,-0.47602500,-0.84803795,0.40052603,-0.04662413
10.78000000,-0.03719396,1.04505346,-0.01541629,-0.89152589,0.68955197,0.72818320,-0.93562983,0.27904459,-0.77801805,0.22980795,-0.47602500,-0.84803795,0.40052603,-0.04662413
10.80000000,-0.03719396,1.04505346,-0.01541629,-0.89152589,0.68955197,0.72818320,-0.93562983,0.27904459,-0.77801805,0.22980795,-0.47602500,-0.84803795,0.40052603,-0.04662413
10.82000000,-0.03719396,1.04505346,-0.01541629,-0.89152589,0.68955197,0.72818320,-0.93562983,0.27904459,-0.77801805,0.22980795,-0.47602500,-0.84803795,0.40052603,-0.04662413
10.84000000,-0.03719396,1.04505346,-0.01541629,-0.89152589,0.68955197,0.72818320,-0.93562983,0.27904459,-0.77801805,0.22980795,-0.47602500,-0.84803795,0.40052603,-0.04662413
10.86000000,-0.03719396,1.04505346,-0.01541629,-0.89152589,0.68955197,0.72818320,-0.93562983,0.27904459,-0.77801805,0.22980795,-0.47602500,-0.84803795,0.40052603,-0.04662413
10.88000000,-0.03719396,1.04505346,-0.01541629,-0.89152589,0.68955197,0.72818320,-0.93562983,0.27904459,-0.77801805,0.22980795,-0.47602500,-0.84803795,0.40052603,-0.04662413
10.90000000,-0.03719396,1.04505346,-0.01541629,-0.89152589,0.68955197,0.72818320,-0.93562983,0.27904459,-0.77801805,0.22980795,-0.47602500,-0.84803795,0.40052603,-0.04662413
10.92000000,-0.03719396,1.04505346,-0.01541629,-0.89152589,0.68955197,0.72818320,-0.93562983,0.27904459,-0.77801805,0.22980795,-0.47602500,-0.84803795,0.40052603,-0.04662413
10.94000000,-0.03719396,1.04505346,-0.01541629,-0.89152589,0.68955197,0.72818320,-0.93562983,0.27904459,-0.77801805,0.22980795,-0.47602500,-0.84803795,0.40052603,-0.04662413
10.96000000,-0.03719396,1.04505346,-0.01541629,-0.89152589,0.68955197,0.72818320,-0.93562983,0.27904459,-0.77801805,0.22980795,-0.47602500,-0.84803795,0.40052603,-0.04662413
10.98000000,-0.03719396,1.04505346,-0.01541629,-0.89152589,0.68955197,0.72818320,-0.93562983,0.27904459,-0.77801805,0.22980795,-0.47602500,-0.84803795,0.40052603,-0.04662413
11.00000000,-0.03719396,1.04505346,-0.01541629,-0.89152589,0.68955197,0.72818320,-0.93562983,0.27904459,-0.77801805,0.22980795,-0.47602500,-0.84803795,0.40052603,-0.04662413
11.02000000,-0.03719396,1.04505346,-0.01541629,-0.89152589,0.68955197,0.72818320,-0.93562983,0.27904459,-0.77801805,0.22980795,-0.47602500,-0.84803795,0.40052603,-0.04662413
11.04000000,-0.03719396,1.04505346,-0.01541629,-0.89152589,0.68955197,0.72818320,-0.93562983,0.27904459,-0.77801805,0.22980795,-0.47602500,-0.84803795,0.40052603,-0.04662413
11.06000000,-0.03719396,1.04505346,-0.01541629,-0.89152589,0.68955197,0.72818320,-0.93562983,0.27904459,-0.77801805,0.22980795,-0.47602500,-0.84803795,0.40052603,-0.04662413
11.08000000,-0.03719396,1.04505346,-0.01541629,-0.89152589,0.68955197,0.72818320,-0.93562983,0.27904459,-0.77801805,0.22980795,-0.47602500,-0.84803795,0.40052603,-0.04662413
11.10000000,-0.03719396,1.04505346,-0.01541629,-0.89152589,0.68955197,0.72818320,-0.93562983,0.27904459,-0.77801805,0.22980795,-0.47602500,-0.84803795,0.40052603,-0.04662413
11.12000000,-0.03719396,1.04505346,-0.01541629,-0.89152589,0.68955197,0.72818320,-0.93562983,0.27904459,-0.77801805,0.22980795,-0.47602500,-0.84803795,0.40052603,-0.04662413
11.14000000,-0.03719396,1.04505346,-0.01541629,-0.89152589,0.68955197,0.72818320,-0.93562983,0.27904459,-0.77801805,0.22980795,-0.47602500,-0.84803795,0.40052603,-0.04662413
11.16000000,-0.03719396,1.04505346,-0.01541629,-0.89152589,0.68955197,0.72818320,-0.93562983,0.27904459,-0.77801805,0.22980795,-0.47602500,-0.84803795,0.40052603,-0.04662413
11.18000000,-0.03719396,1.04505346,-0.01541629,-0.89152589,0.68955197,0.72818320,-0.93562983,0.27904459,-0.77801805,0.22980795,-0.47602500,-0.84803795,0.40052603,-0.04662413
11.20000000,-0.03719396,1.04505346,-0.01541629,-0.89152589,0.68955197,0.72818320,-0.93562983,0.27904459,-0.77801805,0.22980795,-0.47602500,-0.84803795,0.40052603,-0.04662413
11.22000000,-0.03719396,1.04505346,-0.01541629,-0.89152589,0.68955197,0.72818320,-0.93562983,0.27904459,-0.77801805,0.22980795,-0.47602500,-0.84803795,0.40052603,-0.04662413
11.24000000,-0.03719396,1.04505346,-0.01541629,-0.89152589,0.68955197,0.72818320,-0.93562983,0.27904459,-0.77801805,0.22980795,-0.47602500,-0.84803795,0.40052603,-0.04662413
11.26000000,-0.03719396,1.04505346,-0.01541629,-0.89152589,0.68955197,0.72818320,-0.93562983,0.27904459,-0.77801805,0.22980795,-0.47602500,-0.84803795,0.40052603,-0.04662413
11.28000000,-0.03719396,1.04505346,-0.01541629,-0.89152589,0.68955197,0.72818320,-0.93562983,0.27904459,-0.77801805,0.22980795,-0.47602500,-0.84803795,0.40052603,-0.04662413
11.30000000,-0.03719396,1.04505346,-0.01541629,-0.89152589,0.68955197,0.72818320,-0.93562983,0.27904459,-0.77801805,0.22980795,-0.47602500,-0.84803795,0.40052603,-0.04662413
11.32000000,-0.03719396,1.04505346,-0.01541629,-0.89152589,0.68955197,0.72818320,-0.93562983,0.27904459,-0.77801805,0.22980795,-0.47602500,-0.84803795,0.40052603,-0.04662413
11.34000000,-0.03719396,1.04505346,-0.01541629,-0.89152589,0.68955197,0.72818320,-0.93562983,0.27904459,-0.77801805,0.22980795,-0.47602500,-0.84803795,0.40052603,-0.04662413
11.36000000,-0.03719396,1.04505346,-0.01541629,-0.89152589,0.68955197,0.72818320,-0.93562983,0.27904459,-0.77801805,0.22980795,-0.47602500,-0.84803795,0.40052603,-0.04662413
11.38000000,-0.03719396,1.04505346,-0.01541629,-0.89152589,0.68955197,0.72818320,-0.93562983,0.27904459,-0.77801805,0.22980795,-0.47602500,-0.84803795,0.40052603,-0.04662413
11.40000000,-0.03719396,1.04505346,-0.01541629,-0.89152589,0.68955197,0.72818320,-0.93562983,0.27904459,-0.77801805,0.22980795,-0.47602500,-0.84803795,0.40052603,-0.04662413
11.42000000,-0.03719396,1.04505346,-0.01541629,-0.89152589,0.68955197,0.72818320,-0.93562983,0.27904459,-0.77801805,0.22980795,-0.47602500,-0.84803795,0.40052603,-0.04662413
11.44000000,-0.03719396,1.04505346,-0.01541629,-0.89152589,0.68955197,0.72818320,-0.93562983,0.27904459,-0.77801805,0.22980795,-0.47602500,-0.84803795,0.40052603,-0.04662413
11.46000000,-0.03719396,1.04505346,-0.01541629,-0.89152589,0.68955197,0.72818320,-0.93562983,0.27904459,-0.77801805,0.22980795,-0.47602500,-0.84803795,0.40052603,-0.04662413
11.48000000,-0.03719396,1.04505346,-0.01541629,-0.89152589,0.68955197,0.72818320,-0.93562983,0.27904459,-0.77801805,0.22980795,-0.47602500,-0.84803795,0.40052603,-0.04662413
