gracetata/LocomotionHEC/legged_lab/Reference Data/ArmHack/StandPerturb/TestData/ArmOnly/poses/randomized/randomized_arm_pose_06_seed20260715_hold20s_50hz.csv
time_s,left_shoulder_pitch_joint,left_shoulder_roll_joint,left_shoulder_yaw_joint,left_elbow_joint,left_wrist_roll_joint,left_wrist_pitch_joint,left_wrist_yaw_joint,right_shoulder_pitch_joint,right_shoulder_roll_joint,right_shoulder_yaw_joint,right_elbow_joint,right_wrist_roll_joint,right_wrist_pitch_joint,right_wrist_yaw_joint
0.00000000,-0.25804023,0.75699148,0.07129407,0.24650683,0.86443425,-0.15520732,-0.16082035,0.27916120,-0.77838521,0.22979122,-0.47605205,-0.84802979,0.40050458,-0.04664605
0.02000000,-0.25804023,0.75699148,0.07129407,0.24650683,0.86443425,-0.15520732,-0.16082035,0.27916120,-0.77838521,0.22979122,-0.47605205,-0.84802979,0.40050458,-0.04664605
0.04000000,-0.25804023,0.75699148,0.07129407,0.24650683,0.86443425,-0.15520732,-0.16082035,0.27916120,-0.77838521,0.22979122,-0.47605205,-0.84802979,0.40050458,-0.04664605
0.06000000,-0.25804023,0.75699148,0.07129407,0.24650683,0.86443425,-0.15520732,-0.16082035,0.27916120,-0.77838521,0.22979122,-0.47605205,-0.84802979,0.40050458,-0.04664605
0.08000000,-0.25804023,0.75699148,0.07129407,0.24650683,0.86443425,-0.15520732,-0.16082035,0.27916120,-0.77838521,0.22979122,-0.47605205,-0.84802979,0.40050458,-0.04664605
0.10000000,-0.25804023,0.75699148,0.07129407,0.24650683,0.86443425,-0.15520732,-0.16082035,0.27916120,-0.77838521,0.22979122,-0.47605205,-0.84802979,0.40050458,-0.04664605
0.12000000,-0.25804023,0.75699148,0.07129407,0.24650683,0.86443425,-0.15520732,-0.16082035,0.27916120,-0.77838521,0.22979122,-0.47605205,-0.84802979,0.40050458,-0.04664605
0.14000000,-0.25804023,0.75699148,0.07129407,0.24650683,0.86443425,-0.15520732,-0.16082035,0.27916120,-0.77838521,0.22979122,-0.47605205,-0.84802979,0.40050458,-0.04664605
0.16000000,-0.25804023,0.75699148,0.07129407,0.24650683,0.86443425,-0.15520732,-0.16082035,0.27916120,-0.77838521,0.22979122,-0.47605205,-0.84802979,0.40050458,-0.04664605
0.18000000,-0.25804023,0.75699148,0.07129407,0.24650683,0.86443425,-0.15520732,-0.16082035,0.27916120,-0.77838521,0.22979122,-0.47605205,-0.84802979,0.40050458,-0.04664605
0.20000000,-0.25804023,0.75699148,0.07129407,0.24650683,0.86443425,-0.15520732,-0.16082035,0.27916120,-0.77838521,0.22979122,-0.47605205,-0.84802979,0.40050458,-0.04664605
0.22000000,-0.25804023,0.75699148,0.07129407,0.24650683,0.86443425,-0.15520732,-0.16082035,0.27916120,-0.77838521,0.22979122,-0.47605205,-0.84802979,0.40050458,-0.04664605
0.24000000,-0.25804023,0.75699148,0.07129407,0.24650683,0.86443425,-0.15520732,-0.16082035,0.27916120,-0.77838521,0.22979122,-0.47605205,-0.84802979,0.40050458,-0.04664605
0.26000000,-0.25804023,0.75699148,0.07129407,0.24650683,0.86443425,-0.15520732,-0.16082035,0.27916120,-0.77838521,0.22979122,-0.47605205,-0.84802979,0.40050458,-0.04664605
0.28000000,-0.25804023,0.75699148,0.07129407,0.24650683,0.86443425,-0.15520732,-0.16082035,0.27916120,-0.77838521,0.22979122,-0.47605205,-0.84802979,0.40050458,-0.04664605
0.30000000,-0.25804023,0.75699148,0.07129407,0.24650683,0.86443425,-0.15520732,-0.16082035,0.27916120,-0.77838521,0.22979122,-0.47605205,-0.84802979,0.40050458,-0.04664605
0.32000000,-0.25804023,0.75699148,0.07129407,0.24650683,0.86443425,-0.15520732,-0.16082035,0.27916120,-0.77838521,0.22979122,-0.47605205,-0.84802979,0.40050458,-0.04664605
0.34000000,-0.25804023,0.75699148,0.07129407,0.24650683,0.86443425,-0.15520732,-0.16082035,0.27916120,-0.77838521,0.22979122,-0.47605205,-0.84802979,0.40050458,-0.04664605
0.36000000,-0.25804023,0.75699148,0.07129407,0.24650683,0.86443425,-0.15520732,-0.16082035,0.27916120,-0.77838521,0.22979122,-0.47605205,-0.84802979,0.40050458,-0.04664605
0.38000000,-0.25804023,0.75699148,0.07129407,0.24650683,0.86443425,-0.15520732,-0.16082035,0.27916120,-0.77838521,0.22979122,-0.47605205,-0.84802979,0.40050458,-0.04664605
0.40000000,-0.25804023,0.75699148,0.07129407,0.24650683,0.86443425,-0.15520732,-0.16082035,0.27916120,-0.77838521,0.22979122,-0.47605205,-0.84802979,0.40050458,-0.04664605
0.42000000,-0.25804023,0.75699148,0.07129407,0.24650683,0.86443425,-0.15520732,-0.16082035,0.27916120,-0.77838521,0.22979122,-0.47605205,-0.84802979,0.40050458,-0.04664605
0.44000000,-0.25804023,0.75699148,0.07129407,0.24650683,0.86443425,-0.15520732,-0.16082035,0.27916120,-0.77838521,0.22979122,-0.47605205,-0.84802979,0.40050458,-0.04664605
0.46000000,-0.25804023,0.75699148,0.07129407,0.24650683,0.86443425,-0.15520732,-0.16082035,0.27916120,-0.77838521,0.22979122,-0.47605205,-0.84802979,0.40050458,-0.04664605
0.48000000,-0.25804023,0.75699148,0.07129407,0.24650683,0.86443425,-0.15520732,-0.16082035,0.27916120,-0.77838521,0.22979122,-0.47605205,-0.84802979,0.40050458,-0.04664605
0.50000000,-0.25804023,0.75699148,0.07129407,0.24650683,0.86443425,-0.15520732,-0.16082035,0.27916120,-0.77838521,0.22979122,-0.47605205,-0.84802979,0.40050458,-0.04664605
0.52000000,-0.25804023,0.75699148,0.07129407,0.24650683,0.86443425,-0.15520732,-0.16082035,0.27916120,-0.77838521,0.22979122,-0.47605205,-0.84802979,0.40050458,-0.04664605
0.54000000,-0.25804023,0.75699148,0.07129407,0.24650683,0.86443425,-0.15520732,-0.16082035,0.27916120,-0.77838521,0.22979122,-0.47605205,-0.84802979,0.40050458,-0.04664605
0.56000000,-0.25804023,0.75699148,0.07129407,0.24650683,0.86443425,-0.15520732,-0.16082035,0.27916120,-0.77838521,0.22979122,-0.47605205,-0.84802979,0.40050458,-0.04664605
0.58000000,-0.25804023,0.75699148,0.07129407,0.24650683,0.86443425,-0.15520732,-0.16082035,0.27916120,-0.77838521,0.22979122,-0.47605205,-0.84802979,0.40050458,-0.04664605
0.60000000,-0.25804023,0.75699148,0.07129407,0.24650683,0.86443425,-0.15520732,-0.16082035,0.27916120,-0.77838521,0.22979122,-0.47605205,-0.84802979,0.40050458,-0.04664605
0.62000000,-0.25804023,0.75699148,0.07129407,0.24650683,0.86443425,-0.15520732,-0.16082035,0.27916120,-0.77838521,0.22979122,-0.47605205,-0.84802979,0.40050458,-0.04664605
0.64000000,-0.25804023,0.75699148,0.07129407,0.24650683,0.86443425,-0.15520732,-0.16082035,0.27916120,-0.77838521,0.22979122,-0.47605205,-0.84802979,0.40050458,-0.04664605
0.66000000,-0.25804023,0.75699148,0.07129407,0.24650683,0.86443425,-0.15520732,-0.16082035,0.27916120,-0.77838521,0.22979122,-0.47605205,-0.84802979,0.40050458,-0.04664605
0.68000000,-0.25804023,0.75699148,0.07129407,0.24650683,0.86443425,-0.15520732,-0.16082035,0.27916120,-0.77838521,0.22979122,-0.47605205,-0.84802979,0.40050458,-0.04664605
0.70000000,-0.25804023,0.75699148,0.07129407,0.24650683,0.86443425,-0.15520732,-0.16082035,0.27916120,-0.77838521,0.22979122,-0.47605205,-0.84802979,0.40050458,-0.04664605
0.72000000,-0.25804023,0.75699148,0.07129407,0.24650683,0.86443425,-0.15520732,-0.16082035,0.27916120,-0.77838521,0.22979122,-0.47605205,-0.84802979,0.40050458,-0.04664605
0.74000000,-0.25804023,0.75699148,0.07129407,0.24650683,0.86443425,-0.15520732,-0.16082035,0.27916120,-0.77838521,0.22979122,-0.47605205,-0.84802979,0.40050458,-0.04664605
0.76000000,-0.25804023,0.75699148,0.07129407,0.24650683,0.86443425,-0.15520732,-0.16082035,0.27916120,-0.77838521,0.22979122,-0.47605205,-0.84802979,0.40050458,-0.04664605
0.78000000,-0.25804023,0.75699148,0.07129407,0.24650683,0.86443425,-0.15520732,-0.16082035,0.27916120,-0.77838521,0.22979122,-0.47605205,-0.84802979,0.40050458,-0.04664605
0.80000000,-0.25804023,0.75699148,0.07129407,0.24650683,0.86443425,-0.15520732,-0.16082035,0.27916120,-0.77838521,0.22979122,-0.47605205,-0.84802979,0.40050458,-0.04664605
0.82000000,-0.25804023,0.75699148,0.07129407,0.24650683,0.86443425,-0.15520732,-0.16082035,0.27916120,-0.77838521,0.22979122,-0.47605205,-0.84802979,0.40050458,-0.04664605
0.84000000,-0.25804023,0.75699148,0.07129407,0.24650683,0.86443425,-0.15520732,-0.16082035,0.27916120,-0.77838521,0.22979122,-0.47605205,-0.84802979,0.40050458,-0.04664605
0.86000000,-0.25804023,0.75699148,0.07129407,0.24650683,0.86443425,-0.15520732,-0.16082035,0.27916120,-0.77838521,0.22979122,-0.47605205,-0.84802979,0.40050458,-0.04664605
0.88000000,-0.25804023,0.75699148,0.07129407,0.24650683,0.86443425,-0.15520732,-0.16082035,0.27916120,-0.77838521,0.22979122,-0.47605205,-0.84802979,0.40050458,-0.04664605
0.90000000,-0.25804023,0.75699148,0.07129407,0.24650683,0.86443425,-0.15520732,-0.16082035,0.27916120,-0.77838521,0.22979122,-0.47605205,-0.84802979,0.40050458,-0.04664605
0.92000000,-0.25804023,0.75699148,0.07129407,0.24650683,0.86443425,-0.15520732,-0.16082035,0.27916120,-0.77838521,0.22979122,-0.47605205,-0.84802979,0.40050458,-0.04664605
0.94000000,-0.25804023,0.75699148,0.07129407,0.24650683,0.86443425,-0.15520732,-0.16082035,0.27916120,-0.77838521,0.22979122,-0.47605205,-0.84802979,0.40050458,-0.04664605
0.96000000,-0.25804023,0.75699148,0.07129407,0.24650683,0.86443425,-0.15520732,-0.16082035,0.27916120,-0.77838521,0.22979122,-0.47605205,-0.84802979,0.40050458,-0.04664605
0.98000000,-0.25804023,0.75699148,0.07129407,0.24650683,0.86443425,-0.15520732,-0.16082035,0.27916120,-0.77838521,0.22979122,-0.47605205,-0.84802979,0.40050458,-0.04664605
1.00000000,-0.25804023,0.75699148,0.07129407,0.24650683,0.86443425,-0.15520732,-0.16082035,0.27916120,-0.77838521,0.22979122,-0.47605205,-0.84802979,0.40050458,-0.04664605
1.02000000,-0.25804023,0.75699148,0.07129407,0.24650683,0.86443425,-0.15520732,-0.16082035,0.27916120,-0.77838521,0.22979122,-0.47605205,-0.84802979,0.40050458,-0.04664605
1.04000000,-0.25804023,0.75699148,0.07129407,0.24650683,0.86443425,-0.15520732,-0.16082035,0.27916120,-0.77838521,0.22979122,-0.47605205,-0.84802979,0.40050458,-0.04664605
1.06000000,-0.25804023,0.75699148,0.07129407,0.24650683,0.86443425,-0.15520732,-0.16082035,0.27916120,-0.77838521,0.22979122,-0.47605205,-0.84802979,0.40050458,-0.04664605
1.08000000,-0.25804023,0.75699148,0.07129407,0.24650683,0.86443425,-0.15520732,-0.16082035,0.27916120,-0.77838521,0.22979122,-0.47605205,-0.84802979,0.40050458,-0.04664605
1.10000000,-0.25804023,0.75699148,0.07129407,0.24650683,0.86443425,-0.15520732,-0.16082035,0.27916120,-0.77838521,0.22979122,-0.47605205,-0.84802979,0.40050458,-0.04664605
1.12000000,-0.25804023,0.75699148,0.07129407,0.24650683,0.86443425,-0.15520732,-0.16082035,0.27916120,-0.77838521,0.22979122,-0.47605205,-0.84802979,0.40050458,-0.04664605
1.14000000,-0.25804023,0.75699148,0.07129407,0.24650683,0.86443425,-0.15520732,-0.16082035,0.27916120,-0.77838521,0.22979122,-0.47605205,-0.84802979,0.40050458,-0.04664605
1.16000000,-0.25804023,0.75699148,0.07129407,0.24650683,0.86443425,-0.15520732,-0.16082035,0.27916120,-0.77838521,0.22979122,-0.47605205,-0.84802979,0.40050458,-0.04664605
1.18000000,-0.25804023,0.75699148,0.07129407,0.24650683,0.86443425,-0.15520732,-0.16082035,0.27916120,-0.77838521,0.22979122,-0.47605205,-0.84802979,0.40050458,-0.04664605
1.20000000,-0.25804023,0.75699148,0.07129407,0.24650683,0.86443425,-0.15520732,-0.16082035,0.27916120,-0.77838521,0.22979122,-0.47605205,-0.84802979,0.40050458,-0.04664605
1.22000000,-0.25804023,0.75699148,0.07129407,0.24650683,0.86443425,-0.15520732,-0.16082035,0.27916120,-0.77838521,0.22979122,-0.47605205,-0.84802979,0.40050458,-0.04664605
1.24000000,-0.25804023,0.75699148,0.07129407,0.24650683,0.86443425,-0.15520732,-0.16082035,0.27916120,-0.77838521,0.22979122,-0.47605205,-0.84802979,0.40050458,-0.04664605
1.26000000,-0.25804023,0.75699148,0.07129407,0.24650683,0.86443425,-0.15520732,-0.16082035,0.27916120,-0.77838521,0.22979122,-0.47605205,-0.84802979,0.40050458,-0.04664605
1.28000000,-0.25804023,0.75699148,0.07129407,0.24650683,0.86443425,-0.15520732,-0.16082035,0.27916120,-0.77838521,0.22979122,-0.47605205,-0.84802979,0.40050458,-0.04664605
1.30000000,-0.25804023,0.75699148,0.07129407,0.24650683,0.86443425,-0.15520732,-0.16082035,0.27916120,-0.77838521,0.22979122,-0.47605205,-0.84802979,0.40050458,-0.04664605
1.32000000,-0.25804023,0.75699148,0.07129407,0.24650683,0.86443425,-0.15520732,-0.16082035,0.27916120,-0.77838521,0.22979122,-0.47605205,-0.84802979,0.40050458,-0.04664605
1.34000000,-0.25804023,0.75699148,0.07129407,0.24650683,0.86443425,-0.15520732,-0.16082035,0.27916120,-0.77838521,0.22979122,-0.47605205,-0.84802979,0.40050458,-0.04664605
1.36000000,-0.25804023,0.75699148,0.07129407,0.24650683,0.86443425,-0.15520732,-0.16082035,0.27916120,-0.77838521,0.22979122,-0.47605205,-0.84802979,0.40050458,-0.04664605
1.38000000,-0.25804023,0.75699148,0.07129407,0.24650683,0.86443425,-0.15520732,-0.16082035,0.27916120,-0.77838521,0.22979122,-0.47605205,-0.84802979,0.40050458,-0.04664605
1.40000000,-0.25804023,0.75699148,0.07129407,0.24650683,0.86443425,-0.15520732,-0.16082035,0.27916120,-0.77838521,0.22979122,-0.47605205,-0.84802979,0.40050458,-0.04664605
1.42000000,-0.25804023,0.75699148,0.07129407,0.24650683,0.86443425,-0.15520732,-0.16082035,0.27916120,-0.77838521,0.22979122,-0.47605205,-0.84802979,0.40050458,-0.04664605
1.44000000,-0.25804023,0.75699148,0.07129407,0.24650683,0.86443425,-0.15520732,-0.16082035,0.27916120,-0.77838521,0.22979122,-0.47605205,-0.84802979,0.40050458,-0.04664605
1.46000000,-0.25804023,0.75699148,0.07129407,0.24650683,0.86443425,-0.15520732,-0.16082035,0.27916120,-0.77838521,0.22979122,-0.47605205,-0.84802979,0.40050458,-0.04664605
1.48000000,-0.25804023,0.75699148,0.07129407,0.24650683,0.86443425,-0.15520732,-0.16082035,0.27916120,-0.77838521,0.22979122,-0.47605205,-0.84802979,0.40050458,-0.04664605
1.50000000,-0.25804023,0.75699148,0.07129407,0.24650683,0.86443425,-0.15520732,-0.16082035,0.27916120,-0.77838521,0.22979122,-0.47605205,-0.84802979,0.40050458,-0.04664605
1.52000000,-0.25804023,0.75699148,0.07129407,0.24650683,0.86443425,-0.15520732,-0.16082035,0.27916120,-0.77838521,0.22979122,-0.47605205,-0.84802979,0.40050458,-0.04664605
1.54000000,-0.25804023,0.75699148,0.07129407,0.24650683,0.86443425,-0.15520732,-0.16082035,0.27916120,-0.77838521,0.22979122,-0.47605205,-0.84802979,0.40050458,-0.04664605
1.56000000,-0.25804023,0.75699148,0.07129407,0.24650683,0.86443425,-0.15520732,-0.16082035,0.27916120,-0.77838521,0.22979122,-0.47605205,-0.84802979,0.40050458,-0.04664605
1.58000000,-0.25804023,0.75699148,0.07129407,0.24650683,0.86443425,-0.15520732,-0.16082035,0.27916120,-0.77838521,0.22979122,-0.47605205,-0.84802979,0.40050458,-0.04664605
1.60000000,-0.25804023,0.75699148,0.07129407,0.24650683,0.86443425,-0.15520732,-0.16082035,0.27916120,-0.77838521,0.22979122,-0.47605205,-0.84802979,0.40050458,-0.04664605
1.62000000,-0.25804023,0.75699148,0.07129407,0.24650683,0.86443425,-0.15520732,-0.16082035,0.27916120,-0.77838521,0.22979122,-0.47605205,-0.84802979,0.40050458,-0.04664605
1.64000000,-0.25804023,0.75699148,0.07129407,0.24650683,0.86443425,-0.15520732,-0.16082035,0.27916120,-0.77838521,0.22979122,-0.47605205,-0.84802979,0.40050458,-0.04664605
1.66000000,-0.25804023,0.75699148,0.07129407,0.24650683,0.86443425,-0.15520732,-0.16082035,0.27916120,-0.77838521,0.22979122,-0.47605205,-0.84802979,0.40050458,-0.04664605
1.68000000,-0.25804023,0.75699148,0.07129407,0.24650683,0.86443425,-0.15520732,-0.16082035,0.27916120,-0.77838521,0.22979122,-0.47605205,-0.84802979,0.40050458,-0.04664605
1.70000000,-0.25804023,0.75699148,0.07129407,0.24650683,0.86443425,-0.15520732,-0.16082035,0.27916120,-0.77838521,0.22979122,-0.47605205,-0.84802979,0.40050458,-0.04664605
1.72000000,-0.25804023,0.75699148,0.07129407,0.24650683,0.86443425,-0.15520732,-0.16082035,0.27916120,-0.77838521,0.22979122,-0.47605205,-0.84802979,0.40050458,-0.04664605
1.74000000,-0.25804023,0.75699148,0.07129407,0.24650683,0.86443425,-0.15520732,-0.16082035,0.27916120,-0.77838521,0.22979122,-0.47605205,-0.84802979,0.40050458,-0.04664605
1.76000000,-0.25804023,0.75699148,0.07129407,0.24650683,0.86443425,-0.15520732,-0.16082035,0.27916120,-0.77838521,0.22979122,-0.47605205,-0.84802979,0.40050458,-0.04664605
1.78000000,-0.25804023,0.75699148,0.07129407,0.24650683,0.86443425,-0.15520732,-0.16082035,0.27916120,-0.77838521,0.22979122,-0.47605205,-0.84802979,0.40050458,-0.04664605
1.80000000,-0.25804023,0.75699148,0.07129407,0.24650683,0.86443425,-0.15520732,-0.16082035,0.27916120,-0.77838521,0.22979122,-0.47605205,-0.84802979,0.40050458,-0.04664605
1.82000000,-0.25804023,0.75699148,0.07129407,0.24650683,0.86443425,-0.15520732,-0.16082035,0.27916120,-0.77838521,0.22979122,-0.47605205,-0.84802979,0.40050458,-0.04664605
1.84000000,-0.25804023,0.75699148,0.07129407,0.24650683,0.86443425,-0.15520732,-0.16082035,0.27916120,-0.77838521,0.22979122,-0.47605205,-0.84802979,0.40050458,-0.04664605
1.86000000,-0.25804023,0.75699148,0.07129407,0.24650683,0.86443425,-0.15520732,-0.16082035,0.27916120,-0.77838521,0.22979122,-0.47605205,-0.84802979,0.40050458,-0.04664605
1.88000000,-0.25804023,0.75699148,0.07129407,0.24650683,0.86443425,-0.15520732,-0.16082035,0.27916120,-0.77838521,0.22979122,-0.47605205,-0.84802979,0.40050458,-0.04664605
1.90000000,-0.25804023,0.75699148,0.07129407,0.24650683,0.86443425,-0.15520732,-0.16082035,0.27916120,-0.77838521,0.22979122,-0.47605205,-0.84802979,0.40050458,-0.04664605
1.92000000,-0.25804023,0.75699148,0.07129407,0.24650683,0.86443425,-0.15520732,-0.16082035,0.27916120,-0.77838521,0.22979122,-0.47605205,-0.84802979,0.40050458,-0.04664605
1.94000000,-0.25804023,0.75699148,0.07129407,0.24650683,0.86443425,-0.15520732,-0.16082035,0.27916120,-0.77838521,0.22979122,-0.47605205,-0.84802979,0.40050458,-0.04664605
1.96000000,-0.25804023,0.75699148,0.07129407,0.24650683,0.86443425,-0.15520732,-0.16082035,0.27916120,-0.77838521,0.22979122,-0.47605205,-0.84802979,0.40050458,-0.04664605
1.98000000,-0.25804023,0.75699148,0.07129407,0.24650683,0.86443425,-0.15520732,-0.16082035,0.27916120,-0.77838521,0.22979122,-0.47605205,-0.84802979,0.40050458,-0.04664605
2.00000000,-0.25804023,0.75699148,0.07129407,0.24650683,0.86443425,-0.15520732,-0.16082035,0.27916120,-0.77838521,0.22979122,-0.47605205,-0.84802979,0.40050458,-0.04664605
2.02000000,-0.25804023,0.75699148,0.07129407,0.24650683,0.86443425,-0.15520732,-0.16082035,0.27916120,-0.77838521,0.22979122,-0.47605205,-0.84802979,0.40050458,-0.04664605
2.04000000,-0.25804023,0.75699148,0.07129407,0.24650683,0.86443425,-0.15520732,-0.16082035,0.27916120,-0.77838521,0.22979122,-0.47605205,-0.84802979,0.40050458,-0.04664605
2.06000000,-0.25804023,0.75699148,0.07129407,0.24650683,0.86443425,-0.15520732,-0.16082035,0.27916120,-0.77838521,0.22979122,-0.47605205,-0.84802979,0.40050458,-0.04664605
2.08000000,-0.25804023,0.75699148,0.07129407,0.24650683,0.86443425,-0.15520732,-0.16082035,0.27916120,-0.77838521,0.22979122,-0.47605205,-0.84802979,0.40050458,-0.04664605
2.10000000,-0.25804023,0.75699148,0.07129407,0.24650683,0.86443425,-0.15520732,-0.16082035,0.27916120,-0.77838521,0.22979122,-0.47605205,-0.84802979,0.40050458,-0.04664605
2.12000000,-0.25804023,0.75699148,0.07129407,0.24650683,0.86443425,-0.15520732,-0.16082035,0.27916120,-0.77838521,0.22979122,-0.47605205,-0.84802979,0.40050458,-0.04664605
2.14000000,-0.25804023,0.75699148,0.07129407,0.24650683,0.86443425,-0.15520732,-0.16082035,0.27916120,-0.77838521,0.22979122,-0.47605205,-0.84802979,0.40050458,-0.04664605
2.16000000,-0.25804023,0.75699148,0.07129407,0.24650683,0.86443425,-0.15520732,-0.16082035,0.27916120,-0.77838521,0.22979122,-0.47605205,-0.84802979,0.40050458,-0.04664605
2.18000000,-0.25804023,0.75699148,0.07129407,0.24650683,0.86443425,-0.15520732,-0.16082035,0.27916120,-0.77838521,0.22979122,-0.47605205,-0.84802979,0.40050458,-0.04664605
2.20000000,-0.25804023,0.75699148,0.07129407,0.24650683,0.86443425,-0.15520732,-0.16082035,0.27916120,-0.77838521,0.22979122,-0.47605205,-0.84802979,0.40050458,-0.04664605
2.22000000,-0.25804023,0.75699148,0.07129407,0.24650683,0.86443425,-0.15520732,-0.16082035,0.27916120,-0.77838521,0.22979122,-0.47605205,-0.84802979,0.40050458,-0.04664605
2.24000000,-0.25804023,0.75699148,0.07129407,0.24650683,0.86443425,-0.15520732,-0.16082035,0.27916120,-0.77838521,0.22979122,-0.47605205,-0.84802979,0.40050458,-0.04664605
2.26000000,-0.25804023,0.75699148,0.07129407,0.24650683,0.86443425,-0.15520732,-0.16082035,0.27916120,-0.77838521,0.22979122,-0.47605205,-0.84802979,0.40050458,-0.04664605
2.28000000,-0.25804023,0.75699148,0.07129407,0.24650683,0.86443425,-0.15520732,-0.16082035,0.27916120,-0.77838521,0.22979122,-0.47605205,-0.84802979,0.40050458,-0.04664605
2.30000000,-0.25804023,0.75699148,0.07129407,0.24650683,0.86443425,-0.15520732,-0.16082035,0.27916120,-0.77838521,0.22979122,-0.47605205,-0.84802979,0.40050458,-0.04664605
2.32000000,-0.25804023,0.75699148,0.07129407,0.24650683,0.86443425,-0.15520732,-0.16082035,0.27916120,-0.77838521,0.22979122,-0.47605205,-0.84802979,0.40050458,-0.04664605
2.34000000,-0.25804023,0.75699148,0.07129407,0.24650683,0.86443425,-0.15520732,-0.16082035,0.27916120,-0.77838521,0.22979122,-0.47605205,-0.84802979,0.40050458,-0.04664605
2.36000000,-0.25804023,0.75699148,0.07129407,0.24650683,0.86443425,-0.15520732,-0.16082035,0.27916120,-0.77838521,0.22979122,-0.47605205,-0.84802979,0.40050458,-0.04664605
2.38000000,-0.25804023,0.75699148,0.07129407,0.24650683,0.86443425,-0.15520732,-0.16082035,0.27916120,-0.77838521,0.22979122,-0.47605205,-0.84802979,0.40050458,-0.04664605
2.40000000,-0.25804023,0.75699148,0.07129407,0.24650683,0.86443425,-0.15520732,-0.16082035,0.27916120,-0.77838521,0.22979122,-0.47605205,-0.84802979,0.40050458,-0.04664605
2.42000000,-0.25804023,0.75699148,0.07129407,0.24650683,0.86443425,-0.15520732,-0.16082035,0.27916120,-0.77838521,0.22979122,-0.47605205,-0.84802979,0.40050458,-0.04664605
2.44000000,-0.25804023,0.75699148,0.07129407,0.24650683,0.86443425,-0.15520732,-0.16082035,0.27916120,-0.77838521,0.22979122,-0.47605205,-0.84802979,0.40050458,-0.04664605
2.46000000,-0.25804023,0.75699148,0.07129407,0.24650683,0.86443425,-0.15520732,-0.16082035,0.27916120,-0.77838521,0.22979122,-0.47605205,-0.84802979,0.40050458,-0.04664605
2.48000000,-0.25804023,0.75699148,0.07129407,0.24650683,0.86443425,-0.15520732,-0.16082035,0.27916120,-0.77838521,0.22979122,-0.47605205,-0.84802979,0.40050458,-0.04664605
2.50000000,-0.25804023,0.75699148,0.07129407,0.24650683,0.86443425,-0.15520732,-0.16082035,0.27916120,-0.77838521,0.22979122,-0.47605205,-0.84802979,0.40050458,-0.04664605
2.52000000,-0.25804023,0.75699148,0.07129407,0.24650683,0.86443425,-0.15520732,-0.16082035,0.27916120,-0.77838521,0.22979122,-0.47605205,-0.84802979,0.40050458,-0.04664605
2.54000000,-0.25804023,0.75699148,0.07129407,0.24650683,0.86443425,-0.15520732,-0.16082035,0.27916120,-0.77838521,0.22979122,-0.47605205,-0.84802979,0.40050458,-0.04664605
2.56000000,-0.25804023,0.75699148,0.07129407,0.24650683,0.86443425,-0.15520732,-0.16082035,0.27916120,-0.77838521,0.22979122,-0.47605205,-0.84802979,0.40050458,-0.04664605
2.58000000,-0.25804023,0.75699148,0.07129407,0.24650683,0.86443425,-0.15520732,-0.16082035,0.27916120,-0.77838521,0.22979122,-0.47605205,-0.84802979,0.40050458,-0.04664605
2.60000000,-0.25804023,0.75699148,0.07129407,0.24650683,0.86443425,-0.15520732,-0.16082035,0.27916120,-0.77838521,0.22979122,-0.47605205,-0.84802979,0.40050458,-0.04664605
2.62000000,-0.25804023,0.75699148,0.07129407,0.24650683,0.86443425,-0.15520732,-0.16082035,0.27916120,-0.77838521,0.22979122,-0.47605205,-0.84802979,0.40050458,-0.04664605
2.64000000,-0.25804023,0.75699148,0.07129407,0.24650683,0.86443425,-0.15520732,-0.16082035,0.27916120,-0.77838521,0.22979122,-0.47605205,-0.84802979,0.40050458,-0.04664605
2.66000000,-0.25804023,0.75699148,0.07129407,0.24650683,0.86443425,-0.15520732,-0.16082035,0.27916120,-0.77838521,0.22979122,-0.47605205,-0.84802979,0.40050458,-0.04664605
2.68000000,-0.25804023,0.75699148,0.07129407,0.24650683,0.86443425,-0.15520732,-0.16082035,0.27916120,-0.77838521,0.22979122,-0.47605205,-0.84802979,0.40050458,-0.04664605
2.70000000,-0.25804023,0.75699148,0.07129407,0.24650683,0.86443425,-0.15520732,-0.16082035,0.27916120,-0.77838521,0.22979122,-0.47605205,-0.84802979,0.40050458,-0.04664605
2.72000000,-0.25804023,0.75699148,0.07129407,0.24650683,0.86443425,-0.15520732,-0.16082035,0.27916120,-0.77838521,0.22979122,-0.47605205,-0.84802979,0.40050458,-0.04664605
2.74000000,-0.25804023,0.75699148,0.07129407,0.24650683,0.86443425,-0.15520732,-0.16082035,0.27916120,-0.77838521,0.22979122,-0.47605205,-0.84802979,0.40050458,-0.04664605
2.76000000,-0.25804023,0.75699148,0.07129407,0.24650683,0.86443425,-0.15520732,-0.16082035,0.27916120,-0.77838521,0.22979122,-0.47605205,-0.84802979,0.40050458,-0.04664605
2.78000000,-0.25804023,0.75699148,0.07129407,0.24650683,0.86443425,-0.15520732,-0.16082035,0.27916120,-0.77838521,0.22979122,-0.47605205,-0.84802979,0.40050458,-0.04664605
2.80000000,-0.25804023,0.75699148,0.07129407,0.24650683,0.86443425,-0.15520732,-0.16082035,0.27916120,-0.77838521,0.22979122,-0.47605205,-0.84802979,0.40050458,-0.04664605
2.82000000,-0.25804023,0.75699148,0.07129407,0.24650683,0.86443425,-0.15520732,-0.16082035,0.27916120,-0.77838521,0.22979122,-0.47605205,-0.84802979,0.40050458,-0.04664605
2.84000000,-0.25804023,0.75699148,0.07129407,0.24650683,0.86443425,-0.15520732,-0.16082035,0.27916120,-0.77838521,0.22979122,-0.47605205,-0.84802979,0.40050458,-0.04664605
2.86000000,-0.25804023,0.75699148,0.07129407,0.24650683,0.86443425,-0.15520732,-0.16082035,0.27916120,-0.77838521,0.22979122,-0.47605205,-0.84802979,0.40050458,-0.04664605
2.88000000,-0.25804023,0.75699148,0.07129407,0.24650683,0.86443425,-0.15520732,-0.16082035,0.27916120,-0.77838521,0.22979122,-0.47605205,-0.84802979,0.40050458,-0.04664605
2.90000000,-0.25804023,0.75699148,0.07129407,0.24650683,0.86443425,-0.15520732,-0.16082035,0.27916120,-0.77838521,0.22979122,-0.47605205,-0.84802979,0.40050458,-0.04664605
2.92000000,-0.25804023,0.75699148,0.07129407,0.24650683,0.86443425,-0.15520732,-0.16082035,0.27916120,-0.77838521,0.22979122,-0.47605205,-0.84802979,0.40050458,-0.04664605
2.94000000,-0.25804023,0.75699148,0.07129407,0.24650683,0.86443425,-0.15520732,-0.16082035,0.27916120,-0.77838521,0.22979122,-0.47605205,-0.84802979,0.40050458,-0.04664605
2.96000000,-0.25804023,0.75699148,0.07129407,0.24650683,0.86443425,-0.15520732,-0.16082035,0.27916120,-0.77838521,0.22979122,-0.47605205,-0.84802979,0.40050458,-0.04664605
2.98000000,-0.25804023,0.75699148,0.07129407,0.24650683,0.86443425,-0.15520732,-0.16082035,0.27916120,-0.77838521,0.22979122,-0.47605205,-0.84802979,0.40050458,-0.04664605
3.00000000,-0.25804023,0.75699148,0.07129407,0.24650683,0.86443425,-0.15520732,-0.16082035,0.27916120,-0.77838521,0.22979122,-0.47605205,-0.84802979,0.40050458,-0.04664605
3.02000000,-0.25804023,0.75699148,0.07129407,0.24650683,0.86443425,-0.15520732,-0.16082035,0.27916120,-0.77838521,0.22979122,-0.47605205,-0.84802979,0.40050458,-0.04664605
3.04000000,-0.25804023,0.75699148,0.07129407,0.24650683,0.86443425,-0.15520732,-0.16082035,0.27916120,-0.77838521,0.22979122,-0.47605205,-0.84802979,0.40050458,-0.04664605
3.06000000,-0.25804023,0.75699148,0.07129407,0.24650683,0.86443425,-0.15520732,-0.16082035,0.27916120,-0.77838521,0.22979122,-0.47605205,-0.84802979,0.40050458,-0.04664605
3.08000000,-0.25804023,0.75699148,0.07129407,0.24650683,0.86443425,-0.15520732,-0.16082035,0.27916120,-0.77838521,0.22979122,-0.47605205,-0.84802979,0.40050458,-0.04664605
3.10000000,-0.25804023,0.75699148,0.07129407,0.24650683,0.86443425,-0.15520732,-0.16082035,0.27916120,-0.77838521,0.22979122,-0.47605205,-0.84802979,0.40050458,-0.04664605
3.12000000,-0.25804023,0.75699148,0.07129407,0.24650683,0.86443425,-0.15520732,-0.16082035,0.27916120,-0.77838521,0.22979122,-0.47605205,-0.84802979,0.40050458,-0.04664605
3.14000000,-0.25804023,0.75699148,0.07129407,0.24650683,0.86443425,-0.15520732,-0.16082035,0.27916120,-0.77838521,0.22979122,-0.47605205,-0.84802979,0.40050458,-0.04664605
3.16000000,-0.25804023,0.75699148,0.07129407,0.24650683,0.86443425,-0.15520732,-0.16082035,0.27916120,-0.77838521,0.22979122,-0.47605205,-0.84802979,0.40050458,-0.04664605
3.18000000,-0.25804023,0.75699148,0.07129407,0.24650683,0.86443425,-0.15520732,-0.16082035,0.27916120,-0.77838521,0.22979122,-0.47605205,-0.84802979,0.40050458,-0.04664605
3.20000000,-0.25804023,0.75699148,0.07129407,0.24650683,0.86443425,-0.15520732,-0.16082035,0.27916120,-0.77838521,0.22979122,-0.47605205,-0.84802979,0.40050458,-0.04664605
3.22000000,-0.25804023,0.75699148,0.07129407,0.24650683,0.86443425,-0.15520732,-0.16082035,0.27916120,-0.77838521,0.22979122,-0.47605205,-0.84802979,0.40050458,-0.04664605
3.24000000,-0.25804023,0.75699148,0.07129407,0.24650683,0.86443425,-0.15520732,-0.16082035,0.27916120,-0.77838521,0.22979122,-0.47605205,-0.84802979,0.40050458,-0.04664605
3.26000000,-0.25804023,0.75699148,0.07129407,0.24650683,0.86443425,-0.15520732,-0.16082035,0.27916120,-0.77838521,0.22979122,-0.47605205,-0.84802979,0.40050458,-0.04664605
3.28000000,-0.25804023,0.75699148,0.07129407,0.24650683,0.86443425,-0.15520732,-0.16082035,0.27916120,-0.77838521,0.22979122,-0.47605205,-0.84802979,0.40050458,-0.04664605
3.30000000,-0.25804023,0.75699148,0.07129407,0.24650683,0.86443425,-0.15520732,-0.16082035,0.27916120,-0.77838521,0.22979122,-0.47605205,-0.84802979,0.40050458,-0.04664605
3.32000000,-0.25804023,0.75699148,0.07129407,0.24650683,0.86443425,-0.15520732,-0.16082035,0.27916120,-0.77838521,0.22979122,-0.47605205,-0.84802979,0.40050458,-0.04664605
3.34000000,-0.25804023,0.75699148,0.07129407,0.24650683,0.86443425,-0.15520732,-0.16082035,0.27916120,-0.77838521,0.22979122,-0.47605205,-0.84802979,0.40050458,-0.04664605
3.36000000,-0.25804023,0.75699148,0.07129407,0.24650683,0.86443425,-0.15520732,-0.16082035,0.27916120,-0.77838521,0.22979122,-0.47605205,-0.84802979,0.40050458,-0.04664605
3.38000000,-0.25804023,0.75699148,0.07129407,0.24650683,0.86443425,-0.15520732,-0.16082035,0.27916120,-0.77838521,0.22979122,-0.47605205,-0.84802979,0.40050458,-0.04664605
3.40000000,-0.25804023,0.75699148,0.07129407,0.24650683,0.86443425,-0.15520732,-0.16082035,0.27916120,-0.77838521,0.22979122,-0.47605205,-0.84802979,0.40050458,-0.04664605
3.42000000,-0.25804023,0.75699148,0.07129407,0.24650683,0.86443425,-0.15520732,-0.16082035,0.27916120,-0.77838521,0.22979122,-0.47605205,-0.84802979,0.40050458,-0.04664605
3.44000000,-0.25804023,0.75699148,0.07129407,0.24650683,0.86443425,-0.15520732,-0.16082035,0.27916120,-0.77838521,0.22979122,-0.47605205,-0.84802979,0.40050458,-0.04664605
3.46000000,-0.25804023,0.75699148,0.07129407,0.24650683,0.86443425,-0.15520732,-0.16082035,0.27916120,-0.77838521,0.22979122,-0.47605205,-0.84802979,0.40050458,-0.04664605
3.48000000,-0.25804023,0.75699148,0.07129407,0.24650683,0.86443425,-0.15520732,-0.16082035,0.27916120,-0.77838521,0.22979122,-0.47605205,-0.84802979,0.40050458,-0.04664605
3.50000000,-0.25804023,0.75699148,0.07129407,0.24650683,0.86443425,-0.15520732,-0.16082035,0.27916120,-0.77838521,0.22979122,-0.47605205,-0.84802979,0.40050458,-0.04664605
3.52000000,-0.25804023,0.75699148,0.07129407,0.24650683,0.86443425,-0.15520732,-0.16082035,0.27916120,-0.77838521,0.22979122,-0.47605205,-0.84802979,0.40050458,-0.04664605
3.54000000,-0.25804023,0.75699148,0.07129407,0.24650683,0.86443425,-0.15520732,-0.16082035,0.27916120,-0.77838521,0.22979122,-0.47605205,-0.84802979,0.40050458,-0.04664605
3.56000000,-0.25804023,0.75699148,0.07129407,0.24650683,0.86443425,-0.15520732,-0.16082035,0.27916120,-0.77838521,0.22979122,-0.47605205,-0.84802979,0.40050458,-0.04664605
3.58000000,-0.25804023,0.75699148,0.07129407,0.24650683,0.86443425,-0.15520732,-0.16082035,0.27916120,-0.77838521,0.22979122,-0.47605205,-0.84802979,0.40050458,-0.04664605
3.60000000,-0.25804023,0.75699148,0.07129407,0.24650683,0.86443425,-0.15520732,-0.16082035,0.27916120,-0.77838521,0.22979122,-0.47605205,-0.84802979,0.40050458,-0.04664605
3.62000000,-0.25804023,0.75699148,0.07129407,0.24650683,0.86443425,-0.15520732,-0.16082035,0.27916120,-0.77838521,0.22979122,-0.47605205,-0.84802979,0.40050458,-0.04664605
3.64000000,-0.25804023,0.75699148,0.07129407,0.24650683,0.86443425,-0.15520732,-0.16082035,0.27916120,-0.77838521,0.22979122,-0.47605205,-0.84802979,0.40050458,-0.04664605
3.66000000,-0.25804023,0.75699148,0.07129407,0.24650683,0.86443425,-0.15520732,-0.16082035,0.27916120,-0.77838521,0.22979122,-0.47605205,-0.84802979,0.40050458,-0.04664605
3.68000000,-0.25804023,0.75699148,0.07129407,0.24650683,0.86443425,-0.15520732,-0.16082035,0.27916120,-0.77838521,0.22979122,-0.47605205,-0.84802979,0.40050458,-0.04664605
3.70000000,-0.25804023,0.75699148,0.07129407,0.24650683,0.86443425,-0.15520732,-0.16082035,0.27916120,-0.77838521,0.22979122,-0.47605205,-0.84802979,0.40050458,-0.04664605
3.72000000,-0.25804023,0.75699148,0.07129407,0.24650683,0.86443425,-0.15520732,-0.16082035,0.27916120,-0.77838521,0.22979122,-0.47605205,-0.84802979,0.40050458,-0.04664605
3.74000000,-0.25804023,0.75699148,0.07129407,0.24650683,0.86443425,-0.15520732,-0.16082035,0.27916120,-0.77838521,0.22979122,-0.47605205,-0.84802979,0.40050458,-0.04664605
3.76000000,-0.25804023,0.75699148,0.07129407,0.24650683,0.86443425,-0.15520732,-0.16082035,0.27916120,-0.77838521,0.22979122,-0.47605205,-0.84802979,0.40050458,-0.04664605
3.78000000,-0.25804023,0.75699148,0.07129407,0.24650683,0.86443425,-0.15520732,-0.16082035,0.27916120,-0.77838521,0.22979122,-0.47605205,-0.84802979,0.40050458,-0.04664605
3.80000000,-0.25804023,0.75699148,0.07129407,0.24650683,0.86443425,-0.15520732,-0.16082035,0.27916120,-0.77838521,0.22979122,-0.47605205,-0.84802979,0.40050458,-0.04664605
3.82000000,-0.25804023,0.75699148,0.07129407,0.24650683,0.86443425,-0.15520732,-0.16082035,0.27916120,-0.77838521,0.22979122,-0.47605205,-0.84802979,0.40050458,-0.04664605
3.84000000,-0.25804023,0.75699148,0.07129407,0.24650683,0.86443425,-0.15520732,-0.16082035,0.27916120,-0.77838521,0.22979122,-0.47605205,-0.84802979,0.40050458,-0.04664605
3.86000000,-0.25804023,0.75699148,0.07129407,0.24650683,0.86443425,-0.15520732,-0.16082035,0.27916120,-0.77838521,0.22979122,-0.47605205,-0.84802979,0.40050458,-0.04664605
3.88000000,-0.25804023,0.75699148,0.07129407,0.24650683,0.86443425,-0.15520732,-0.16082035,0.27916120,-0.77838521,0.22979122,-0.47605205,-0.84802979,0.40050458,-0.04664605
3.90000000,-0.25804023,0.75699148,0.07129407,0.24650683,0.86443425,-0.15520732,-0.16082035,0.27916120,-0.77838521,0.22979122,-0.47605205,-0.84802979,0.40050458,-0.04664605
3.92000000,-0.25804023,0.75699148,0.07129407,0.24650683,0.86443425,-0.15520732,-0.16082035,0.27916120,-0.77838521,0.22979122,-0.47605205,-0.84802979,0.40050458,-0.04664605
3.94000000,-0.25804023,0.75699148,0.07129407,0.24650683,0.86443425,-0.15520732,-0.16082035,0.27916120,-0.77838521,0.22979122,-0.47605205,-0.84802979,0.40050458,-0.04664605
3.96000000,-0.25804023,0.75699148,0.07129407,0.24650683,0.86443425,-0.15520732,-0.16082035,0.27916120,-0.77838521,0.22979122,-0.47605205,-0.84802979,0.40050458,-0.04664605
3.98000000,-0.25804023,0.75699148,0.07129407,0.24650683,0.86443425,-0.15520732,-0.16082035,0.27916120,-0.77838521,0.22979122,-0.47605205,-0.84802979,0.40050458,-0.04664605
4.00000000,-0.25804023,0.75699148,0.07129407,0.24650683,0.86443425,-0.15520732,-0.16082035,0.27916120,-0.77838521,0.22979122,-0.47605205,-0.84802979,0.40050458,-0.04664605
4.02000000,-0.25804023,0.75699148,0.07129407,0.24650683,0.86443425,-0.15520732,-0.16082035,0.27916120,-0.77838521,0.22979122,-0.47605205,-0.84802979,0.40050458,-0.04664605
4.04000000,-0.25804023,0.75699148,0.07129407,0.24650683,0.86443425,-0.15520732,-0.16082035,0.27916120,-0.77838521,0.22979122,-0.47605205,-0.84802979,0.40050458,-0.04664605
4.06000000,-0.25804023,0.75699148,0.07129407,0.24650683,0.86443425,-0.15520732,-0.16082035,0.27916120,-0.77838521,0.22979122,-0.47605205,-0.84802979,0.40050458,-0.04664605
4.08000000,-0.25804023,0.75699148,0.07129407,0.24650683,0.86443425,-0.15520732,-0.16082035,0.27916120,-0.77838521,0.22979122,-0.47605205,-0.84802979,0.40050458,-0.04664605
4.10000000,-0.25804023,0.75699148,0.07129407,0.24650683,0.86443425,-0.15520732,-0.16082035,0.27916120,-0.77838521,0.22979122,-0.47605205,-0.84802979,0.40050458,-0.04664605
4.12000000,-0.25804023,0.75699148,0.07129407,0.24650683,0.86443425,-0.15520732,-0.16082035,0.27916120,-0.77838521,0.22979122,-0.47605205,-0.84802979,0.40050458,-0.04664605
4.14000000,-0.25804023,0.75699148,0.07129407,0.24650683,0.86443425,-0.15520732,-0.16082035,0.27916120,-0.77838521,0.22979122,-0.47605205,-0.84802979,0.40050458,-0.04664605
4.16000000,-0.25804023,0.75699148,0.07129407,0.24650683,0.86443425,-0.15520732,-0.16082035,0.27916120,-0.77838521,0.22979122,-0.47605205,-0.84802979,0.40050458,-0.04664605
4.18000000,-0.25804023,0.75699148,0.07129407,0.24650683,0.86443425,-0.15520732,-0.16082035,0.27916120,-0.77838521,0.22979122,-0.47605205,-0.84802979,0.40050458,-0.04664605
4.20000000,-0.25804023,0.75699148,0.07129407,0.24650683,0.86443425,-0.15520732,-0.16082035,0.27916120,-0.77838521,0.22979122,-0.47605205,-0.84802979,0.40050458,-0.04664605
4.22000000,-0.25804023,0.75699148,0.07129407,0.24650683,0.86443425,-0.15520732,-0.16082035,0.27916120,-0.77838521,0.22979122,-0.47605205,-0.84802979,0.40050458,-0.04664605
4.24000000,-0.25804023,0.75699148,0.07129407,0.24650683,0.86443425,-0.15520732,-0.16082035,0.27916120,-0.77838521,0.22979122,-0.47605205,-0.84802979,0.40050458,-0.04664605
4.26000000,-0.25804023,0.75699148,0.07129407,0.24650683,0.86443425,-0.15520732,-0.16082035,0.27916120,-0.77838521,0.22979122,-0.47605205,-0.84802979,0.40050458,-0.04664605
4.28000000,-0.25804023,0.75699148,0.07129407,0.24650683,0.86443425,-0.15520732,-0.16082035,0.27916120,-0.77838521,0.22979122,-0.47605205,-0.84802979,0.40050458,-0.04664605
4.30000000,-0.25804023,0.75699148,0.07129407,0.24650683,0.86443425,-0.15520732,-0.16082035,0.27916120,-0.77838521,0.22979122,-0.47605205,-0.84802979,0.40050458,-0.04664605
4.32000000,-0.25804023,0.75699148,0.07129407,0.24650683,0.86443425,-0.15520732,-0.16082035,0.27916120,-0.77838521,0.22979122,-0.47605205,-0.84802979,0.40050458,-0.04664605
4.34000000,-0.25804023,0.75699148,0.07129407,0.24650683,0.86443425,-0.15520732,-0.16082035,0.27916120,-0.77838521,0.22979122,-0.47605205,-0.84802979,0.40050458,-0.04664605
4.36000000,-0.25804023,0.75699148,0.07129407,0.24650683,0.86443425,-0.15520732,-0.16082035,0.27916120,-0.77838521,0.22979122,-0.47605205,-0.84802979,0.40050458,-0.04664605
4.38000000,-0.25804023,0.75699148,0.07129407,0.24650683,0.86443425,-0.15520732,-0.16082035,0.27916120,-0.77838521,0.22979122,-0.47605205,-0.84802979,0.40050458,-0.04664605
4.40000000,-0.25804023,0.75699148,0.07129407,0.24650683,0.86443425,-0.15520732,-0.16082035,0.27916120,-0.77838521,0.22979122,-0.47605205,-0.84802979,0.40050458,-0.04664605
4.42000000,-0.25804023,0.75699148,0.07129407,0.24650683,0.86443425,-0.15520732,-0.16082035,0.27916120,-0.77838521,0.22979122,-0.47605205,-0.84802979,0.40050458,-0.04664605
4.44000000,-0.25804023,0.75699148,0.07129407,0.24650683,0.86443425,-0.15520732,-0.16082035,0.27916120,-0.77838521,0.22979122,-0.47605205,-0.84802979,0.40050458,-0.04664605
4.46000000,-0.25804023,0.75699148,0.07129407,0.24650683,0.86443425,-0.15520732,-0.16082035,0.27916120,-0.77838521,0.22979122,-0.47605205,-0.84802979,0.40050458,-0.04664605
4.48000000,-0.25804023,0.75699148,0.07129407,0.24650683,0.86443425,-0.15520732,-0.16082035,0.27916120,-0.77838521,0.22979122,-0.47605205,-0.84802979,0.40050458,-0.04664605
4.50000000,-0.25804023,0.75699148,0.07129407,0.24650683,0.86443425,-0.15520732,-0.16082035,0.27916120,-0.77838521,0.22979122,-0.47605205,-0.84802979,0.40050458,-0.04664605
4.52000000,-0.25804023,0.75699148,0.07129407,0.24650683,0.86443425,-0.15520732,-0.16082035,0.27916120,-0.77838521,0.22979122,-0.47605205,-0.84802979,0.40050458,-0.04664605
4.54000000,-0.25804023,0.75699148,0.07129407,0.24650683,0.86443425,-0.15520732,-0.16082035,0.27916120,-0.77838521,0.22979122,-0.47605205,-0.84802979,0.40050458,-0.04664605
4.56000000,-0.25804023,0.75699148,0.07129407,0.24650683,0.86443425,-0.15520732,-0.16082035,0.27916120,-0.77838521,0.22979122,-0.47605205,-0.84802979,0.40050458,-0.04664605
4.58000000,-0.25804023,0.75699148,0.07129407,0.24650683,0.86443425,-0.15520732,-0.16082035,0.27916120,-0.77838521,0.22979122,-0.47605205,-0.84802979,0.40050458,-0.04664605
4.60000000,-0.25804023,0.75699148,0.07129407,0.24650683,0.86443425,-0.15520732,-0.16082035,0.27916120,-0.77838521,0.22979122,-0.47605205,-0.84802979,0.40050458,-0.04664605
4.62000000,-0.25804023,0.75699148,0.07129407,0.24650683,0.86443425,-0.15520732,-0.16082035,0.27916120,-0.77838521,0.22979122,-0.47605205,-0.84802979,0.40050458,-0.04664605
4.64000000,-0.25804023,0.75699148,0.07129407,0.24650683,0.86443425,-0.15520732,-0.16082035,0.27916120,-0.77838521,0.22979122,-0.47605205,-0.84802979,0.40050458,-0.04664605
4.66000000,-0.25804023,0.75699148,0.07129407,0.24650683,0.86443425,-0.15520732,-0.16082035,0.27916120,-0.77838521,0.22979122,-0.47605205,-0.84802979,0.40050458,-0.04664605
4.68000000,-0.25804023,0.75699148,0.07129407,0.24650683,0.86443425,-0.15520732,-0.16082035,0.27916120,-0.77838521,0.22979122,-0.47605205,-0.84802979,0.40050458,-0.04664605
4.70000000,-0.25804023,0.75699148,0.07129407,0.24650683,0.86443425,-0.15520732,-0.16082035,0.27916120,-0.77838521,0.22979122,-0.47605205,-0.84802979,0.40050458,-0.04664605
4.72000000,-0.25804023,0.75699148,0.07129407,0.24650683,0.86443425,-0.15520732,-0.16082035,0.27916120,-0.77838521,0.22979122,-0.47605205,-0.84802979,0.40050458,-0.04664605
4.74000000,-0.25804023,0.75699148,0.07129407,0.24650683,0.86443425,-0.15520732,-0.16082035,0.27916120,-0.77838521,0.22979122,-0.47605205,-0.84802979,0.40050458,-0.04664605
4.76000000,-0.25804023,0.75699148,0.07129407,0.24650683,0.86443425,-0.15520732,-0.16082035,0.27916120,-0.77838521,0.22979122,-0.47605205,-0.84802979,0.40050458,-0.04664605
4.78000000,-0.25804023,0.75699148,0.07129407,0.24650683,0.86443425,-0.15520732,-0.16082035,0.27916120,-0.77838521,0.22979122,-0.47605205,-0.84802979,0.40050458,-0.04664605
4.80000000,-0.25804023,0.75699148,0.07129407,0.24650683,0.86443425,-0.15520732,-0.16082035,0.27916120,-0.77838521,0.22979122,-0.47605205,-0.84802979,0.40050458,-0.04664605
4.82000000,-0.25804023,0.75699148,0.07129407,0.24650683,0.86443425,-0.15520732,-0.16082035,0.27916120,-0.77838521,0.22979122,-0.47605205,-0.84802979,0.40050458,-0.04664605
4.84000000,-0.25804023,0.75699148,0.07129407,0.24650683,0.86443425,-0.15520732,-0.16082035,0.27916120,-0.77838521,0.22979122,-0.47605205,-0.84802979,0.40050458,-0.04664605
4.86000000,-0.25804023,0.75699148,0.07129407,0.24650683,0.86443425,-0.15520732,-0.16082035,0.27916120,-0.77838521,0.22979122,-0.47605205,-0.84802979,0.40050458,-0.04664605
4.88000000,-0.25804023,0.75699148,0.07129407,0.24650683,0.86443425,-0.15520732,-0.16082035,0.27916120,-0.77838521,0.22979122,-0.47605205,-0.84802979,0.40050458,-0.04664605
4.90000000,-0.25804023,0.75699148,0.07129407,0.24650683,0.86443425,-0.15520732,-0.16082035,0.27916120,-0.77838521,0.22979122,-0.47605205,-0.84802979,0.40050458,-0.04664605
4.92000000,-0.25804023,0.75699148,0.07129407,0.24650683,0.86443425,-0.15520732,-0.16082035,0.27916120,-0.77838521,0.22979122,-0.47605205,-0.84802979,0.40050458,-0.04664605
4.94000000,-0.25804023,0.75699148,0.07129407,0.24650683,0.86443425,-0.15520732,-0.16082035,0.27916120,-0.77838521,0.22979122,-0.47605205,-0.84802979,0.40050458,-0.04664605
4.96000000,-0.25804023,0.75699148,0.07129407,0.24650683,0.86443425,-0.15520732,-0.16082035,0.27916120,-0.77838521,0.22979122,-0.47605205,-0.84802979,0.40050458,-0.04664605
4.98000000,-0.25804023,0.75699148,0.07129407,0.24650683,0.86443425,-0.15520732,-0.16082035,0.27916120,-0.77838521,0.22979122,-0.47605205,-0.84802979,0.40050458,-0.04664605
5.00000000,-0.25804023,0.75699148,0.07129407,0.24650683,0.86443425,-0.15520732,-0.16082035,0.27916120,-0.77838521,0.22979122,-0.47605205,-0.84802979,0.40050458,-0.04664605
5.02000000,-0.25804023,0.75699148,0.07129407,0.24650683,0.86443425,-0.15520732,-0.16082035,0.27916120,-0.77838521,0.22979122,-0.47605205,-0.84802979,0.40050458,-0.04664605
5.04000000,-0.25804023,0.75699148,0.07129407,0.24650683,0.86443425,-0.15520732,-0.16082035,0.27916120,-0.77838521,0.22979122,-0.47605205,-0.84802979,0.40050458,-0.04664605
5.06000000,-0.25804023,0.75699148,0.07129407,0.24650683,0.86443425,-0.15520732,-0.16082035,0.27916120,-0.77838521,0.22979122,-0.47605205,-0.84802979,0.40050458,-0.04664605
5.08000000,-0.25804023,0.75699148,0.07129407,0.24650683,0.86443425,-0.15520732,-0.16082035,0.27916120,-0.77838521,0.22979122,-0.47605205,-0.84802979,0.40050458,-0.04664605
5.10000000,-0.25804023,0.75699148,0.07129407,0.24650683,0.86443425,-0.15520732,-0.16082035,0.27916120,-0.77838521,0.22979122,-0.47605205,-0.84802979,0.40050458,-0.04664605
5.12000000,-0.25804023,0.75699148,0.07129407,0.24650683,0.86443425,-0.15520732,-0.16082035,0.27916120,-0.77838521,0.22979122,-0.47605205,-0.84802979,0.40050458,-0.04664605
5.14000000,-0.25804023,0.75699148,0.07129407,0.24650683,0.86443425,-0.15520732,-0.16082035,0.27916120,-0.77838521,0.22979122,-0.47605205,-0.84802979,0.40050458,-0.04664605
5.16000000,-0.25804023,0.75699148,0.07129407,0.24650683,0.86443425,-0.15520732,-0.16082035,0.27916120,-0.77838521,0.22979122,-0.47605205,-0.84802979,0.40050458,-0.04664605
5.18000000,-0.25804023,0.75699148,0.07129407,0.24650683,0.86443425,-0.15520732,-0.16082035,0.27916120,-0.77838521,0.22979122,-0.47605205,-0.84802979,0.40050458,-0.04664605
5.20000000,-0.25804023,0.75699148,0.07129407,0.24650683,0.86443425,-0.15520732,-0.16082035,0.27916120,-0.77838521,0.22979122,-0.47605205,-0.84802979,0.40050458,-0.04664605
5.22000000,-0.25804023,0.75699148,0.07129407,0.24650683,0.86443425,-0.15520732,-0.16082035,0.27916120,-0.77838521,0.22979122,-0.47605205,-0.84802979,0.40050458,-0.04664605
5.24000000,-0.25804023,0.75699148,0.07129407,0.24650683,0.86443425,-0.15520732,-0.16082035,0.27916120,-0.77838521,0.22979122,-0.47605205,-0.84802979,0.40050458,-0.04664605
5.26000000,-0.25804023,0.75699148,0.07129407,0.24650683,0.86443425,-0.15520732,-0.16082035,0.27916120,-0.77838521,0.22979122,-0.47605205,-0.84802979,0.40050458,-0.04664605
5.28000000,-0.25804023,0.75699148,0.07129407,0.24650683,0.86443425,-0.15520732,-0.16082035,0.27916120,-0.77838521,0.22979122,-0.47605205,-0.84802979,0.40050458,-0.04664605
5.30000000,-0.25804023,0.75699148,0.07129407,0.24650683,0.86443425,-0.15520732,-0.16082035,0.27916120,-0.77838521,0.22979122,-0.47605205,-0.84802979,0.40050458,-0.04664605
5.32000000,-0.25804023,0.75699148,0.07129407,0.24650683,0.86443425,-0.15520732,-0.16082035,0.27916120,-0.77838521,0.22979122,-0.47605205,-0.84802979,0.40050458,-0.04664605
5.34000000,-0.25804023,0.75699148,0.07129407,0.24650683,0.86443425,-0.15520732,-0.16082035,0.27916120,-0.77838521,0.22979122,-0.47605205,-0.84802979,0.40050458,-0.04664605
5.36000000,-0.25804023,0.75699148,0.07129407,0.24650683,0.86443425,-0.15520732,-0.16082035,0.27916120,-0.77838521,0.22979122,-0.47605205,-0.84802979,0.40050458,-0.04664605
5.38000000,-0.25804023,0.75699148,0.07129407,0.24650683,0.86443425,-0.15520732,-0.16082035,0.27916120,-0.77838521,0.22979122,-0.47605205,-0.84802979,0.40050458,-0.04664605
5.40000000,-0.25804023,0.75699148,0.07129407,0.24650683,0.86443425,-0.15520732,-0.16082035,0.27916120,-0.77838521,0.22979122,-0.47605205,-0.84802979,0.40050458,-0.04664605
5.42000000,-0.25804023,0.75699148,0.07129407,0.24650683,0.86443425,-0.15520732,-0.16082035,0.27916120,-0.77838521,0.22979122,-0.47605205,-0.84802979,0.40050458,-0.04664605
5.44000000,-0.25804023,0.75699148,0.07129407,0.24650683,0.86443425,-0.15520732,-0.16082035,0.27916120,-0.77838521,0.22979122,-0.47605205,-0.84802979,0.40050458,-0.04664605
5.46000000,-0.25804023,0.75699148,0.07129407,0.24650683,0.86443425,-0.15520732,-0.16082035,0.27916120,-0.77838521,0.22979122,-0.47605205,-0.84802979,0.40050458,-0.04664605
5.48000000,-0.25804023,0.75699148,0.07129407,0.24650683,0.86443425,-0.15520732,-0.16082035,0.27916120,-0.77838521,0.22979122,-0.47605205,-0.84802979,0.40050458,-0.04664605
5.50000000,-0.25804023,0.75699148,0.07129407,0.24650683,0.86443425,-0.15520732,-0.16082035,0.27916120,-0.77838521,0.22979122,-0.47605205,-0.84802979,0.40050458,-0.04664605
5.52000000,-0.25804023,0.75699148,0.07129407,0.24650683,0.86443425,-0.15520732,-0.16082035,0.27916120,-0.77838521,0.22979122,-0.47605205,-0.84802979,0.40050458,-0.04664605
5.54000000,-0.25804023,0.75699148,0.07129407,0.24650683,0.86443425,-0.15520732,-0.16082035,0.27916120,-0.77838521,0.22979122,-0.47605205,-0.84802979,0.40050458,-0.04664605
5.56000000,-0.25804023,0.75699148,0.07129407,0.24650683,0.86443425,-0.15520732,-0.16082035,0.27916120,-0.77838521,0.22979122,-0.47605205,-0.84802979,0.40050458,-0.04664605
5.58000000,-0.25804023,0.75699148,0.07129407,0.24650683,0.86443425,-0.15520732,-0.16082035,0.27916120,-0.77838521,0.22979122,-0.47605205,-0.84802979,0.40050458,-0.04664605
5.60000000,-0.25804023,0.75699148,0.07129407,0.24650683,0.86443425,-0.15520732,-0.16082035,0.27916120,-0.77838521,0.22979122,-0.47605205,-0.84802979,0.40050458,-0.04664605
5.62000000,-0.25804023,0.75699148,0.07129407,0.24650683,0.86443425,-0.15520732,-0.16082035,0.27916120,-0.77838521,0.22979122,-0.47605205,-0.84802979,0.40050458,-0.04664605
5.64000000,-0.25804023,0.75699148,0.07129407,0.24650683,0.86443425,-0.15520732,-0.16082035,0.27916120,-0.77838521,0.22979122,-0.47605205,-0.84802979,0.40050458,-0.04664605
5.66000000,-0.25804023,0.75699148,0.07129407,0.24650683,0.86443425,-0.15520732,-0.16082035,0.27916120,-0.77838521,0.22979122,-0.47605205,-0.84802979,0.40050458,-0.04664605
5.68000000,-0.25804023,0.75699148,0.07129407,0.24650683,0.86443425,-0.15520732,-0.16082035,0.27916120,-0.77838521,0.22979122,-0.47605205,-0.84802979,0.40050458,-0.04664605
5.70000000,-0.25804023,0.75699148,0.07129407,0.24650683,0.86443425,-0.15520732,-0.16082035,0.27916120,-0.77838521,0.22979122,-0.47605205,-0.84802979,0.40050458,-0.04664605
5.72000000,-0.25804023,0.75699148,0.07129407,0.24650683,0.86443425,-0.15520732,-0.16082035,0.27916120,-0.77838521,0.22979122,-0.47605205,-0.84802979,0.40050458,-0.04664605
5.74000000,-0.25804023,0.75699148,0.07129407,0.24650683,0.86443425,-0.15520732,-0.16082035,0.27916120,-0.77838521,0.22979122,-0.47605205,-0.84802979,0.40050458,-0.04664605
5.76000000,-0.25804023,0.75699148,0.07129407,0.24650683,0.86443425,-0.15520732,-0.16082035,0.27916120,-0.77838521,0.22979122,-0.47605205,-0.84802979,0.40050458,-0.04664605
5.78000000,-0.25804023,0.75699148,0.07129407,0.24650683,0.86443425,-0.15520732,-0.16082035,0.27916120,-0.77838521,0.22979122,-0.47605205,-0.84802979,0.40050458,-0.04664605
5.80000000,-0.25804023,0.75699148,0.07129407,0.24650683,0.86443425,-0.15520732,-0.16082035,0.27916120,-0.77838521,0.22979122,-0.47605205,-0.84802979,0.40050458,-0.04664605
5.82000000,-0.25804023,0.75699148,0.07129407,0.24650683,0.86443425,-0.15520732,-0.16082035,0.27916120,-0.77838521,0.22979122,-0.47605205,-0.84802979,0.40050458,-0.04664605
5.84000000,-0.25804023,0.75699148,0.07129407,0.24650683,0.86443425,-0.15520732,-0.16082035,0.27916120,-0.77838521,0.22979122,-0.47605205,-0.84802979,0.40050458,-0.04664605
5.86000000,-0.25804023,0.75699148,0.07129407,0.24650683,0.86443425,-0.15520732,-0.16082035,0.27916120,-0.77838521,0.22979122,-0.47605205,-0.84802979,0.40050458,-0.04664605
5.88000000,-0.25804023,0.75699148,0.07129407,0.24650683,0.86443425,-0.15520732,-0.16082035,0.27916120,-0.77838521,0.22979122,-0.47605205,-0.84802979,0.40050458,-0.04664605
5.90000000,-0.25804023,0.75699148,0.07129407,0.24650683,0.86443425,-0.15520732,-0.16082035,0.27916120,-0.77838521,0.22979122,-0.47605205,-0.84802979,0.40050458,-0.04664605
5.92000000,-0.25804023,0.75699148,0.07129407,0.24650683,0.86443425,-0.15520732,-0.16082035,0.27916120,-0.77838521,0.22979122,-0.47605205,-0.84802979,0.40050458,-0.04664605
5.94000000,-0.25804023,0.75699148,0.07129407,0.24650683,0.86443425,-0.15520732,-0.16082035,0.27916120,-0.77838521,0.22979122,-0.47605205,-0.84802979,0.40050458,-0.04664605
5.96000000,-0.25804023,0.75699148,0.07129407,0.24650683,0.86443425,-0.15520732,-0.16082035,0.27916120,-0.77838521,0.22979122,-0.47605205,-0.84802979,0.40050458,-0.04664605
5.98000000,-0.25804023,0.75699148,0.07129407,0.24650683,0.86443425,-0.15520732,-0.16082035,0.27916120,-0.77838521,0.22979122,-0.47605205,-0.84802979,0.40050458,-0.04664605
6.00000000,-0.25804023,0.75699148,0.07129407,0.24650683,0.86443425,-0.15520732,-0.16082035,0.27916120,-0.77838521,0.22979122,-0.47605205,-0.84802979,0.40050458,-0.04664605
6.02000000,-0.25804023,0.75699148,0.07129407,0.24650683,0.86443425,-0.15520732,-0.16082035,0.27916120,-0.77838521,0.22979122,-0.47605205,-0.84802979,0.40050458,-0.04664605
6.04000000,-0.25804023,0.75699148,0.07129407,0.24650683,0.86443425,-0.15520732,-0.16082035,0.27916120,-0.77838521,0.22979122,-0.47605205,-0.84802979,0.40050458,-0.04664605
6.06000000,-0.25804023,0.75699148,0.07129407,0.24650683,0.86443425,-0.15520732,-0.16082035,0.27916120,-0.77838521,0.22979122,-0.47605205,-0.84802979,0.40050458,-0.04664605
6.08000000,-0.25804023,0.75699148,0.07129407,0.24650683,0.86443425,-0.15520732,-0.16082035,0.27916120,-0.77838521,0.22979122,-0.47605205,-0.84802979,0.40050458,-0.04664605
6.10000000,-0.25804023,0.75699148,0.07129407,0.24650683,0.86443425,-0.15520732,-0.16082035,0.27916120,-0.77838521,0.22979122,-0.47605205,-0.84802979,0.40050458,-0.04664605
6.12000000,-0.25804023,0.75699148,0.07129407,0.24650683,0.86443425,-0.15520732,-0.16082035,0.27916120,-0.77838521,0.22979122,-0.47605205,-0.84802979,0.40050458,-0.04664605
6.14000000,-0.25804023,0.75699148,0.07129407,0.24650683,0.86443425,-0.15520732,-0.16082035,0.27916120,-0.77838521,0.22979122,-0.47605205,-0.84802979,0.40050458,-0.04664605
6.16000000,-0.25804023,0.75699148,0.07129407,0.24650683,0.86443425,-0.15520732,-0.16082035,0.27916120,-0.77838521,0.22979122,-0.47605205,-0.84802979,0.40050458,-0.04664605
6.18000000,-0.25804023,0.75699148,0.07129407,0.24650683,0.86443425,-0.15520732,-0.16082035,0.27916120,-0.77838521,0.22979122,-0.47605205,-0.84802979,0.40050458,-0.04664605
6.20000000,-0.25804023,0.75699148,0.07129407,0.24650683,0.86443425,-0.15520732,-0.16082035,0.27916120,-0.77838521,0.22979122,-0.47605205,-0.84802979,0.40050458,-0.04664605
6.22000000,-0.25804023,0.75699148,0.07129407,0.24650683,0.86443425,-0.15520732,-0.16082035,0.27916120,-0.77838521,0.22979122,-0.47605205,-0.84802979,0.40050458,-0.04664605
6.24000000,-0.25804023,0.75699148,0.07129407,0.24650683,0.86443425,-0.15520732,-0.16082035,0.27916120,-0.77838521,0.22979122,-0.47605205,-0.84802979,0.40050458,-0.04664605
6.26000000,-0.25804023,0.75699148,0.07129407,0.24650683,0.86443425,-0.15520732,-0.16082035,0.27916120,-0.77838521,0.22979122,-0.47605205,-0.84802979,0.40050458,-0.04664605
6.28000000,-0.25804023,0.75699148,0.07129407,0.24650683,0.86443425,-0.15520732,-0.16082035,0.27916120,-0.77838521,0.22979122,-0.47605205,-0.84802979,0.40050458,-0.04664605
6.30000000,-0.25804023,0.75699148,0.07129407,0.24650683,0.86443425,-0.15520732,-0.16082035,0.27916120,-0.77838521,0.22979122,-0.47605205,-0.84802979,0.40050458,-0.04664605
6.32000000,-0.25804023,0.75699148,0.07129407,0.24650683,0.86443425,-0.15520732,-0.16082035,0.27916120,-0.77838521,0.22979122,-0.47605205,-0.84802979,0.40050458,-0.04664605
6.34000000,-0.25804023,0.75699148,0.07129407,0.24650683,0.86443425,-0.15520732,-0.16082035,0.27916120,-0.77838521,0.22979122,-0.47605205,-0.84802979,0.40050458,-0.04664605
6.36000000,-0.25804023,0.75699148,0.07129407,0.24650683,0.86443425,-0.15520732,-0.16082035,0.27916120,-0.77838521,0.22979122,-0.47605205,-0.84802979,0.40050458,-0.04664605
6.38000000,-0.25804023,0.75699148,0.07129407,0.24650683,0.86443425,-0.15520732,-0.16082035,0.27916120,-0.77838521,0.22979122,-0.47605205,-0.84802979,0.40050458,-0.04664605
6.40000000,-0.25804023,0.75699148,0.07129407,0.24650683,0.86443425,-0.15520732,-0.16082035,0.27916120,-0.77838521,0.22979122,-0.47605205,-0.84802979,0.40050458,-0.04664605
6.42000000,-0.25804023,0.75699148,0.07129407,0.24650683,0.86443425,-0.15520732,-0.16082035,0.27916120,-0.77838521,0.22979122,-0.47605205,-0.84802979,0.40050458,-0.04664605
6.44000000,-0.25804023,0.75699148,0.07129407,0.24650683,0.86443425,-0.15520732,-0.16082035,0.27916120,-0.77838521,0.22979122,-0.47605205,-0.84802979,0.40050458,-0.04664605
6.46000000,-0.25804023,0.75699148,0.07129407,0.24650683,0.86443425,-0.15520732,-0.16082035,0.27916120,-0.77838521,0.22979122,-0.47605205,-0.84802979,0.40050458,-0.04664605
6.48000000,-0.25804023,0.75699148,0.07129407,0.24650683,0.86443425,-0.15520732,-0.16082035,0.27916120,-0.77838521,0.22979122,-0.47605205,-0.84802979,0.40050458,-0.04664605
6.50000000,-0.25804023,0.75699148,0.07129407,0.24650683,0.86443425,-0.15520732,-0.16082035,0.27916120,-0.77838521,0.22979122,-0.47605205,-0.84802979,0.40050458,-0.04664605
6.52000000,-0.25804023,0.75699148,0.07129407,0.24650683,0.86443425,-0.15520732,-0.16082035,0.27916120,-0.77838521,0.22979122,-0.47605205,-0.84802979,0.40050458,-0.04664605
6.54000000,-0.25804023,0.75699148,0.07129407,0.24650683,0.86443425,-0.15520732,-0.16082035,0.27916120,-0.77838521,0.22979122,-0.47605205,-0.84802979,0.40050458,-0.04664605
6.56000000,-0.25804023,0.75699148,0.07129407,0.24650683,0.86443425,-0.15520732,-0.16082035,0.27916120,-0.77838521,0.22979122,-0.47605205,-0.84802979,0.40050458,-0.04664605
6.58000000,-0.25804023,0.75699148,0.07129407,0.24650683,0.86443425,-0.15520732,-0.16082035,0.27916120,-0.77838521,0.22979122,-0.47605205,-0.84802979,0.40050458,-0.04664605
6.60000000,-0.25804023,0.75699148,0.07129407,0.24650683,0.86443425,-0.15520732,-0.16082035,0.27916120,-0.77838521,0.22979122,-0.47605205,-0.84802979,0.40050458,-0.04664605
6.62000000,-0.25804023,0.75699148,0.07129407,0.24650683,0.86443425,-0.15520732,-0.16082035,0.27916120,-0.77838521,0.22979122,-0.47605205,-0.84802979,0.40050458,-0.04664605
6.64000000,-0.25804023,0.75699148,0.07129407,0.24650683,0.86443425,-0.15520732,-0.16082035,0.27916120,-0.77838521,0.22979122,-0.47605205,-0.84802979,0.40050458,-0.04664605
6.66000000,-0.25804023,0.75699148,0.07129407,0.24650683,0.86443425,-0.15520732,-0.16082035,0.27916120,-0.77838521,0.22979122,-0.47605205,-0.84802979,0.40050458,-0.04664605
6.68000000,-0.25804023,0.75699148,0.07129407,0.24650683,0.86443425,-0.15520732,-0.16082035,0.27916120,-0.77838521,0.22979122,-0.47605205,-0.84802979,0.40050458,-0.04664605
6.70000000,-0.25804023,0.75699148,0.07129407,0.24650683,0.86443425,-0.15520732,-0.16082035,0.27916120,-0.77838521,0.22979122,-0.47605205,-0.84802979,0.40050458,-0.04664605
6.72000000,-0.25804023,0.75699148,0.07129407,0.24650683,0.86443425,-0.15520732,-0.16082035,0.27916120,-0.77838521,0.22979122,-0.47605205,-0.84802979,0.40050458,-0.04664605
6.74000000,-0.25804023,0.75699148,0.07129407,0.24650683,0.86443425,-0.15520732,-0.16082035,0.27916120,-0.77838521,0.22979122,-0.47605205,-0.84802979,0.40050458,-0.04664605
6.76000000,-0.25804023,0.75699148,0.07129407,0.24650683,0.86443425,-0.15520732,-0.16082035,0.27916120,-0.77838521,0.22979122,-0.47605205,-0.84802979,0.40050458,-0.04664605
6.78000000,-0.25804023,0.75699148,0.07129407,0.24650683,0.86443425,-0.15520732,-0.16082035,0.27916120,-0.77838521,0.22979122,-0.47605205,-0.84802979,0.40050458,-0.04664605
6.80000000,-0.25804023,0.75699148,0.07129407,0.24650683,0.86443425,-0.15520732,-0.16082035,0.27916120,-0.77838521,0.22979122,-0.47605205,-0.84802979,0.40050458,-0.04664605
6.82000000,-0.25804023,0.75699148,0.07129407,0.24650683,0.86443425,-0.15520732,-0.16082035,0.27916120,-0.77838521,0.22979122,-0.47605205,-0.84802979,0.40050458,-0.04664605
6.84000000,-0.25804023,0.75699148,0.07129407,0.24650683,0.86443425,-0.15520732,-0.16082035,0.27916120,-0.77838521,0.22979122,-0.47605205,-0.84802979,0.40050458,-0.04664605
6.86000000,-0.25804023,0.75699148,0.07129407,0.24650683,0.86443425,-0.15520732,-0.16082035,0.27916120,-0.77838521,0.22979122,-0.47605205,-0.84802979,0.40050458,-0.04664605
6.88000000,-0.25804023,0.75699148,0.07129407,0.24650683,0.86443425,-0.15520732,-0.16082035,0.27916120,-0.77838521,0.22979122,-0.47605205,-0.84802979,0.40050458,-0.04664605
6.90000000,-0.25804023,0.75699148,0.07129407,0.24650683,0.86443425,-0.15520732,-0.16082035,0.27916120,-0.77838521,0.22979122,-0.47605205,-0.84802979,0.40050458,-0.04664605
6.92000000,-0.25804023,0.75699148,0.07129407,0.24650683,0.86443425,-0.15520732,-0.16082035,0.27916120,-0.77838521,0.22979122,-0.47605205,-0.84802979,0.40050458,-0.04664605
6.94000000,-0.25804023,0.75699148,0.07129407,0.24650683,0.86443425,-0.15520732,-0.16082035,0.27916120,-0.77838521,0.22979122,-0.47605205,-0.84802979,0.40050458,-0.04664605
6.96000000,-0.25804023,0.75699148,0.07129407,0.24650683,0.86443425,-0.15520732,-0.16082035,0.27916120,-0.77838521,0.22979122,-0.47605205,-0.84802979,0.40050458,-0.04664605
6.98000000,-0.25804023,0.75699148,0.07129407,0.24650683,0.86443425,-0.15520732,-0.16082035,0.27916120,-0.77838521,0.22979122,-0.47605205,-0.84802979,0.40050458,-0.04664605
7.00000000,-0.25804023,0.75699148,0.07129407,0.24650683,0.86443425,-0.15520732,-0.16082035,0.27916120,-0.77838521,0.22979122,-0.47605205,-0.84802979,0.40050458,-0.04664605
7.02000000,-0.25804023,0.75699148,0.07129407,0.24650683,0.86443425,-0.15520732,-0.16082035,0.27916120,-0.77838521,0.22979122,-0.47605205,-0.84802979,0.40050458,-0.04664605
7.04000000,-0.25804023,0.75699148,0.07129407,0.24650683,0.86443425,-0.15520732,-0.16082035,0.27916120,-0.77838521,0.22979122,-0.47605205,-0.84802979,0.40050458,-0.04664605
7.06000000,-0.25804023,0.75699148,0.07129407,0.24650683,0.86443425,-0.15520732,-0.16082035,0.27916120,-0.77838521,0.22979122,-0.47605205,-0.84802979,0.40050458,-0.04664605
7.08000000,-0.25804023,0.75699148,0.07129407,0.24650683,0.86443425,-0.15520732,-0.16082035,0.27916120,-0.77838521,0.22979122,-0.47605205,-0.84802979,0.40050458,-0.04664605
7.10000000,-0.25804023,0.75699148,0.07129407,0.24650683,0.86443425,-0.15520732,-0.16082035,0.27916120,-0.77838521,0.22979122,-0.47605205,-0.84802979,0.40050458,-0.04664605
7.12000000,-0.25804023,0.75699148,0.07129407,0.24650683,0.86443425,-0.15520732,-0.16082035,0.27916120,-0.77838521,0.22979122,-0.47605205,-0.84802979,0.40050458,-0.04664605
7.14000000,-0.25804023,0.75699148,0.07129407,0.24650683,0.86443425,-0.15520732,-0.16082035,0.27916120,-0.77838521,0.22979122,-0.47605205,-0.84802979,0.40050458,-0.04664605
7.16000000,-0.25804023,0.75699148,0.07129407,0.24650683,0.86443425,-0.15520732,-0.16082035,0.27916120,-0.77838521,0.22979122,-0.47605205,-0.84802979,0.40050458,-0.04664605
7.18000000,-0.25804023,0.75699148,0.07129407,0.24650683,0.86443425,-0.15520732,-0.16082035,0.27916120,-0.77838521,0.22979122,-0.47605205,-0.84802979,0.40050458,-0.04664605
7.20000000,-0.25804023,0.75699148,0.07129407,0.24650683,0.86443425,-0.15520732,-0.16082035,0.27916120,-0.77838521,0.22979122,-0.47605205,-0.84802979,0.40050458,-0.04664605
7.22000000,-0.25804023,0.75699148,0.07129407,0.24650683,0.86443425,-0.15520732,-0.16082035,0.27916120,-0.77838521,0.22979122,-0.47605205,-0.84802979,0.40050458,-0.04664605
7.24000000,-0.25804023,0.75699148,0.07129407,0.24650683,0.86443425,-0.15520732,-0.16082035,0.27916120,-0.77838521,0.22979122,-0.47605205,-0.84802979,0.40050458,-0.04664605
7.26000000,-0.25804023,0.75699148,0.07129407,0.24650683,0.86443425,-0.15520732,-0.16082035,0.27916120,-0.77838521,0.22979122,-0.47605205,-0.84802979,0.40050458,-0.04664605
7.28000000,-0.25804023,0.75699148,0.07129407,0.24650683,0.86443425,-0.15520732,-0.16082035,0.27916120,-0.77838521,0.22979122,-0.47605205,-0.84802979,0.40050458,-0.04664605
7.30000000,-0.25804023,0.75699148,0.07129407,0.24650683,0.86443425,-0.15520732,-0.16082035,0.27916120,-0.77838521,0.22979122,-0.47605205,-0.84802979,0.40050458,-0.04664605
7.32000000,-0.25804023,0.75699148,0.07129407,0.24650683,0.86443425,-0.15520732,-0.16082035,0.27916120,-0.77838521,0.22979122,-0.47605205,-0.84802979,0.40050458,-0.04664605
7.34000000,-0.25804023,0.75699148,0.07129407,0.24650683,0.86443425,-0.15520732,-0.16082035,0.27916120,-0.77838521,0.22979122,-0.47605205,-0.84802979,0.40050458,-0.04664605
7.36000000,-0.25804023,0.75699148,0.07129407,0.24650683,0.86443425,-0.15520732,-0.16082035,0.27916120,-0.77838521,0.22979122,-0.47605205,-0.84802979,0.40050458,-0.04664605
7.38000000,-0.25804023,0.75699148,0.07129407,0.24650683,0.86443425,-0.15520732,-0.16082035,0.27916120,-0.77838521,0.22979122,-0.47605205,-0.84802979,0.40050458,-0.04664605
7.40000000,-0.25804023,0.75699148,0.07129407,0.24650683,0.86443425,-0.15520732,-0.16082035,0.27916120,-0.77838521,0.22979122,-0.47605205,-0.84802979,0.40050458,-0.04664605
7.42000000,-0.25804023,0.75699148,0.07129407,0.24650683,0.86443425,-0.15520732,-0.16082035,0.27916120,-0.77838521,0.22979122,-0.47605205,-0.84802979,0.40050458,-0.04664605
7.44000000,-0.25804023,0.75699148,0.07129407,0.24650683,0.86443425,-0.15520732,-0.16082035,0.27916120,-0.77838521,0.22979122,-0.47605205,-0.84802979,0.40050458,-0.04664605
7.46000000,-0.25804023,0.75699148,0.07129407,0.24650683,0.86443425,-0.15520732,-0.16082035,0.27916120,-0.77838521,0.22979122,-0.47605205,-0.84802979,0.40050458,-0.04664605
7.48000000,-0.25804023,0.75699148,0.07129407,0.24650683,0.86443425,-0.15520732,-0.16082035,0.27916120,-0.77838521,0.22979122,-0.47605205,-0.84802979,0.40050458,-0.04664605
7.50000000,-0.25804023,0.75699148,0.07129407,0.24650683,0.86443425,-0.15520732,-0.16082035,0.27916120,-0.77838521,0.22979122,-0.47605205,-0.84802979,0.40050458,-0.04664605
7.52000000,-0.25804023,0.75699148,0.07129407,0.24650683,0.86443425,-0.15520732,-0.16082035,0.27916120,-0.77838521,0.22979122,-0.47605205,-0.84802979,0.40050458,-0.04664605
7.54000000,-0.25804023,0.75699148,0.07129407,0.24650683,0.86443425,-0.15520732,-0.16082035,0.27916120,-0.77838521,0.22979122,-0.47605205,-0.84802979,0.40050458,-0.04664605
7.56000000,-0.25804023,0.75699148,0.07129407,0.24650683,0.86443425,-0.15520732,-0.16082035,0.27916120,-0.77838521,0.22979122,-0.47605205,-0.84802979,0.40050458,-0.04664605
7.58000000,-0.25804023,0.75699148,0.07129407,0.24650683,0.86443425,-0.15520732,-0.16082035,0.27916120,-0.77838521,0.22979122,-0.47605205,-0.84802979,0.40050458,-0.04664605
7.60000000,-0.25804023,0.75699148,0.07129407,0.24650683,0.86443425,-0.15520732,-0.16082035,0.27916120,-0.77838521,0.22979122,-0.47605205,-0.84802979,0.40050458,-0.04664605
7.62000000,-0.25804023,0.75699148,0.07129407,0.24650683,0.86443425,-0.15520732,-0.16082035,0.27916120,-0.77838521,0.22979122,-0.47605205,-0.84802979,0.40050458,-0.04664605
7.64000000,-0.25804023,0.75699148,0.07129407,0.24650683,0.86443425,-0.15520732,-0.16082035,0.27916120,-0.77838521,0.22979122,-0.47605205,-0.84802979,0.40050458,-0.04664605
7.66000000,-0.25804023,0.75699148,0.07129407,0.24650683,0.86443425,-0.15520732,-0.16082035,0.27916120,-0.77838521,0.22979122,-0.47605205,-0.84802979,0.40050458,-0.04664605
7.68000000,-0.25804023,0.75699148,0.07129407,0.24650683,0.86443425,-0.15520732,-0.16082035,0.27916120,-0.77838521,0.22979122,-0.47605205,-0.84802979,0.40050458,-0.04664605
7.70000000,-0.25804023,0.75699148,0.07129407,0.24650683,0.86443425,-0.15520732,-0.16082035,0.27916120,-0.77838521,0.22979122,-0.47605205,-0.84802979,0.40050458,-0.04664605
7.72000000,-0.25804023,0.75699148,0.07129407,0.24650683,0.86443425,-0.15520732,-0.16082035,0.27916120,-0.77838521,0.22979122,-0.47605205,-0.84802979,0.40050458,-0.04664605
7.74000000,-0.25804023,0.75699148,0.07129407,0.24650683,0.86443425,-0.15520732,-0.16082035,0.27916120,-0.77838521,0.22979122,-0.47605205,-0.84802979,0.40050458,-0.04664605
7.76000000,-0.25804023,0.75699148,0.07129407,0.24650683,0.86443425,-0.15520732,-0.16082035,0.27916120,-0.77838521,0.22979122,-0.47605205,-0.84802979,0.40050458,-0.04664605
7.78000000,-0.25804023,0.75699148,0.07129407,0.24650683,0.86443425,-0.15520732,-0.16082035,0.27916120,-0.77838521,0.22979122,-0.47605205,-0.84802979,0.40050458,-0.04664605
7.80000000,-0.25804023,0.75699148,0.07129407,0.24650683,0.86443425,-0.15520732,-0.16082035,0.27916120,-0.77838521,0.22979122,-0.47605205,-0.84802979,0.40050458,-0.04664605
7.82000000,-0.25804023,0.75699148,0.07129407,0.24650683,0.86443425,-0.15520732,-0.16082035,0.27916120,-0.77838521,0.22979122,-0.47605205,-0.84802979,0.40050458,-0.04664605
7.84000000,-0.25804023,0.75699148,0.07129407,0.24650683,0.86443425,-0.15520732,-0.16082035,0.27916120,-0.77838521,0.22979122,-0.47605205,-0.84802979,0.40050458,-0.04664605
7.86000000,-0.25804023,0.75699148,0.07129407,0.24650683,0.86443425,-0.15520732,-0.16082035,0.27916120,-0.77838521,0.22979122,-0.47605205,-0.84802979,0.40050458,-0.04664605
7.88000000,-0.25804023,0.75699148,0.07129407,0.24650683,0.86443425,-0.15520732,-0.16082035,0.27916120,-0.77838521,0.22979122,-0.47605205,-0.84802979,0.40050458,-0.04664605
7.90000000,-0.25804023,0.75699148,0.07129407,0.24650683,0.86443425,-0.15520732,-0.16082035,0.27916120,-0.77838521,0.22979122,-0.47605205,-0.84802979,0.40050458,-0.04664605
7.92000000,-0.25804023,0.75699148,0.07129407,0.24650683,0.86443425,-0.15520732,-0.16082035,0.27916120,-0.77838521,0.22979122,-0.47605205,-0.84802979,0.40050458,-0.04664605
7.94000000,-0.25804023,0.75699148,0.07129407,0.24650683,0.86443425,-0.15520732,-0.16082035,0.27916120,-0.77838521,0.22979122,-0.47605205,-0.84802979,0.40050458,-0.04664605
7.96000000,-0.25804023,0.75699148,0.07129407,0.24650683,0.86443425,-0.15520732,-0.16082035,0.27916120,-0.77838521,0.22979122,-0.47605205,-0.84802979,0.40050458,-0.04664605
7.98000000,-0.25804023,0.75699148,0.07129407,0.24650683,0.86443425,-0.15520732,-0.16082035,0.27916120,-0.77838521,0.22979122,-0.47605205,-0.84802979,0.40050458,-0.04664605
8.00000000,-0.25804023,0.75699148,0.07129407,0.24650683,0.86443425,-0.15520732,-0.16082035,0.27916120,-0.77838521,0.22979122,-0.47605205,-0.84802979,0.40050458,-0.04664605
8.02000000,-0.25804023,0.75699148,0.07129407,0.24650683,0.86443425,-0.15520732,-0.16082035,0.27916120,-0.77838521,0.22979122,-0.47605205,-0.84802979,0.40050458,-0.04664605
8.04000000,-0.25804023,0.75699148,0.07129407,0.24650683,0.86443425,-0.15520732,-0.16082035,0.27916120,-0.77838521,0.22979122,-0.47605205,-0.84802979,0.40050458,-0.04664605
8.06000000,-0.25804023,0.75699148,0.07129407,0.24650683,0.86443425,-0.15520732,-0.16082035,0.27916120,-0.77838521,0.22979122,-0.47605205,-0.84802979,0.40050458,-0.04664605
8.08000000,-0.25804023,0.75699148,0.07129407,0.24650683,0.86443425,-0.15520732,-0.16082035,0.27916120,-0.77838521,0.22979122,-0.47605205,-0.84802979,0.40050458,-0.04664605
8.10000000,-0.25804023,0.75699148,0.07129407,0.24650683,0.86443425,-0.15520732,-0.16082035,0.27916120,-0.77838521,0.22979122,-0.47605205,-0.84802979,0.40050458,-0.04664605
8.12000000,-0.25804023,0.75699148,0.07129407,0.24650683,0.86443425,-0.15520732,-0.16082035,0.27916120,-0.77838521,0.22979122,-0.47605205,-0.84802979,0.40050458,-0.04664605
8.14000000,-0.25804023,0.75699148,0.07129407,0.24650683,0.86443425,-0.15520732,-0.16082035,0.27916120,-0.77838521,0.22979122,-0.47605205,-0.84802979,0.40050458,-0.04664605
8.16000000,-0.25804023,0.75699148,0.07129407,0.24650683,0.86443425,-0.15520732,-0.16082035,0.27916120,-0.77838521,0.22979122,-0.47605205,-0.84802979,0.40050458,-0.04664605
8.18000000,-0.25804023,0.75699148,0.07129407,0.24650683,0.86443425,-0.15520732,-0.16082035,0.27916120,-0.77838521,0.22979122,-0.47605205,-0.84802979,0.40050458,-0.04664605
8.20000000,-0.25804023,0.75699148,0.07129407,0.24650683,0.86443425,-0.15520732,-0.16082035,0.27916120,-0.77838521,0.22979122,-0.47605205,-0.84802979,0.40050458,-0.04664605
8.22000000,-0.25804023,0.75699148,0.07129407,0.24650683,0.86443425,-0.15520732,-0.16082035,0.27916120,-0.77838521,0.22979122,-0.47605205,-0.84802979,0.40050458,-0.04664605
8.24000000,-0.25804023,0.75699148,0.07129407,0.24650683,0.86443425,-0.15520732,-0.16082035,0.27916120,-0.77838521,0.22979122,-0.47605205,-0.84802979,0.40050458,-0.04664605
8.26000000,-0.25804023,0.75699148,0.07129407,0.24650683,0.86443425,-0.15520732,-0.16082035,0.27916120,-0.77838521,0.22979122,-0.47605205,-0.84802979,0.40050458,-0.04664605
8.28000000,-0.25804023,0.75699148,0.07129407,0.24650683,0.86443425,-0.15520732,-0.16082035,0.27916120,-0.77838521,0.22979122,-0.47605205,-0.84802979,0.40050458,-0.04664605
8.30000000,-0.25804023,0.75699148,0.07129407,0.24650683,0.86443425,-0.15520732,-0.16082035,0.27916120,-0.77838521,0.22979122,-0.47605205,-0.84802979,0.40050458,-0.04664605
8.32000000,-0.25804023,0.75699148,0.07129407,0.24650683,0.86443425,-0.15520732,-0.16082035,0.27916120,-0.77838521,0.22979122,-0.47605205,-0.84802979,0.40050458,-0.04664605
8.34000000,-0.25804023,0.75699148,0.07129407,0.24650683,0.86443425,-0.15520732,-0.16082035,0.27916120,-0.77838521,0.22979122,-0.47605205,-0.84802979,0.40050458,-0.04664605
8.36000000,-0.25804023,0.75699148,0.07129407,0.24650683,0.86443425,-0.15520732,-0.16082035,0.27916120,-0.77838521,0.22979122,-0.47605205,-0.84802979,0.40050458,-0.04664605
8.38000000,-0.25804023,0.75699148,0.07129407,0.24650683,0.86443425,-0.15520732,-0.16082035,0.27916120,-0.77838521,0.22979122,-0.47605205,-0.84802979,0.40050458,-0.04664605
8.40000000,-0.25804023,0.75699148,0.07129407,0.24650683,0.86443425,-0.15520732,-0.16082035,0.27916120,-0.77838521,0.22979122,-0.47605205,-0.84802979,0.40050458,-0.04664605
8.42000000,-0.25804023,0.75699148,0.07129407,0.24650683,0.86443425,-0.15520732,-0.16082035,0.27916120,-0.77838521,0.22979122,-0.47605205,-0.84802979,0.40050458,-0.04664605
8.44000000,-0.25804023,0.75699148,0.07129407,0.24650683,0.86443425,-0.15520732,-0.16082035,0.27916120,-0.77838521,0.22979122,-0.47605205,-0.84802979,0.40050458,-0.04664605
8.46000000,-0.25804023,0.75699148,0.07129407,0.24650683,0.86443425,-0.15520732,-0.16082035,0.27916120,-0.77838521,0.22979122,-0.47605205,-0.84802979,0.40050458,-0.04664605
8.48000000,-0.25804023,0.75699148,0.07129407,0.24650683,0.86443425,-0.15520732,-0.16082035,0.27916120,-0.77838521,0.22979122,-0.47605205,-0.84802979,0.40050458,-0.04664605
8.50000000,-0.25804023,0.75699148,0.07129407,0.24650683,0.86443425,-0.15520732,-0.16082035,0.27916120,-0.77838521,0.22979122,-0.47605205,-0.84802979,0.40050458,-0.04664605
8.52000000,-0.25804023,0.75699148,0.07129407,0.24650683,0.86443425,-0.15520732,-0.16082035,0.27916120,-0.77838521,0.22979122,-0.47605205,-0.84802979,0.40050458,-0.04664605
8.54000000,-0.25804023,0.75699148,0.07129407,0.24650683,0.86443425,-0.15520732,-0.16082035,0.27916120,-0.77838521,0.22979122,-0.47605205,-0.84802979,0.40050458,-0.04664605
8.56000000,-0.25804023,0.75699148,0.07129407,0.24650683,0.86443425,-0.15520732,-0.16082035,0.27916120,-0.77838521,0.22979122,-0.47605205,-0.84802979,0.40050458,-0.04664605
8.58000000,-0.25804023,0.75699148,0.07129407,0.24650683,0.86443425,-0.15520732,-0.16082035,0.27916120,-0.77838521,0.22979122,-0.47605205,-0.84802979,0.40050458,-0.04664605
8.60000000,-0.25804023,0.75699148,0.07129407,0.24650683,0.86443425,-0.15520732,-0.16082035,0.27916120,-0.77838521,0.22979122,-0.47605205,-0.84802979,0.40050458,-0.04664605
8.62000000,-0.25804023,0.75699148,0.07129407,0.24650683,0.86443425,-0.15520732,-0.16082035,0.27916120,-0.77838521,0.22979122,-0.47605205,-0.84802979,0.40050458,-0.04664605
8.64000000,-0.25804023,0.75699148,0.07129407,0.24650683,0.86443425,-0.15520732,-0.16082035,0.27916120,-0.77838521,0.22979122,-0.47605205,-0.84802979,0.40050458,-0.04664605
8.66000000,-0.25804023,0.75699148,0.07129407,0.24650683,0.86443425,-0.15520732,-0.16082035,0.27916120,-0.77838521,0.22979122,-0.47605205,-0.84802979,0.40050458,-0.04664605
8.68000000,-0.25804023,0.75699148,0.07129407,0.24650683,0.86443425,-0.15520732,-0.16082035,0.27916120,-0.77838521,0.22979122,-0.47605205,-0.84802979,0.40050458,-0.04664605
8.70000000,-0.25804023,0.75699148,0.07129407,0.24650683,0.86443425,-0.15520732,-0.16082035,0.27916120,-0.77838521,0.22979122,-0.47605205,-0.84802979,0.40050458,-0.04664605
8.72000000,-0.25804023,0.75699148,0.07129407,0.24650683,0.86443425,-0.15520732,-0.16082035,0.27916120,-0.77838521,0.22979122,-0.47605205,-0.84802979,0.40050458,-0.04664605
8.74000000,-0.25804023,0.75699148,0.07129407,0.24650683,0.86443425,-0.15520732,-0.16082035,0.27916120,-0.77838521,0.22979122,-0.47605205,-0.84802979,0.40050458,-0.04664605
8.76000000,-0.25804023,0.75699148,0.07129407,0.24650683,0.86443425,-0.15520732,-0.16082035,0.27916120,-0.77838521,0.22979122,-0.47605205,-0.84802979,0.40050458,-0.04664605
8.78000000,-0.25804023,0.75699148,0.07129407,0.24650683,0.86443425,-0.15520732,-0.16082035,0.27916120,-0.77838521,0.22979122,-0.47605205,-0.84802979,0.40050458,-0.04664605
8.80000000,-0.25804023,0.75699148,0.07129407,0.24650683,0.86443425,-0.15520732,-0.16082035,0.27916120,-0.77838521,0.22979122,-0.47605205,-0.84802979,0.40050458,-0.04664605
8.82000000,-0.25804023,0.75699148,0.07129407,0.24650683,0.86443425,-0.15520732,-0.16082035,0.27916120,-0.77838521,0.22979122,-0.47605205,-0.84802979,0.40050458,-0.04664605
8.84000000,-0.25804023,0.75699148,0.07129407,0.24650683,0.86443425,-0.15520732,-0.16082035,0.27916120,-0.77838521,0.22979122,-0.47605205,-0.84802979,0.40050458,-0.04664605
8.86000000,-0.25804023,0.75699148,0.07129407,0.24650683,0.86443425,-0.15520732,-0.16082035,0.27916120,-0.77838521,0.22979122,-0.47605205,-0.84802979,0.40050458,-0.04664605
8.88000000,-0.25804023,0.75699148,0.07129407,0.24650683,0.86443425,-0.15520732,-0.16082035,0.27916120,-0.77838521,0.22979122,-0.47605205,-0.84802979,0.40050458,-0.04664605
8.90000000,-0.25804023,0.75699148,0.07129407,0.24650683,0.86443425,-0.15520732,-0.16082035,0.27916120,-0.77838521,0.22979122,-0.47605205,-0.84802979,0.40050458,-0.04664605
8.92000000,-0.25804023,0.75699148,0.07129407,0.24650683,0.86443425,-0.15520732,-0.16082035,0.27916120,-0.77838521,0.22979122,-0.47605205,-0.84802979,0.40050458,-0.04664605
8.94000000,-0.25804023,0.75699148,0.07129407,0.24650683,0.86443425,-0.15520732,-0.16082035,0.27916120,-0.77838521,0.22979122,-0.47605205,-0.84802979,0.40050458,-0.04664605
8.96000000,-0.25804023,0.75699148,0.07129407,0.24650683,0.86443425,-0.15520732,-0.16082035,0.27916120,-0.77838521,0.22979122,-0.47605205,-0.84802979,0.40050458,-0.04664605
8.98000000,-0.25804023,0.75699148,0.07129407,0.24650683,0.86443425,-0.15520732,-0.16082035,0.27916120,-0.77838521,0.22979122,-0.47605205,-0.84802979,0.40050458,-0.04664605
9.00000000,-0.25804023,0.75699148,0.07129407,0.24650683,0.86443425,-0.15520732,-0.16082035,0.27916120,-0.77838521,0.22979122,-0.47605205,-0.84802979,0.40050458,-0.04664605
9.02000000,-0.25804023,0.75699148,0.07129407,0.24650683,0.86443425,-0.15520732,-0.16082035,0.27916120,-0.77838521,0.22979122,-0.47605205,-0.84802979,0.40050458,-0.04664605
9.04000000,-0.25804023,0.75699148,0.07129407,0.24650683,0.86443425,-0.15520732,-0.16082035,0.27916120,-0.77838521,0.22979122,-0.47605205,-0.84802979,0.40050458,-0.04664605
9.06000000,-0.25804023,0.75699148,0.07129407,0.24650683,0.86443425,-0.15520732,-0.16082035,0.27916120,-0.77838521,0.22979122,-0.47605205,-0.84802979,0.40050458,-0.04664605
9.08000000,-0.25804023,0.75699148,0.07129407,0.24650683,0.86443425,-0.15520732,-0.16082035,0.27916120,-0.77838521,0.22979122,-0.47605205,-0.84802979,0.40050458,-0.04664605
9.10000000,-0.25804023,0.75699148,0.07129407,0.24650683,0.86443425,-0.15520732,-0.16082035,0.27916120,-0.77838521,0.22979122,-0.47605205,-0.84802979,0.40050458,-0.04664605
9.12000000,-0.25804023,0.75699148,0.07129407,0.24650683,0.86443425,-0.15520732,-0.16082035,0.27916120,-0.77838521,0.22979122,-0.47605205,-0.84802979,0.40050458,-0.04664605
9.14000000,-0.25804023,0.75699148,0.07129407,0.24650683,0.86443425,-0.15520732,-0.16082035,0.27916120,-0.77838521,0.22979122,-0.47605205,-0.84802979,0.40050458,-0.04664605
9.16000000,-0.25804023,0.75699148,0.07129407,0.24650683,0.86443425,-0.15520732,-0.16082035,0.27916120,-0.77838521,0.22979122,-0.47605205,-0.84802979,0.40050458,-0.04664605
9.18000000,-0.25804023,0.75699148,0.07129407,0.24650683,0.86443425,-0.15520732,-0.16082035,0.27916120,-0.77838521,0.22979122,-0.47605205,-0.84802979,0.40050458,-0.04664605
9.20000000,-0.25804023,0.75699148,0.07129407,0.24650683,0.86443425,-0.15520732,-0.16082035,0.27916120,-0.77838521,0.22979122,-0.47605205,-0.84802979,0.40050458,-0.04664605
9.22000000,-0.25804023,0.75699148,0.07129407,0.24650683,0.86443425,-0.15520732,-0.16082035,0.27916120,-0.77838521,0.22979122,-0.47605205,-0.84802979,0.40050458,-0.04664605
9.24000000,-0.25804023,0.75699148,0.07129407,0.24650683,0.86443425,-0.15520732,-0.16082035,0.27916120,-0.77838521,0.22979122,-0.47605205,-0.84802979,0.40050458,-0.04664605
9.26000000,-0.25804023,0.75699148,0.07129407,0.24650683,0.86443425,-0.15520732,-0.16082035,0.27916120,-0.77838521,0.22979122,-0.47605205,-0.84802979,0.40050458,-0.04664605
9.28000000,-0.25804023,0.75699148,0.07129407,0.24650683,0.86443425,-0.15520732,-0.16082035,0.27916120,-0.77838521,0.22979122,-0.47605205,-0.84802979,0.40050458,-0.04664605
9.30000000,-0.25804023,0.75699148,0.07129407,0.24650683,0.86443425,-0.15520732,-0.16082035,0.27916120,-0.77838521,0.22979122,-0.47605205,-0.84802979,0.40050458,-0.04664605
9.32000000,-0.25804023,0.75699148,0.07129407,0.24650683,0.86443425,-0.15520732,-0.16082035,0.27916120,-0.77838521,0.22979122,-0.47605205,-0.84802979,0.40050458,-0.04664605
9.34000000,-0.25804023,0.75699148,0.07129407,0.24650683,0.86443425,-0.15520732,-0.16082035,0.27916120,-0.77838521,0.22979122,-0.47605205,-0.84802979,0.40050458,-0.04664605
9.36000000,-0.25804023,0.75699148,0.07129407,0.24650683,0.86443425,-0.15520732,-0.16082035,0.27916120,-0.77838521,0.22979122,-0.47605205,-0.84802979,0.40050458,-0.04664605
9.38000000,-0.25804023,0.75699148,0.07129407,0.24650683,0.86443425,-0.15520732,-0.16082035,0.27916120,-0.77838521,0.22979122,-0.47605205,-0.84802979,0.40050458,-0.04664605
9.40000000,-0.25804023,0.75699148,0.07129407,0.24650683,0.86443425,-0.15520732,-0.16082035,0.27916120,-0.77838521,0.22979122,-0.47605205,-0.84802979,0.40050458,-0.04664605
9.42000000,-0.25804023,0.75699148,0.07129407,0.24650683,0.86443425,-0.15520732,-0.16082035,0.27916120,-0.77838521,0.22979122,-0.47605205,-0.84802979,0.40050458,-0.04664605
9.44000000,-0.25804023,0.75699148,0.07129407,0.24650683,0.86443425,-0.15520732,-0.16082035,0.27916120,-0.77838521,0.22979122,-0.47605205,-0.84802979,0.40050458,-0.04664605
9.46000000,-0.25804023,0.75699148,0.07129407,0.24650683,0.86443425,-0.15520732,-0.16082035,0.27916120,-0.77838521,0.22979122,-0.47605205,-0.84802979,0.40050458,-0.04664605
9.48000000,-0.25804023,0.75699148,0.07129407,0.24650683,0.86443425,-0.15520732,-0.16082035,0.27916120,-0.77838521,0.22979122,-0.47605205,-0.84802979,0.40050458,-0.04664605
9.50000000,-0.25804023,0.75699148,0.07129407,0.24650683,0.86443425,-0.15520732,-0.16082035,0.27916120,-0.77838521,0.22979122,-0.47605205,-0.84802979,0.40050458,-0.04664605
9.52000000,-0.25804023,0.75699148,0.07129407,0.24650683,0.86443425,-0.15520732,-0.16082035,0.27916120,-0.77838521,0.22979122,-0.47605205,-0.84802979,0.40050458,-0.04664605
9.54000000,-0.25804023,0.75699148,0.07129407,0.24650683,0.86443425,-0.15520732,-0.16082035,0.27916120,-0.77838521,0.22979122,-0.47605205,-0.84802979,0.40050458,-0.04664605
9.56000000,-0.25804023,0.75699148,0.07129407,0.24650683,0.86443425,-0.15520732,-0.16082035,0.27916120,-0.77838521,0.22979122,-0.47605205,-0.84802979,0.40050458,-0.04664605
9.58000000,-0.25804023,0.75699148,0.07129407,0.24650683,0.86443425,-0.15520732,-0.16082035,0.27916120,-0.77838521,0.22979122,-0.47605205,-0.84802979,0.40050458,-0.04664605
9.60000000,-0.25804023,0.75699148,0.07129407,0.24650683,0.86443425,-0.15520732,-0.16082035,0.27916120,-0.77838521,0.22979122,-0.47605205,-0.84802979,0.40050458,-0.04664605
9.62000000,-0.25804023,0.75699148,0.07129407,0.24650683,0.86443425,-0.15520732,-0.16082035,0.27916120,-0.77838521,0.22979122,-0.47605205,-0.84802979,0.40050458,-0.04664605
9.64000000,-0.25804023,0.75699148,0.07129407,0.24650683,0.86443425,-0.15520732,-0.16082035,0.27916120,-0.77838521,0.22979122,-0.47605205,-0.84802979,0.40050458,-0.04664605
9.66000000,-0.25804023,0.75699148,0.07129407,0.24650683,0.86443425,-0.15520732,-0.16082035,0.27916120,-0.77838521,0.22979122,-0.47605205,-0.84802979,0.40050458,-0.04664605
9.68000000,-0.25804023,0.75699148,0.07129407,0.24650683,0.86443425,-0.15520732,-0.16082035,0.27916120,-0.77838521,0.22979122,-0.47605205,-0.84802979,0.40050458,-0.04664605
9.70000000,-0.25804023,0.75699148,0.07129407,0.24650683,0.86443425,-0.15520732,-0.16082035,0.27916120,-0.77838521,0.22979122,-0.47605205,-0.84802979,0.40050458,-0.04664605
9.72000000,-0.25804023,0.75699148,0.07129407,0.24650683,0.86443425,-0.15520732,-0.16082035,0.27916120,-0.77838521,0.22979122,-0.47605205,-0.84802979,0.40050458,-0.04664605
9.74000000,-0.25804023,0.75699148,0.07129407,0.24650683,0.86443425,-0.15520732,-0.16082035,0.27916120,-0.77838521,0.22979122,-0.47605205,-0.84802979,0.40050458,-0.04664605
9.76000000,-0.25804023,0.75699148,0.07129407,0.24650683,0.86443425,-0.15520732,-0.16082035,0.27916120,-0.77838521,0.22979122,-0.47605205,-0.84802979,0.40050458,-0.04664605
9.78000000,-0.25804023,0.75699148,0.07129407,0.24650683,0.86443425,-0.15520732,-0.16082035,0.27916120,-0.77838521,0.22979122,-0.47605205,-0.84802979,0.40050458,-0.04664605
9.80000000,-0.25804023,0.75699148,0.07129407,0.24650683,0.86443425,-0.15520732,-0.16082035,0.27916120,-0.77838521,0.22979122,-0.47605205,-0.84802979,0.40050458,-0.04664605
9.82000000,-0.25804023,0.75699148,0.07129407,0.24650683,0.86443425,-0.15520732,-0.16082035,0.27916120,-0.77838521,0.22979122,-0.47605205,-0.84802979,0.40050458,-0.04664605
9.84000000,-0.25804023,0.75699148,0.07129407,0.24650683,0.86443425,-0.15520732,-0.16082035,0.27916120,-0.77838521,0.22979122,-0.47605205,-0.84802979,0.40050458,-0.04664605
9.86000000,-0.25804023,0.75699148,0.07129407,0.24650683,0.86443425,-0.15520732,-0.16082035,0.27916120,-0.77838521,0.22979122,-0.47605205,-0.84802979,0.40050458,-0.04664605
9.88000000,-0.25804023,0.75699148,0.07129407,0.24650683,0.86443425,-0.15520732,-0.16082035,0.27916120,-0.77838521,0.22979122,-0.47605205,-0.84802979,0.40050458,-0.04664605
9.90000000,-0.25804023,0.75699148,0.07129407,0.24650683,0.86443425,-0.15520732,-0.16082035,0.27916120,-0.77838521,0.22979122,-0.47605205,-0.84802979,0.40050458,-0.04664605
9.92000000,-0.25804023,0.75699148,0.07129407,0.24650683,0.86443425,-0.15520732,-0.16082035,0.27916120,-0.77838521,0.22979122,-0.47605205,-0.84802979,0.40050458,-0.04664605
9.94000000,-0.25804023,0.75699148,0.07129407,0.24650683,0.86443425,-0.15520732,-0.16082035,0.27916120,-0.77838521,0.22979122,-0.47605205,-0.84802979,0.40050458,-0.04664605
9.96000000,-0.25804023,0.75699148,0.07129407,0.24650683,0.86443425,-0.15520732,-0.16082035,0.27916120,-0.77838521,0.22979122,-0.47605205,-0.84802979,0.40050458,-0.04664605
9.98000000,-0.25804023,0.75699148,0.07129407,0.24650683,0.86443425,-0.15520732,-0.16082035,0.27916120,-0.77838521,0.22979122,-0.47605205,-0.84802979,0.40050458,-0.04664605
10.00000000,-0.25804023,0.75699148,0.07129407,0.24650683,0.86443425,-0.15520732,-0.16082035,0.27916120,-0.77838521,0.22979122,-0.47605205,-0.84802979,0.40050458,-0.04664605
10.02000000,-0.25804023,0.75699148,0.07129407,0.24650683,0.86443425,-0.15520732,-0.16082035,0.27916120,-0.77838521,0.22979122,-0.47605205,-0.84802979,0.40050458,-0.04664605
10.04000000,-0.25804023,0.75699148,0.07129407,0.24650683,0.86443425,-0.15520732,-0.16082035,0.27916120,-0.77838521,0.22979122,-0.47605205,-0.84802979,0.40050458,-0.04664605
10.06000000,-0.25804023,0.75699148,0.07129407,0.24650683,0.86443425,-0.15520732,-0.16082035,0.27916120,-0.77838521,0.22979122,-0.47605205,-0.84802979,0.40050458,-0.04664605
10.08000000,-0.25804023,0.75699148,0.07129407,0.24650683,0.86443425,-0.15520732,-0.16082035,0.27916120,-0.77838521,0.22979122,-0.47605205,-0.84802979,0.40050458,-0.04664605
10.10000000,-0.25804023,0.75699148,0.07129407,0.24650683,0.86443425,-0.15520732,-0.16082035,0.27916120,-0.77838521,0.22979122,-0.47605205,-0.84802979,0.40050458,-0.04664605
10.12000000,-0.25804023,0.75699148,0.07129407,0.24650683,0.86443425,-0.15520732,-0.16082035,0.27916120,-0.77838521,0.22979122,-0.47605205,-0.84802979,0.40050458,-0.04664605
10.14000000,-0.25804023,0.75699148,0.07129407,0.24650683,0.86443425,-0.15520732,-0.16082035,0.27916120,-0.77838521,0.22979122,-0.47605205,-0.84802979,0.40050458,-0.04664605
10.16000000,-0.25804023,0.75699148,0.07129407,0.24650683,0.86443425,-0.15520732,-0.16082035,0.27916120,-0.77838521,0.22979122,-0.47605205,-0.84802979,0.40050458,-0.04664605
10.18000000,-0.25804023,0.75699148,0.07129407,0.24650683,0.86443425,-0.15520732,-0.16082035,0.27916120,-0.77838521,0.22979122,-0.47605205,-0.84802979,0.40050458,-0.04664605
10.20000000,-0.25804023,0.75699148,0.07129407,0.24650683,0.86443425,-0.15520732,-0.16082035,0.27916120,-0.77838521,0.22979122,-0.47605205,-0.84802979,0.40050458,-0.04664605
10.22000000,-0.25804023,0.75699148,0.07129407,0.24650683,0.86443425,-0.15520732,-0.16082035,0.27916120,-0.77838521,0.22979122,-0.47605205,-0.84802979,0.40050458,-0.04664605
10.24000000,-0.25804023,0.75699148,0.07129407,0.24650683,0.86443425,-0.15520732,-0.16082035,0.27916120,-0.77838521,0.22979122,-0.47605205,-0.84802979,0.40050458,-0.04664605
10.26000000,-0.25804023,0.75699148,0.07129407,0.24650683,0.86443425,-0.15520732,-0.16082035,0.27916120,-0.77838521,0.22979122,-0.47605205,-0.84802979,0.40050458,-0.04664605
10.28000000,-0.25804023,0.75699148,0.07129407,0.24650683,0.86443425,-0.15520732,-0.16082035,0.27916120,-0.77838521,0.22979122,-0.47605205,-0.84802979,0.40050458,-0.04664605
10.30000000,-0.25804023,0.75699148,0.07129407,0.24650683,0.86443425,-0.15520732,-0.16082035,0.27916120,-0.77838521,0.22979122,-0.47605205,-0.84802979,0.40050458,-0.04664605
10.32000000,-0.25804023,0.75699148,0.07129407,0.24650683,0.86443425,-0.15520732,-0.16082035,0.27916120,-0.77838521,0.22979122,-0.47605205,-0.84802979,0.40050458,-0.04664605
10.34000000,-0.25804023,0.75699148,0.07129407,0.24650683,0.86443425,-0.15520732,-0.16082035,0.27916120,-0.77838521,0.22979122,-0.47605205,-0.84802979,0.40050458,-0.04664605
10.36000000,-0.25804023,0.75699148,0.07129407,0.24650683,0.86443425,-0.15520732,-0.16082035,0.27916120,-0.77838521,0.22979122,-0.47605205,-0.84802979,0.40050458,-0.04664605
10.38000000,-0.25804023,0.75699148,0.07129407,0.24650683,0.86443425,-0.15520732,-0.16082035,0.27916120,-0.77838521,0.22979122,-0.47605205,-0.84802979,0.40050458,-0.04664605
10.40000000,-0.25804023,0.75699148,0.07129407,0.24650683,0.86443425,-0.15520732,-0.16082035,0.27916120,-0.77838521,0.22979122,-0.47605205,-0.84802979,0.40050458,-0.04664605
10.42000000,-0.25804023,0.75699148,0.07129407,0.24650683,0.86443425,-0.15520732,-0.16082035,0.27916120,-0.77838521,0.22979122,-0.47605205,-0.84802979,0.40050458,-0.04664605
10.44000000,-0.25804023,0.75699148,0.07129407,0.24650683,0.86443425,-0.15520732,-0.16082035,0.27916120,-0.77838521,0.22979122,-0.47605205,-0.84802979,0.40050458,-0.04664605
10.46000000,-0.25804023,0.75699148,0.07129407,0.24650683,0.86443425,-0.15520732,-0.16082035,0.27916120,-0.77838521,0.22979122,-0.47605205,-0.84802979,0.40050458,-0.04664605
10.48000000,-0.25804023,0.75699148,0.07129407,0.24650683,0.86443425,-0.15520732,-0.16082035,0.27916120,-0.77838521,0.22979122,-0.47605205,-0.84802979,0.40050458,-0.04664605
10.50000000,-0.25804023,0.75699148,0.07129407,0.24650683,0.86443425,-0.15520732,-0.16082035,0.27916120,-0.77838521,0.22979122,-0.47605205,-0.84802979,0.40050458,-0.04664605
10.52000000,-0.25804023,0.75699148,0.07129407,0.24650683,0.86443425,-0.15520732,-0.16082035,0.27916120,-0.77838521,0.22979122,-0.47605205,-0.84802979,0.40050458,-0.04664605
10.54000000,-0.25804023,0.75699148,0.07129407,0.24650683,0.86443425,-0.15520732,-0.16082035,0.27916120,-0.77838521,0.22979122,-0.47605205,-0.84802979,0.40050458,-0.04664605
10.56000000,-0.25804023,0.75699148,0.07129407,0.24650683,0.86443425,-0.15520732,-0.16082035,0.27916120,-0.77838521,0.22979122,-0.47605205,-0.84802979,0.40050458,-0.04664605
10.58000000,-0.25804023,0.75699148,0.07129407,0.24650683,0.86443425,-0.15520732,-0.16082035,0.27916120,-0.77838521,0.22979122,-0.47605205,-0.84802979,0.40050458,-0.04664605
10.60000000,-0.25804023,0.75699148,0.07129407,0.24650683,0.86443425,-0.15520732,-0.16082035,0.27916120,-0.77838521,0.22979122,-0.47605205,-0.84802979,0.40050458,-0.04664605
10.62000000,-0.25804023,0.75699148,0.07129407,0.24650683,0.86443425,-0.15520732,-0.16082035,0.27916120,-0.77838521,0.22979122,-0.47605205,-0.84802979,0.40050458,-0.04664605
10.64000000,-0.25804023,0.75699148,0.07129407,0.24650683,0.86443425,-0.15520732,-0.16082035,0.27916120,-0.77838521,0.22979122,-0.47605205,-0.84802979,0.40050458,-0.04664605
10.66000000,-0.25804023,0.75699148,0.07129407,0.24650683,0.86443425,-0.15520732,-0.16082035,0.27916120,-0.77838521,0.22979122,-0.47605205,-0.84802979,0.40050458,-0.04664605
10.68000000,-0.25804023,0.75699148,0.07129407,0.24650683,0.86443425,-0.15520732,-0.16082035,0.27916120,-0.77838521,0.22979122,-0.47605205,-0.84802979,0.40050458,-0.04664605
10.70000000,-0.25804023,0.75699148,0.07129407,0.24650683,0.86443425,-0.15520732,-0.16082035,0.27916120,-0.77838521,0.22979122,-0.47605205,-0.84802979,0.40050458,-0.04664605
10.72000000,-0.25804023,0.75699148,0.07129407,0.24650683,0.86443425,-0.15520732,-0.16082035,0.27916120,-0.77838521,0.22979122,-0.47605205,-0.84802979,0.40050458,-0.04664605
10.74000000,-0.25804023,0.75699148,0.07129407,0.24650683,0.86443425,-0.15520732,-0.16082035,0.27916120,-0.77838521,0.22979122,-0.47605205,-0.84802979,0.40050458,-0.04664605
10.76000000,-0.25804023,0.75699148,0.07129407,0.24650683,0.86443425,-0.15520732,-0.16082035,0.27916120,-0.77838521,0.22979122,-0.47605205,-0.84802979,0.40050458,-0.04664605
10.78000000,-0.25804023,0.75699148,0.07129407,0.24650683,0.86443425,-0.15520732,-0.16082035,0.27916120,-0.77838521,0.22979122,-0.47605205,-0.84802979,0.40050458,-0.04664605
10.80000000,-0.25804023,0.75699148,0.07129407,0.24650683,0.86443425,-0.15520732,-0.16082035,0.27916120,-0.77838521,0.22979122,-0.47605205,-0.84802979,0.40050458,-0.04664605
10.82000000,-0.25804023,0.75699148,0.07129407,0.24650683,0.86443425,-0.15520732,-0.16082035,0.27916120,-0.77838521,0.22979122,-0.47605205,-0.84802979,0.40050458,-0.04664605
10.84000000,-0.25804023,0.75699148,0.07129407,0.24650683,0.86443425,-0.15520732,-0.16082035,0.27916120,-0.77838521,0.22979122,-0.47605205,-0.84802979,0.40050458,-0.04664605
10.86000000,-0.25804023,0.75699148,0.07129407,0.24650683,0.86443425,-0.15520732,-0.16082035,0.27916120,-0.77838521,0.22979122,-0.47605205,-0.84802979,0.40050458,-0.04664605
10.88000000,-0.25804023,0.75699148,0.07129407,0.24650683,0.86443425,-0.15520732,-0.16082035,0.27916120,-0.77838521,0.22979122,-0.47605205,-0.84802979,0.40050458,-0.04664605
10.90000000,-0.25804023,0.75699148,0.07129407,0.24650683,0.86443425,-0.15520732,-0.16082035,0.27916120,-0.77838521,0.22979122,-0.47605205,-0.84802979,0.40050458,-0.04664605
10.92000000,-0.25804023,0.75699148,0.07129407,0.24650683,0.86443425,-0.15520732,-0.16082035,0.27916120,-0.77838521,0.22979122,-0.47605205,-0.84802979,0.40050458,-0.04664605
10.94000000,-0.25804023,0.75699148,0.07129407,0.24650683,0.86443425,-0.15520732,-0.16082035,0.27916120,-0.77838521,0.22979122,-0.47605205,-0.84802979,0.40050458,-0.04664605
10.96000000,-0.25804023,0.75699148,0.07129407,0.24650683,0.86443425,-0.15520732,-0.16082035,0.27916120,-0.77838521,0.22979122,-0.47605205,-0.84802979,0.40050458,-0.04664605
10.98000000,-0.25804023,0.75699148,0.07129407,0.24650683,0.86443425,-0.15520732,-0.16082035,0.27916120,-0.77838521,0.22979122,-0.47605205,-0.84802979,0.40050458,-0.04664605
11.00000000,-0.25804023,0.75699148,0.07129407,0.24650683,0.86443425,-0.15520732,-0.16082035,0.27916120,-0.77838521,0.22979122,-0.47605205,-0.84802979,0.40050458,-0.04664605
11.02000000,-0.25804023,0.75699148,0.07129407,0.24650683,0.86443425,-0.15520732,-0.16082035,0.27916120,-0.77838521,0.22979122,-0.47605205,-0.84802979,0.40050458,-0.04664605
11.04000000,-0.25804023,0.75699148,0.07129407,0.24650683,0.86443425,-0.15520732,-0.16082035,0.27916120,-0.77838521,0.22979122,-0.47605205,-0.84802979,0.40050458,-0.04664605
11.06000000,-0.25804023,0.75699148,0.07129407,0.24650683,0.86443425,-0.15520732,-0.16082035,0.27916120,-0.77838521,0.22979122,-0.47605205,-0.84802979,0.40050458,-0.04664605
11.08000000,-0.25804023,0.75699148,0.07129407,0.24650683,0.86443425,-0.15520732,-0.16082035,0.27916120,-0.77838521,0.22979122,-0.47605205,-0.84802979,0.40050458,-0.04664605
11.10000000,-0.25804023,0.75699148,0.07129407,0.24650683,0.86443425,-0.15520732,-0.16082035,0.27916120,-0.77838521,0.22979122,-0.47605205,-0.84802979,0.40050458,-0.04664605
11.12000000,-0.25804023,0.75699148,0.07129407,0.24650683,0.86443425,-0.15520732,-0.16082035,0.27916120,-0.77838521,0.22979122,-0.47605205,-0.84802979,0.40050458,-0.04664605
11.14000000,-0.25804023,0.75699148,0.07129407,0.24650683,0.86443425,-0.15520732,-0.16082035,0.27916120,-0.77838521,0.22979122,-0.47605205,-0.84802979,0.40050458,-0.04664605
11.16000000,-0.25804023,0.75699148,0.07129407,0.24650683,0.86443425,-0.15520732,-0.16082035,0.27916120,-0.77838521,0.22979122,-0.47605205,-0.84802979,0.40050458,-0.04664605
11.18000000,-0.25804023,0.75699148,0.07129407,0.24650683,0.86443425,-0.15520732,-0.16082035,0.27916120,-0.77838521,0.22979122,-0.47605205,-0.84802979,0.40050458,-0.04664605
11.20000000,-0.25804023,0.75699148,0.07129407,0.24650683,0.86443425,-0.15520732,-0.16082035,0.27916120,-0.77838521,0.22979122,-0.47605205,-0.84802979,0.40050458,-0.04664605
11.22000000,-0.25804023,0.75699148,0.07129407,0.24650683,0.86443425,-0.15520732,-0.16082035,0.27916120,-0.77838521,0.22979122,-0.47605205,-0.84802979,0.40050458,-0.04664605
11.24000000,-0.25804023,0.75699148,0.07129407,0.24650683,0.86443425,-0.15520732,-0.16082035,0.27916120,-0.77838521,0.22979122,-0.47605205,-0.84802979,0.40050458,-0.04664605
11.26000000,-0.25804023,0.75699148,0.07129407,0.24650683,0.86443425,-0.15520732,-0.16082035,0.27916120,-0.77838521,0.22979122,-0.47605205,-0.84802979,0.40050458,-0.04664605
11.28000000,-0.25804023,0.75699148,0.07129407,0.24650683,0.86443425,-0.15520732,-0.16082035,0.27916120,-0.77838521,0.22979122,-0.47605205,-0.84802979,0.40050458,-0.04664605
11.30000000,-0.25804023,0.75699148,0.07129407,0.24650683,0.86443425,-0.15520732,-0.16082035,0.27916120,-0.77838521,0.22979122,-0.47605205,-0.84802979,0.40050458,-0.04664605
11.32000000,-0.25804023,0.75699148,0.07129407,0.24650683,0.86443425,-0.15520732,-0.16082035,0.27916120,-0.77838521,0.22979122,-0.47605205,-0.84802979,0.40050458,-0.04664605
11.34000000,-0.25804023,0.75699148,0.07129407,0.24650683,0.86443425,-0.15520732,-0.16082035,0.27916120,-0.77838521,0.22979122,-0.47605205,-0.84802979,0.40050458,-0.04664605
11.36000000,-0.25804023,0.75699148,0.07129407,0.24650683,0.86443425,-0.15520732,-0.16082035,0.27916120,-0.77838521,0.22979122,-0.47605205,-0.84802979,0.40050458,-0.04664605
11.38000000,-0.25804023,0.75699148,0.07129407,0.24650683,0.86443425,-0.15520732,-0.16082035,0.27916120,-0.77838521,0.22979122,-0.47605205,-0.84802979,0.40050458,-0.04664605
11.40000000,-0.25804023,0.75699148,0.07129407,0.24650683,0.86443425,-0.15520732,-0.16082035,0.27916120,-0.77838521,0.22979122,-0.47605205,-0.84802979,0.40050458,-0.04664605
11.42000000,-0.25804023,0.75699148,0.07129407,0.24650683,0.86443425,-0.15520732,-0.16082035,0.27916120,-0.77838521,0.22979122,-0.47605205,-0.84802979,0.40050458,-0.04664605
11.44000000,-0.25804023,0.75699148,0.07129407,0.24650683,0.86443425,-0.15520732,-0.16082035,0.27916120,-0.77838521,0.22979122,-0.47605205,-0.84802979,0.40050458,-0.04664605
11.46000000,-0.25804023,0.75699148,0.07129407,0.24650683,0.86443425,-0.15520732,-0.16082035,0.27916120,-0.77838521,0.22979122,-0.47605205,-0.84802979,0.40050458,-0.04664605
11.48000000,-0.25804023,0.75699148,0.07129407,0.24650683,0.86443425,-0.15520732,-0.16082035,0.27916120,-0.77838521,0.22979122,-0.47605205,-0.84802979,0.40050458,-0.04664605
11.50000000,-0.25804023,0.75699148,0.07129407,0.24650683,0.86443425,-0.15520732,-0.16082035,0.27916120,-0.77838521,0.22979122,-0.47605205,-0.84802979,0.40050458,-0.04664605
11.52000000,-0.25804023,0.75699148,0.07129407,0.24650683,0.86443425,-0.15520732,-0.16082035,0.27916120,-0.77838521,0.22979122,-0.47605205,-0.84802979,0.40050458,-0.04664605
11.54000000,-0.25804023,0.75699148,0.07129407,0.24650683,0.86443425,-0.15520732,-0.16082035,0.27916120,-0.77838521,0.22979122,-0.47605205,-0.84802979,0.40050458,-0.04664605
11.56000000,-0.25804023,0.75699148,0.07129407,0.24650683,0.86443425,-0.15520732,-0.16082035,0.27916120,-0.77838521,0.22979122,-0.47605205,-0.84802979,0.40050458,-0.04664605
