gracetata/LocomotionHEC/legged_lab/Reference Data/ArmHack/StandPerturb/TestData/ArmOnly/poses/synthesized/synthesized_arm_pose_02_seed20260714_hold20s_50hz.csv
time_s,left_shoulder_pitch_joint,left_shoulder_roll_joint,left_shoulder_yaw_joint,left_elbow_joint,left_wrist_roll_joint,left_wrist_pitch_joint,left_wrist_yaw_joint,right_shoulder_pitch_joint,right_shoulder_roll_joint,right_shoulder_yaw_joint,right_elbow_joint,right_wrist_roll_joint,right_wrist_pitch_joint,right_wrist_yaw_joint
0.00000000,-0.15919717,0.67754910,-0.40587946,-0.08893068,0.79107113,0.25082033,-0.12606958,-0.23167748,-0.90062181,0.23610224,-0.49966604,-0.65029934,0.44628319,0.55091795
0.02000000,-0.15919717,0.67754910,-0.40587946,-0.08893068,0.79107113,0.25082033,-0.12606958,-0.23167748,-0.90062181,0.23610224,-0.49966604,-0.65029934,0.44628319,0.55091795
0.04000000,-0.15919717,0.67754910,-0.40587946,-0.08893068,0.79107113,0.25082033,-0.12606958,-0.23167748,-0.90062181,0.23610224,-0.49966604,-0.65029934,0.44628319,0.55091795
0.06000000,-0.15919717,0.67754910,-0.40587946,-0.08893068,0.79107113,0.25082033,-0.12606958,-0.23167748,-0.90062181,0.23610224,-0.49966604,-0.65029934,0.44628319,0.55091795
0.08000000,-0.15919717,0.67754910,-0.40587946,-0.08893068,0.79107113,0.25082033,-0.12606958,-0.23167748,-0.90062181,0.23610224,-0.49966604,-0.65029934,0.44628319,0.55091795
0.10000000,-0.15919717,0.67754910,-0.40587946,-0.08893068,0.79107113,0.25082033,-0.12606958,-0.23167748,-0.90062181,0.23610224,-0.49966604,-0.65029934,0.44628319,0.55091795
0.12000000,-0.15919717,0.67754910,-0.40587946,-0.08893068,0.79107113,0.25082033,-0.12606958,-0.23167748,-0.90062181,0.23610224,-0.49966604,-0.65029934,0.44628319,0.55091795
0.14000000,-0.15919717,0.67754910,-0.40587946,-0.08893068,0.79107113,0.25082033,-0.12606958,-0.23167748,-0.90062181,0.23610224,-0.49966604,-0.65029934,0.44628319,0.55091795
0.16000000,-0.15919717,0.67754910,-0.40587946,-0.08893068,0.79107113,0.25082033,-0.12606958,-0.23167748,-0.90062181,0.23610224,-0.49966604,-0.65029934,0.44628319,0.55091795
0.18000000,-0.15919717,0.67754910,-0.40587946,-0.08893068,0.79107113,0.25082033,-0.12606958,-0.23167748,-0.90062181,0.23610224,-0.49966604,-0.65029934,0.44628319,0.55091795
0.20000000,-0.15919717,0.67754910,-0.40587946,-0.08893068,0.79107113,0.25082033,-0.12606958,-0.23167748,-0.90062181,0.23610224,-0.49966604,-0.65029934,0.44628319,0.55091795
0.22000000,-0.15919717,0.67754910,-0.40587946,-0.08893068,0.79107113,0.25082033,-0.12606958,-0.23167748,-0.90062181,0.23610224,-0.49966604,-0.65029934,0.44628319,0.55091795
0.24000000,-0.15919717,0.67754910,-0.40587946,-0.08893068,0.79107113,0.25082033,-0.12606958,-0.23167748,-0.90062181,0.23610224,-0.49966604,-0.65029934,0.44628319,0.55091795
0.26000000,-0.15919717,0.67754910,-0.40587946,-0.08893068,0.79107113,0.25082033,-0.12606958,-0.23167748,-0.90062181,0.23610224,-0.49966604,-0.65029934,0.44628319,0.55091795
0.28000000,-0.15919717,0.67754910,-0.40587946,-0.08893068,0.79107113,0.25082033,-0.12606958,-0.23167748,-0.90062181,0.23610224,-0.49966604,-0.65029934,0.44628319,0.55091795
0.30000000,-0.15919717,0.67754910,-0.40587946,-0.08893068,0.79107113,0.25082033,-0.12606958,-0.23167748,-0.90062181,0.23610224,-0.49966604,-0.65029934,0.44628319,0.55091795
0.32000000,-0.15919717,0.67754910,-0.40587946,-0.08893068,0.79107113,0.25082033,-0.12606958,-0.23167748,-0.90062181,0.23610224,-0.49966604,-0.65029934,0.44628319,0.55091795
0.34000000,-0.15919717,0.67754910,-0.40587946,-0.08893068,0.79107113,0.25082033,-0.12606958,-0.23167748,-0.90062181,0.23610224,-0.49966604,-0.65029934,0.44628319,0.55091795
0.36000000,-0.15919717,0.67754910,-0.40587946,-0.08893068,0.79107113,0.25082033,-0.12606958,-0.23167748,-0.90062181,0.23610224,-0.49966604,-0.65029934,0.44628319,0.55091795
0.38000000,-0.15919717,0.67754910,-0.40587946,-0.08893068,0.79107113,0.25082033,-0.12606958,-0.23167748,-0.90062181,0.23610224,-0.49966604,-0.65029934,0.44628319,0.55091795
0.40000000,-0.15919717,0.67754910,-0.40587946,-0.08893068,0.79107113,0.25082033,-0.12606958,-0.23167748,-0.90062181,0.23610224,-0.49966604,-0.65029934,0.44628319,0.55091795
0.42000000,-0.15919717,0.67754910,-0.40587946,-0.08893068,0.79107113,0.25082033,-0.12606958,-0.23167748,-0.90062181,0.23610224,-0.49966604,-0.65029934,0.44628319,0.55091795
0.44000000,-0.15919717,0.67754910,-0.40587946,-0.08893068,0.79107113,0.25082033,-0.12606958,-0.23167748,-0.90062181,0.23610224,-0.49966604,-0.65029934,0.44628319,0.55091795
0.46000000,-0.15919717,0.67754910,-0.40587946,-0.08893068,0.79107113,0.25082033,-0.12606958,-0.23167748,-0.90062181,0.23610224,-0.49966604,-0.65029934,0.44628319,0.55091795
0.48000000,-0.15919717,0.67754910,-0.40587946,-0.08893068,0.79107113,0.25082033,-0.12606958,-0.23167748,-0.90062181,0.23610224,-0.49966604,-0.65029934,0.44628319,0.55091795
0.50000000,-0.15919717,0.67754910,-0.40587946,-0.08893068,0.79107113,0.25082033,-0.12606958,-0.23167748,-0.90062181,0.23610224,-0.49966604,-0.65029934,0.44628319,0.55091795
0.52000000,-0.15919717,0.67754910,-0.40587946,-0.08893068,0.79107113,0.25082033,-0.12606958,-0.23167748,-0.90062181,0.23610224,-0.49966604,-0.65029934,0.44628319,0.55091795
0.54000000,-0.15919717,0.67754910,-0.40587946,-0.08893068,0.79107113,0.25082033,-0.12606958,-0.23167748,-0.90062181,0.23610224,-0.49966604,-0.65029934,0.44628319,0.55091795
0.56000000,-0.15919717,0.67754910,-0.40587946,-0.08893068,0.79107113,0.25082033,-0.12606958,-0.23167748,-0.90062181,0.23610224,-0.49966604,-0.65029934,0.44628319,0.55091795
0.58000000,-0.15919717,0.67754910,-0.40587946,-0.08893068,0.79107113,0.25082033,-0.12606958,-0.23167748,-0.90062181,0.23610224,-0.49966604,-0.65029934,0.44628319,0.55091795
0.60000000,-0.15919717,0.67754910,-0.40587946,-0.08893068,0.79107113,0.25082033,-0.12606958,-0.23167748,-0.90062181,0.23610224,-0.49966604,-0.65029934,0.44628319,0.55091795
0.62000000,-0.15919717,0.67754910,-0.40587946,-0.08893068,0.79107113,0.25082033,-0.12606958,-0.23167748,-0.90062181,0.23610224,-0.49966604,-0.65029934,0.44628319,0.55091795
0.64000000,-0.15919717,0.67754910,-0.40587946,-0.08893068,0.79107113,0.25082033,-0.12606958,-0.23167748,-0.90062181,0.23610224,-0.49966604,-0.65029934,0.44628319,0.55091795
0.66000000,-0.15919717,0.67754910,-0.40587946,-0.08893068,0.79107113,0.25082033,-0.12606958,-0.23167748,-0.90062181,0.23610224,-0.49966604,-0.65029934,0.44628319,0.55091795
0.68000000,-0.15919717,0.67754910,-0.40587946,-0.08893068,0.79107113,0.25082033,-0.12606958,-0.23167748,-0.90062181,0.23610224,-0.49966604,-0.65029934,0.44628319,0.55091795
0.70000000,-0.15919717,0.67754910,-0.40587946,-0.08893068,0.79107113,0.25082033,-0.12606958,-0.23167748,-0.90062181,0.23610224,-0.49966604,-0.65029934,0.44628319,0.55091795
0.72000000,-0.15919717,0.67754910,-0.40587946,-0.08893068,0.79107113,0.25082033,-0.12606958,-0.23167748,-0.90062181,0.23610224,-0.49966604,-0.65029934,0.44628319,0.55091795
0.74000000,-0.15919717,0.67754910,-0.40587946,-0.08893068,0.79107113,0.25082033,-0.12606958,-0.23167748,-0.90062181,0.23610224,-0.49966604,-0.65029934,0.44628319,0.55091795
0.76000000,-0.15919717,0.67754910,-0.40587946,-0.08893068,0.79107113,0.25082033,-0.12606958,-0.23167748,-0.90062181,0.23610224,-0.49966604,-0.65029934,0.44628319,0.55091795
0.78000000,-0.15919717,0.67754910,-0.40587946,-0.08893068,0.79107113,0.25082033,-0.12606958,-0.23167748,-0.90062181,0.23610224,-0.49966604,-0.65029934,0.44628319,0.55091795
0.80000000,-0.15919717,0.67754910,-0.40587946,-0.08893068,0.79107113,0.25082033,-0.12606958,-0.23167748,-0.90062181,0.23610224,-0.49966604,-0.65029934,0.44628319,0.55091795
0.82000000,-0.15919717,0.67754910,-0.40587946,-0.08893068,0.79107113,0.25082033,-0.12606958,-0.23167748,-0.90062181,0.23610224,-0.49966604,-0.65029934,0.44628319,0.55091795
0.84000000,-0.15919717,0.67754910,-0.40587946,-0.08893068,0.79107113,0.25082033,-0.12606958,-0.23167748,-0.90062181,0.23610224,-0.49966604,-0.65029934,0.44628319,0.55091795
0.86000000,-0.15919717,0.67754910,-0.40587946,-0.08893068,0.79107113,0.25082033,-0.12606958,-0.23167748,-0.90062181,0.23610224,-0.49966604,-0.65029934,0.44628319,0.55091795
0.88000000,-0.15919717,0.67754910,-0.40587946,-0.08893068,0.79107113,0.25082033,-0.12606958,-0.23167748,-0.90062181,0.23610224,-0.49966604,-0.65029934,0.44628319,0.55091795
0.90000000,-0.15919717,0.67754910,-0.40587946,-0.08893068,0.79107113,0.25082033,-0.12606958,-0.23167748,-0.90062181,0.23610224,-0.49966604,-0.65029934,0.44628319,0.55091795
0.92000000,-0.15919717,0.67754910,-0.40587946,-0.08893068,0.79107113,0.25082033,-0.12606958,-0.23167748,-0.90062181,0.23610224,-0.49966604,-0.65029934,0.44628319,0.55091795
0.94000000,-0.15919717,0.67754910,-0.40587946,-0.08893068,0.79107113,0.25082033,-0.12606958,-0.23167748,-0.90062181,0.23610224,-0.49966604,-0.65029934,0.44628319,0.55091795
0.96000000,-0.15919717,0.67754910,-0.40587946,-0.08893068,0.79107113,0.25082033,-0.12606958,-0.23167748,-0.90062181,0.23610224,-0.49966604,-0.65029934,0.44628319,0.55091795
0.98000000,-0.15919717,0.67754910,-0.40587946,-0.08893068,0.79107113,0.25082033,-0.12606958,-0.23167748,-0.90062181,0.23610224,-0.49966604,-0.65029934,0.44628319,0.55091795
1.00000000,-0.15919717,0.67754910,-0.40587946,-0.08893068,0.79107113,0.25082033,-0.12606958,-0.23167748,-0.90062181,0.23610224,-0.49966604,-0.65029934,0.44628319,0.55091795
1.02000000,-0.15919717,0.67754910,-0.40587946,-0.08893068,0.79107113,0.25082033,-0.12606958,-0.23167748,-0.90062181,0.23610224,-0.49966604,-0.65029934,0.44628319,0.55091795
1.04000000,-0.15919717,0.67754910,-0.40587946,-0.08893068,0.79107113,0.25082033,-0.12606958,-0.23167748,-0.90062181,0.23610224,-0.49966604,-0.65029934,0.44628319,0.55091795
1.06000000,-0.15919717,0.67754910,-0.40587946,-0.08893068,0.79107113,0.25082033,-0.12606958,-0.23167748,-0.90062181,0.23610224,-0.49966604,-0.65029934,0.44628319,0.55091795
1.08000000,-0.15919717,0.67754910,-0.40587946,-0.08893068,0.79107113,0.25082033,-0.12606958,-0.23167748,-0.90062181,0.23610224,-0.49966604,-0.65029934,0.44628319,0.55091795
1.10000000,-0.15919717,0.67754910,-0.40587946,-0.08893068,0.79107113,0.25082033,-0.12606958,-0.23167748,-0.90062181,0.23610224,-0.49966604,-0.65029934,0.44628319,0.55091795
1.12000000,-0.15919717,0.67754910,-0.40587946,-0.08893068,0.79107113,0.25082033,-0.12606958,-0.23167748,-0.90062181,0.23610224,-0.49966604,-0.65029934,0.44628319,0.55091795
1.14000000,-0.15919717,0.67754910,-0.40587946,-0.08893068,0.79107113,0.25082033,-0.12606958,-0.23167748,-0.90062181,0.23610224,-0.49966604,-0.65029934,0.44628319,0.55091795
1.16000000,-0.15919717,0.67754910,-0.40587946,-0.08893068,0.79107113,0.25082033,-0.12606958,-0.23167748,-0.90062181,0.23610224,-0.49966604,-0.65029934,0.44628319,0.55091795
1.18000000,-0.15919717,0.67754910,-0.40587946,-0.08893068,0.79107113,0.25082033,-0.12606958,-0.23167748,-0.90062181,0.23610224,-0.49966604,-0.65029934,0.44628319,0.55091795
1.20000000,-0.15919717,0.67754910,-0.40587946,-0.08893068,0.79107113,0.25082033,-0.12606958,-0.23167748,-0.90062181,0.23610224,-0.49966604,-0.65029934,0.44628319,0.55091795
1.22000000,-0.15919717,0.67754910,-0.40587946,-0.08893068,0.79107113,0.25082033,-0.12606958,-0.23167748,-0.90062181,0.23610224,-0.49966604,-0.65029934,0.44628319,0.55091795
1.24000000,-0.15919717,0.67754910,-0.40587946,-0.08893068,0.79107113,0.25082033,-0.12606958,-0.23167748,-0.90062181,0.23610224,-0.49966604,-0.65029934,0.44628319,0.55091795
1.26000000,-0.15919717,0.67754910,-0.40587946,-0.08893068,0.79107113,0.25082033,-0.12606958,-0.23167748,-0.90062181,0.23610224,-0.49966604,-0.65029934,0.44628319,0.55091795
1.28000000,-0.15919717,0.67754910,-0.40587946,-0.08893068,0.79107113,0.25082033,-0.12606958,-0.23167748,-0.90062181,0.23610224,-0.49966604,-0.65029934,0.44628319,0.55091795
1.30000000,-0.15919717,0.67754910,-0.40587946,-0.08893068,0.79107113,0.25082033,-0.12606958,-0.23167748,-0.90062181,0.23610224,-0.49966604,-0.65029934,0.44628319,0.55091795
1.32000000,-0.15919717,0.67754910,-0.40587946,-0.08893068,0.79107113,0.25082033,-0.12606958,-0.23167748,-0.90062181,0.23610224,-0.49966604,-0.65029934,0.44628319,0.55091795
1.34000000,-0.15919717,0.67754910,-0.40587946,-0.08893068,0.79107113,0.25082033,-0.12606958,-0.23167748,-0.90062181,0.23610224,-0.49966604,-0.65029934,0.44628319,0.55091795
1.36000000,-0.15919717,0.67754910,-0.40587946,-0.08893068,0.79107113,0.25082033,-0.12606958,-0.23167748,-0.90062181,0.23610224,-0.49966604,-0.65029934,0.44628319,0.55091795
1.38000000,-0.15919717,0.67754910,-0.40587946,-0.08893068,0.79107113,0.25082033,-0.12606958,-0.23167748,-0.90062181,0.23610224,-0.49966604,-0.65029934,0.44628319,0.55091795
1.40000000,-0.15919717,0.67754910,-0.40587946,-0.08893068,0.79107113,0.25082033,-0.12606958,-0.23167748,-0.90062181,0.23610224,-0.49966604,-0.65029934,0.44628319,0.55091795
1.42000000,-0.15919717,0.67754910,-0.40587946,-0.08893068,0.79107113,0.25082033,-0.12606958,-0.23167748,-0.90062181,0.23610224,-0.49966604,-0.65029934,0.44628319,0.55091795
1.44000000,-0.15919717,0.67754910,-0.40587946,-0.08893068,0.79107113,0.25082033,-0.12606958,-0.23167748,-0.90062181,0.23610224,-0.49966604,-0.65029934,0.44628319,0.55091795
1.46000000,-0.15919717,0.67754910,-0.40587946,-0.08893068,0.79107113,0.25082033,-0.12606958,-0.23167748,-0.90062181,0.23610224,-0.49966604,-0.65029934,0.44628319,0.55091795
1.48000000,-0.15919717,0.67754910,-0.40587946,-0.08893068,0.79107113,0.25082033,-0.12606958,-0.23167748,-0.90062181,0.23610224,-0.49966604,-0.65029934,0.44628319,0.55091795
1.50000000,-0.15919717,0.67754910,-0.40587946,-0.08893068,0.79107113,0.25082033,-0.12606958,-0.23167748,-0.90062181,0.23610224,-0.49966604,-0.65029934,0.44628319,0.55091795
1.52000000,-0.15919717,0.67754910,-0.40587946,-0.08893068,0.79107113,0.25082033,-0.12606958,-0.23167748,-0.90062181,0.23610224,-0.49966604,-0.65029934,0.44628319,0.55091795
1.54000000,-0.15919717,0.67754910,-0.40587946,-0.08893068,0.79107113,0.25082033,-0.12606958,-0.23167748,-0.90062181,0.23610224,-0.49966604,-0.65029934,0.44628319,0.55091795
1.56000000,-0.15919717,0.67754910,-0.40587946,-0.08893068,0.79107113,0.25082033,-0.12606958,-0.23167748,-0.90062181,0.23610224,-0.49966604,-0.65029934,0.44628319,0.55091795
1.58000000,-0.15919717,0.67754910,-0.40587946,-0.08893068,0.79107113,0.25082033,-0.12606958,-0.23167748,-0.90062181,0.23610224,-0.49966604,-0.65029934,0.44628319,0.55091795
1.60000000,-0.15919717,0.67754910,-0.40587946,-0.08893068,0.79107113,0.25082033,-0.12606958,-0.23167748,-0.90062181,0.23610224,-0.49966604,-0.65029934,0.44628319,0.55091795
1.62000000,-0.15919717,0.67754910,-0.40587946,-0.08893068,0.79107113,0.25082033,-0.12606958,-0.23167748,-0.90062181,0.23610224,-0.49966604,-0.65029934,0.44628319,0.55091795
1.64000000,-0.15919717,0.67754910,-0.40587946,-0.08893068,0.79107113,0.25082033,-0.12606958,-0.23167748,-0.90062181,0.23610224,-0.49966604,-0.65029934,0.44628319,0.55091795
1.66000000,-0.15919717,0.67754910,-0.40587946,-0.08893068,0.79107113,0.25082033,-0.12606958,-0.23167748,-0.90062181,0.23610224,-0.49966604,-0.65029934,0.44628319,0.55091795
1.68000000,-0.15919717,0.67754910,-0.40587946,-0.08893068,0.79107113,0.25082033,-0.12606958,-0.23167748,-0.90062181,0.23610224,-0.49966604,-0.65029934,0.44628319,0.55091795
1.70000000,-0.15919717,0.67754910,-0.40587946,-0.08893068,0.79107113,0.25082033,-0.12606958,-0.23167748,-0.90062181,0.23610224,-0.49966604,-0.65029934,0.44628319,0.55091795
1.72000000,-0.15919717,0.67754910,-0.40587946,-0.08893068,0.79107113,0.25082033,-0.12606958,-0.23167748,-0.90062181,0.23610224,-0.49966604,-0.65029934,0.44628319,0.55091795
1.74000000,-0.15919717,0.67754910,-0.40587946,-0.08893068,0.79107113,0.25082033,-0.12606958,-0.23167748,-0.90062181,0.23610224,-0.49966604,-0.65029934,0.44628319,0.55091795
1.76000000,-0.15919717,0.67754910,-0.40587946,-0.08893068,0.79107113,0.25082033,-0.12606958,-0.23167748,-0.90062181,0.23610224,-0.49966604,-0.65029934,0.44628319,0.55091795
1.78000000,-0.15919717,0.67754910,-0.40587946,-0.08893068,0.79107113,0.25082033,-0.12606958,-0.23167748,-0.90062181,0.23610224,-0.49966604,-0.65029934,0.44628319,0.55091795
1.80000000,-0.15919717,0.67754910,-0.40587946,-0.08893068,0.79107113,0.25082033,-0.12606958,-0.23167748,-0.90062181,0.23610224,-0.49966604,-0.65029934,0.44628319,0.55091795
1.82000000,-0.15919717,0.67754910,-0.40587946,-0.08893068,0.79107113,0.25082033,-0.12606958,-0.23167748,-0.90062181,0.23610224,-0.49966604,-0.65029934,0.44628319,0.55091795
1.84000000,-0.15919717,0.67754910,-0.40587946,-0.08893068,0.79107113,0.25082033,-0.12606958,-0.23167748,-0.90062181,0.23610224,-0.49966604,-0.65029934,0.44628319,0.55091795
1.86000000,-0.15919717,0.67754910,-0.40587946,-0.08893068,0.79107113,0.25082033,-0.12606958,-0.23167748,-0.90062181,0.23610224,-0.49966604,-0.65029934,0.44628319,0.55091795
1.88000000,-0.15919717,0.67754910,-0.40587946,-0.08893068,0.79107113,0.25082033,-0.12606958,-0.23167748,-0.90062181,0.23610224,-0.49966604,-0.65029934,0.44628319,0.55091795
1.90000000,-0.15919717,0.67754910,-0.40587946,-0.08893068,0.79107113,0.25082033,-0.12606958,-0.23167748,-0.90062181,0.23610224,-0.49966604,-0.65029934,0.44628319,0.55091795
1.92000000,-0.15919717,0.67754910,-0.40587946,-0.08893068,0.79107113,0.25082033,-0.12606958,-0.23167748,-0.90062181,0.23610224,-0.49966604,-0.65029934,0.44628319,0.55091795
1.94000000,-0.15919717,0.67754910,-0.40587946,-0.08893068,0.79107113,0.25082033,-0.12606958,-0.23167748,-0.90062181,0.23610224,-0.49966604,-0.65029934,0.44628319,0.55091795
1.96000000,-0.15919717,0.67754910,-0.40587946,-0.08893068,0.79107113,0.25082033,-0.12606958,-0.23167748,-0.90062181,0.23610224,-0.49966604,-0.65029934,0.44628319,0.55091795
1.98000000,-0.15919717,0.67754910,-0.40587946,-0.08893068,0.79107113,0.25082033,-0.12606958,-0.23167748,-0.90062181,0.23610224,-0.49966604,-0.65029934,0.44628319,0.55091795
2.00000000,-0.15919717,0.67754910,-0.40587946,-0.08893068,0.79107113,0.25082033,-0.12606958,-0.23167748,-0.90062181,0.23610224,-0.49966604,-0.65029934,0.44628319,0.55091795
2.02000000,-0.15919717,0.67754910,-0.40587946,-0.08893068,0.79107113,0.25082033,-0.12606958,-0.23167748,-0.90062181,0.23610224,-0.49966604,-0.65029934,0.44628319,0.55091795
2.04000000,-0.15919717,0.67754910,-0.40587946,-0.08893068,0.79107113,0.25082033,-0.12606958,-0.23167748,-0.90062181,0.23610224,-0.49966604,-0.65029934,0.44628319,0.55091795
2.06000000,-0.15919717,0.67754910,-0.40587946,-0.08893068,0.79107113,0.25082033,-0.12606958,-0.23167748,-0.90062181,0.23610224,-0.49966604,-0.65029934,0.44628319,0.55091795
2.08000000,-0.15919717,0.67754910,-0.40587946,-0.08893068,0.79107113,0.25082033,-0.12606958,-0.23167748,-0.90062181,0.23610224,-0.49966604,-0.65029934,0.44628319,0.55091795
2.10000000,-0.15919717,0.67754910,-0.40587946,-0.08893068,0.79107113,0.25082033,-0.12606958,-0.23167748,-0.90062181,0.23610224,-0.49966604,-0.65029934,0.44628319,0.55091795
2.12000000,-0.15919717,0.67754910,-0.40587946,-0.08893068,0.79107113,0.25082033,-0.12606958,-0.23167748,-0.90062181,0.23610224,-0.49966604,-0.65029934,0.44628319,0.55091795
2.14000000,-0.15919717,0.67754910,-0.40587946,-0.08893068,0.79107113,0.25082033,-0.12606958,-0.23167748,-0.90062181,0.23610224,-0.49966604,-0.65029934,0.44628319,0.55091795
2.16000000,-0.15919717,0.67754910,-0.40587946,-0.08893068,0.79107113,0.25082033,-0.12606958,-0.23167748,-0.90062181,0.23610224,-0.49966604,-0.65029934,0.44628319,0.55091795
2.18000000,-0.15919717,0.67754910,-0.40587946,-0.08893068,0.79107113,0.25082033,-0.12606958,-0.23167748,-0.90062181,0.23610224,-0.49966604,-0.65029934,0.44628319,0.55091795
2.20000000,-0.15919717,0.67754910,-0.40587946,-0.08893068,0.79107113,0.25082033,-0.12606958,-0.23167748,-0.90062181,0.23610224,-0.49966604,-0.65029934,0.44628319,0.55091795
2.22000000,-0.15919717,0.67754910,-0.40587946,-0.08893068,0.79107113,0.25082033,-0.12606958,-0.23167748,-0.90062181,0.23610224,-0.49966604,-0.65029934,0.44628319,0.55091795
2.24000000,-0.15919717,0.67754910,-0.40587946,-0.08893068,0.79107113,0.25082033,-0.12606958,-0.23167748,-0.90062181,0.23610224,-0.49966604,-0.65029934,0.44628319,0.55091795
2.26000000,-0.15919717,0.67754910,-0.40587946,-0.08893068,0.79107113,0.25082033,-0.12606958,-0.23167748,-0.90062181,0.23610224,-0.49966604,-0.65029934,0.44628319,0.55091795
2.28000000,-0.15919717,0.67754910,-0.40587946,-0.08893068,0.79107113,0.25082033,-0.12606958,-0.23167748,-0.90062181,0.23610224,-0.49966604,-0.65029934,0.44628319,0.55091795
2.30000000,-0.15919717,0.67754910,-0.40587946,-0.08893068,0.79107113,0.25082033,-0.12606958,-0.23167748,-0.90062181,0.23610224,-0.49966604,-0.65029934,0.44628319,0.55091795
2.32000000,-0.15919717,0.67754910,-0.40587946,-0.08893068,0.79107113,0.25082033,-0.12606958,-0.23167748,-0.90062181,0.23610224,-0.49966604,-0.65029934,0.44628319,0.55091795
2.34000000,-0.15919717,0.67754910,-0.40587946,-0.08893068,0.79107113,0.25082033,-0.12606958,-0.23167748,-0.90062181,0.23610224,-0.49966604,-0.65029934,0.44628319,0.55091795
2.36000000,-0.15919717,0.67754910,-0.40587946,-0.08893068,0.79107113,0.25082033,-0.12606958,-0.23167748,-0.90062181,0.23610224,-0.49966604,-0.65029934,0.44628319,0.55091795
2.38000000,-0.15919717,0.67754910,-0.40587946,-0.08893068,0.79107113,0.25082033,-0.12606958,-0.23167748,-0.90062181,0.23610224,-0.49966604,-0.65029934,0.44628319,0.55091795
2.40000000,-0.15919717,0.67754910,-0.40587946,-0.08893068,0.79107113,0.25082033,-0.12606958,-0.23167748,-0.90062181,0.23610224,-0.49966604,-0.65029934,0.44628319,0.55091795
2.42000000,-0.15919717,0.67754910,-0.40587946,-0.08893068,0.79107113,0.25082033,-0.12606958,-0.23167748,-0.90062181,0.23610224,-0.49966604,-0.65029934,0.44628319,0.55091795
2.44000000,-0.15919717,0.67754910,-0.40587946,-0.08893068,0.79107113,0.25082033,-0.12606958,-0.23167748,-0.90062181,0.23610224,-0.49966604,-0.65029934,0.44628319,0.55091795
2.46000000,-0.15919717,0.67754910,-0.40587946,-0.08893068,0.79107113,0.25082033,-0.12606958,-0.23167748,-0.90062181,0.23610224,-0.49966604,-0.65029934,0.44628319,0.55091795
2.48000000,-0.15919717,0.67754910,-0.40587946,-0.08893068,0.79107113,0.25082033,-0.12606958,-0.23167748,-0.90062181,0.23610224,-0.49966604,-0.65029934,0.44628319,0.55091795
2.50000000,-0.15919717,0.67754910,-0.40587946,-0.08893068,0.79107113,0.25082033,-0.12606958,-0.23167748,-0.90062181,0.23610224,-0.49966604,-0.65029934,0.44628319,0.55091795
2.52000000,-0.15919717,0.67754910,-0.40587946,-0.08893068,0.79107113,0.25082033,-0.12606958,-0.23167748,-0.90062181,0.23610224,-0.49966604,-0.65029934,0.44628319,0.55091795
2.54000000,-0.15919717,0.67754910,-0.40587946,-0.08893068,0.79107113,0.25082033,-0.12606958,-0.23167748,-0.90062181,0.23610224,-0.49966604,-0.65029934,0.44628319,0.55091795
2.56000000,-0.15919717,0.67754910,-0.40587946,-0.08893068,0.79107113,0.25082033,-0.12606958,-0.23167748,-0.90062181,0.23610224,-0.49966604,-0.65029934,0.44628319,0.55091795
2.58000000,-0.15919717,0.67754910,-0.40587946,-0.08893068,0.79107113,0.25082033,-0.12606958,-0.23167748,-0.90062181,0.23610224,-0.49966604,-0.65029934,0.44628319,0.55091795
2.60000000,-0.15919717,0.67754910,-0.40587946,-0.08893068,0.79107113,0.25082033,-0.12606958,-0.23167748,-0.90062181,0.23610224,-0.49966604,-0.65029934,0.44628319,0.55091795
2.62000000,-0.15919717,0.67754910,-0.40587946,-0.08893068,0.79107113,0.25082033,-0.12606958,-0.23167748,-0.90062181,0.23610224,-0.49966604,-0.65029934,0.44628319,0.55091795
2.64000000,-0.15919717,0.67754910,-0.40587946,-0.08893068,0.79107113,0.25082033,-0.12606958,-0.23167748,-0.90062181,0.23610224,-0.49966604,-0.65029934,0.44628319,0.55091795
2.66000000,-0.15919717,0.67754910,-0.40587946,-0.08893068,0.79107113,0.25082033,-0.12606958,-0.23167748,-0.90062181,0.23610224,-0.49966604,-0.65029934,0.44628319,0.55091795
2.68000000,-0.15919717,0.67754910,-0.40587946,-0.08893068,0.79107113,0.25082033,-0.12606958,-0.23167748,-0.90062181,0.23610224,-0.49966604,-0.65029934,0.44628319,0.55091795
2.70000000,-0.15919717,0.67754910,-0.40587946,-0.08893068,0.79107113,0.25082033,-0.12606958,-0.23167748,-0.90062181,0.23610224,-0.49966604,-0.65029934,0.44628319,0.55091795
2.72000000,-0.15919717,0.67754910,-0.40587946,-0.08893068,0.79107113,0.25082033,-0.12606958,-0.23167748,-0.90062181,0.23610224,-0.49966604,-0.65029934,0.44628319,0.55091795
2.74000000,-0.15919717,0.67754910,-0.40587946,-0.08893068,0.79107113,0.25082033,-0.12606958,-0.23167748,-0.90062181,0.23610224,-0.49966604,-0.65029934,0.44628319,0.55091795
2.76000000,-0.15919717,0.67754910,-0.40587946,-0.08893068,0.79107113,0.25082033,-0.12606958,-0.23167748,-0.90062181,0.23610224,-0.49966604,-0.65029934,0.44628319,0.55091795
2.78000000,-0.15919717,0.67754910,-0.40587946,-0.08893068,0.79107113,0.25082033,-0.12606958,-0.23167748,-0.90062181,0.23610224,-0.49966604,-0.65029934,0.44628319,0.55091795
2.80000000,-0.15919717,0.67754910,-0.40587946,-0.08893068,0.79107113,0.25082033,-0.12606958,-0.23167748,-0.90062181,0.23610224,-0.49966604,-0.65029934,0.44628319,0.55091795
2.82000000,-0.15919717,0.67754910,-0.40587946,-0.08893068,0.79107113,0.25082033,-0.12606958,-0.23167748,-0.90062181,0.23610224,-0.49966604,-0.65029934,0.44628319,0.55091795
2.84000000,-0.15919717,0.67754910,-0.40587946,-0.08893068,0.79107113,0.25082033,-0.12606958,-0.23167748,-0.90062181,0.23610224,-0.49966604,-0.65029934,0.44628319,0.55091795
2.86000000,-0.15919717,0.67754910,-0.40587946,-0.08893068,0.79107113,0.25082033,-0.12606958,-0.23167748,-0.90062181,0.23610224,-0.49966604,-0.65029934,0.44628319,0.55091795
2.88000000,-0.15919717,0.67754910,-0.40587946,-0.08893068,0.79107113,0.25082033,-0.12606958,-0.23167748,-0.90062181,0.23610224,-0.49966604,-0.65029934,0.44628319,0.55091795
2.90000000,-0.15919717,0.67754910,-0.40587946,-0.08893068,0.79107113,0.25082033,-0.12606958,-0.23167748,-0.90062181,0.23610224,-0.49966604,-0.65029934,0.44628319,0.55091795
2.92000000,-0.15919717,0.67754910,-0.40587946,-0.08893068,0.79107113,0.25082033,-0.12606958,-0.23167748,-0.90062181,0.23610224,-0.49966604,-0.65029934,0.44628319,0.55091795
2.94000000,-0.15919717,0.67754910,-0.40587946,-0.08893068,0.79107113,0.25082033,-0.12606958,-0.23167748,-0.90062181,0.23610224,-0.49966604,-0.65029934,0.44628319,0.55091795
2.96000000,-0.15919717,0.67754910,-0.40587946,-0.08893068,0.79107113,0.25082033,-0.12606958,-0.23167748,-0.90062181,0.23610224,-0.49966604,-0.65029934,0.44628319,0.55091795
2.98000000,-0.15919717,0.67754910,-0.40587946,-0.08893068,0.79107113,0.25082033,-0.12606958,-0.23167748,-0.90062181,0.23610224,-0.49966604,-0.65029934,0.44628319,0.55091795
3.00000000,-0.15919717,0.67754910,-0.40587946,-0.08893068,0.79107113,0.25082033,-0.12606958,-0.23167748,-0.90062181,0.23610224,-0.49966604,-0.65029934,0.44628319,0.55091795
3.02000000,-0.15919717,0.67754910,-0.40587946,-0.08893068,0.79107113,0.25082033,-0.12606958,-0.23167748,-0.90062181,0.23610224,-0.49966604,-0.65029934,0.44628319,0.55091795
3.04000000,-0.15919717,0.67754910,-0.40587946,-0.08893068,0.79107113,0.25082033,-0.12606958,-0.23167748,-0.90062181,0.23610224,-0.49966604,-0.65029934,0.44628319,0.55091795
3.06000000,-0.15919717,0.67754910,-0.40587946,-0.08893068,0.79107113,0.25082033,-0.12606958,-0.23167748,-0.90062181,0.23610224,-0.49966604,-0.65029934,0.44628319,0.55091795
3.08000000,-0.15919717,0.67754910,-0.40587946,-0.08893068,0.79107113,0.25082033,-0.12606958,-0.23167748,-0.90062181,0.23610224,-0.49966604,-0.65029934,0.44628319,0.55091795
3.10000000,-0.15919717,0.67754910,-0.40587946,-0.08893068,0.79107113,0.25082033,-0.12606958,-0.23167748,-0.90062181,0.23610224,-0.49966604,-0.65029934,0.44628319,0.55091795
3.12000000,-0.15919717,0.67754910,-0.40587946,-0.08893068,0.79107113,0.25082033,-0.12606958,-0.23167748,-0.90062181,0.23610224,-0.49966604,-0.65029934,0.44628319,0.55091795
3.14000000,-0.15919717,0.67754910,-0.40587946,-0.08893068,0.79107113,0.25082033,-0.12606958,-0.23167748,-0.90062181,0.23610224,-0.49966604,-0.65029934,0.44628319,0.55091795
3.16000000,-0.15919717,0.67754910,-0.40587946,-0.08893068,0.79107113,0.25082033,-0.12606958,-0.23167748,-0.90062181,0.23610224,-0.49966604,-0.65029934,0.44628319,0.55091795
3.18000000,-0.15919717,0.67754910,-0.40587946,-0.08893068,0.79107113,0.25082033,-0.12606958,-0.23167748,-0.90062181,0.23610224,-0.49966604,-0.65029934,0.44628319,0.55091795
3.20000000,-0.15919717,0.67754910,-0.40587946,-0.08893068,0.79107113,0.25082033,-0.12606958,-0.23167748,-0.90062181,0.23610224,-0.49966604,-0.65029934,0.44628319,0.55091795
3.22000000,-0.15919717,0.67754910,-0.40587946,-0.08893068,0.79107113,0.25082033,-0.12606958,-0.23167748,-0.90062181,0.23610224,-0.49966604,-0.65029934,0.44628319,0.55091795
3.24000000,-0.15919717,0.67754910,-0.40587946,-0.08893068,0.79107113,0.25082033,-0.12606958,-0.23167748,-0.90062181,0.23610224,-0.49966604,-0.65029934,0.44628319,0.55091795
3.26000000,-0.15919717,0.67754910,-0.40587946,-0.08893068,0.79107113,0.25082033,-0.12606958,-0.23167748,-0.90062181,0.23610224,-0.49966604,-0.65029934,0.44628319,0.55091795
3.28000000,-0.15919717,0.67754910,-0.40587946,-0.08893068,0.79107113,0.25082033,-0.12606958,-0.23167748,-0.90062181,0.23610224,-0.49966604,-0.65029934,0.44628319,0.55091795
3.30000000,-0.15919717,0.67754910,-0.40587946,-0.08893068,0.79107113,0.25082033,-0.12606958,-0.23167748,-0.90062181,0.23610224,-0.49966604,-0.65029934,0.44628319,0.55091795
3.32000000,-0.15919717,0.67754910,-0.40587946,-0.08893068,0.79107113,0.25082033,-0.12606958,-0.23167748,-0.90062181,0.23610224,-0.49966604,-0.65029934,0.44628319,0.55091795
3.34000000,-0.15919717,0.67754910,-0.40587946,-0.08893068,0.79107113,0.25082033,-0.12606958,-0.23167748,-0.90062181,0.23610224,-0.49966604,-0.65029934,0.44628319,0.55091795
3.36000000,-0.15919717,0.67754910,-0.40587946,-0.08893068,0.79107113,0.25082033,-0.12606958,-0.23167748,-0.90062181,0.23610224,-0.49966604,-0.65029934,0.44628319,0.55091795
3.38000000,-0.15919717,0.67754910,-0.40587946,-0.08893068,0.79107113,0.25082033,-0.12606958,-0.23167748,-0.90062181,0.23610224,-0.49966604,-0.65029934,0.44628319,0.55091795
3.40000000,-0.15919717,0.67754910,-0.40587946,-0.08893068,0.79107113,0.25082033,-0.12606958,-0.23167748,-0.90062181,0.23610224,-0.49966604,-0.65029934,0.44628319,0.55091795
3.42000000,-0.15919717,0.67754910,-0.40587946,-0.08893068,0.79107113,0.25082033,-0.12606958,-0.23167748,-0.90062181,0.23610224,-0.49966604,-0.65029934,0.44628319,0.55091795
3.44000000,-0.15919717,0.67754910,-0.40587946,-0.08893068,0.79107113,0.25082033,-0.12606958,-0.23167748,-0.90062181,0.23610224,-0.49966604,-0.65029934,0.44628319,0.55091795
3.46000000,-0.15919717,0.67754910,-0.40587946,-0.08893068,0.79107113,0.25082033,-0.12606958,-0.23167748,-0.90062181,0.23610224,-0.49966604,-0.65029934,0.44628319,0.55091795
3.48000000,-0.15919717,0.67754910,-0.40587946,-0.08893068,0.79107113,0.25082033,-0.12606958,-0.23167748,-0.90062181,0.23610224,-0.49966604,-0.65029934,0.44628319,0.55091795
3.50000000,-0.15919717,0.67754910,-0.40587946,-0.08893068,0.79107113,0.25082033,-0.12606958,-0.23167748,-0.90062181,0.23610224,-0.49966604,-0.65029934,0.44628319,0.55091795
3.52000000,-0.15919717,0.67754910,-0.40587946,-0.08893068,0.79107113,0.25082033,-0.12606958,-0.23167748,-0.90062181,0.23610224,-0.49966604,-0.65029934,0.44628319,0.55091795
3.54000000,-0.15919717,0.67754910,-0.40587946,-0.08893068,0.79107113,0.25082033,-0.12606958,-0.23167748,-0.90062181,0.23610224,-0.49966604,-0.65029934,0.44628319,0.55091795
3.56000000,-0.15919717,0.67754910,-0.40587946,-0.08893068,0.79107113,0.25082033,-0.12606958,-0.23167748,-0.90062181,0.23610224,-0.49966604,-0.65029934,0.44628319,0.55091795
3.58000000,-0.15919717,0.67754910,-0.40587946,-0.08893068,0.79107113,0.25082033,-0.12606958,-0.23167748,-0.90062181,0.23610224,-0.49966604,-0.65029934,0.44628319,0.55091795
3.60000000,-0.15919717,0.67754910,-0.40587946,-0.08893068,0.79107113,0.25082033,-0.12606958,-0.23167748,-0.90062181,0.23610224,-0.49966604,-0.65029934,0.44628319,0.55091795
3.62000000,-0.15919717,0.67754910,-0.40587946,-0.08893068,0.79107113,0.25082033,-0.12606958,-0.23167748,-0.90062181,0.23610224,-0.49966604,-0.65029934,0.44628319,0.55091795
3.64000000,-0.15919717,0.67754910,-0.40587946,-0.08893068,0.79107113,0.25082033,-0.12606958,-0.23167748,-0.90062181,0.23610224,-0.49966604,-0.65029934,0.44628319,0.55091795
3.66000000,-0.15919717,0.67754910,-0.40587946,-0.08893068,0.79107113,0.25082033,-0.12606958,-0.23167748,-0.90062181,0.23610224,-0.49966604,-0.65029934,0.44628319,0.55091795
3.68000000,-0.15919717,0.67754910,-0.40587946,-0.08893068,0.79107113,0.25082033,-0.12606958,-0.23167748,-0.90062181,0.23610224,-0.49966604,-0.65029934,0.44628319,0.55091795
3.70000000,-0.15919717,0.67754910,-0.40587946,-0.08893068,0.79107113,0.25082033,-0.12606958,-0.23167748,-0.90062181,0.23610224,-0.49966604,-0.65029934,0.44628319,0.55091795
3.72000000,-0.15919717,0.67754910,-0.40587946,-0.08893068,0.79107113,0.25082033,-0.12606958,-0.23167748,-0.90062181,0.23610224,-0.49966604,-0.65029934,0.44628319,0.55091795
3.74000000,-0.15919717,0.67754910,-0.40587946,-0.08893068,0.79107113,0.25082033,-0.12606958,-0.23167748,-0.90062181,0.23610224,-0.49966604,-0.65029934,0.44628319,0.55091795
3.76000000,-0.15919717,0.67754910,-0.40587946,-0.08893068,0.79107113,0.25082033,-0.12606958,-0.23167748,-0.90062181,0.23610224,-0.49966604,-0.65029934,0.44628319,0.55091795
3.78000000,-0.15919717,0.67754910,-0.40587946,-0.08893068,0.79107113,0.25082033,-0.12606958,-0.23167748,-0.90062181,0.23610224,-0.49966604,-0.65029934,0.44628319,0.55091795
3.80000000,-0.15919717,0.67754910,-0.40587946,-0.08893068,0.79107113,0.25082033,-0.12606958,-0.23167748,-0.90062181,0.23610224,-0.49966604,-0.65029934,0.44628319,0.55091795
3.82000000,-0.15919717,0.67754910,-0.40587946,-0.08893068,0.79107113,0.25082033,-0.12606958,-0.23167748,-0.90062181,0.23610224,-0.49966604,-0.65029934,0.44628319,0.55091795
3.84000000,-0.15919717,0.67754910,-0.40587946,-0.08893068,0.79107113,0.25082033,-0.12606958,-0.23167748,-0.90062181,0.23610224,-0.49966604,-0.65029934,0.44628319,0.55091795
3.86000000,-0.15919717,0.67754910,-0.40587946,-0.08893068,0.79107113,0.25082033,-0.12606958,-0.23167748,-0.90062181,0.23610224,-0.49966604,-0.65029934,0.44628319,0.55091795
3.88000000,-0.15919717,0.67754910,-0.40587946,-0.08893068,0.79107113,0.25082033,-0.12606958,-0.23167748,-0.90062181,0.23610224,-0.49966604,-0.65029934,0.44628319,0.55091795
3.90000000,-0.15919717,0.67754910,-0.40587946,-0.08893068,0.79107113,0.25082033,-0.12606958,-0.23167748,-0.90062181,0.23610224,-0.49966604,-0.65029934,0.44628319,0.55091795
3.92000000,-0.15919717,0.67754910,-0.40587946,-0.08893068,0.79107113,0.25082033,-0.12606958,-0.23167748,-0.90062181,0.23610224,-0.49966604,-0.65029934,0.44628319,0.55091795
3.94000000,-0.15919717,0.67754910,-0.40587946,-0.08893068,0.79107113,0.25082033,-0.12606958,-0.23167748,-0.90062181,0.23610224,-0.49966604,-0.65029934,0.44628319,0.55091795
3.96000000,-0.15919717,0.67754910,-0.40587946,-0.08893068,0.79107113,0.25082033,-0.12606958,-0.23167748,-0.90062181,0.23610224,-0.49966604,-0.65029934,0.44628319,0.55091795
3.98000000,-0.15919717,0.67754910,-0.40587946,-0.08893068,0.79107113,0.25082033,-0.12606958,-0.23167748,-0.90062181,0.23610224,-0.49966604,-0.65029934,0.44628319,0.55091795
4.00000000,-0.15919717,0.67754910,-0.40587946,-0.08893068,0.79107113,0.25082033,-0.12606958,-0.23167748,-0.90062181,0.23610224,-0.49966604,-0.65029934,0.44628319,0.55091795
4.02000000,-0.15919717,0.67754910,-0.40587946,-0.08893068,0.79107113,0.25082033,-0.12606958,-0.23167748,-0.90062181,0.23610224,-0.49966604,-0.65029934,0.44628319,0.55091795
4.04000000,-0.15919717,0.67754910,-0.40587946,-0.08893068,0.79107113,0.25082033,-0.12606958,-0.23167748,-0.90062181,0.23610224,-0.49966604,-0.65029934,0.44628319,0.55091795
4.06000000,-0.15919717,0.67754910,-0.40587946,-0.08893068,0.79107113,0.25082033,-0.12606958,-0.23167748,-0.90062181,0.23610224,-0.49966604,-0.65029934,0.44628319,0.55091795
4.08000000,-0.15919717,0.67754910,-0.40587946,-0.08893068,0.79107113,0.25082033,-0.12606958,-0.23167748,-0.90062181,0.23610224,-0.49966604,-0.65029934,0.44628319,0.55091795
4.10000000,-0.15919717,0.67754910,-0.40587946,-0.08893068,0.79107113,0.25082033,-0.12606958,-0.23167748,-0.90062181,0.23610224,-0.49966604,-0.65029934,0.44628319,0.55091795
4.12000000,-0.15919717,0.67754910,-0.40587946,-0.08893068,0.79107113,0.25082033,-0.12606958,-0.23167748,-0.90062181,0.23610224,-0.49966604,-0.65029934,0.44628319,0.55091795
4.14000000,-0.15919717,0.67754910,-0.40587946,-0.08893068,0.79107113,0.25082033,-0.12606958,-0.23167748,-0.90062181,0.23610224,-0.49966604,-0.65029934,0.44628319,0.55091795
4.16000000,-0.15919717,0.67754910,-0.40587946,-0.08893068,0.79107113,0.25082033,-0.12606958,-0.23167748,-0.90062181,0.23610224,-0.49966604,-0.65029934,0.44628319,0.55091795
4.18000000,-0.15919717,0.67754910,-0.40587946,-0.08893068,0.79107113,0.25082033,-0.12606958,-0.23167748,-0.90062181,0.23610224,-0.49966604,-0.65029934,0.44628319,0.55091795
4.20000000,-0.15919717,0.67754910,-0.40587946,-0.08893068,0.79107113,0.25082033,-0.12606958,-0.23167748,-0.90062181,0.23610224,-0.49966604,-0.65029934,0.44628319,0.55091795
4.22000000,-0.15919717,0.67754910,-0.40587946,-0.08893068,0.79107113,0.25082033,-0.12606958,-0.23167748,-0.90062181,0.23610224,-0.49966604,-0.65029934,0.44628319,0.55091795
4.24000000,-0.15919717,0.67754910,-0.40587946,-0.08893068,0.79107113,0.25082033,-0.12606958,-0.23167748,-0.90062181,0.23610224,-0.49966604,-0.65029934,0.44628319,0.55091795
4.26000000,-0.15919717,0.67754910,-0.40587946,-0.08893068,0.79107113,0.25082033,-0.12606958,-0.23167748,-0.90062181,0.23610224,-0.49966604,-0.65029934,0.44628319,0.55091795
4.28000000,-0.15919717,0.67754910,-0.40587946,-0.08893068,0.79107113,0.25082033,-0.12606958,-0.23167748,-0.90062181,0.23610224,-0.49966604,-0.65029934,0.44628319,0.55091795
4.30000000,-0.15919717,0.67754910,-0.40587946,-0.08893068,0.79107113,0.25082033,-0.12606958,-0.23167748,-0.90062181,0.23610224,-0.49966604,-0.65029934,0.44628319,0.55091795
4.32000000,-0.15919717,0.67754910,-0.40587946,-0.08893068,0.79107113,0.25082033,-0.12606958,-0.23167748,-0.90062181,0.23610224,-0.49966604,-0.65029934,0.44628319,0.55091795
4.34000000,-0.15919717,0.67754910,-0.40587946,-0.08893068,0.79107113,0.25082033,-0.12606958,-0.23167748,-0.90062181,0.23610224,-0.49966604,-0.65029934,0.44628319,0.55091795
4.36000000,-0.15919717,0.67754910,-0.40587946,-0.08893068,0.79107113,0.25082033,-0.12606958,-0.23167748,-0.90062181,0.23610224,-0.49966604,-0.65029934,0.44628319,0.55091795
4.38000000,-0.15919717,0.67754910,-0.40587946,-0.08893068,0.79107113,0.25082033,-0.12606958,-0.23167748,-0.90062181,0.23610224,-0.49966604,-0.65029934,0.44628319,0.55091795
4.40000000,-0.15919717,0.67754910,-0.40587946,-0.08893068,0.79107113,0.25082033,-0.12606958,-0.23167748,-0.90062181,0.23610224,-0.49966604,-0.65029934,0.44628319,0.55091795
4.42000000,-0.15919717,0.67754910,-0.40587946,-0.08893068,0.79107113,0.25082033,-0.12606958,-0.23167748,-0.90062181,0.23610224,-0.49966604,-0.65029934,0.44628319,0.55091795
4.44000000,-0.15919717,0.67754910,-0.40587946,-0.08893068,0.79107113,0.25082033,-0.12606958,-0.23167748,-0.90062181,0.23610224,-0.49966604,-0.65029934,0.44628319,0.55091795
4.46000000,-0.15919717,0.67754910,-0.40587946,-0.08893068,0.79107113,0.25082033,-0.12606958,-0.23167748,-0.90062181,0.23610224,-0.49966604,-0.65029934,0.44628319,0.55091795
4.48000000,-0.15919717,0.67754910,-0.40587946,-0.08893068,0.79107113,0.25082033,-0.12606958,-0.23167748,-0.90062181,0.23610224,-0.49966604,-0.65029934,0.44628319,0.55091795
4.50000000,-0.15919717,0.67754910,-0.40587946,-0.08893068,0.79107113,0.25082033,-0.12606958,-0.23167748,-0.90062181,0.23610224,-0.49966604,-0.65029934,0.44628319,0.55091795
4.52000000,-0.15919717,0.67754910,-0.40587946,-0.08893068,0.79107113,0.25082033,-0.12606958,-0.23167748,-0.90062181,0.23610224,-0.49966604,-0.65029934,0.44628319,0.55091795
4.54000000,-0.15919717,0.67754910,-0.40587946,-0.08893068,0.79107113,0.25082033,-0.12606958,-0.23167748,-0.90062181,0.23610224,-0.49966604,-0.65029934,0.44628319,0.55091795
4.56000000,-0.15919717,0.67754910,-0.40587946,-0.08893068,0.79107113,0.25082033,-0.12606958,-0.23167748,-0.90062181,0.23610224,-0.49966604,-0.65029934,0.44628319,0.55091795
4.58000000,-0.15919717,0.67754910,-0.40587946,-0.08893068,0.79107113,0.25082033,-0.12606958,-0.23167748,-0.90062181,0.23610224,-0.49966604,-0.65029934,0.44628319,0.55091795
4.60000000,-0.15919717,0.67754910,-0.40587946,-0.08893068,0.79107113,0.25082033,-0.12606958,-0.23167748,-0.90062181,0.23610224,-0.49966604,-0.65029934,0.44628319,0.55091795
4.62000000,-0.15919717,0.67754910,-0.40587946,-0.08893068,0.79107113,0.25082033,-0.12606958,-0.23167748,-0.90062181,0.23610224,-0.49966604,-0.65029934,0.44628319,0.55091795
4.64000000,-0.15919717,0.67754910,-0.40587946,-0.08893068,0.79107113,0.25082033,-0.12606958,-0.23167748,-0.90062181,0.23610224,-0.49966604,-0.65029934,0.44628319,0.55091795
4.66000000,-0.15919717,0.67754910,-0.40587946,-0.08893068,0.79107113,0.25082033,-0.12606958,-0.23167748,-0.90062181,0.23610224,-0.49966604,-0.65029934,0.44628319,0.55091795
4.68000000,-0.15919717,0.67754910,-0.40587946,-0.08893068,0.79107113,0.25082033,-0.12606958,-0.23167748,-0.90062181,0.23610224,-0.49966604,-0.65029934,0.44628319,0.55091795
4.70000000,-0.15919717,0.67754910,-0.40587946,-0.08893068,0.79107113,0.25082033,-0.12606958,-0.23167748,-0.90062181,0.23610224,-0.49966604,-0.65029934,0.44628319,0.55091795
4.72000000,-0.15919717,0.67754910,-0.40587946,-0.08893068,0.79107113,0.25082033,-0.12606958,-0.23167748,-0.90062181,0.23610224,-0.49966604,-0.65029934,0.44628319,0.55091795
4.74000000,-0.15919717,0.67754910,-0.40587946,-0.08893068,0.79107113,0.25082033,-0.12606958,-0.23167748,-0.90062181,0.23610224,-0.49966604,-0.65029934,0.44628319,0.55091795
4.76000000,-0.15919717,0.67754910,-0.40587946,-0.08893068,0.79107113,0.25082033,-0.12606958,-0.23167748,-0.90062181,0.23610224,-0.49966604,-0.65029934,0.44628319,0.55091795
4.78000000,-0.15919717,0.67754910,-0.40587946,-0.08893068,0.79107113,0.25082033,-0.12606958,-0.23167748,-0.90062181,0.23610224,-0.49966604,-0.65029934,0.44628319,0.55091795
4.80000000,-0.15919717,0.67754910,-0.40587946,-0.08893068,0.79107113,0.25082033,-0.12606958,-0.23167748,-0.90062181,0.23610224,-0.49966604,-0.65029934,0.44628319,0.55091795
4.82000000,-0.15919717,0.67754910,-0.40587946,-0.08893068,0.79107113,0.25082033,-0.12606958,-0.23167748,-0.90062181,0.23610224,-0.49966604,-0.65029934,0.44628319,0.55091795
4.84000000,-0.15919717,0.67754910,-0.40587946,-0.08893068,0.79107113,0.25082033,-0.12606958,-0.23167748,-0.90062181,0.23610224,-0.49966604,-0.65029934,0.44628319,0.55091795
4.86000000,-0.15919717,0.67754910,-0.40587946,-0.08893068,0.79107113,0.25082033,-0.12606958,-0.23167748,-0.90062181,0.23610224,-0.49966604,-0.65029934,0.44628319,0.55091795
4.88000000,-0.15919717,0.67754910,-0.40587946,-0.08893068,0.79107113,0.25082033,-0.12606958,-0.23167748,-0.90062181,0.23610224,-0.49966604,-0.65029934,0.44628319,0.55091795
4.90000000,-0.15919717,0.67754910,-0.40587946,-0.08893068,0.79107113,0.25082033,-0.12606958,-0.23167748,-0.90062181,0.23610224,-0.49966604,-0.65029934,0.44628319,0.55091795
4.92000000,-0.15919717,0.67754910,-0.40587946,-0.08893068,0.79107113,0.25082033,-0.12606958,-0.23167748,-0.90062181,0.23610224,-0.49966604,-0.65029934,0.44628319,0.55091795
4.94000000,-0.15919717,0.67754910,-0.40587946,-0.08893068,0.79107113,0.25082033,-0.12606958,-0.23167748,-0.90062181,0.23610224,-0.49966604,-0.65029934,0.44628319,0.55091795
4.96000000,-0.15919717,0.67754910,-0.40587946,-0.08893068,0.79107113,0.25082033,-0.12606958,-0.23167748,-0.90062181,0.23610224,-0.49966604,-0.65029934,0.44628319,0.55091795
4.98000000,-0.15919717,0.67754910,-0.40587946,-0.08893068,0.79107113,0.25082033,-0.12606958,-0.23167748,-0.90062181,0.23610224,-0.49966604,-0.65029934,0.44628319,0.55091795
5.00000000,-0.15919717,0.67754910,-0.40587946,-0.08893068,0.79107113,0.25082033,-0.12606958,-0.23167748,-0.90062181,0.23610224,-0.49966604,-0.65029934,0.44628319,0.55091795
5.02000000,-0.15919717,0.67754910,-0.40587946,-0.08893068,0.79107113,0.25082033,-0.12606958,-0.23167748,-0.90062181,0.23610224,-0.49966604,-0.65029934,0.44628319,0.55091795
5.04000000,-0.15919717,0.67754910,-0.40587946,-0.08893068,0.79107113,0.25082033,-0.12606958,-0.23167748,-0.90062181,0.23610224,-0.49966604,-0.65029934,0.44628319,0.55091795
5.06000000,-0.15919717,0.67754910,-0.40587946,-0.08893068,0.79107113,0.25082033,-0.12606958,-0.23167748,-0.90062181,0.23610224,-0.49966604,-0.65029934,0.44628319,0.55091795
5.08000000,-0.15919717,0.67754910,-0.40587946,-0.08893068,0.79107113,0.25082033,-0.12606958,-0.23167748,-0.90062181,0.23610224,-0.49966604,-0.65029934,0.44628319,0.55091795
5.10000000,-0.15919717,0.67754910,-0.40587946,-0.08893068,0.79107113,0.25082033,-0.12606958,-0.23167748,-0.90062181,0.23610224,-0.49966604,-0.65029934,0.44628319,0.55091795
5.12000000,-0.15919717,0.67754910,-0.40587946,-0.08893068,0.79107113,0.25082033,-0.12606958,-0.23167748,-0.90062181,0.23610224,-0.49966604,-0.65029934,0.44628319,0.55091795
5.14000000,-0.15919717,0.67754910,-0.40587946,-0.08893068,0.79107113,0.25082033,-0.12606958,-0.23167748,-0.90062181,0.23610224,-0.49966604,-0.65029934,0.44628319,0.55091795
5.16000000,-0.15919717,0.67754910,-0.40587946,-0.08893068,0.79107113,0.25082033,-0.12606958,-0.23167748,-0.90062181,0.23610224,-0.49966604,-0.65029934,0.44628319,0.55091795
5.18000000,-0.15919717,0.67754910,-0.40587946,-0.08893068,0.79107113,0.25082033,-0.12606958,-0.23167748,-0.90062181,0.23610224,-0.49966604,-0.65029934,0.44628319,0.55091795
5.20000000,-0.15919717,0.67754910,-0.40587946,-0.08893068,0.79107113,0.25082033,-0.12606958,-0.23167748,-0.90062181,0.23610224,-0.49966604,-0.65029934,0.44628319,0.55091795
5.22000000,-0.15919717,0.67754910,-0.40587946,-0.08893068,0.79107113,0.25082033,-0.12606958,-0.23167748,-0.90062181,0.23610224,-0.49966604,-0.65029934,0.44628319,0.55091795
5.24000000,-0.15919717,0.67754910,-0.40587946,-0.08893068,0.79107113,0.25082033,-0.12606958,-0.23167748,-0.90062181,0.23610224,-0.49966604,-0.65029934,0.44628319,0.55091795
5.26000000,-0.15919717,0.67754910,-0.40587946,-0.08893068,0.79107113,0.25082033,-0.12606958,-0.23167748,-0.90062181,0.23610224,-0.49966604,-0.65029934,0.44628319,0.55091795
5.28000000,-0.15919717,0.67754910,-0.40587946,-0.08893068,0.79107113,0.25082033,-0.12606958,-0.23167748,-0.90062181,0.23610224,-0.49966604,-0.65029934,0.44628319,0.55091795
5.30000000,-0.15919717,0.67754910,-0.40587946,-0.08893068,0.79107113,0.25082033,-0.12606958,-0.23167748,-0.90062181,0.23610224,-0.49966604,-0.65029934,0.44628319,0.55091795
5.32000000,-0.15919717,0.67754910,-0.40587946,-0.08893068,0.79107113,0.25082033,-0.12606958,-0.23167748,-0.90062181,0.23610224,-0.49966604,-0.65029934,0.44628319,0.55091795
5.34000000,-0.15919717,0.67754910,-0.40587946,-0.08893068,0.79107113,0.25082033,-0.12606958,-0.23167748,-0.90062181,0.23610224,-0.49966604,-0.65029934,0.44628319,0.55091795
5.36000000,-0.15919717,0.67754910,-0.40587946,-0.08893068,0.79107113,0.25082033,-0.12606958,-0.23167748,-0.90062181,0.23610224,-0.49966604,-0.65029934,0.44628319,0.55091795
5.38000000,-0.15919717,0.67754910,-0.40587946,-0.08893068,0.79107113,0.25082033,-0.12606958,-0.23167748,-0.90062181,0.23610224,-0.49966604,-0.65029934,0.44628319,0.55091795
5.40000000,-0.15919717,0.67754910,-0.40587946,-0.08893068,0.79107113,0.25082033,-0.12606958,-0.23167748,-0.90062181,0.23610224,-0.49966604,-0.65029934,0.44628319,0.55091795
5.42000000,-0.15919717,0.67754910,-0.40587946,-0.08893068,0.79107113,0.25082033,-0.12606958,-0.23167748,-0.90062181,0.23610224,-0.49966604,-0.65029934,0.44628319,0.55091795
5.44000000,-0.15919717,0.67754910,-0.40587946,-0.08893068,0.79107113,0.25082033,-0.12606958,-0.23167748,-0.90062181,0.23610224,-0.49966604,-0.65029934,0.44628319,0.55091795
5.46000000,-0.15919717,0.67754910,-0.40587946,-0.08893068,0.79107113,0.25082033,-0.12606958,-0.23167748,-0.90062181,0.23610224,-0.49966604,-0.65029934,0.44628319,0.55091795
5.48000000,-0.15919717,0.67754910,-0.40587946,-0.08893068,0.79107113,0.25082033,-0.12606958,-0.23167748,-0.90062181,0.23610224,-0.49966604,-0.65029934,0.44628319,0.55091795
5.50000000,-0.15919717,0.67754910,-0.40587946,-0.08893068,0.79107113,0.25082033,-0.12606958,-0.23167748,-0.90062181,0.23610224,-0.49966604,-0.65029934,0.44628319,0.55091795
5.52000000,-0.15919717,0.67754910,-0.40587946,-0.08893068,0.79107113,0.25082033,-0.12606958,-0.23167748,-0.90062181,0.23610224,-0.49966604,-0.65029934,0.44628319,0.55091795
5.54000000,-0.15919717,0.67754910,-0.40587946,-0.08893068,0.79107113,0.25082033,-0.12606958,-0.23167748,-0.90062181,0.23610224,-0.49966604,-0.65029934,0.44628319,0.55091795
5.56000000,-0.15919717,0.67754910,-0.40587946,-0.08893068,0.79107113,0.25082033,-0.12606958,-0.23167748,-0.90062181,0.23610224,-0.49966604,-0.65029934,0.44628319,0.55091795
5.58000000,-0.15919717,0.67754910,-0.40587946,-0.08893068,0.79107113,0.25082033,-0.12606958,-0.23167748,-0.90062181,0.23610224,-0.49966604,-0.65029934,0.44628319,0.55091795
5.60000000,-0.15919717,0.67754910,-0.40587946,-0.08893068,0.79107113,0.25082033,-0.12606958,-0.23167748,-0.90062181,0.23610224,-0.49966604,-0.65029934,0.44628319,0.55091795
5.62000000,-0.15919717,0.67754910,-0.40587946,-0.08893068,0.79107113,0.25082033,-0.12606958,-0.23167748,-0.90062181,0.23610224,-0.49966604,-0.65029934,0.44628319,0.55091795
5.64000000,-0.15919717,0.67754910,-0.40587946,-0.08893068,0.79107113,0.25082033,-0.12606958,-0.23167748,-0.90062181,0.23610224,-0.49966604,-0.65029934,0.44628319,0.55091795
5.66000000,-0.15919717,0.67754910,-0.40587946,-0.08893068,0.79107113,0.25082033,-0.12606958,-0.23167748,-0.90062181,0.23610224,-0.49966604,-0.65029934,0.44628319,0.55091795
5.68000000,-0.15919717,0.67754910,-0.40587946,-0.08893068,0.79107113,0.25082033,-0.12606958,-0.23167748,-0.90062181,0.23610224,-0.49966604,-0.65029934,0.44628319,0.55091795
5.70000000,-0.15919717,0.67754910,-0.40587946,-0.08893068,0.79107113,0.25082033,-0.12606958,-0.23167748,-0.90062181,0.23610224,-0.49966604,-0.65029934,0.44628319,0.55091795
5.72000000,-0.15919717,0.67754910,-0.40587946,-0.08893068,0.79107113,0.25082033,-0.12606958,-0.23167748,-0.90062181,0.23610224,-0.49966604,-0.65029934,0.44628319,0.55091795
5.74000000,-0.15919717,0.67754910,-0.40587946,-0.08893068,0.79107113,0.25082033,-0.12606958,-0.23167748,-0.90062181,0.23610224,-0.49966604,-0.65029934,0.44628319,0.55091795
5.76000000,-0.15919717,0.67754910,-0.40587946,-0.08893068,0.79107113,0.25082033,-0.12606958,-0.23167748,-0.90062181,0.23610224,-0.49966604,-0.65029934,0.44628319,0.55091795
5.78000000,-0.15919717,0.67754910,-0.40587946,-0.08893068,0.79107113,0.25082033,-0.12606958,-0.23167748,-0.90062181,0.23610224,-0.49966604,-0.65029934,0.44628319,0.55091795
5.80000000,-0.15919717,0.67754910,-0.40587946,-0.08893068,0.79107113,0.25082033,-0.12606958,-0.23167748,-0.90062181,0.23610224,-0.49966604,-0.65029934,0.44628319,0.55091795
5.82000000,-0.15919717,0.67754910,-0.40587946,-0.08893068,0.79107113,0.25082033,-0.12606958,-0.23167748,-0.90062181,0.23610224,-0.49966604,-0.65029934,0.44628319,0.55091795
5.84000000,-0.15919717,0.67754910,-0.40587946,-0.08893068,0.79107113,0.25082033,-0.12606958,-0.23167748,-0.90062181,0.23610224,-0.49966604,-0.65029934,0.44628319,0.55091795
5.86000000,-0.15919717,0.67754910,-0.40587946,-0.08893068,0.79107113,0.25082033,-0.12606958,-0.23167748,-0.90062181,0.23610224,-0.49966604,-0.65029934,0.44628319,0.55091795
5.88000000,-0.15919717,0.67754910,-0.40587946,-0.08893068,0.79107113,0.25082033,-0.12606958,-0.23167748,-0.90062181,0.23610224,-0.49966604,-0.65029934,0.44628319,0.55091795
5.90000000,-0.15919717,0.67754910,-0.40587946,-0.08893068,0.79107113,0.25082033,-0.12606958,-0.23167748,-0.90062181,0.23610224,-0.49966604,-0.65029934,0.44628319,0.55091795
5.92000000,-0.15919717,0.67754910,-0.40587946,-0.08893068,0.79107113,0.25082033,-0.12606958,-0.23167748,-0.90062181,0.23610224,-0.49966604,-0.65029934,0.44628319,0.55091795
5.94000000,-0.15919717,0.67754910,-0.40587946,-0.08893068,0.79107113,0.25082033,-0.12606958,-0.23167748,-0.90062181,0.23610224,-0.49966604,-0.65029934,0.44628319,0.55091795
5.96000000,-0.15919717,0.67754910,-0.40587946,-0.08893068,0.79107113,0.25082033,-0.12606958,-0.23167748,-0.90062181,0.23610224,-0.49966604,-0.65029934,0.44628319,0.55091795
5.98000000,-0.15919717,0.67754910,-0.40587946,-0.08893068,0.79107113,0.25082033,-0.12606958,-0.23167748,-0.90062181,0.23610224,-0.49966604,-0.65029934,0.44628319,0.55091795
6.00000000,-0.15919717,0.67754910,-0.40587946,-0.08893068,0.79107113,0.25082033,-0.12606958,-0.23167748,-0.90062181,0.23610224,-0.49966604,-0.65029934,0.44628319,0.55091795
6.02000000,-0.15919717,0.67754910,-0.40587946,-0.08893068,0.79107113,0.25082033,-0.12606958,-0.23167748,-0.90062181,0.23610224,-0.49966604,-0.65029934,0.44628319,0.55091795
6.04000000,-0.15919717,0.67754910,-0.40587946,-0.08893068,0.79107113,0.25082033,-0.12606958,-0.23167748,-0.90062181,0.23610224,-0.49966604,-0.65029934,0.44628319,0.55091795
6.06000000,-0.15919717,0.67754910,-0.40587946,-0.08893068,0.79107113,0.25082033,-0.12606958,-0.23167748,-0.90062181,0.23610224,-0.49966604,-0.65029934,0.44628319,0.55091795
6.08000000,-0.15919717,0.67754910,-0.40587946,-0.08893068,0.79107113,0.25082033,-0.12606958,-0.23167748,-0.90062181,0.23610224,-0.49966604,-0.65029934,0.44628319,0.55091795
6.10000000,-0.15919717,0.67754910,-0.40587946,-0.08893068,0.79107113,0.25082033,-0.12606958,-0.23167748,-0.90062181,0.23610224,-0.49966604,-0.65029934,0.44628319,0.55091795
6.12000000,-0.15919717,0.67754910,-0.40587946,-0.08893068,0.79107113,0.25082033,-0.12606958,-0.23167748,-0.90062181,0.23610224,-0.49966604,-0.65029934,0.44628319,0.55091795
6.14000000,-0.15919717,0.67754910,-0.40587946,-0.08893068,0.79107113,0.25082033,-0.12606958,-0.23167748,-0.90062181,0.23610224,-0.49966604,-0.65029934,0.44628319,0.55091795
6.16000000,-0.15919717,0.67754910,-0.40587946,-0.08893068,0.79107113,0.25082033,-0.12606958,-0.23167748,-0.90062181,0.23610224,-0.49966604,-0.65029934,0.44628319,0.55091795
6.18000000,-0.15919717,0.67754910,-0.40587946,-0.08893068,0.79107113,0.25082033,-0.12606958,-0.23167748,-0.90062181,0.23610224,-0.49966604,-0.65029934,0.44628319,0.55091795
6.20000000,-0.15919717,0.67754910,-0.40587946,-0.08893068,0.79107113,0.25082033,-0.12606958,-0.23167748,-0.90062181,0.23610224,-0.49966604,-0.65029934,0.44628319,0.55091795
6.22000000,-0.15919717,0.67754910,-0.40587946,-0.08893068,0.79107113,0.25082033,-0.12606958,-0.23167748,-0.90062181,0.23610224,-0.49966604,-0.65029934,0.44628319,0.55091795
6.24000000,-0.15919717,0.67754910,-0.40587946,-0.08893068,0.79107113,0.25082033,-0.12606958,-0.23167748,-0.90062181,0.23610224,-0.49966604,-0.65029934,0.44628319,0.55091795
6.26000000,-0.15919717,0.67754910,-0.40587946,-0.08893068,0.79107113,0.25082033,-0.12606958,-0.23167748,-0.90062181,0.23610224,-0.49966604,-0.65029934,0.44628319,0.55091795
6.28000000,-0.15919717,0.67754910,-0.40587946,-0.08893068,0.79107113,0.25082033,-0.12606958,-0.23167748,-0.90062181,0.23610224,-0.49966604,-0.65029934,0.44628319,0.55091795
6.30000000,-0.15919717,0.67754910,-0.40587946,-0.08893068,0.79107113,0.25082033,-0.12606958,-0.23167748,-0.90062181,0.23610224,-0.49966604,-0.65029934,0.44628319,0.55091795
6.32000000,-0.15919717,0.67754910,-0.40587946,-0.08893068,0.79107113,0.25082033,-0.12606958,-0.23167748,-0.90062181,0.23610224,-0.49966604,-0.65029934,0.44628319,0.55091795
6.34000000,-0.15919717,0.67754910,-0.40587946,-0.08893068,0.79107113,0.25082033,-0.12606958,-0.23167748,-0.90062181,0.23610224,-0.49966604,-0.65029934,0.44628319,0.55091795
6.36000000,-0.15919717,0.67754910,-0.40587946,-0.08893068,0.79107113,0.25082033,-0.12606958,-0.23167748,-0.90062181,0.23610224,-0.49966604,-0.65029934,0.44628319,0.55091795
6.38000000,-0.15919717,0.67754910,-0.40587946,-0.08893068,0.79107113,0.25082033,-0.12606958,-0.23167748,-0.90062181,0.23610224,-0.49966604,-0.65029934,0.44628319,0.55091795
6.40000000,-0.15919717,0.67754910,-0.40587946,-0.08893068,0.79107113,0.25082033,-0.12606958,-0.23167748,-0.90062181,0.23610224,-0.49966604,-0.65029934,0.44628319,0.55091795
6.42000000,-0.15919717,0.67754910,-0.40587946,-0.08893068,0.79107113,0.25082033,-0.12606958,-0.23167748,-0.90062181,0.23610224,-0.49966604,-0.65029934,0.44628319,0.55091795
6.44000000,-0.15919717,0.67754910,-0.40587946,-0.08893068,0.79107113,0.25082033,-0.12606958,-0.23167748,-0.90062181,0.23610224,-0.49966604,-0.65029934,0.44628319,0.55091795
6.46000000,-0.15919717,0.67754910,-0.40587946,-0.08893068,0.79107113,0.25082033,-0.12606958,-0.23167748,-0.90062181,0.23610224,-0.49966604,-0.65029934,0.44628319,0.55091795
6.48000000,-0.15919717,0.67754910,-0.40587946,-0.08893068,0.79107113,0.25082033,-0.12606958,-0.23167748,-0.90062181,0.23610224,-0.49966604,-0.65029934,0.44628319,0.55091795
6.50000000,-0.15919717,0.67754910,-0.40587946,-0.08893068,0.79107113,0.25082033,-0.12606958,-0.23167748,-0.90062181,0.23610224,-0.49966604,-0.65029934,0.44628319,0.55091795
6.52000000,-0.15919717,0.67754910,-0.40587946,-0.08893068,0.79107113,0.25082033,-0.12606958,-0.23167748,-0.90062181,0.23610224,-0.49966604,-0.65029934,0.44628319,0.55091795
6.54000000,-0.15919717,0.67754910,-0.40587946,-0.08893068,0.79107113,0.25082033,-0.12606958,-0.23167748,-0.90062181,0.23610224,-0.49966604,-0.65029934,0.44628319,0.55091795
6.56000000,-0.15919717,0.67754910,-0.40587946,-0.08893068,0.79107113,0.25082033,-0.12606958,-0.23167748,-0.90062181,0.23610224,-0.49966604,-0.65029934,0.44628319,0.55091795
6.58000000,-0.15919717,0.67754910,-0.40587946,-0.08893068,0.79107113,0.25082033,-0.12606958,-0.23167748,-0.90062181,0.23610224,-0.49966604,-0.65029934,0.44628319,0.55091795
6.60000000,-0.15919717,0.67754910,-0.40587946,-0.08893068,0.79107113,0.25082033,-0.12606958,-0.23167748,-0.90062181,0.23610224,-0.49966604,-0.65029934,0.44628319,0.55091795
6.62000000,-0.15919717,0.67754910,-0.40587946,-0.08893068,0.79107113,0.25082033,-0.12606958,-0.23167748,-0.90062181,0.23610224,-0.49966604,-0.65029934,0.44628319,0.55091795
6.64000000,-0.15919717,0.67754910,-0.40587946,-0.08893068,0.79107113,0.25082033,-0.12606958,-0.23167748,-0.90062181,0.23610224,-0.49966604,-0.65029934,0.44628319,0.55091795
6.66000000,-0.15919717,0.67754910,-0.40587946,-0.08893068,0.79107113,0.25082033,-0.12606958,-0.23167748,-0.90062181,0.23610224,-0.49966604,-0.65029934,0.44628319,0.55091795
6.68000000,-0.15919717,0.67754910,-0.40587946,-0.08893068,0.79107113,0.25082033,-0.12606958,-0.23167748,-0.90062181,0.23610224,-0.49966604,-0.65029934,0.44628319,0.55091795
6.70000000,-0.15919717,0.67754910,-0.40587946,-0.08893068,0.79107113,0.25082033,-0.12606958,-0.23167748,-0.90062181,0.23610224,-0.49966604,-0.65029934,0.44628319,0.55091795
6.72000000,-0.15919717,0.67754910,-0.40587946,-0.08893068,0.79107113,0.25082033,-0.12606958,-0.23167748,-0.90062181,0.23610224,-0.49966604,-0.65029934,0.44628319,0.55091795
6.74000000,-0.15919717,0.67754910,-0.40587946,-0.08893068,0.79107113,0.25082033,-0.12606958,-0.23167748,-0.90062181,0.23610224,-0.49966604,-0.65029934,0.44628319,0.55091795
6.76000000,-0.15919717,0.67754910,-0.40587946,-0.08893068,0.79107113,0.25082033,-0.12606958,-0.23167748,-0.90062181,0.23610224,-0.49966604,-0.65029934,0.44628319,0.55091795
6.78000000,-0.15919717,0.67754910,-0.40587946,-0.08893068,0.79107113,0.25082033,-0.12606958,-0.23167748,-0.90062181,0.23610224,-0.49966604,-0.65029934,0.44628319,0.55091795
6.80000000,-0.15919717,0.67754910,-0.40587946,-0.08893068,0.79107113,0.25082033,-0.12606958,-0.23167748,-0.90062181,0.23610224,-0.49966604,-0.65029934,0.44628319,0.55091795
6.82000000,-0.15919717,0.67754910,-0.40587946,-0.08893068,0.79107113,0.25082033,-0.12606958,-0.23167748,-0.90062181,0.23610224,-0.49966604,-0.65029934,0.44628319,0.55091795
6.84000000,-0.15919717,0.67754910,-0.40587946,-0.08893068,0.79107113,0.25082033,-0.12606958,-0.23167748,-0.90062181,0.23610224,-0.49966604,-0.65029934,0.44628319,0.55091795
6.86000000,-0.15919717,0.67754910,-0.40587946,-0.08893068,0.79107113,0.25082033,-0.12606958,-0.23167748,-0.90062181,0.23610224,-0.49966604,-0.65029934,0.44628319,0.55091795
6.88000000,-0.15919717,0.67754910,-0.40587946,-0.08893068,0.79107113,0.25082033,-0.12606958,-0.23167748,-0.90062181,0.23610224,-0.49966604,-0.65029934,0.44628319,0.55091795
6.90000000,-0.15919717,0.67754910,-0.40587946,-0.08893068,0.79107113,0.25082033,-0.12606958,-0.23167748,-0.90062181,0.23610224,-0.49966604,-0.65029934,0.44628319,0.55091795
6.92000000,-0.15919717,0.67754910,-0.40587946,-0.08893068,0.79107113,0.25082033,-0.12606958,-0.23167748,-0.90062181,0.23610224,-0.49966604,-0.65029934,0.44628319,0.55091795
6.94000000,-0.15919717,0.67754910,-0.40587946,-0.08893068,0.79107113,0.25082033,-0.12606958,-0.23167748,-0.90062181,0.23610224,-0.49966604,-0.65029934,0.44628319,0.55091795
6.96000000,-0.15919717,0.67754910,-0.40587946,-0.08893068,0.79107113,0.25082033,-0.12606958,-0.23167748,-0.90062181,0.23610224,-0.49966604,-0.65029934,0.44628319,0.55091795
6.98000000,-0.15919717,0.67754910,-0.40587946,-0.08893068,0.79107113,0.25082033,-0.12606958,-0.23167748,-0.90062181,0.23610224,-0.49966604,-0.65029934,0.44628319,0.55091795
7.00000000,-0.15919717,0.67754910,-0.40587946,-0.08893068,0.79107113,0.25082033,-0.12606958,-0.23167748,-0.90062181,0.23610224,-0.49966604,-0.65029934,0.44628319,0.55091795
7.02000000,-0.15919717,0.67754910,-0.40587946,-0.08893068,0.79107113,0.25082033,-0.12606958,-0.23167748,-0.90062181,0.23610224,-0.49966604,-0.65029934,0.44628319,0.55091795
7.04000000,-0.15919717,0.67754910,-0.40587946,-0.08893068,0.79107113,0.25082033,-0.12606958,-0.23167748,-0.90062181,0.23610224,-0.49966604,-0.65029934,0.44628319,0.55091795
7.06000000,-0.15919717,0.67754910,-0.40587946,-0.08893068,0.79107113,0.25082033,-0.12606958,-0.23167748,-0.90062181,0.23610224,-0.49966604,-0.65029934,0.44628319,0.55091795
7.08000000,-0.15919717,0.67754910,-0.40587946,-0.08893068,0.79107113,0.25082033,-0.12606958,-0.23167748,-0.90062181,0.23610224,-0.49966604,-0.65029934,0.44628319,0.55091795
7.10000000,-0.15919717,0.67754910,-0.40587946,-0.08893068,0.79107113,0.25082033,-0.12606958,-0.23167748,-0.90062181,0.23610224,-0.49966604,-0.65029934,0.44628319,0.55091795
7.12000000,-0.15919717,0.67754910,-0.40587946,-0.08893068,0.79107113,0.25082033,-0.12606958,-0.23167748,-0.90062181,0.23610224,-0.49966604,-0.65029934,0.44628319,0.55091795
7.14000000,-0.15919717,0.67754910,-0.40587946,-0.08893068,0.79107113,0.25082033,-0.12606958,-0.23167748,-0.90062181,0.23610224,-0.49966604,-0.65029934,0.44628319,0.55091795
7.16000000,-0.15919717,0.67754910,-0.40587946,-0.08893068,0.79107113,0.25082033,-0.12606958,-0.23167748,-0.90062181,0.23610224,-0.49966604,-0.65029934,0.44628319,0.55091795
7.18000000,-0.15919717,0.67754910,-0.40587946,-0.08893068,0.79107113,0.25082033,-0.12606958,-0.23167748,-0.90062181,0.23610224,-0.49966604,-0.65029934,0.44628319,0.55091795
7.20000000,-0.15919717,0.67754910,-0.40587946,-0.08893068,0.79107113,0.25082033,-0.12606958,-0.23167748,-0.90062181,0.23610224,-0.49966604,-0.65029934,0.44628319,0.55091795
7.22000000,-0.15919717,0.67754910,-0.40587946,-0.08893068,0.79107113,0.25082033,-0.12606958,-0.23167748,-0.90062181,0.23610224,-0.49966604,-0.65029934,0.44628319,0.55091795
7.24000000,-0.15919717,0.67754910,-0.40587946,-0.08893068,0.79107113,0.25082033,-0.12606958,-0.23167748,-0.90062181,0.23610224,-0.49966604,-0.65029934,0.44628319,0.55091795
7.26000000,-0.15919717,0.67754910,-0.40587946,-0.08893068,0.79107113,0.25082033,-0.12606958,-0.23167748,-0.90062181,0.23610224,-0.49966604,-0.65029934,0.44628319,0.55091795
7.28000000,-0.15919717,0.67754910,-0.40587946,-0.08893068,0.79107113,0.25082033,-0.12606958,-0.23167748,-0.90062181,0.23610224,-0.49966604,-0.65029934,0.44628319,0.55091795
7.30000000,-0.15919717,0.67754910,-0.40587946,-0.08893068,0.79107113,0.25082033,-0.12606958,-0.23167748,-0.90062181,0.23610224,-0.49966604,-0.65029934,0.44628319,0.55091795
7.32000000,-0.15919717,0.67754910,-0.40587946,-0.08893068,0.79107113,0.25082033,-0.12606958,-0.23167748,-0.90062181,0.23610224,-0.49966604,-0.65029934,0.44628319,0.55091795
7.34000000,-0.15919717,0.67754910,-0.40587946,-0.08893068,0.79107113,0.25082033,-0.12606958,-0.23167748,-0.90062181,0.23610224,-0.49966604,-0.65029934,0.44628319,0.55091795
7.36000000,-0.15919717,0.67754910,-0.40587946,-0.08893068,0.79107113,0.25082033,-0.12606958,-0.23167748,-0.90062181,0.23610224,-0.49966604,-0.65029934,0.44628319,0.55091795
7.38000000,-0.15919717,0.67754910,-0.40587946,-0.08893068,0.79107113,0.25082033,-0.12606958,-0.23167748,-0.90062181,0.23610224,-0.49966604,-0.65029934,0.44628319,0.55091795
7.40000000,-0.15919717,0.67754910,-0.40587946,-0.08893068,0.79107113,0.25082033,-0.12606958,-0.23167748,-0.90062181,0.23610224,-0.49966604,-0.65029934,0.44628319,0.55091795
7.42000000,-0.15919717,0.67754910,-0.40587946,-0.08893068,0.79107113,0.25082033,-0.12606958,-0.23167748,-0.90062181,0.23610224,-0.49966604,-0.65029934,0.44628319,0.55091795
7.44000000,-0.15919717,0.67754910,-0.40587946,-0.08893068,0.79107113,0.25082033,-0.12606958,-0.23167748,-0.90062181,0.23610224,-0.49966604,-0.65029934,0.44628319,0.55091795
7.46000000,-0.15919717,0.67754910,-0.40587946,-0.08893068,0.79107113,0.25082033,-0.12606958,-0.23167748,-0.90062181,0.23610224,-0.49966604,-0.65029934,0.44628319,0.55091795
7.48000000,-0.15919717,0.67754910,-0.40587946,-0.08893068,0.79107113,0.25082033,-0.12606958,-0.23167748,-0.90062181,0.23610224,-0.49966604,-0.65029934,0.44628319,0.55091795
7.50000000,-0.15919717,0.67754910,-0.40587946,-0.08893068,0.79107113,0.25082033,-0.12606958,-0.23167748,-0.90062181,0.23610224,-0.49966604,-0.65029934,0.44628319,0.55091795
7.52000000,-0.15919717,0.67754910,-0.40587946,-0.08893068,0.79107113,0.25082033,-0.12606958,-0.23167748,-0.90062181,0.23610224,-0.49966604,-0.65029934,0.44628319,0.55091795
7.54000000,-0.15919717,0.67754910,-0.40587946,-0.08893068,0.79107113,0.25082033,-0.12606958,-0.23167748,-0.90062181,0.23610224,-0.49966604,-0.65029934,0.44628319,0.55091795
7.56000000,-0.15919717,0.67754910,-0.40587946,-0.08893068,0.79107113,0.25082033,-0.12606958,-0.23167748,-0.90062181,0.23610224,-0.49966604,-0.65029934,0.44628319,0.55091795
7.58000000,-0.15919717,0.67754910,-0.40587946,-0.08893068,0.79107113,0.25082033,-0.12606958,-0.23167748,-0.90062181,0.23610224,-0.49966604,-0.65029934,0.44628319,0.55091795
7.60000000,-0.15919717,0.67754910,-0.40587946,-0.08893068,0.79107113,0.25082033,-0.12606958,-0.23167748,-0.90062181,0.23610224,-0.49966604,-0.65029934,0.44628319,0.55091795
7.62000000,-0.15919717,0.67754910,-0.40587946,-0.08893068,0.79107113,0.25082033,-0.12606958,-0.23167748,-0.90062181,0.23610224,-0.49966604,-0.65029934,0.44628319,0.55091795
7.64000000,-0.15919717,0.67754910,-0.40587946,-0.08893068,0.79107113,0.25082033,-0.12606958,-0.23167748,-0.90062181,0.23610224,-0.49966604,-0.65029934,0.44628319,0.55091795
7.66000000,-0.15919717,0.67754910,-0.40587946,-0.08893068,0.79107113,0.25082033,-0.12606958,-0.23167748,-0.90062181,0.23610224,-0.49966604,-0.65029934,0.44628319,0.55091795
7.68000000,-0.15919717,0.67754910,-0.40587946,-0.08893068,0.79107113,0.25082033,-0.12606958,-0.23167748,-0.90062181,0.23610224,-0.49966604,-0.65029934,0.44628319,0.55091795
7.70000000,-0.15919717,0.67754910,-0.40587946,-0.08893068,0.79107113,0.25082033,-0.12606958,-0.23167748,-0.90062181,0.23610224,-0.49966604,-0.65029934,0.44628319,0.55091795
7.72000000,-0.15919717,0.67754910,-0.40587946,-0.08893068,0.79107113,0.25082033,-0.12606958,-0.23167748,-0.90062181,0.23610224,-0.49966604,-0.65029934,0.44628319,0.55091795
7.74000000,-0.15919717,0.67754910,-0.40587946,-0.08893068,0.79107113,0.25082033,-0.12606958,-0.23167748,-0.90062181,0.23610224,-0.49966604,-0.65029934,0.44628319,0.55091795
7.76000000,-0.15919717,0.67754910,-0.40587946,-0.08893068,0.79107113,0.25082033,-0.12606958,-0.23167748,-0.90062181,0.23610224,-0.49966604,-0.65029934,0.44628319,0.55091795
7.78000000,-0.15919717,0.67754910,-0.40587946,-0.08893068,0.79107113,0.25082033,-0.12606958,-0.23167748,-0.90062181,0.23610224,-0.49966604,-0.65029934,0.44628319,0.55091795
7.80000000,-0.15919717,0.67754910,-0.40587946,-0.08893068,0.79107113,0.25082033,-0.12606958,-0.23167748,-0.90062181,0.23610224,-0.49966604,-0.65029934,0.44628319,0.55091795
7.82000000,-0.15919717,0.67754910,-0.40587946,-0.08893068,0.79107113,0.25082033,-0.12606958,-0.23167748,-0.90062181,0.23610224,-0.49966604,-0.65029934,0.44628319,0.55091795
7.84000000,-0.15919717,0.67754910,-0.40587946,-0.08893068,0.79107113,0.25082033,-0.12606958,-0.23167748,-0.90062181,0.23610224,-0.49966604,-0.65029934,0.44628319,0.55091795
7.86000000,-0.15919717,0.67754910,-0.40587946,-0.08893068,0.79107113,0.25082033,-0.12606958,-0.23167748,-0.90062181,0.23610224,-0.49966604,-0.65029934,0.44628319,0.55091795
7.88000000,-0.15919717,0.67754910,-0.40587946,-0.08893068,0.79107113,0.25082033,-0.12606958,-0.23167748,-0.90062181,0.23610224,-0.49966604,-0.65029934,0.44628319,0.55091795
7.90000000,-0.15919717,0.67754910,-0.40587946,-0.08893068,0.79107113,0.25082033,-0.12606958,-0.23167748,-0.90062181,0.23610224,-0.49966604,-0.65029934,0.44628319,0.55091795
7.92000000,-0.15919717,0.67754910,-0.40587946,-0.08893068,0.79107113,0.25082033,-0.12606958,-0.23167748,-0.90062181,0.23610224,-0.49966604,-0.65029934,0.44628319,0.55091795
7.94000000,-0.15919717,0.67754910,-0.40587946,-0.08893068,0.79107113,0.25082033,-0.12606958,-0.23167748,-0.90062181,0.23610224,-0.49966604,-0.65029934,0.44628319,0.55091795
7.96000000,-0.15919717,0.67754910,-0.40587946,-0.08893068,0.79107113,0.25082033,-0.12606958,-0.23167748,-0.90062181,0.23610224,-0.49966604,-0.65029934,0.44628319,0.55091795
7.98000000,-0.15919717,0.67754910,-0.40587946,-0.08893068,0.79107113,0.25082033,-0.12606958,-0.23167748,-0.90062181,0.23610224,-0.49966604,-0.65029934,0.44628319,0.55091795
8.00000000,-0.15919717,0.67754910,-0.40587946,-0.08893068,0.79107113,0.25082033,-0.12606958,-0.23167748,-0.90062181,0.23610224,-0.49966604,-0.65029934,0.44628319,0.55091795
8.02000000,-0.15919717,0.67754910,-0.40587946,-0.08893068,0.79107113,0.25082033,-0.12606958,-0.23167748,-0.90062181,0.23610224,-0.49966604,-0.65029934,0.44628319,0.55091795
8.04000000,-0.15919717,0.67754910,-0.40587946,-0.08893068,0.79107113,0.25082033,-0.12606958,-0.23167748,-0.90062181,0.23610224,-0.49966604,-0.65029934,0.44628319,0.55091795
8.06000000,-0.15919717,0.67754910,-0.40587946,-0.08893068,0.79107113,0.25082033,-0.12606958,-0.23167748,-0.90062181,0.23610224,-0.49966604,-0.65029934,0.44628319,0.55091795
8.08000000,-0.15919717,0.67754910,-0.40587946,-0.08893068,0.79107113,0.25082033,-0.12606958,-0.23167748,-0.90062181,0.23610224,-0.49966604,-0.65029934,0.44628319,0.55091795
8.10000000,-0.15919717,0.67754910,-0.40587946,-0.08893068,0.79107113,0.25082033,-0.12606958,-0.23167748,-0.90062181,0.23610224,-0.49966604,-0.65029934,0.44628319,0.55091795
8.12000000,-0.15919717,0.67754910,-0.40587946,-0.08893068,0.79107113,0.25082033,-0.12606958,-0.23167748,-0.90062181,0.23610224,-0.49966604,-0.65029934,0.44628319,0.55091795
8.14000000,-0.15919717,0.67754910,-0.40587946,-0.08893068,0.79107113,0.25082033,-0.12606958,-0.23167748,-0.90062181,0.23610224,-0.49966604,-0.65029934,0.44628319,0.55091795
8.16000000,-0.15919717,0.67754910,-0.40587946,-0.08893068,0.79107113,0.25082033,-0.12606958,-0.23167748,-0.90062181,0.23610224,-0.49966604,-0.65029934,0.44628319,0.55091795
8.18000000,-0.15919717,0.67754910,-0.40587946,-0.08893068,0.79107113,0.25082033,-0.12606958,-0.23167748,-0.90062181,0.23610224,-0.49966604,-0.65029934,0.44628319,0.55091795
8.20000000,-0.15919717,0.67754910,-0.40587946,-0.08893068,0.79107113,0.25082033,-0.12606958,-0.23167748,-0.90062181,0.23610224,-0.49966604,-0.65029934,0.44628319,0.55091795
8.22000000,-0.15919717,0.67754910,-0.40587946,-0.08893068,0.79107113,0.25082033,-0.12606958,-0.23167748,-0.90062181,0.23610224,-0.49966604,-0.65029934,0.44628319,0.55091795
8.24000000,-0.15919717,0.67754910,-0.40587946,-0.08893068,0.79107113,0.25082033,-0.12606958,-0.23167748,-0.90062181,0.23610224,-0.49966604,-0.65029934,0.44628319,0.55091795
8.26000000,-0.15919717,0.67754910,-0.40587946,-0.08893068,0.79107113,0.25082033,-0.12606958,-0.23167748,-0.90062181,0.23610224,-0.49966604,-0.65029934,0.44628319,0.55091795
8.28000000,-0.15919717,0.67754910,-0.40587946,-0.08893068,0.79107113,0.25082033,-0.12606958,-0.23167748,-0.90062181,0.23610224,-0.49966604,-0.65029934,0.44628319,0.55091795
8.30000000,-0.15919717,0.67754910,-0.40587946,-0.08893068,0.79107113,0.25082033,-0.12606958,-0.23167748,-0.90062181,0.23610224,-0.49966604,-0.65029934,0.44628319,0.55091795
8.32000000,-0.15919717,0.67754910,-0.40587946,-0.08893068,0.79107113,0.25082033,-0.12606958,-0.23167748,-0.90062181,0.23610224,-0.49966604,-0.65029934,0.44628319,0.55091795
8.34000000,-0.15919717,0.67754910,-0.40587946,-0.08893068,0.79107113,0.25082033,-0.12606958,-0.23167748,-0.90062181,0.23610224,-0.49966604,-0.65029934,0.44628319,0.55091795
8.36000000,-0.15919717,0.67754910,-0.40587946,-0.08893068,0.79107113,0.25082033,-0.12606958,-0.23167748,-0.90062181,0.23610224,-0.49966604,-0.65029934,0.44628319,0.55091795
8.38000000,-0.15919717,0.67754910,-0.40587946,-0.08893068,0.79107113,0.25082033,-0.12606958,-0.23167748,-0.90062181,0.23610224,-0.49966604,-0.65029934,0.44628319,0.55091795
8.40000000,-0.15919717,0.67754910,-0.40587946,-0.08893068,0.79107113,0.25082033,-0.12606958,-0.23167748,-0.90062181,0.23610224,-0.49966604,-0.65029934,0.44628319,0.55091795
8.42000000,-0.15919717,0.67754910,-0.40587946,-0.08893068,0.79107113,0.25082033,-0.12606958,-0.23167748,-0.90062181,0.23610224,-0.49966604,-0.65029934,0.44628319,0.55091795
8.44000000,-0.15919717,0.67754910,-0.40587946,-0.08893068,0.79107113,0.25082033,-0.12606958,-0.23167748,-0.90062181,0.23610224,-0.49966604,-0.65029934,0.44628319,0.55091795
8.46000000,-0.15919717,0.67754910,-0.40587946,-0.08893068,0.79107113,0.25082033,-0.12606958,-0.23167748,-0.90062181,0.23610224,-0.49966604,-0.65029934,0.44628319,0.55091795
8.48000000,-0.15919717,0.67754910,-0.40587946,-0.08893068,0.79107113,0.25082033,-0.12606958,-0.23167748,-0.90062181,0.23610224,-0.49966604,-0.65029934,0.44628319,0.55091795
8.50000000,-0.15919717,0.67754910,-0.40587946,-0.08893068,0.79107113,0.25082033,-0.12606958,-0.23167748,-0.90062181,0.23610224,-0.49966604,-0.65029934,0.44628319,0.55091795
8.52000000,-0.15919717,0.67754910,-0.40587946,-0.08893068,0.79107113,0.25082033,-0.12606958,-0.23167748,-0.90062181,0.23610224,-0.49966604,-0.65029934,0.44628319,0.55091795
8.54000000,-0.15919717,0.67754910,-0.40587946,-0.08893068,0.79107113,0.25082033,-0.12606958,-0.23167748,-0.90062181,0.23610224,-0.49966604,-0.65029934,0.44628319,0.55091795
8.56000000,-0.15919717,0.67754910,-0.40587946,-0.08893068,0.79107113,0.25082033,-0.12606958,-0.23167748,-0.90062181,0.23610224,-0.49966604,-0.65029934,0.44628319,0.55091795
8.58000000,-0.15919717,0.67754910,-0.40587946,-0.08893068,0.79107113,0.25082033,-0.12606958,-0.23167748,-0.90062181,0.23610224,-0.49966604,-0.65029934,0.44628319,0.55091795
8.60000000,-0.15919717,0.67754910,-0.40587946,-0.08893068,0.79107113,0.25082033,-0.12606958,-0.23167748,-0.90062181,0.23610224,-0.49966604,-0.65029934,0.44628319,0.55091795
8.62000000,-0.15919717,0.67754910,-0.40587946,-0.08893068,0.79107113,0.25082033,-0.12606958,-0.23167748,-0.90062181,0.23610224,-0.49966604,-0.65029934,0.44628319,0.55091795
8.64000000,-0.15919717,0.67754910,-0.40587946,-0.08893068,0.79107113,0.25082033,-0.12606958,-0.23167748,-0.90062181,0.23610224,-0.49966604,-0.65029934,0.44628319,0.55091795
8.66000000,-0.15919717,0.67754910,-0.40587946,-0.08893068,0.79107113,0.25082033,-0.12606958,-0.23167748,-0.90062181,0.23610224,-0.49966604,-0.65029934,0.44628319,0.55091795
8.68000000,-0.15919717,0.67754910,-0.40587946,-0.08893068,0.79107113,0.25082033,-0.12606958,-0.23167748,-0.90062181,0.23610224,-0.49966604,-0.65029934,0.44628319,0.55091795
8.70000000,-0.15919717,0.67754910,-0.40587946,-0.08893068,0.79107113,0.25082033,-0.12606958,-0.23167748,-0.90062181,0.23610224,-0.49966604,-0.65029934,0.44628319,0.55091795
8.72000000,-0.15919717,0.67754910,-0.40587946,-0.08893068,0.79107113,0.25082033,-0.12606958,-0.23167748,-0.90062181,0.23610224,-0.49966604,-0.65029934,0.44628319,0.55091795
8.74000000,-0.15919717,0.67754910,-0.40587946,-0.08893068,0.79107113,0.25082033,-0.12606958,-0.23167748,-0.90062181,0.23610224,-0.49966604,-0.65029934,0.44628319,0.55091795
8.76000000,-0.15919717,0.67754910,-0.40587946,-0.08893068,0.79107113,0.25082033,-0.12606958,-0.23167748,-0.90062181,0.23610224,-0.49966604,-0.65029934,0.44628319,0.55091795
8.78000000,-0.15919717,0.67754910,-0.40587946,-0.08893068,0.79107113,0.25082033,-0.12606958,-0.23167748,-0.90062181,0.23610224,-0.49966604,-0.65029934,0.44628319,0.55091795
8.80000000,-0.15919717,0.67754910,-0.40587946,-0.08893068,0.79107113,0.25082033,-0.12606958,-0.23167748,-0.90062181,0.23610224,-0.49966604,-0.65029934,0.44628319,0.55091795
8.82000000,-0.15919717,0.67754910,-0.40587946,-0.08893068,0.79107113,0.25082033,-0.12606958,-0.23167748,-0.90062181,0.23610224,-0.49966604,-0.65029934,0.44628319,0.55091795
8.84000000,-0.15919717,0.67754910,-0.40587946,-0.08893068,0.79107113,0.25082033,-0.12606958,-0.23167748,-0.90062181,0.23610224,-0.49966604,-0.65029934,0.44628319,0.55091795
8.86000000,-0.15919717,0.67754910,-0.40587946,-0.08893068,0.79107113,0.25082033,-0.12606958,-0.23167748,-0.90062181,0.23610224,-0.49966604,-0.65029934,0.44628319,0.55091795
8.88000000,-0.15919717,0.67754910,-0.40587946,-0.08893068,0.79107113,0.25082033,-0.12606958,-0.23167748,-0.90062181,0.23610224,-0.49966604,-0.65029934,0.44628319,0.55091795
8.90000000,-0.15919717,0.67754910,-0.40587946,-0.08893068,0.79107113,0.25082033,-0.12606958,-0.23167748,-0.90062181,0.23610224,-0.49966604,-0.65029934,0.44628319,0.55091795
8.92000000,-0.15919717,0.67754910,-0.40587946,-0.08893068,0.79107113,0.25082033,-0.12606958,-0.23167748,-0.90062181,0.23610224,-0.49966604,-0.65029934,0.44628319,0.55091795
8.94000000,-0.15919717,0.67754910,-0.40587946,-0.08893068,0.79107113,0.25082033,-0.12606958,-0.23167748,-0.90062181,0.23610224,-0.49966604,-0.65029934,0.44628319,0.55091795
8.96000000,-0.15919717,0.67754910,-0.40587946,-0.08893068,0.79107113,0.25082033,-0.12606958,-0.23167748,-0.90062181,0.23610224,-0.49966604,-0.65029934,0.44628319,0.55091795
8.98000000,-0.15919717,0.67754910,-0.40587946,-0.08893068,0.79107113,0.25082033,-0.12606958,-0.23167748,-0.90062181,0.23610224,-0.49966604,-0.65029934,0.44628319,0.55091795
9.00000000,-0.15919717,0.67754910,-0.40587946,-0.08893068,0.79107113,0.25082033,-0.12606958,-0.23167748,-0.90062181,0.23610224,-0.49966604,-0.65029934,0.44628319,0.55091795
9.02000000,-0.15919717,0.67754910,-0.40587946,-0.08893068,0.79107113,0.25082033,-0.12606958,-0.23167748,-0.90062181,0.23610224,-0.49966604,-0.65029934,0.44628319,0.55091795
9.04000000,-0.15919717,0.67754910,-0.40587946,-0.08893068,0.79107113,0.25082033,-0.12606958,-0.23167748,-0.90062181,0.23610224,-0.49966604,-0.65029934,0.44628319,0.55091795
9.06000000,-0.15919717,0.67754910,-0.40587946,-0.08893068,0.79107113,0.25082033,-0.12606958,-0.23167748,-0.90062181,0.23610224,-0.49966604,-0.65029934,0.44628319,0.55091795
9.08000000,-0.15919717,0.67754910,-0.40587946,-0.08893068,0.79107113,0.25082033,-0.12606958,-0.23167748,-0.90062181,0.23610224,-0.49966604,-0.65029934,0.44628319,0.55091795
9.10000000,-0.15919717,0.67754910,-0.40587946,-0.08893068,0.79107113,0.25082033,-0.12606958,-0.23167748,-0.90062181,0.23610224,-0.49966604,-0.65029934,0.44628319,0.55091795
9.12000000,-0.15919717,0.67754910,-0.40587946,-0.08893068,0.79107113,0.25082033,-0.12606958,-0.23167748,-0.90062181,0.23610224,-0.49966604,-0.65029934,0.44628319,0.55091795
9.14000000,-0.15919717,0.67754910,-0.40587946,-0.08893068,0.79107113,0.25082033,-0.12606958,-0.23167748,-0.90062181,0.23610224,-0.49966604,-0.65029934,0.44628319,0.55091795
9.16000000,-0.15919717,0.67754910,-0.40587946,-0.08893068,0.79107113,0.25082033,-0.12606958,-0.23167748,-0.90062181,0.23610224,-0.49966604,-0.65029934,0.44628319,0.55091795
9.18000000,-0.15919717,0.67754910,-0.40587946,-0.08893068,0.79107113,0.25082033,-0.12606958,-0.23167748,-0.90062181,0.23610224,-0.49966604,-0.65029934,0.44628319,0.55091795
9.20000000,-0.15919717,0.67754910,-0.40587946,-0.08893068,0.79107113,0.25082033,-0.12606958,-0.23167748,-0.90062181,0.23610224,-0.49966604,-0.65029934,0.44628319,0.55091795
9.22000000,-0.15919717,0.67754910,-0.40587946,-0.08893068,0.79107113,0.25082033,-0.12606958,-0.23167748,-0.90062181,0.23610224,-0.49966604,-0.65029934,0.44628319,0.55091795
9.24000000,-0.15919717,0.67754910,-0.40587946,-0.08893068,0.79107113,0.25082033,-0.12606958,-0.23167748,-0.90062181,0.23610224,-0.49966604,-0.65029934,0.44628319,0.55091795
9.26000000,-0.15919717,0.67754910,-0.40587946,-0.08893068,0.79107113,0.25082033,-0.12606958,-0.23167748,-0.90062181,0.23610224,-0.49966604,-0.65029934,0.44628319,0.55091795
9.28000000,-0.15919717,0.67754910,-0.40587946,-0.08893068,0.79107113,0.25082033,-0.12606958,-0.23167748,-0.90062181,0.23610224,-0.49966604,-0.65029934,0.44628319,0.55091795
9.30000000,-0.15919717,0.67754910,-0.40587946,-0.08893068,0.79107113,0.25082033,-0.12606958,-0.23167748,-0.90062181,0.23610224,-0.49966604,-0.65029934,0.44628319,0.55091795
9.32000000,-0.15919717,0.67754910,-0.40587946,-0.08893068,0.79107113,0.25082033,-0.12606958,-0.23167748,-0.90062181,0.23610224,-0.49966604,-0.65029934,0.44628319,0.55091795
9.34000000,-0.15919717,0.67754910,-0.40587946,-0.08893068,0.79107113,0.25082033,-0.12606958,-0.23167748,-0.90062181,0.23610224,-0.49966604,-0.65029934,0.44628319,0.55091795
9.36000000,-0.15919717,0.67754910,-0.40587946,-0.08893068,0.79107113,0.25082033,-0.12606958,-0.23167748,-0.90062181,0.23610224,-0.49966604,-0.65029934,0.44628319,0.55091795
9.38000000,-0.15919717,0.67754910,-0.40587946,-0.08893068,0.79107113,0.25082033,-0.12606958,-0.23167748,-0.90062181,0.23610224,-0.49966604,-0.65029934,0.44628319,0.55091795
9.40000000,-0.15919717,0.67754910,-0.40587946,-0.08893068,0.79107113,0.25082033,-0.12606958,-0.23167748,-0.90062181,0.23610224,-0.49966604,-0.65029934,0.44628319,0.55091795
9.42000000,-0.15919717,0.67754910,-0.40587946,-0.08893068,0.79107113,0.25082033,-0.12606958,-0.23167748,-0.90062181,0.23610224,-0.49966604,-0.65029934,0.44628319,0.55091795
9.44000000,-0.15919717,0.67754910,-0.40587946,-0.08893068,0.79107113,0.25082033,-0.12606958,-0.23167748,-0.90062181,0.23610224,-0.49966604,-0.65029934,0.44628319,0.55091795
9.46000000,-0.15919717,0.67754910,-0.40587946,-0.08893068,0.79107113,0.25082033,-0.12606958,-0.23167748,-0.90062181,0.23610224,-0.49966604,-0.65029934,0.44628319,0.55091795
9.48000000,-0.15919717,0.67754910,-0.40587946,-0.08893068,0.79107113,0.25082033,-0.12606958,-0.23167748,-0.90062181,0.23610224,-0.49966604,-0.65029934,0.44628319,0.55091795
9.50000000,-0.15919717,0.67754910,-0.40587946,-0.08893068,0.79107113,0.25082033,-0.12606958,-0.23167748,-0.90062181,0.23610224,-0.49966604,-0.65029934,0.44628319,0.55091795
9.52000000,-0.15919717,0.67754910,-0.40587946,-0.08893068,0.79107113,0.25082033,-0.12606958,-0.23167748,-0.90062181,0.23610224,-0.49966604,-0.65029934,0.44628319,0.55091795
9.54000000,-0.15919717,0.67754910,-0.40587946,-0.08893068,0.79107113,0.25082033,-0.12606958,-0.23167748,-0.90062181,0.23610224,-0.49966604,-0.65029934,0.44628319,0.55091795
9.56000000,-0.15919717,0.67754910,-0.40587946,-0.08893068,0.79107113,0.25082033,-0.12606958,-0.23167748,-0.90062181,0.23610224,-0.49966604,-0.65029934,0.44628319,0.55091795
9.58000000,-0.15919717,0.67754910,-0.40587946,-0.08893068,0.79107113,0.25082033,-0.12606958,-0.23167748,-0.90062181,0.23610224,-0.49966604,-0.65029934,0.44628319,0.55091795
9.60000000,-0.15919717,0.67754910,-0.40587946,-0.08893068,0.79107113,0.25082033,-0.12606958,-0.23167748,-0.90062181,0.23610224,-0.49966604,-0.65029934,0.44628319,0.55091795
9.62000000,-0.15919717,0.67754910,-0.40587946,-0.08893068,0.79107113,0.25082033,-0.12606958,-0.23167748,-0.90062181,0.23610224,-0.49966604,-0.65029934,0.44628319,0.55091795
9.64000000,-0.15919717,0.67754910,-0.40587946,-0.08893068,0.79107113,0.25082033,-0.12606958,-0.23167748,-0.90062181,0.23610224,-0.49966604,-0.65029934,0.44628319,0.55091795
9.66000000,-0.15919717,0.67754910,-0.40587946,-0.08893068,0.79107113,0.25082033,-0.12606958,-0.23167748,-0.90062181,0.23610224,-0.49966604,-0.65029934,0.44628319,0.55091795
9.68000000,-0.15919717,0.67754910,-0.40587946,-0.08893068,0.79107113,0.25082033,-0.12606958,-0.23167748,-0.90062181,0.23610224,-0.49966604,-0.65029934,0.44628319,0.55091795
9.70000000,-0.15919717,0.67754910,-0.40587946,-0.08893068,0.79107113,0.25082033,-0.12606958,-0.23167748,-0.90062181,0.23610224,-0.49966604,-0.65029934,0.44628319,0.55091795
9.72000000,-0.15919717,0.67754910,-0.40587946,-0.08893068,0.79107113,0.25082033,-0.12606958,-0.23167748,-0.90062181,0.23610224,-0.49966604,-0.65029934,0.44628319,0.55091795
9.74000000,-0.15919717,0.67754910,-0.40587946,-0.08893068,0.79107113,0.25082033,-0.12606958,-0.23167748,-0.90062181,0.23610224,-0.49966604,-0.65029934,0.44628319,0.55091795
9.76000000,-0.15919717,0.67754910,-0.40587946,-0.08893068,0.79107113,0.25082033,-0.12606958,-0.23167748,-0.90062181,0.23610224,-0.49966604,-0.65029934,0.44628319,0.55091795
9.78000000,-0.15919717,0.67754910,-0.40587946,-0.08893068,0.79107113,0.25082033,-0.12606958,-0.23167748,-0.90062181,0.23610224,-0.49966604,-0.65029934,0.44628319,0.55091795
9.80000000,-0.15919717,0.67754910,-0.40587946,-0.08893068,0.79107113,0.25082033,-0.12606958,-0.23167748,-0.90062181,0.23610224,-0.49966604,-0.65029934,0.44628319,0.55091795
9.82000000,-0.15919717,0.67754910,-0.40587946,-0.08893068,0.79107113,0.25082033,-0.12606958,-0.23167748,-0.90062181,0.23610224,-0.49966604,-0.65029934,0.44628319,0.55091795
9.84000000,-0.15919717,0.67754910,-0.40587946,-0.08893068,0.79107113,0.25082033,-0.12606958,-0.23167748,-0.90062181,0.23610224,-0.49966604,-0.65029934,0.44628319,0.55091795
9.86000000,-0.15919717,0.67754910,-0.40587946,-0.08893068,0.79107113,0.25082033,-0.12606958,-0.23167748,-0.90062181,0.23610224,-0.49966604,-0.65029934,0.44628319,0.55091795
9.88000000,-0.15919717,0.67754910,-0.40587946,-0.08893068,0.79107113,0.25082033,-0.12606958,-0.23167748,-0.90062181,0.23610224,-0.49966604,-0.65029934,0.44628319,0.55091795
9.90000000,-0.15919717,0.67754910,-0.40587946,-0.08893068,0.79107113,0.25082033,-0.12606958,-0.23167748,-0.90062181,0.23610224,-0.49966604,-0.65029934,0.44628319,0.55091795
9.92000000,-0.15919717,0.67754910,-0.40587946,-0.08893068,0.79107113,0.25082033,-0.12606958,-0.23167748,-0.90062181,0.23610224,-0.49966604,-0.65029934,0.44628319,0.55091795
9.94000000,-0.15919717,0.67754910,-0.40587946,-0.08893068,0.79107113,0.25082033,-0.12606958,-0.23167748,-0.90062181,0.23610224,-0.49966604,-0.65029934,0.44628319,0.55091795
9.96000000,-0.15919717,0.67754910,-0.40587946,-0.08893068,0.79107113,0.25082033,-0.12606958,-0.23167748,-0.90062181,0.23610224,-0.49966604,-0.65029934,0.44628319,0.55091795
9.98000000,-0.15919717,0.67754910,-0.40587946,-0.08893068,0.79107113,0.25082033,-0.12606958,-0.23167748,-0.90062181,0.23610224,-0.49966604,-0.65029934,0.44628319,0.55091795
10.00000000,-0.15919717,0.67754910,-0.40587946,-0.08893068,0.79107113,0.25082033,-0.12606958,-0.23167748,-0.90062181,0.23610224,-0.49966604,-0.65029934,0.44628319,0.55091795
10.02000000,-0.15919717,0.67754910,-0.40587946,-0.08893068,0.79107113,0.25082033,-0.12606958,-0.23167748,-0.90062181,0.23610224,-0.49966604,-0.65029934,0.44628319,0.55091795
10.04000000,-0.15919717,0.67754910,-0.40587946,-0.08893068,0.79107113,0.25082033,-0.12606958,-0.23167748,-0.90062181,0.23610224,-0.49966604,-0.65029934,0.44628319,0.55091795
10.06000000,-0.15919717,0.67754910,-0.40587946,-0.08893068,0.79107113,0.25082033,-0.12606958,-0.23167748,-0.90062181,0.23610224,-0.49966604,-0.65029934,0.44628319,0.55091795
10.08000000,-0.15919717,0.67754910,-0.40587946,-0.08893068,0.79107113,0.25082033,-0.12606958,-0.23167748,-0.90062181,0.23610224,-0.49966604,-0.65029934,0.44628319,0.55091795
10.10000000,-0.15919717,0.67754910,-0.40587946,-0.08893068,0.79107113,0.25082033,-0.12606958,-0.23167748,-0.90062181,0.23610224,-0.49966604,-0.65029934,0.44628319,0.55091795
10.12000000,-0.15919717,0.67754910,-0.40587946,-0.08893068,0.79107113,0.25082033,-0.12606958,-0.23167748,-0.90062181,0.23610224,-0.49966604,-0.65029934,0.44628319,0.55091795
10.14000000,-0.15919717,0.67754910,-0.40587946,-0.08893068,0.79107113,0.25082033,-0.12606958,-0.23167748,-0.90062181,0.23610224,-0.49966604,-0.65029934,0.44628319,0.55091795
10.16000000,-0.15919717,0.67754910,-0.40587946,-0.08893068,0.79107113,0.25082033,-0.12606958,-0.23167748,-0.90062181,0.23610224,-0.49966604,-0.65029934,0.44628319,0.55091795
10.18000000,-0.15919717,0.67754910,-0.40587946,-0.08893068,0.79107113,0.25082033,-0.12606958,-0.23167748,-0.90062181,0.23610224,-0.49966604,-0.65029934,0.44628319,0.55091795
10.20000000,-0.15919717,0.67754910,-0.40587946,-0.08893068,0.79107113,0.25082033,-0.12606958,-0.23167748,-0.90062181,0.23610224,-0.49966604,-0.65029934,0.44628319,0.55091795
10.22000000,-0.15919717,0.67754910,-0.40587946,-0.08893068,0.79107113,0.25082033,-0.12606958,-0.23167748,-0.90062181,0.23610224,-0.49966604,-0.65029934,0.44628319,0.55091795
10.24000000,-0.15919717,0.67754910,-0.40587946,-0.08893068,0.79107113,0.25082033,-0.12606958,-0.23167748,-0.90062181,0.23610224,-0.49966604,-0.65029934,0.44628319,0.55091795
10.26000000,-0.15919717,0.67754910,-0.40587946,-0.08893068,0.79107113,0.25082033,-0.12606958,-0.23167748,-0.90062181,0.23610224,-0.49966604,-0.65029934,0.44628319,0.55091795
10.28000000,-0.15919717,0.67754910,-0.40587946,-0.08893068,0.79107113,0.25082033,-0.12606958,-0.23167748,-0.90062181,0.23610224,-0.49966604,-0.65029934,0.44628319,0.55091795
10.30000000,-0.15919717,0.67754910,-0.40587946,-0.08893068,0.79107113,0.25082033,-0.12606958,-0.23167748,-0.90062181,0.23610224,-0.49966604,-0.65029934,0.44628319,0.55091795
10.32000000,-0.15919717,0.67754910,-0.40587946,-0.08893068,0.79107113,0.25082033,-0.12606958,-0.23167748,-0.90062181,0.23610224,-0.49966604,-0.65029934,0.44628319,0.55091795
10.34000000,-0.15919717,0.67754910,-0.40587946,-0.08893068,0.79107113,0.25082033,-0.12606958,-0.23167748,-0.90062181,0.23610224,-0.49966604,-0.65029934,0.44628319,0.55091795
10.36000000,-0.15919717,0.67754910,-0.40587946,-0.08893068,0.79107113,0.25082033,-0.12606958,-0.23167748,-0.90062181,0.23610224,-0.49966604,-0.65029934,0.44628319,0.55091795
10.38000000,-0.15919717,0.67754910,-0.40587946,-0.08893068,0.79107113,0.25082033,-0.12606958,-0.23167748,-0.90062181,0.23610224,-0.49966604,-0.65029934,0.44628319,0.55091795
10.40000000,-0.15919717,0.67754910,-0.40587946,-0.08893068,0.79107113,0.25082033,-0.12606958,-0.23167748,-0.90062181,0.23610224,-0.49966604,-0.65029934,0.44628319,0.55091795
10.42000000,-0.15919717,0.67754910,-0.40587946,-0.08893068,0.79107113,0.25082033,-0.12606958,-0.23167748,-0.90062181,0.23610224,-0.49966604,-0.65029934,0.44628319,0.55091795
10.44000000,-0.15919717,0.67754910,-0.40587946,-0.08893068,0.79107113,0.25082033,-0.12606958,-0.23167748,-0.90062181,0.23610224,-0.49966604,-0.65029934,0.44628319,0.55091795
10.46000000,-0.15919717,0.67754910,-0.40587946,-0.08893068,0.79107113,0.25082033,-0.12606958,-0.23167748,-0.90062181,0.23610224,-0.49966604,-0.65029934,0.44628319,0.55091795
10.48000000,-0.15919717,0.67754910,-0.40587946,-0.08893068,0.79107113,0.25082033,-0.12606958,-0.23167748,-0.90062181,0.23610224,-0.49966604,-0.65029934,0.44628319,0.55091795
10.50000000,-0.15919717,0.67754910,-0.40587946,-0.08893068,0.79107113,0.25082033,-0.12606958,-0.23167748,-0.90062181,0.23610224,-0.49966604,-0.65029934,0.44628319,0.55091795
10.52000000,-0.15919717,0.67754910,-0.40587946,-0.08893068,0.79107113,0.25082033,-0.12606958,-0.23167748,-0.90062181,0.23610224,-0.49966604,-0.65029934,0.44628319,0.55091795
10.54000000,-0.15919717,0.67754910,-0.40587946,-0.08893068,0.79107113,0.25082033,-0.12606958,-0.23167748,-0.90062181,0.23610224,-0.49966604,-0.65029934,0.44628319,0.55091795
10.56000000,-0.15919717,0.67754910,-0.40587946,-0.08893068,0.79107113,0.25082033,-0.12606958,-0.23167748,-0.90062181,0.23610224,-0.49966604,-0.65029934,0.44628319,0.55091795
10.58000000,-0.15919717,0.67754910,-0.40587946,-0.08893068,0.79107113,0.25082033,-0.12606958,-0.23167748,-0.90062181,0.23610224,-0.49966604,-0.65029934,0.44628319,0.55091795
10.60000000,-0.15919717,0.67754910,-0.40587946,-0.08893068,0.79107113,0.25082033,-0.12606958,-0.23167748,-0.90062181,0.23610224,-0.49966604,-0.65029934,0.44628319,0.55091795
10.62000000,-0.15919717,0.67754910,-0.40587946,-0.08893068,0.79107113,0.25082033,-0.12606958,-0.23167748,-0.90062181,0.23610224,-0.49966604,-0.65029934,0.44628319,0.55091795
10.64000000,-0.15919717,0.67754910,-0.40587946,-0.08893068,0.79107113,0.25082033,-0.12606958,-0.23167748,-0.90062181,0.23610224,-0.49966604,-0.65029934,0.44628319,0.55091795
10.66000000,-0.15919717,0.67754910,-0.40587946,-0.08893068,0.79107113,0.25082033,-0.12606958,-0.23167748,-0.90062181,0.23610224,-0.49966604,-0.65029934,0.44628319,0.55091795
10.68000000,-0.15919717,0.67754910,-0.40587946,-0.08893068,0.79107113,0.25082033,-0.12606958,-0.23167748,-0.90062181,0.23610224,-0.49966604,-0.65029934,0.44628319,0.55091795
10.70000000,-0.15919717,0.67754910,-0.40587946,-0.08893068,0.79107113,0.25082033,-0.12606958,-0.23167748,-0.90062181,0.23610224,-0.49966604,-0.65029934,0.44628319,0.55091795
10.72000000,-0.15919717,0.67754910,-0.40587946,-0.08893068,0.79107113,0.25082033,-0.12606958,-0.23167748,-0.90062181,0.23610224,-0.49966604,-0.65029934,0.44628319,0.55091795
10.74000000,-0.15919717,0.67754910,-0.40587946,-0.08893068,0.79107113,0.25082033,-0.12606958,-0.23167748,-0.90062181,0.23610224,-0.49966604,-0.65029934,0.44628319,0.55091795
10.76000000,-0.15919717,0.67754910,-0.40587946,-0.08893068,0.79107113,0.25082033,-0.12606958,-0.23167748,-0.90062181,0.23610224,-0.49966604,-0.65029934,0.44628319,0.55091795
10.78000000,-0.15919717,0.67754910,-0.40587946,-0.08893068,0.79107113,0.25082033,-0.12606958,-0.23167748,-0.90062181,0.23610224,-0.49966604,-0.65029934,0.44628319,0.55091795
10.80000000,-0.15919717,0.67754910,-0.40587946,-0.08893068,0.79107113,0.25082033,-0.12606958,-0.23167748,-0.90062181,0.23610224,-0.49966604,-0.65029934,0.44628319,0.55091795
10.82000000,-0.15919717,0.67754910,-0.40587946,-0.08893068,0.79107113,0.25082033,-0.12606958,-0.23167748,-0.90062181,0.23610224,-0.49966604,-0.65029934,0.44628319,0.55091795
10.84000000,-0.15919717,0.67754910,-0.40587946,-0.08893068,0.79107113,0.25082033,-0.12606958,-0.23167748,-0.90062181,0.23610224,-0.49966604,-0.65029934,0.44628319,0.55091795
10.86000000,-0.15919717,0.67754910,-0.40587946,-0.08893068,0.79107113,0.25082033,-0.12606958,-0.23167748,-0.90062181,0.23610224,-0.49966604,-0.65029934,0.44628319,0.55091795
10.88000000,-0.15919717,0.67754910,-0.40587946,-0.08893068,0.79107113,0.25082033,-0.12606958,-0.23167748,-0.90062181,0.23610224,-0.49966604,-0.65029934,0.44628319,0.55091795
10.90000000,-0.15919717,0.67754910,-0.40587946,-0.08893068,0.79107113,0.25082033,-0.12606958,-0.23167748,-0.90062181,0.23610224,-0.49966604,-0.65029934,0.44628319,0.55091795
10.92000000,-0.15919717,0.67754910,-0.40587946,-0.08893068,0.79107113,0.25082033,-0.12606958,-0.23167748,-0.90062181,0.23610224,-0.49966604,-0.65029934,0.44628319,0.55091795
10.94000000,-0.15919717,0.67754910,-0.40587946,-0.08893068,0.79107113,0.25082033,-0.12606958,-0.23167748,-0.90062181,0.23610224,-0.49966604,-0.65029934,0.44628319,0.55091795
10.96000000,-0.15919717,0.67754910,-0.40587946,-0.08893068,0.79107113,0.25082033,-0.12606958,-0.23167748,-0.90062181,0.23610224,-0.49966604,-0.65029934,0.44628319,0.55091795
10.98000000,-0.15919717,0.67754910,-0.40587946,-0.08893068,0.79107113,0.25082033,-0.12606958,-0.23167748,-0.90062181,0.23610224,-0.49966604,-0.65029934,0.44628319,0.55091795
11.00000000,-0.15919717,0.67754910,-0.40587946,-0.08893068,0.79107113,0.25082033,-0.12606958,-0.23167748,-0.90062181,0.23610224,-0.49966604,-0.65029934,0.44628319,0.55091795
11.02000000,-0.15919717,0.67754910,-0.40587946,-0.08893068,0.79107113,0.25082033,-0.12606958,-0.23167748,-0.90062181,0.23610224,-0.49966604,-0.65029934,0.44628319,0.55091795
11.04000000,-0.15919717,0.67754910,-0.40587946,-0.08893068,0.79107113,0.25082033,-0.12606958,-0.23167748,-0.90062181,0.23610224,-0.49966604,-0.65029934,0.44628319,0.55091795
11.06000000,-0.15919717,0.67754910,-0.40587946,-0.08893068,0.79107113,0.25082033,-0.12606958,-0.23167748,-0.90062181,0.23610224,-0.49966604,-0.65029934,0.44628319,0.55091795
11.08000000,-0.15919717,0.67754910,-0.40587946,-0.08893068,0.79107113,0.25082033,-0.12606958,-0.23167748,-0.90062181,0.23610224,-0.49966604,-0.65029934,0.44628319,0.55091795
11.10000000,-0.15919717,0.67754910,-0.40587946,-0.08893068,0.79107113,0.25082033,-0.12606958,-0.23167748,-0.90062181,0.23610224,-0.49966604,-0.65029934,0.44628319,0.55091795
11.12000000,-0.15919717,0.67754910,-0.40587946,-0.08893068,0.79107113,0.25082033,-0.12606958,-0.23167748,-0.90062181,0.23610224,-0.49966604,-0.65029934,0.44628319,0.55091795
11.14000000,-0.15919717,0.67754910,-0.40587946,-0.08893068,0.79107113,0.25082033,-0.12606958,-0.23167748,-0.90062181,0.23610224,-0.49966604,-0.65029934,0.44628319,0.55091795
11.16000000,-0.15919717,0.67754910,-0.40587946,-0.08893068,0.79107113,0.25082033,-0.12606958,-0.23167748,-0.90062181,0.23610224,-0.49966604,-0.65029934,0.44628319,0.55091795
11.18000000,-0.15919717,0.67754910,-0.40587946,-0.08893068,0.79107113,0.25082033,-0.12606958,-0.23167748,-0.90062181,0.23610224,-0.49966604,-0.65029934,0.44628319,0.55091795
11.20000000,-0.15919717,0.67754910,-0.40587946,-0.08893068,0.79107113,0.25082033,-0.12606958,-0.23167748,-0.90062181,0.23610224,-0.49966604,-0.65029934,0.44628319,0.55091795
11.22000000,-0.15919717,0.67754910,-0.40587946,-0.08893068,0.79107113,0.25082033,-0.12606958,-0.23167748,-0.90062181,0.23610224,-0.49966604,-0.65029934,0.44628319,0.55091795
11.24000000,-0.15919717,0.67754910,-0.40587946,-0.08893068,0.79107113,0.25082033,-0.12606958,-0.23167748,-0.90062181,0.23610224,-0.49966604,-0.65029934,0.44628319,0.55091795
11.26000000,-0.15919717,0.67754910,-0.40587946,-0.08893068,0.79107113,0.25082033,-0.12606958,-0.23167748,-0.90062181,0.23610224,-0.49966604,-0.65029934,0.44628319,0.55091795
11.28000000,-0.15919717,0.67754910,-0.40587946,-0.08893068,0.79107113,0.25082033,-0.12606958,-0.23167748,-0.90062181,0.23610224,-0.49966604,-0.65029934,0.44628319,0.55091795
11.30000000,-0.15919717,0.67754910,-0.40587946,-0.08893068,0.79107113,0.25082033,-0.12606958,-0.23167748,-0.90062181,0.23610224,-0.49966604,-0.65029934,0.44628319,0.55091795
11.32000000,-0.15919717,0.67754910,-0.40587946,-0.08893068,0.79107113,0.25082033,-0.12606958,-0.23167748,-0.90062181,0.23610224,-0.49966604,-0.65029934,0.44628319,0.55091795
11.34000000,-0.15919717,0.67754910,-0.40587946,-0.08893068,0.79107113,0.25082033,-0.12606958,-0.23167748,-0.90062181,0.23610224,-0.49966604,-0.65029934,0.44628319,0.55091795
11.36000000,-0.15919717,0.67754910,-0.40587946,-0.08893068,0.79107113,0.25082033,-0.12606958,-0.23167748,-0.90062181,0.23610224,-0.49966604,-0.65029934,0.44628319,0.55091795
11.38000000,-0.15919717,0.67754910,-0.40587946,-0.08893068,0.79107113,0.25082033,-0.12606958,-0.23167748,-0.90062181,0.23610224,-0.49966604,-0.65029934,0.44628319,0.55091795
11.40000000,-0.15919717,0.67754910,-0.40587946,-0.08893068,0.79107113,0.25082033,-0.12606958,-0.23167748,-0.90062181,0.23610224,-0.49966604,-0.65029934,0.44628319,0.55091795
11.42000000,-0.15919717,0.67754910,-0.40587946,-0.08893068,0.79107113,0.25082033,-0.12606958,-0.23167748,-0.90062181,0.23610224,-0.49966604,-0.65029934,0.44628319,0.55091795
11.44000000,-0.15919717,0.67754910,-0.40587946,-0.08893068,0.79107113,0.25082033,-0.12606958,-0.23167748,-0.90062181,0.23610224,-0.49966604,-0.65029934,0.44628319,0.55091795
11.46000000,-0.15919717,0.67754910,-0.40587946,-0.08893068,0.79107113,0.25082033,-0.12606958,-0.23167748,-0.90062181,0.23610224,-0.49966604,-0.65029934,0.44628319,0.55091795
11.48000000,-0.15919717,0.67754910,-0.40587946,-0.08893068,0.79107113,0.25082033,-0.12606958,-0.23167748,-0.90062181,0.23610224,-0.49966604,-0.65029934,0.44628319,0.55091795
