gracetata/LocomotionHEC/legged_lab/Reference Data/ArmHack/StandPerturb/TestData/ArmOnly/poses/synthesized/synthesized_arm_pose_03_seed20260714_hold20s_50hz.csv
time_s,left_shoulder_pitch_joint,left_shoulder_roll_joint,left_shoulder_yaw_joint,left_elbow_joint,left_wrist_roll_joint,left_wrist_pitch_joint,left_wrist_yaw_joint,right_shoulder_pitch_joint,right_shoulder_roll_joint,right_shoulder_yaw_joint,right_elbow_joint,right_wrist_roll_joint,right_wrist_pitch_joint,right_wrist_yaw_joint
0.00000000,0.27740033,0.77760879,-0.22959400,-0.47548600,0.84737651,0.40012525,0.04635875,-0.73001318,-0.64516438,0.55031812,0.16999949,-0.64967836,0.12461054,0.53899859
0.02000000,0.27740033,0.77760879,-0.22959400,-0.47548600,0.84737651,0.40012525,0.04635875,-0.73001318,-0.64516438,0.55031812,0.16999949,-0.64967836,0.12461054,0.53899859
0.04000000,0.27740033,0.77760879,-0.22959400,-0.47548600,0.84737651,0.40012525,0.04635875,-0.73001318,-0.64516438,0.55031812,0.16999949,-0.64967836,0.12461054,0.53899859
0.06000000,0.27740033,0.77760879,-0.22959400,-0.47548600,0.84737651,0.40012525,0.04635875,-0.73001318,-0.64516438,0.55031812,0.16999949,-0.64967836,0.12461054,0.53899859
0.08000000,0.27740033,0.77760879,-0.22959400,-0.47548600,0.84737651,0.40012525,0.04635875,-0.73001318,-0.64516438,0.55031812,0.16999949,-0.64967836,0.12461054,0.53899859
0.10000000,0.27740033,0.77760879,-0.22959400,-0.47548600,0.84737651,0.40012525,0.04635875,-0.73001318,-0.64516438,0.55031812,0.16999949,-0.64967836,0.12461054,0.53899859
0.12000000,0.27740033,0.77760879,-0.22959400,-0.47548600,0.84737651,0.40012525,0.04635875,-0.73001318,-0.64516438,0.55031812,0.16999949,-0.64967836,0.12461054,0.53899859
0.14000000,0.27740033,0.77760879,-0.22959400,-0.47548600,0.84737651,0.40012525,0.04635875,-0.73001318,-0.64516438,0.55031812,0.16999949,-0.64967836,0.12461054,0.53899859
0.16000000,0.27740033,0.77760879,-0.22959400,-0.47548600,0.84737651,0.40012525,0.04635875,-0.73001318,-0.64516438,0.55031812,0.16999949,-0.64967836,0.12461054,0.53899859
0.18000000,0.27740033,0.77760879,-0.22959400,-0.47548600,0.84737651,0.40012525,0.04635875,-0.73001318,-0.64516438,0.55031812,0.16999949,-0.64967836,0.12461054,0.53899859
0.20000000,0.27740033,0.77760879,-0.22959400,-0.47548600,0.84737651,0.40012525,0.04635875,-0.73001318,-0.64516438,0.55031812,0.16999949,-0.64967836,0.12461054,0.53899859
0.22000000,0.27740033,0.77760879,-0.22959400,-0.47548600,0.84737651,0.40012525,0.04635875,-0.73001318,-0.64516438,0.55031812,0.16999949,-0.64967836,0.12461054,0.53899859
0.24000000,0.27740033,0.77760879,-0.22959400,-0.47548600,0.84737651,0.40012525,0.04635875,-0.73001318,-0.64516438,0.55031812,0.16999949,-0.64967836,0.12461054,0.53899859
0.26000000,0.27740033,0.77760879,-0.22959400,-0.47548600,0.84737651,0.40012525,0.04635875,-0.73001318,-0.64516438,0.55031812,0.16999949,-0.64967836,0.12461054,0.53899859
0.28000000,0.27740033,0.77760879,-0.22959400,-0.47548600,0.84737651,0.40012525,0.04635875,-0.73001318,-0.64516438,0.55031812,0.16999949,-0.64967836,0.12461054,0.53899859
0.30000000,0.27740033,0.77760879,-0.22959400,-0.47548600,0.84737651,0.40012525,0.04635875,-0.73001318,-0.64516438,0.55031812,0.16999949,-0.64967836,0.12461054,0.53899859
0.32000000,0.27740033,0.77760879,-0.22959400,-0.47548600,0.84737651,0.40012525,0.04635875,-0.73001318,-0.64516438,0.55031812,0.16999949,-0.64967836,0.12461054,0.53899859
0.34000000,0.27740033,0.77760879,-0.22959400,-0.47548600,0.84737651,0.40012525,0.04635875,-0.73001318,-0.64516438,0.55031812,0.16999949,-0.64967836,0.12461054,0.53899859
0.36000000,0.27740033,0.77760879,-0.22959400,-0.47548600,0.84737651,0.40012525,0.04635875,-0.73001318,-0.64516438,0.55031812,0.16999949,-0.64967836,0.12461054,0.53899859
0.38000000,0.27740033,0.77760879,-0.22959400,-0.47548600,0.84737651,0.40012525,0.04635875,-0.73001318,-0.64516438,0.55031812,0.16999949,-0.64967836,0.12461054,0.53899859
0.40000000,0.27740033,0.77760879,-0.22959400,-0.47548600,0.84737651,0.40012525,0.04635875,-0.73001318,-0.64516438,0.55031812,0.16999949,-0.64967836,0.12461054,0.53899859
0.42000000,0.27740033,0.77760879,-0.22959400,-0.47548600,0.84737651,0.40012525,0.04635875,-0.73001318,-0.64516438,0.55031812,0.16999949,-0.64967836,0.12461054,0.53899859
0.44000000,0.27740033,0.77760879,-0.22959400,-0.47548600,0.84737651,0.40012525,0.04635875,-0.73001318,-0.64516438,0.55031812,0.16999949,-0.64967836,0.12461054,0.53899859
0.46000000,0.27740033,0.77760879,-0.22959400,-0.47548600,0.84737651,0.40012525,0.04635875,-0.73001318,-0.64516438,0.55031812,0.16999949,-0.64967836,0.12461054,0.53899859
0.48000000,0.27740033,0.77760879,-0.22959400,-0.47548600,0.84737651,0.40012525,0.04635875,-0.73001318,-0.64516438,0.55031812,0.16999949,-0.64967836,0.12461054,0.53899859
0.50000000,0.27740033,0.77760879,-0.22959400,-0.47548600,0.84737651,0.40012525,0.04635875,-0.73001318,-0.64516438,0.55031812,0.16999949,-0.64967836,0.12461054,0.53899859
0.52000000,0.27740033,0.77760879,-0.22959400,-0.47548600,0.84737651,0.40012525,0.04635875,-0.73001318,-0.64516438,0.55031812,0.16999949,-0.64967836,0.12461054,0.53899859
0.54000000,0.27740033,0.77760879,-0.22959400,-0.47548600,0.84737651,0.40012525,0.04635875,-0.73001318,-0.64516438,0.55031812,0.16999949,-0.64967836,0.12461054,0.53899859
0.56000000,0.27740033,0.77760879,-0.22959400,-0.47548600,0.84737651,0.40012525,0.04635875,-0.73001318,-0.64516438,0.55031812,0.16999949,-0.64967836,0.12461054,0.53899859
0.58000000,0.27740033,0.77760879,-0.22959400,-0.47548600,0.84737651,0.40012525,0.04635875,-0.73001318,-0.64516438,0.55031812,0.16999949,-0.64967836,0.12461054,0.53899859
0.60000000,0.27740033,0.77760879,-0.22959400,-0.47548600,0.84737651,0.40012525,0.04635875,-0.73001318,-0.64516438,0.55031812,0.16999949,-0.64967836,0.12461054,0.53899859
0.62000000,0.27740033,0.77760879,-0.22959400,-0.47548600,0.84737651,0.40012525,0.04635875,-0.73001318,-0.64516438,0.55031812,0.16999949,-0.64967836,0.12461054,0.53899859
0.64000000,0.27740033,0.77760879,-0.22959400,-0.47548600,0.84737651,0.40012525,0.04635875,-0.73001318,-0.64516438,0.55031812,0.16999949,-0.64967836,0.12461054,0.53899859
0.66000000,0.27740033,0.77760879,-0.22959400,-0.47548600,0.84737651,0.40012525,0.04635875,-0.73001318,-0.64516438,0.55031812,0.16999949,-0.64967836,0.12461054,0.53899859
0.68000000,0.27740033,0.77760879,-0.22959400,-0.47548600,0.84737651,0.40012525,0.04635875,-0.73001318,-0.64516438,0.55031812,0.16999949,-0.64967836,0.12461054,0.53899859
0.70000000,0.27740033,0.77760879,-0.22959400,-0.47548600,0.84737651,0.40012525,0.04635875,-0.73001318,-0.64516438,0.55031812,0.16999949,-0.64967836,0.12461054,0.53899859
0.72000000,0.27740033,0.77760879,-0.22959400,-0.47548600,0.84737651,0.40012525,0.04635875,-0.73001318,-0.64516438,0.55031812,0.16999949,-0.64967836,0.12461054,0.53899859
0.74000000,0.27740033,0.77760879,-0.22959400,-0.47548600,0.84737651,0.40012525,0.04635875,-0.73001318,-0.64516438,0.55031812,0.16999949,-0.64967836,0.12461054,0.53899859
0.76000000,0.27740033,0.77760879,-0.22959400,-0.47548600,0.84737651,0.40012525,0.04635875,-0.73001318,-0.64516438,0.55031812,0.16999949,-0.64967836,0.12461054,0.53899859
0.78000000,0.27740033,0.77760879,-0.22959400,-0.47548600,0.84737651,0.40012525,0.04635875,-0.73001318,-0.64516438,0.55031812,0.16999949,-0.64967836,0.12461054,0.53899859
0.80000000,0.27740033,0.77760879,-0.22959400,-0.47548600,0.84737651,0.40012525,0.04635875,-0.73001318,-0.64516438,0.55031812,0.16999949,-0.64967836,0.12461054,0.53899859
0.82000000,0.27740033,0.77760879,-0.22959400,-0.47548600,0.84737651,0.40012525,0.04635875,-0.73001318,-0.64516438,0.55031812,0.16999949,-0.64967836,0.12461054,0.53899859
0.84000000,0.27740033,0.77760879,-0.22959400,-0.47548600,0.84737651,0.40012525,0.04635875,-0.73001318,-0.64516438,0.55031812,0.16999949,-0.64967836,0.12461054,0.53899859
0.86000000,0.27740033,0.77760879,-0.22959400,-0.47548600,0.84737651,0.40012525,0.04635875,-0.73001318,-0.64516438,0.55031812,0.16999949,-0.64967836,0.12461054,0.53899859
0.88000000,0.27740033,0.77760879,-0.22959400,-0.47548600,0.84737651,0.40012525,0.04635875,-0.73001318,-0.64516438,0.55031812,0.16999949,-0.64967836,0.12461054,0.53899859
0.90000000,0.27740033,0.77760879,-0.22959400,-0.47548600,0.84737651,0.40012525,0.04635875,-0.73001318,-0.64516438,0.55031812,0.16999949,-0.64967836,0.12461054,0.53899859
0.92000000,0.27740033,0.77760879,-0.22959400,-0.47548600,0.84737651,0.40012525,0.04635875,-0.73001318,-0.64516438,0.55031812,0.16999949,-0.64967836,0.12461054,0.53899859
0.94000000,0.27740033,0.77760879,-0.22959400,-0.47548600,0.84737651,0.40012525,0.04635875,-0.73001318,-0.64516438,0.55031812,0.16999949,-0.64967836,0.12461054,0.53899859
0.96000000,0.27740033,0.77760879,-0.22959400,-0.47548600,0.84737651,0.40012525,0.04635875,-0.73001318,-0.64516438,0.55031812,0.16999949,-0.64967836,0.12461054,0.53899859
0.98000000,0.27740033,0.77760879,-0.22959400,-0.47548600,0.84737651,0.40012525,0.04635875,-0.73001318,-0.64516438,0.55031812,0.16999949,-0.64967836,0.12461054,0.53899859
1.00000000,0.27740033,0.77760879,-0.22959400,-0.47548600,0.84737651,0.40012525,0.04635875,-0.73001318,-0.64516438,0.55031812,0.16999949,-0.64967836,0.12461054,0.53899859
1.02000000,0.27740033,0.77760879,-0.22959400,-0.47548600,0.84737651,0.40012525,0.04635875,-0.73001318,-0.64516438,0.55031812,0.16999949,-0.64967836,0.12461054,0.53899859
1.04000000,0.27740033,0.77760879,-0.22959400,-0.47548600,0.84737651,0.40012525,0.04635875,-0.73001318,-0.64516438,0.55031812,0.16999949,-0.64967836,0.12461054,0.53899859
1.06000000,0.27740033,0.77760879,-0.22959400,-0.47548600,0.84737651,0.40012525,0.04635875,-0.73001318,-0.64516438,0.55031812,0.16999949,-0.64967836,0.12461054,0.53899859
1.08000000,0.27740033,0.77760879,-0.22959400,-0.47548600,0.84737651,0.40012525,0.04635875,-0.73001318,-0.64516438,0.55031812,0.16999949,-0.64967836,0.12461054,0.53899859
1.10000000,0.27740033,0.77760879,-0.22959400,-0.47548600,0.84737651,0.40012525,0.04635875,-0.73001318,-0.64516438,0.55031812,0.16999949,-0.64967836,0.12461054,0.53899859
1.12000000,0.27740033,0.77760879,-0.22959400,-0.47548600,0.84737651,0.40012525,0.04635875,-0.73001318,-0.64516438,0.55031812,0.16999949,-0.64967836,0.12461054,0.53899859
1.14000000,0.27740033,0.77760879,-0.22959400,-0.47548600,0.84737651,0.40012525,0.04635875,-0.73001318,-0.64516438,0.55031812,0.16999949,-0.64967836,0.12461054,0.53899859
1.16000000,0.27740033,0.77760879,-0.22959400,-0.47548600,0.84737651,0.40012525,0.04635875,-0.73001318,-0.64516438,0.55031812,0.16999949,-0.64967836,0.12461054,0.53899859
1.18000000,0.27740033,0.77760879,-0.22959400,-0.47548600,0.84737651,0.40012525,0.04635875,-0.73001318,-0.64516438,0.55031812,0.16999949,-0.64967836,0.12461054,0.53899859
1.20000000,0.27740033,0.77760879,-0.22959400,-0.47548600,0.84737651,0.40012525,0.04635875,-0.73001318,-0.64516438,0.55031812,0.16999949,-0.64967836,0.12461054,0.53899859
1.22000000,0.27740033,0.77760879,-0.22959400,-0.47548600,0.84737651,0.40012525,0.04635875,-0.73001318,-0.64516438,0.55031812,0.16999949,-0.64967836,0.12461054,0.53899859
1.24000000,0.27740033,0.77760879,-0.22959400,-0.47548600,0.84737651,0.40012525,0.04635875,-0.73001318,-0.64516438,0.55031812,0.16999949,-0.64967836,0.12461054,0.53899859
1.26000000,0.27740033,0.77760879,-0.22959400,-0.47548600,0.84737651,0.40012525,0.04635875,-0.73001318,-0.64516438,0.55031812,0.16999949,-0.64967836,0.12461054,0.53899859
1.28000000,0.27740033,0.77760879,-0.22959400,-0.47548600,0.84737651,0.40012525,0.04635875,-0.73001318,-0.64516438,0.55031812,0.16999949,-0.64967836,0.12461054,0.53899859
1.30000000,0.27740033,0.77760879,-0.22959400,-0.47548600,0.84737651,0.40012525,0.04635875,-0.73001318,-0.64516438,0.55031812,0.16999949,-0.64967836,0.12461054,0.53899859
1.32000000,0.27740033,0.77760879,-0.22959400,-0.47548600,0.84737651,0.40012525,0.04635875,-0.73001318,-0.64516438,0.55031812,0.16999949,-0.64967836,0.12461054,0.53899859
1.34000000,0.27740033,0.77760879,-0.22959400,-0.47548600,0.84737651,0.40012525,0.04635875,-0.73001318,-0.64516438,0.55031812,0.16999949,-0.64967836,0.12461054,0.53899859
1.36000000,0.27740033,0.77760879,-0.22959400,-0.47548600,0.84737651,0.40012525,0.04635875,-0.73001318,-0.64516438,0.55031812,0.16999949,-0.64967836,0.12461054,0.53899859
1.38000000,0.27740033,0.77760879,-0.22959400,-0.47548600,0.84737651,0.40012525,0.04635875,-0.73001318,-0.64516438,0.55031812,0.16999949,-0.64967836,0.12461054,0.53899859
1.40000000,0.27740033,0.77760879,-0.22959400,-0.47548600,0.84737651,0.40012525,0.04635875,-0.73001318,-0.64516438,0.55031812,0.16999949,-0.64967836,0.12461054,0.53899859
1.42000000,0.27740033,0.77760879,-0.22959400,-0.47548600,0.84737651,0.40012525,0.04635875,-0.73001318,-0.64516438,0.55031812,0.16999949,-0.64967836,0.12461054,0.53899859
1.44000000,0.27740033,0.77760879,-0.22959400,-0.47548600,0.84737651,0.40012525,0.04635875,-0.73001318,-0.64516438,0.55031812,0.16999949,-0.64967836,0.12461054,0.53899859
1.46000000,0.27740033,0.77760879,-0.22959400,-0.47548600,0.84737651,0.40012525,0.04635875,-0.73001318,-0.64516438,0.55031812,0.16999949,-0.64967836,0.12461054,0.53899859
1.48000000,0.27740033,0.77760879,-0.22959400,-0.47548600,0.84737651,0.40012525,0.04635875,-0.73001318,-0.64516438,0.55031812,0.16999949,-0.64967836,0.12461054,0.53899859
1.50000000,0.27740033,0.77760879,-0.22959400,-0.47548600,0.84737651,0.40012525,0.04635875,-0.73001318,-0.64516438,0.55031812,0.16999949,-0.64967836,0.12461054,0.53899859
1.52000000,0.27740033,0.77760879,-0.22959400,-0.47548600,0.84737651,0.40012525,0.04635875,-0.73001318,-0.64516438,0.55031812,0.16999949,-0.64967836,0.12461054,0.53899859
1.54000000,0.27740033,0.77760879,-0.22959400,-0.47548600,0.84737651,0.40012525,0.04635875,-0.73001318,-0.64516438,0.55031812,0.16999949,-0.64967836,0.12461054,0.53899859
1.56000000,0.27740033,0.77760879,-0.22959400,-0.47548600,0.84737651,0.40012525,0.04635875,-0.73001318,-0.64516438,0.55031812,0.16999949,-0.64967836,0.12461054,0.53899859
1.58000000,0.27740033,0.77760879,-0.22959400,-0.47548600,0.84737651,0.40012525,0.04635875,-0.73001318,-0.64516438,0.55031812,0.16999949,-0.64967836,0.12461054,0.53899859
1.60000000,0.27740033,0.77760879,-0.22959400,-0.47548600,0.84737651,0.40012525,0.04635875,-0.73001318,-0.64516438,0.55031812,0.16999949,-0.64967836,0.12461054,0.53899859
1.62000000,0.27740033,0.77760879,-0.22959400,-0.47548600,0.84737651,0.40012525,0.04635875,-0.73001318,-0.64516438,0.55031812,0.16999949,-0.64967836,0.12461054,0.53899859
1.64000000,0.27740033,0.77760879,-0.22959400,-0.47548600,0.84737651,0.40012525,0.04635875,-0.73001318,-0.64516438,0.55031812,0.16999949,-0.64967836,0.12461054,0.53899859
1.66000000,0.27740033,0.77760879,-0.22959400,-0.47548600,0.84737651,0.40012525,0.04635875,-0.73001318,-0.64516438,0.55031812,0.16999949,-0.64967836,0.12461054,0.53899859
1.68000000,0.27740033,0.77760879,-0.22959400,-0.47548600,0.84737651,0.40012525,0.04635875,-0.73001318,-0.64516438,0.55031812,0.16999949,-0.64967836,0.12461054,0.53899859
1.70000000,0.27740033,0.77760879,-0.22959400,-0.47548600,0.84737651,0.40012525,0.04635875,-0.73001318,-0.64516438,0.55031812,0.16999949,-0.64967836,0.12461054,0.53899859
1.72000000,0.27740033,0.77760879,-0.22959400,-0.47548600,0.84737651,0.40012525,0.04635875,-0.73001318,-0.64516438,0.55031812,0.16999949,-0.64967836,0.12461054,0.53899859
1.74000000,0.27740033,0.77760879,-0.22959400,-0.47548600,0.84737651,0.40012525,0.04635875,-0.73001318,-0.64516438,0.55031812,0.16999949,-0.64967836,0.12461054,0.53899859
1.76000000,0.27740033,0.77760879,-0.22959400,-0.47548600,0.84737651,0.40012525,0.04635875,-0.73001318,-0.64516438,0.55031812,0.16999949,-0.64967836,0.12461054,0.53899859
1.78000000,0.27740033,0.77760879,-0.22959400,-0.47548600,0.84737651,0.40012525,0.04635875,-0.73001318,-0.64516438,0.55031812,0.16999949,-0.64967836,0.12461054,0.53899859
1.80000000,0.27740033,0.77760879,-0.22959400,-0.47548600,0.84737651,0.40012525,0.04635875,-0.73001318,-0.64516438,0.55031812,0.16999949,-0.64967836,0.12461054,0.53899859
1.82000000,0.27740033,0.77760879,-0.22959400,-0.47548600,0.84737651,0.40012525,0.04635875,-0.73001318,-0.64516438,0.55031812,0.16999949,-0.64967836,0.12461054,0.53899859
1.84000000,0.27740033,0.77760879,-0.22959400,-0.47548600,0.84737651,0.40012525,0.04635875,-0.73001318,-0.64516438,0.55031812,0.16999949,-0.64967836,0.12461054,0.53899859
1.86000000,0.27740033,0.77760879,-0.22959400,-0.47548600,0.84737651,0.40012525,0.04635875,-0.73001318,-0.64516438,0.55031812,0.16999949,-0.64967836,0.12461054,0.53899859
1.88000000,0.27740033,0.77760879,-0.22959400,-0.47548600,0.84737651,0.40012525,0.04635875,-0.73001318,-0.64516438,0.55031812,0.16999949,-0.64967836,0.12461054,0.53899859
1.90000000,0.27740033,0.77760879,-0.22959400,-0.47548600,0.84737651,0.40012525,0.04635875,-0.73001318,-0.64516438,0.55031812,0.16999949,-0.64967836,0.12461054,0.53899859
1.92000000,0.27740033,0.77760879,-0.22959400,-0.47548600,0.84737651,0.40012525,0.04635875,-0.73001318,-0.64516438,0.55031812,0.16999949,-0.64967836,0.12461054,0.53899859
1.94000000,0.27740033,0.77760879,-0.22959400,-0.47548600,0.84737651,0.40012525,0.04635875,-0.73001318,-0.64516438,0.55031812,0.16999949,-0.64967836,0.12461054,0.53899859
1.96000000,0.27740033,0.77760879,-0.22959400,-0.47548600,0.84737651,0.40012525,0.04635875,-0.73001318,-0.64516438,0.55031812,0.16999949,-0.64967836,0.12461054,0.53899859
1.98000000,0.27740033,0.77760879,-0.22959400,-0.47548600,0.84737651,0.40012525,0.04635875,-0.73001318,-0.64516438,0.55031812,0.16999949,-0.64967836,0.12461054,0.53899859
2.00000000,0.27740033,0.77760879,-0.22959400,-0.47548600,0.84737651,0.40012525,0.04635875,-0.73001318,-0.64516438,0.55031812,0.16999949,-0.64967836,0.12461054,0.53899859
2.02000000,0.27740033,0.77760879,-0.22959400,-0.47548600,0.84737651,0.40012525,0.04635875,-0.73001318,-0.64516438,0.55031812,0.16999949,-0.64967836,0.12461054,0.53899859
2.04000000,0.27740033,0.77760879,-0.22959400,-0.47548600,0.84737651,0.40012525,0.04635875,-0.73001318,-0.64516438,0.55031812,0.16999949,-0.64967836,0.12461054,0.53899859
2.06000000,0.27740033,0.77760879,-0.22959400,-0.47548600,0.84737651,0.40012525,0.04635875,-0.73001318,-0.64516438,0.55031812,0.16999949,-0.64967836,0.12461054,0.53899859
2.08000000,0.27740033,0.77760879,-0.22959400,-0.47548600,0.84737651,0.40012525,0.04635875,-0.73001318,-0.64516438,0.55031812,0.16999949,-0.64967836,0.12461054,0.53899859
2.10000000,0.27740033,0.77760879,-0.22959400,-0.47548600,0.84737651,0.40012525,0.04635875,-0.73001318,-0.64516438,0.55031812,0.16999949,-0.64967836,0.12461054,0.53899859
2.12000000,0.27740033,0.77760879,-0.22959400,-0.47548600,0.84737651,0.40012525,0.04635875,-0.73001318,-0.64516438,0.55031812,0.16999949,-0.64967836,0.12461054,0.53899859
2.14000000,0.27740033,0.77760879,-0.22959400,-0.47548600,0.84737651,0.40012525,0.04635875,-0.73001318,-0.64516438,0.55031812,0.16999949,-0.64967836,0.12461054,0.53899859
2.16000000,0.27740033,0.77760879,-0.22959400,-0.47548600,0.84737651,0.40012525,0.04635875,-0.73001318,-0.64516438,0.55031812,0.16999949,-0.64967836,0.12461054,0.53899859
2.18000000,0.27740033,0.77760879,-0.22959400,-0.47548600,0.84737651,0.40012525,0.04635875,-0.73001318,-0.64516438,0.55031812,0.16999949,-0.64967836,0.12461054,0.53899859
2.20000000,0.27740033,0.77760879,-0.22959400,-0.47548600,0.84737651,0.40012525,0.04635875,-0.73001318,-0.64516438,0.55031812,0.16999949,-0.64967836,0.12461054,0.53899859
2.22000000,0.27740033,0.77760879,-0.22959400,-0.47548600,0.84737651,0.40012525,0.04635875,-0.73001318,-0.64516438,0.55031812,0.16999949,-0.64967836,0.12461054,0.53899859
2.24000000,0.27740033,0.77760879,-0.22959400,-0.47548600,0.84737651,0.40012525,0.04635875,-0.73001318,-0.64516438,0.55031812,0.16999949,-0.64967836,0.12461054,0.53899859
2.26000000,0.27740033,0.77760879,-0.22959400,-0.47548600,0.84737651,0.40012525,0.04635875,-0.73001318,-0.64516438,0.55031812,0.16999949,-0.64967836,0.12461054,0.53899859
2.28000000,0.27740033,0.77760879,-0.22959400,-0.47548600,0.84737651,0.40012525,0.04635875,-0.73001318,-0.64516438,0.55031812,0.16999949,-0.64967836,0.12461054,0.53899859
2.30000000,0.27740033,0.77760879,-0.22959400,-0.47548600,0.84737651,0.40012525,0.04635875,-0.73001318,-0.64516438,0.55031812,0.16999949,-0.64967836,0.12461054,0.53899859
2.32000000,0.27740033,0.77760879,-0.22959400,-0.47548600,0.84737651,0.40012525,0.04635875,-0.73001318,-0.64516438,0.55031812,0.16999949,-0.64967836,0.12461054,0.53899859
2.34000000,0.27740033,0.77760879,-0.22959400,-0.47548600,0.84737651,0.40012525,0.04635875,-0.73001318,-0.64516438,0.55031812,0.16999949,-0.64967836,0.12461054,0.53899859
2.36000000,0.27740033,0.77760879,-0.22959400,-0.47548600,0.84737651,0.40012525,0.04635875,-0.73001318,-0.64516438,0.55031812,0.16999949,-0.64967836,0.12461054,0.53899859
2.38000000,0.27740033,0.77760879,-0.22959400,-0.47548600,0.84737651,0.40012525,0.04635875,-0.73001318,-0.64516438,0.55031812,0.16999949,-0.64967836,0.12461054,0.53899859
2.40000000,0.27740033,0.77760879,-0.22959400,-0.47548600,0.84737651,0.40012525,0.04635875,-0.73001318,-0.64516438,0.55031812,0.16999949,-0.64967836,0.12461054,0.53899859
2.42000000,0.27740033,0.77760879,-0.22959400,-0.47548600,0.84737651,0.40012525,0.04635875,-0.73001318,-0.64516438,0.55031812,0.16999949,-0.64967836,0.12461054,0.53899859
2.44000000,0.27740033,0.77760879,-0.22959400,-0.47548600,0.84737651,0.40012525,0.04635875,-0.73001318,-0.64516438,0.55031812,0.16999949,-0.64967836,0.12461054,0.53899859
2.46000000,0.27740033,0.77760879,-0.22959400,-0.47548600,0.84737651,0.40012525,0.04635875,-0.73001318,-0.64516438,0.55031812,0.16999949,-0.64967836,0.12461054,0.53899859
2.48000000,0.27740033,0.77760879,-0.22959400,-0.47548600,0.84737651,0.40012525,0.04635875,-0.73001318,-0.64516438,0.55031812,0.16999949,-0.64967836,0.12461054,0.53899859
2.50000000,0.27740033,0.77760879,-0.22959400,-0.47548600,0.84737651,0.40012525,0.04635875,-0.73001318,-0.64516438,0.55031812,0.16999949,-0.64967836,0.12461054,0.53899859
2.52000000,0.27740033,0.77760879,-0.22959400,-0.47548600,0.84737651,0.40012525,0.04635875,-0.73001318,-0.64516438,0.55031812,0.16999949,-0.64967836,0.12461054,0.53899859
2.54000000,0.27740033,0.77760879,-0.22959400,-0.47548600,0.84737651,0.40012525,0.04635875,-0.73001318,-0.64516438,0.55031812,0.16999949,-0.64967836,0.12461054,0.53899859
2.56000000,0.27740033,0.77760879,-0.22959400,-0.47548600,0.84737651,0.40012525,0.04635875,-0.73001318,-0.64516438,0.55031812,0.16999949,-0.64967836,0.12461054,0.53899859
2.58000000,0.27740033,0.77760879,-0.22959400,-0.47548600,0.84737651,0.40012525,0.04635875,-0.73001318,-0.64516438,0.55031812,0.16999949,-0.64967836,0.12461054,0.53899859
2.60000000,0.27740033,0.77760879,-0.22959400,-0.47548600,0.84737651,0.40012525,0.04635875,-0.73001318,-0.64516438,0.55031812,0.16999949,-0.64967836,0.12461054,0.53899859
2.62000000,0.27740033,0.77760879,-0.22959400,-0.47548600,0.84737651,0.40012525,0.04635875,-0.73001318,-0.64516438,0.55031812,0.16999949,-0.64967836,0.12461054,0.53899859
2.64000000,0.27740033,0.77760879,-0.22959400,-0.47548600,0.84737651,0.40012525,0.04635875,-0.73001318,-0.64516438,0.55031812,0.16999949,-0.64967836,0.12461054,0.53899859
2.66000000,0.27740033,0.77760879,-0.22959400,-0.47548600,0.84737651,0.40012525,0.04635875,-0.73001318,-0.64516438,0.55031812,0.16999949,-0.64967836,0.12461054,0.53899859
2.68000000,0.27740033,0.77760879,-0.22959400,-0.47548600,0.84737651,0.40012525,0.04635875,-0.73001318,-0.64516438,0.55031812,0.16999949,-0.64967836,0.12461054,0.53899859
2.70000000,0.27740033,0.77760879,-0.22959400,-0.47548600,0.84737651,0.40012525,0.04635875,-0.73001318,-0.64516438,0.55031812,0.16999949,-0.64967836,0.12461054,0.53899859
2.72000000,0.27740033,0.77760879,-0.22959400,-0.47548600,0.84737651,0.40012525,0.04635875,-0.73001318,-0.64516438,0.55031812,0.16999949,-0.64967836,0.12461054,0.53899859
2.74000000,0.27740033,0.77760879,-0.22959400,-0.47548600,0.84737651,0.40012525,0.04635875,-0.73001318,-0.64516438,0.55031812,0.16999949,-0.64967836,0.12461054,0.53899859
2.76000000,0.27740033,0.77760879,-0.22959400,-0.47548600,0.84737651,0.40012525,0.04635875,-0.73001318,-0.64516438,0.55031812,0.16999949,-0.64967836,0.12461054,0.53899859
2.78000000,0.27740033,0.77760879,-0.22959400,-0.47548600,0.84737651,0.40012525,0.04635875,-0.73001318,-0.64516438,0.55031812,0.16999949,-0.64967836,0.12461054,0.53899859
2.80000000,0.27740033,0.77760879,-0.22959400,-0.47548600,0.84737651,0.40012525,0.04635875,-0.73001318,-0.64516438,0.55031812,0.16999949,-0.64967836,0.12461054,0.53899859
2.82000000,0.27740033,0.77760879,-0.22959400,-0.47548600,0.84737651,0.40012525,0.04635875,-0.73001318,-0.64516438,0.55031812,0.16999949,-0.64967836,0.12461054,0.53899859
2.84000000,0.27740033,0.77760879,-0.22959400,-0.47548600,0.84737651,0.40012525,0.04635875,-0.73001318,-0.64516438,0.55031812,0.16999949,-0.64967836,0.12461054,0.53899859
2.86000000,0.27740033,0.77760879,-0.22959400,-0.47548600,0.84737651,0.40012525,0.04635875,-0.73001318,-0.64516438,0.55031812,0.16999949,-0.64967836,0.12461054,0.53899859
2.88000000,0.27740033,0.77760879,-0.22959400,-0.47548600,0.84737651,0.40012525,0.04635875,-0.73001318,-0.64516438,0.55031812,0.16999949,-0.64967836,0.12461054,0.53899859
2.90000000,0.27740033,0.77760879,-0.22959400,-0.47548600,0.84737651,0.40012525,0.04635875,-0.73001318,-0.64516438,0.55031812,0.16999949,-0.64967836,0.12461054,0.53899859
2.92000000,0.27740033,0.77760879,-0.22959400,-0.47548600,0.84737651,0.40012525,0.04635875,-0.73001318,-0.64516438,0.55031812,0.16999949,-0.64967836,0.12461054,0.53899859
2.94000000,0.27740033,0.77760879,-0.22959400,-0.47548600,0.84737651,0.40012525,0.04635875,-0.73001318,-0.64516438,0.55031812,0.16999949,-0.64967836,0.12461054,0.53899859
2.96000000,0.27740033,0.77760879,-0.22959400,-0.47548600,0.84737651,0.40012525,0.04635875,-0.73001318,-0.64516438,0.55031812,0.16999949,-0.64967836,0.12461054,0.53899859
2.98000000,0.27740033,0.77760879,-0.22959400,-0.47548600,0.84737651,0.40012525,0.04635875,-0.73001318,-0.64516438,0.55031812,0.16999949,-0.64967836,0.12461054,0.53899859
3.00000000,0.27740033,0.77760879,-0.22959400,-0.47548600,0.84737651,0.40012525,0.04635875,-0.73001318,-0.64516438,0.55031812,0.16999949,-0.64967836,0.12461054,0.53899859
3.02000000,0.27740033,0.77760879,-0.22959400,-0.47548600,0.84737651,0.40012525,0.04635875,-0.73001318,-0.64516438,0.55031812,0.16999949,-0.64967836,0.12461054,0.53899859
3.04000000,0.27740033,0.77760879,-0.22959400,-0.47548600,0.84737651,0.40012525,0.04635875,-0.73001318,-0.64516438,0.55031812,0.16999949,-0.64967836,0.12461054,0.53899859
3.06000000,0.27740033,0.77760879,-0.22959400,-0.47548600,0.84737651,0.40012525,0.04635875,-0.73001318,-0.64516438,0.55031812,0.16999949,-0.64967836,0.12461054,0.53899859
3.08000000,0.27740033,0.77760879,-0.22959400,-0.47548600,0.84737651,0.40012525,0.04635875,-0.73001318,-0.64516438,0.55031812,0.16999949,-0.64967836,0.12461054,0.53899859
3.10000000,0.27740033,0.77760879,-0.22959400,-0.47548600,0.84737651,0.40012525,0.04635875,-0.73001318,-0.64516438,0.55031812,0.16999949,-0.64967836,0.12461054,0.53899859
3.12000000,0.27740033,0.77760879,-0.22959400,-0.47548600,0.84737651,0.40012525,0.04635875,-0.73001318,-0.64516438,0.55031812,0.16999949,-0.64967836,0.12461054,0.53899859
3.14000000,0.27740033,0.77760879,-0.22959400,-0.47548600,0.84737651,0.40012525,0.04635875,-0.73001318,-0.64516438,0.55031812,0.16999949,-0.64967836,0.12461054,0.53899859
3.16000000,0.27740033,0.77760879,-0.22959400,-0.47548600,0.84737651,0.40012525,0.04635875,-0.73001318,-0.64516438,0.55031812,0.16999949,-0.64967836,0.12461054,0.53899859
3.18000000,0.27740033,0.77760879,-0.22959400,-0.47548600,0.84737651,0.40012525,0.04635875,-0.73001318,-0.64516438,0.55031812,0.16999949,-0.64967836,0.12461054,0.53899859
3.20000000,0.27740033,0.77760879,-0.22959400,-0.47548600,0.84737651,0.40012525,0.04635875,-0.73001318,-0.64516438,0.55031812,0.16999949,-0.64967836,0.12461054,0.53899859
3.22000000,0.27740033,0.77760879,-0.22959400,-0.47548600,0.84737651,0.40012525,0.04635875,-0.73001318,-0.64516438,0.55031812,0.16999949,-0.64967836,0.12461054,0.53899859
3.24000000,0.27740033,0.77760879,-0.22959400,-0.47548600,0.84737651,0.40012525,0.04635875,-0.73001318,-0.64516438,0.55031812,0.16999949,-0.64967836,0.12461054,0.53899859
3.26000000,0.27740033,0.77760879,-0.22959400,-0.47548600,0.84737651,0.40012525,0.04635875,-0.73001318,-0.64516438,0.55031812,0.16999949,-0.64967836,0.12461054,0.53899859
3.28000000,0.27740033,0.77760879,-0.22959400,-0.47548600,0.84737651,0.40012525,0.04635875,-0.73001318,-0.64516438,0.55031812,0.16999949,-0.64967836,0.12461054,0.53899859
3.30000000,0.27740033,0.77760879,-0.22959400,-0.47548600,0.84737651,0.40012525,0.04635875,-0.73001318,-0.64516438,0.55031812,0.16999949,-0.64967836,0.12461054,0.53899859
3.32000000,0.27740033,0.77760879,-0.22959400,-0.47548600,0.84737651,0.40012525,0.04635875,-0.73001318,-0.64516438,0.55031812,0.16999949,-0.64967836,0.12461054,0.53899859
3.34000000,0.27740033,0.77760879,-0.22959400,-0.47548600,0.84737651,0.40012525,0.04635875,-0.73001318,-0.64516438,0.55031812,0.16999949,-0.64967836,0.12461054,0.53899859
3.36000000,0.27740033,0.77760879,-0.22959400,-0.47548600,0.84737651,0.40012525,0.04635875,-0.73001318,-0.64516438,0.55031812,0.16999949,-0.64967836,0.12461054,0.53899859
3.38000000,0.27740033,0.77760879,-0.22959400,-0.47548600,0.84737651,0.40012525,0.04635875,-0.73001318,-0.64516438,0.55031812,0.16999949,-0.64967836,0.12461054,0.53899859
3.40000000,0.27740033,0.77760879,-0.22959400,-0.47548600,0.84737651,0.40012525,0.04635875,-0.73001318,-0.64516438,0.55031812,0.16999949,-0.64967836,0.12461054,0.53899859
3.42000000,0.27740033,0.77760879,-0.22959400,-0.47548600,0.84737651,0.40012525,0.04635875,-0.73001318,-0.64516438,0.55031812,0.16999949,-0.64967836,0.12461054,0.53899859
3.44000000,0.27740033,0.77760879,-0.22959400,-0.47548600,0.84737651,0.40012525,0.04635875,-0.73001318,-0.64516438,0.55031812,0.16999949,-0.64967836,0.12461054,0.53899859
3.46000000,0.27740033,0.77760879,-0.22959400,-0.47548600,0.84737651,0.40012525,0.04635875,-0.73001318,-0.64516438,0.55031812,0.16999949,-0.64967836,0.12461054,0.53899859
3.48000000,0.27740033,0.77760879,-0.22959400,-0.47548600,0.84737651,0.40012525,0.04635875,-0.73001318,-0.64516438,0.55031812,0.16999949,-0.64967836,0.12461054,0.53899859
3.50000000,0.27740033,0.77760879,-0.22959400,-0.47548600,0.84737651,0.40012525,0.04635875,-0.73001318,-0.64516438,0.55031812,0.16999949,-0.64967836,0.12461054,0.53899859
3.52000000,0.27740033,0.77760879,-0.22959400,-0.47548600,0.84737651,0.40012525,0.04635875,-0.73001318,-0.64516438,0.55031812,0.16999949,-0.64967836,0.12461054,0.53899859
3.54000000,0.27740033,0.77760879,-0.22959400,-0.47548600,0.84737651,0.40012525,0.04635875,-0.73001318,-0.64516438,0.55031812,0.16999949,-0.64967836,0.12461054,0.53899859
3.56000000,0.27740033,0.77760879,-0.22959400,-0.47548600,0.84737651,0.40012525,0.04635875,-0.73001318,-0.64516438,0.55031812,0.16999949,-0.64967836,0.12461054,0.53899859
3.58000000,0.27740033,0.77760879,-0.22959400,-0.47548600,0.84737651,0.40012525,0.04635875,-0.73001318,-0.64516438,0.55031812,0.16999949,-0.64967836,0.12461054,0.53899859
3.60000000,0.27740033,0.77760879,-0.22959400,-0.47548600,0.84737651,0.40012525,0.04635875,-0.73001318,-0.64516438,0.55031812,0.16999949,-0.64967836,0.12461054,0.53899859
3.62000000,0.27740033,0.77760879,-0.22959400,-0.47548600,0.84737651,0.40012525,0.04635875,-0.73001318,-0.64516438,0.55031812,0.16999949,-0.64967836,0.12461054,0.53899859
3.64000000,0.27740033,0.77760879,-0.22959400,-0.47548600,0.84737651,0.40012525,0.04635875,-0.73001318,-0.64516438,0.55031812,0.16999949,-0.64967836,0.12461054,0.53899859
3.66000000,0.27740033,0.77760879,-0.22959400,-0.47548600,0.84737651,0.40012525,0.04635875,-0.73001318,-0.64516438,0.55031812,0.16999949,-0.64967836,0.12461054,0.53899859
3.68000000,0.27740033,0.77760879,-0.22959400,-0.47548600,0.84737651,0.40012525,0.04635875,-0.73001318,-0.64516438,0.55031812,0.16999949,-0.64967836,0.12461054,0.53899859
3.70000000,0.27740033,0.77760879,-0.22959400,-0.47548600,0.84737651,0.40012525,0.04635875,-0.73001318,-0.64516438,0.55031812,0.16999949,-0.64967836,0.12461054,0.53899859
3.72000000,0.27740033,0.77760879,-0.22959400,-0.47548600,0.84737651,0.40012525,0.04635875,-0.73001318,-0.64516438,0.55031812,0.16999949,-0.64967836,0.12461054,0.53899859
3.74000000,0.27740033,0.77760879,-0.22959400,-0.47548600,0.84737651,0.40012525,0.04635875,-0.73001318,-0.64516438,0.55031812,0.16999949,-0.64967836,0.12461054,0.53899859
3.76000000,0.27740033,0.77760879,-0.22959400,-0.47548600,0.84737651,0.40012525,0.04635875,-0.73001318,-0.64516438,0.55031812,0.16999949,-0.64967836,0.12461054,0.53899859
3.78000000,0.27740033,0.77760879,-0.22959400,-0.47548600,0.84737651,0.40012525,0.04635875,-0.73001318,-0.64516438,0.55031812,0.16999949,-0.64967836,0.12461054,0.53899859
3.80000000,0.27740033,0.77760879,-0.22959400,-0.47548600,0.84737651,0.40012525,0.04635875,-0.73001318,-0.64516438,0.55031812,0.16999949,-0.64967836,0.12461054,0.53899859
3.82000000,0.27740033,0.77760879,-0.22959400,-0.47548600,0.84737651,0.40012525,0.04635875,-0.73001318,-0.64516438,0.55031812,0.16999949,-0.64967836,0.12461054,0.53899859
3.84000000,0.27740033,0.77760879,-0.22959400,-0.47548600,0.84737651,0.40012525,0.04635875,-0.73001318,-0.64516438,0.55031812,0.16999949,-0.64967836,0.12461054,0.53899859
3.86000000,0.27740033,0.77760879,-0.22959400,-0.47548600,0.84737651,0.40012525,0.04635875,-0.73001318,-0.64516438,0.55031812,0.16999949,-0.64967836,0.12461054,0.53899859
3.88000000,0.27740033,0.77760879,-0.22959400,-0.47548600,0.84737651,0.40012525,0.04635875,-0.73001318,-0.64516438,0.55031812,0.16999949,-0.64967836,0.12461054,0.53899859
3.90000000,0.27740033,0.77760879,-0.22959400,-0.47548600,0.84737651,0.40012525,0.04635875,-0.73001318,-0.64516438,0.55031812,0.16999949,-0.64967836,0.12461054,0.53899859
3.92000000,0.27740033,0.77760879,-0.22959400,-0.47548600,0.84737651,0.40012525,0.04635875,-0.73001318,-0.64516438,0.55031812,0.16999949,-0.64967836,0.12461054,0.53899859
3.94000000,0.27740033,0.77760879,-0.22959400,-0.47548600,0.84737651,0.40012525,0.04635875,-0.73001318,-0.64516438,0.55031812,0.16999949,-0.64967836,0.12461054,0.53899859
3.96000000,0.27740033,0.77760879,-0.22959400,-0.47548600,0.84737651,0.40012525,0.04635875,-0.73001318,-0.64516438,0.55031812,0.16999949,-0.64967836,0.12461054,0.53899859
3.98000000,0.27740033,0.77760879,-0.22959400,-0.47548600,0.84737651,0.40012525,0.04635875,-0.73001318,-0.64516438,0.55031812,0.16999949,-0.64967836,0.12461054,0.53899859
4.00000000,0.27740033,0.77760879,-0.22959400,-0.47548600,0.84737651,0.40012525,0.04635875,-0.73001318,-0.64516438,0.55031812,0.16999949,-0.64967836,0.12461054,0.53899859
4.02000000,0.27740033,0.77760879,-0.22959400,-0.47548600,0.84737651,0.40012525,0.04635875,-0.73001318,-0.64516438,0.55031812,0.16999949,-0.64967836,0.12461054,0.53899859
4.04000000,0.27740033,0.77760879,-0.22959400,-0.47548600,0.84737651,0.40012525,0.04635875,-0.73001318,-0.64516438,0.55031812,0.16999949,-0.64967836,0.12461054,0.53899859
4.06000000,0.27740033,0.77760879,-0.22959400,-0.47548600,0.84737651,0.40012525,0.04635875,-0.73001318,-0.64516438,0.55031812,0.16999949,-0.64967836,0.12461054,0.53899859
4.08000000,0.27740033,0.77760879,-0.22959400,-0.47548600,0.84737651,0.40012525,0.04635875,-0.73001318,-0.64516438,0.55031812,0.16999949,-0.64967836,0.12461054,0.53899859
4.10000000,0.27740033,0.77760879,-0.22959400,-0.47548600,0.84737651,0.40012525,0.04635875,-0.73001318,-0.64516438,0.55031812,0.16999949,-0.64967836,0.12461054,0.53899859
4.12000000,0.27740033,0.77760879,-0.22959400,-0.47548600,0.84737651,0.40012525,0.04635875,-0.73001318,-0.64516438,0.55031812,0.16999949,-0.64967836,0.12461054,0.53899859
4.14000000,0.27740033,0.77760879,-0.22959400,-0.47548600,0.84737651,0.40012525,0.04635875,-0.73001318,-0.64516438,0.55031812,0.16999949,-0.64967836,0.12461054,0.53899859
4.16000000,0.27740033,0.77760879,-0.22959400,-0.47548600,0.84737651,0.40012525,0.04635875,-0.73001318,-0.64516438,0.55031812,0.16999949,-0.64967836,0.12461054,0.53899859
4.18000000,0.27740033,0.77760879,-0.22959400,-0.47548600,0.84737651,0.40012525,0.04635875,-0.73001318,-0.64516438,0.55031812,0.16999949,-0.64967836,0.12461054,0.53899859
4.20000000,0.27740033,0.77760879,-0.22959400,-0.47548600,0.84737651,0.40012525,0.04635875,-0.73001318,-0.64516438,0.55031812,0.16999949,-0.64967836,0.12461054,0.53899859
4.22000000,0.27740033,0.77760879,-0.22959400,-0.47548600,0.84737651,0.40012525,0.04635875,-0.73001318,-0.64516438,0.55031812,0.16999949,-0.64967836,0.12461054,0.53899859
4.24000000,0.27740033,0.77760879,-0.22959400,-0.47548600,0.84737651,0.40012525,0.04635875,-0.73001318,-0.64516438,0.55031812,0.16999949,-0.64967836,0.12461054,0.53899859
4.26000000,0.27740033,0.77760879,-0.22959400,-0.47548600,0.84737651,0.40012525,0.04635875,-0.73001318,-0.64516438,0.55031812,0.16999949,-0.64967836,0.12461054,0.53899859
4.28000000,0.27740033,0.77760879,-0.22959400,-0.47548600,0.84737651,0.40012525,0.04635875,-0.73001318,-0.64516438,0.55031812,0.16999949,-0.64967836,0.12461054,0.53899859
4.30000000,0.27740033,0.77760879,-0.22959400,-0.47548600,0.84737651,0.40012525,0.04635875,-0.73001318,-0.64516438,0.55031812,0.16999949,-0.64967836,0.12461054,0.53899859
4.32000000,0.27740033,0.77760879,-0.22959400,-0.47548600,0.84737651,0.40012525,0.04635875,-0.73001318,-0.64516438,0.55031812,0.16999949,-0.64967836,0.12461054,0.53899859
4.34000000,0.27740033,0.77760879,-0.22959400,-0.47548600,0.84737651,0.40012525,0.04635875,-0.73001318,-0.64516438,0.55031812,0.16999949,-0.64967836,0.12461054,0.53899859
4.36000000,0.27740033,0.77760879,-0.22959400,-0.47548600,0.84737651,0.40012525,0.04635875,-0.73001318,-0.64516438,0.55031812,0.16999949,-0.64967836,0.12461054,0.53899859
4.38000000,0.27740033,0.77760879,-0.22959400,-0.47548600,0.84737651,0.40012525,0.04635875,-0.73001318,-0.64516438,0.55031812,0.16999949,-0.64967836,0.12461054,0.53899859
4.40000000,0.27740033,0.77760879,-0.22959400,-0.47548600,0.84737651,0.40012525,0.04635875,-0.73001318,-0.64516438,0.55031812,0.16999949,-0.64967836,0.12461054,0.53899859
4.42000000,0.27740033,0.77760879,-0.22959400,-0.47548600,0.84737651,0.40012525,0.04635875,-0.73001318,-0.64516438,0.55031812,0.16999949,-0.64967836,0.12461054,0.53899859
4.44000000,0.27740033,0.77760879,-0.22959400,-0.47548600,0.84737651,0.40012525,0.04635875,-0.73001318,-0.64516438,0.55031812,0.16999949,-0.64967836,0.12461054,0.53899859
4.46000000,0.27740033,0.77760879,-0.22959400,-0.47548600,0.84737651,0.40012525,0.04635875,-0.73001318,-0.64516438,0.55031812,0.16999949,-0.64967836,0.12461054,0.53899859
4.48000000,0.27740033,0.77760879,-0.22959400,-0.47548600,0.84737651,0.40012525,0.04635875,-0.73001318,-0.64516438,0.55031812,0.16999949,-0.64967836,0.12461054,0.53899859
4.50000000,0.27740033,0.77760879,-0.22959400,-0.47548600,0.84737651,0.40012525,0.04635875,-0.73001318,-0.64516438,0.55031812,0.16999949,-0.64967836,0.12461054,0.53899859
4.52000000,0.27740033,0.77760879,-0.22959400,-0.47548600,0.84737651,0.40012525,0.04635875,-0.73001318,-0.64516438,0.55031812,0.16999949,-0.64967836,0.12461054,0.53899859
4.54000000,0.27740033,0.77760879,-0.22959400,-0.47548600,0.84737651,0.40012525,0.04635875,-0.73001318,-0.64516438,0.55031812,0.16999949,-0.64967836,0.12461054,0.53899859
4.56000000,0.27740033,0.77760879,-0.22959400,-0.47548600,0.84737651,0.40012525,0.04635875,-0.73001318,-0.64516438,0.55031812,0.16999949,-0.64967836,0.12461054,0.53899859
4.58000000,0.27740033,0.77760879,-0.22959400,-0.47548600,0.84737651,0.40012525,0.04635875,-0.73001318,-0.64516438,0.55031812,0.16999949,-0.64967836,0.12461054,0.53899859
4.60000000,0.27740033,0.77760879,-0.22959400,-0.47548600,0.84737651,0.40012525,0.04635875,-0.73001318,-0.64516438,0.55031812,0.16999949,-0.64967836,0.12461054,0.53899859
4.62000000,0.27740033,0.77760879,-0.22959400,-0.47548600,0.84737651,0.40012525,0.04635875,-0.73001318,-0.64516438,0.55031812,0.16999949,-0.64967836,0.12461054,0.53899859
4.64000000,0.27740033,0.77760879,-0.22959400,-0.47548600,0.84737651,0.40012525,0.04635875,-0.73001318,-0.64516438,0.55031812,0.16999949,-0.64967836,0.12461054,0.53899859
4.66000000,0.27740033,0.77760879,-0.22959400,-0.47548600,0.84737651,0.40012525,0.04635875,-0.73001318,-0.64516438,0.55031812,0.16999949,-0.64967836,0.12461054,0.53899859
4.68000000,0.27740033,0.77760879,-0.22959400,-0.47548600,0.84737651,0.40012525,0.04635875,-0.73001318,-0.64516438,0.55031812,0.16999949,-0.64967836,0.12461054,0.53899859
4.70000000,0.27740033,0.77760879,-0.22959400,-0.47548600,0.84737651,0.40012525,0.04635875,-0.73001318,-0.64516438,0.55031812,0.16999949,-0.64967836,0.12461054,0.53899859
4.72000000,0.27740033,0.77760879,-0.22959400,-0.47548600,0.84737651,0.40012525,0.04635875,-0.73001318,-0.64516438,0.55031812,0.16999949,-0.64967836,0.12461054,0.53899859
4.74000000,0.27740033,0.77760879,-0.22959400,-0.47548600,0.84737651,0.40012525,0.04635875,-0.73001318,-0.64516438,0.55031812,0.16999949,-0.64967836,0.12461054,0.53899859
4.76000000,0.27740033,0.77760879,-0.22959400,-0.47548600,0.84737651,0.40012525,0.04635875,-0.73001318,-0.64516438,0.55031812,0.16999949,-0.64967836,0.12461054,0.53899859
4.78000000,0.27740033,0.77760879,-0.22959400,-0.47548600,0.84737651,0.40012525,0.04635875,-0.73001318,-0.64516438,0.55031812,0.16999949,-0.64967836,0.12461054,0.53899859
4.80000000,0.27740033,0.77760879,-0.22959400,-0.47548600,0.84737651,0.40012525,0.04635875,-0.73001318,-0.64516438,0.55031812,0.16999949,-0.64967836,0.12461054,0.53899859
4.82000000,0.27740033,0.77760879,-0.22959400,-0.47548600,0.84737651,0.40012525,0.04635875,-0.73001318,-0.64516438,0.55031812,0.16999949,-0.64967836,0.12461054,0.53899859
4.84000000,0.27740033,0.77760879,-0.22959400,-0.47548600,0.84737651,0.40012525,0.04635875,-0.73001318,-0.64516438,0.55031812,0.16999949,-0.64967836,0.12461054,0.53899859
4.86000000,0.27740033,0.77760879,-0.22959400,-0.47548600,0.84737651,0.40012525,0.04635875,-0.73001318,-0.64516438,0.55031812,0.16999949,-0.64967836,0.12461054,0.53899859
4.88000000,0.27740033,0.77760879,-0.22959400,-0.47548600,0.84737651,0.40012525,0.04635875,-0.73001318,-0.64516438,0.55031812,0.16999949,-0.64967836,0.12461054,0.53899859
4.90000000,0.27740033,0.77760879,-0.22959400,-0.47548600,0.84737651,0.40012525,0.04635875,-0.73001318,-0.64516438,0.55031812,0.16999949,-0.64967836,0.12461054,0.53899859
4.92000000,0.27740033,0.77760879,-0.22959400,-0.47548600,0.84737651,0.40012525,0.04635875,-0.73001318,-0.64516438,0.55031812,0.16999949,-0.64967836,0.12461054,0.53899859
4.94000000,0.27740033,0.77760879,-0.22959400,-0.47548600,0.84737651,0.40012525,0.04635875,-0.73001318,-0.64516438,0.55031812,0.16999949,-0.64967836,0.12461054,0.53899859
4.96000000,0.27740033,0.77760879,-0.22959400,-0.47548600,0.84737651,0.40012525,0.04635875,-0.73001318,-0.64516438,0.55031812,0.16999949,-0.64967836,0.12461054,0.53899859
4.98000000,0.27740033,0.77760879,-0.22959400,-0.47548600,0.84737651,0.40012525,0.04635875,-0.73001318,-0.64516438,0.55031812,0.16999949,-0.64967836,0.12461054,0.53899859
5.00000000,0.27740033,0.77760879,-0.22959400,-0.47548600,0.84737651,0.40012525,0.04635875,-0.73001318,-0.64516438,0.55031812,0.16999949,-0.64967836,0.12461054,0.53899859
5.02000000,0.27740033,0.77760879,-0.22959400,-0.47548600,0.84737651,0.40012525,0.04635875,-0.73001318,-0.64516438,0.55031812,0.16999949,-0.64967836,0.12461054,0.53899859
5.04000000,0.27740033,0.77760879,-0.22959400,-0.47548600,0.84737651,0.40012525,0.04635875,-0.73001318,-0.64516438,0.55031812,0.16999949,-0.64967836,0.12461054,0.53899859
5.06000000,0.27740033,0.77760879,-0.22959400,-0.47548600,0.84737651,0.40012525,0.04635875,-0.73001318,-0.64516438,0.55031812,0.16999949,-0.64967836,0.12461054,0.53899859
5.08000000,0.27740033,0.77760879,-0.22959400,-0.47548600,0.84737651,0.40012525,0.04635875,-0.73001318,-0.64516438,0.55031812,0.16999949,-0.64967836,0.12461054,0.53899859
5.10000000,0.27740033,0.77760879,-0.22959400,-0.47548600,0.84737651,0.40012525,0.04635875,-0.73001318,-0.64516438,0.55031812,0.16999949,-0.64967836,0.12461054,0.53899859
5.12000000,0.27740033,0.77760879,-0.22959400,-0.47548600,0.84737651,0.40012525,0.04635875,-0.73001318,-0.64516438,0.55031812,0.16999949,-0.64967836,0.12461054,0.53899859
5.14000000,0.27740033,0.77760879,-0.22959400,-0.47548600,0.84737651,0.40012525,0.04635875,-0.73001318,-0.64516438,0.55031812,0.16999949,-0.64967836,0.12461054,0.53899859
5.16000000,0.27740033,0.77760879,-0.22959400,-0.47548600,0.84737651,0.40012525,0.04635875,-0.73001318,-0.64516438,0.55031812,0.16999949,-0.64967836,0.12461054,0.53899859
5.18000000,0.27740033,0.77760879,-0.22959400,-0.47548600,0.84737651,0.40012525,0.04635875,-0.73001318,-0.64516438,0.55031812,0.16999949,-0.64967836,0.12461054,0.53899859
5.20000000,0.27740033,0.77760879,-0.22959400,-0.47548600,0.84737651,0.40012525,0.04635875,-0.73001318,-0.64516438,0.55031812,0.16999949,-0.64967836,0.12461054,0.53899859
5.22000000,0.27740033,0.77760879,-0.22959400,-0.47548600,0.84737651,0.40012525,0.04635875,-0.73001318,-0.64516438,0.55031812,0.16999949,-0.64967836,0.12461054,0.53899859
5.24000000,0.27740033,0.77760879,-0.22959400,-0.47548600,0.84737651,0.40012525,0.04635875,-0.73001318,-0.64516438,0.55031812,0.16999949,-0.64967836,0.12461054,0.53899859
5.26000000,0.27740033,0.77760879,-0.22959400,-0.47548600,0.84737651,0.40012525,0.04635875,-0.73001318,-0.64516438,0.55031812,0.16999949,-0.64967836,0.12461054,0.53899859
5.28000000,0.27740033,0.77760879,-0.22959400,-0.47548600,0.84737651,0.40012525,0.04635875,-0.73001318,-0.64516438,0.55031812,0.16999949,-0.64967836,0.12461054,0.53899859
5.30000000,0.27740033,0.77760879,-0.22959400,-0.47548600,0.84737651,0.40012525,0.04635875,-0.73001318,-0.64516438,0.55031812,0.16999949,-0.64967836,0.12461054,0.53899859
5.32000000,0.27740033,0.77760879,-0.22959400,-0.47548600,0.84737651,0.40012525,0.04635875,-0.73001318,-0.64516438,0.55031812,0.16999949,-0.64967836,0.12461054,0.53899859
5.34000000,0.27740033,0.77760879,-0.22959400,-0.47548600,0.84737651,0.40012525,0.04635875,-0.73001318,-0.64516438,0.55031812,0.16999949,-0.64967836,0.12461054,0.53899859
5.36000000,0.27740033,0.77760879,-0.22959400,-0.47548600,0.84737651,0.40012525,0.04635875,-0.73001318,-0.64516438,0.55031812,0.16999949,-0.64967836,0.12461054,0.53899859
5.38000000,0.27740033,0.77760879,-0.22959400,-0.47548600,0.84737651,0.40012525,0.04635875,-0.73001318,-0.64516438,0.55031812,0.16999949,-0.64967836,0.12461054,0.53899859
5.40000000,0.27740033,0.77760879,-0.22959400,-0.47548600,0.84737651,0.40012525,0.04635875,-0.73001318,-0.64516438,0.55031812,0.16999949,-0.64967836,0.12461054,0.53899859
5.42000000,0.27740033,0.77760879,-0.22959400,-0.47548600,0.84737651,0.40012525,0.04635875,-0.73001318,-0.64516438,0.55031812,0.16999949,-0.64967836,0.12461054,0.53899859
5.44000000,0.27740033,0.77760879,-0.22959400,-0.47548600,0.84737651,0.40012525,0.04635875,-0.73001318,-0.64516438,0.55031812,0.16999949,-0.64967836,0.12461054,0.53899859
5.46000000,0.27740033,0.77760879,-0.22959400,-0.47548600,0.84737651,0.40012525,0.04635875,-0.73001318,-0.64516438,0.55031812,0.16999949,-0.64967836,0.12461054,0.53899859
5.48000000,0.27740033,0.77760879,-0.22959400,-0.47548600,0.84737651,0.40012525,0.04635875,-0.73001318,-0.64516438,0.55031812,0.16999949,-0.64967836,0.12461054,0.53899859
5.50000000,0.27740033,0.77760879,-0.22959400,-0.47548600,0.84737651,0.40012525,0.04635875,-0.73001318,-0.64516438,0.55031812,0.16999949,-0.64967836,0.12461054,0.53899859
5.52000000,0.27740033,0.77760879,-0.22959400,-0.47548600,0.84737651,0.40012525,0.04635875,-0.73001318,-0.64516438,0.55031812,0.16999949,-0.64967836,0.12461054,0.53899859
5.54000000,0.27740033,0.77760879,-0.22959400,-0.47548600,0.84737651,0.40012525,0.04635875,-0.73001318,-0.64516438,0.55031812,0.16999949,-0.64967836,0.12461054,0.53899859
5.56000000,0.27740033,0.77760879,-0.22959400,-0.47548600,0.84737651,0.40012525,0.04635875,-0.73001318,-0.64516438,0.55031812,0.16999949,-0.64967836,0.12461054,0.53899859
5.58000000,0.27740033,0.77760879,-0.22959400,-0.47548600,0.84737651,0.40012525,0.04635875,-0.73001318,-0.64516438,0.55031812,0.16999949,-0.64967836,0.12461054,0.53899859
5.60000000,0.27740033,0.77760879,-0.22959400,-0.47548600,0.84737651,0.40012525,0.04635875,-0.73001318,-0.64516438,0.55031812,0.16999949,-0.64967836,0.12461054,0.53899859
5.62000000,0.27740033,0.77760879,-0.22959400,-0.47548600,0.84737651,0.40012525,0.04635875,-0.73001318,-0.64516438,0.55031812,0.16999949,-0.64967836,0.12461054,0.53899859
5.64000000,0.27740033,0.77760879,-0.22959400,-0.47548600,0.84737651,0.40012525,0.04635875,-0.73001318,-0.64516438,0.55031812,0.16999949,-0.64967836,0.12461054,0.53899859
5.66000000,0.27740033,0.77760879,-0.22959400,-0.47548600,0.84737651,0.40012525,0.04635875,-0.73001318,-0.64516438,0.55031812,0.16999949,-0.64967836,0.12461054,0.53899859
5.68000000,0.27740033,0.77760879,-0.22959400,-0.47548600,0.84737651,0.40012525,0.04635875,-0.73001318,-0.64516438,0.55031812,0.16999949,-0.64967836,0.12461054,0.53899859
5.70000000,0.27740033,0.77760879,-0.22959400,-0.47548600,0.84737651,0.40012525,0.04635875,-0.73001318,-0.64516438,0.55031812,0.16999949,-0.64967836,0.12461054,0.53899859
5.72000000,0.27740033,0.77760879,-0.22959400,-0.47548600,0.84737651,0.40012525,0.04635875,-0.73001318,-0.64516438,0.55031812,0.16999949,-0.64967836,0.12461054,0.53899859
5.74000000,0.27740033,0.77760879,-0.22959400,-0.47548600,0.84737651,0.40012525,0.04635875,-0.73001318,-0.64516438,0.55031812,0.16999949,-0.64967836,0.12461054,0.53899859
5.76000000,0.27740033,0.77760879,-0.22959400,-0.47548600,0.84737651,0.40012525,0.04635875,-0.73001318,-0.64516438,0.55031812,0.16999949,-0.64967836,0.12461054,0.53899859
5.78000000,0.27740033,0.77760879,-0.22959400,-0.47548600,0.84737651,0.40012525,0.04635875,-0.73001318,-0.64516438,0.55031812,0.16999949,-0.64967836,0.12461054,0.53899859
5.80000000,0.27740033,0.77760879,-0.22959400,-0.47548600,0.84737651,0.40012525,0.04635875,-0.73001318,-0.64516438,0.55031812,0.16999949,-0.64967836,0.12461054,0.53899859
5.82000000,0.27740033,0.77760879,-0.22959400,-0.47548600,0.84737651,0.40012525,0.04635875,-0.73001318,-0.64516438,0.55031812,0.16999949,-0.64967836,0.12461054,0.53899859
5.84000000,0.27740033,0.77760879,-0.22959400,-0.47548600,0.84737651,0.40012525,0.04635875,-0.73001318,-0.64516438,0.55031812,0.16999949,-0.64967836,0.12461054,0.53899859
5.86000000,0.27740033,0.77760879,-0.22959400,-0.47548600,0.84737651,0.40012525,0.04635875,-0.73001318,-0.64516438,0.55031812,0.16999949,-0.64967836,0.12461054,0.53899859
5.88000000,0.27740033,0.77760879,-0.22959400,-0.47548600,0.84737651,0.40012525,0.04635875,-0.73001318,-0.64516438,0.55031812,0.16999949,-0.64967836,0.12461054,0.53899859
5.90000000,0.27740033,0.77760879,-0.22959400,-0.47548600,0.84737651,0.40012525,0.04635875,-0.73001318,-0.64516438,0.55031812,0.16999949,-0.64967836,0.12461054,0.53899859
5.92000000,0.27740033,0.77760879,-0.22959400,-0.47548600,0.84737651,0.40012525,0.04635875,-0.73001318,-0.64516438,0.55031812,0.16999949,-0.64967836,0.12461054,0.53899859
5.94000000,0.27740033,0.77760879,-0.22959400,-0.47548600,0.84737651,0.40012525,0.04635875,-0.73001318,-0.64516438,0.55031812,0.16999949,-0.64967836,0.12461054,0.53899859
5.96000000,0.27740033,0.77760879,-0.22959400,-0.47548600,0.84737651,0.40012525,0.04635875,-0.73001318,-0.64516438,0.55031812,0.16999949,-0.64967836,0.12461054,0.53899859
5.98000000,0.27740033,0.77760879,-0.22959400,-0.47548600,0.84737651,0.40012525,0.04635875,-0.73001318,-0.64516438,0.55031812,0.16999949,-0.64967836,0.12461054,0.53899859
6.00000000,0.27740033,0.77760879,-0.22959400,-0.47548600,0.84737651,0.40012525,0.04635875,-0.73001318,-0.64516438,0.55031812,0.16999949,-0.64967836,0.12461054,0.53899859
6.02000000,0.27740033,0.77760879,-0.22959400,-0.47548600,0.84737651,0.40012525,0.04635875,-0.73001318,-0.64516438,0.55031812,0.16999949,-0.64967836,0.12461054,0.53899859
6.04000000,0.27740033,0.77760879,-0.22959400,-0.47548600,0.84737651,0.40012525,0.04635875,-0.73001318,-0.64516438,0.55031812,0.16999949,-0.64967836,0.12461054,0.53899859
6.06000000,0.27740033,0.77760879,-0.22959400,-0.47548600,0.84737651,0.40012525,0.04635875,-0.73001318,-0.64516438,0.55031812,0.16999949,-0.64967836,0.12461054,0.53899859
6.08000000,0.27740033,0.77760879,-0.22959400,-0.47548600,0.84737651,0.40012525,0.04635875,-0.73001318,-0.64516438,0.55031812,0.16999949,-0.64967836,0.12461054,0.53899859
6.10000000,0.27740033,0.77760879,-0.22959400,-0.47548600,0.84737651,0.40012525,0.04635875,-0.73001318,-0.64516438,0.55031812,0.16999949,-0.64967836,0.12461054,0.53899859
6.12000000,0.27740033,0.77760879,-0.22959400,-0.47548600,0.84737651,0.40012525,0.04635875,-0.73001318,-0.64516438,0.55031812,0.16999949,-0.64967836,0.12461054,0.53899859
6.14000000,0.27740033,0.77760879,-0.22959400,-0.47548600,0.84737651,0.40012525,0.04635875,-0.73001318,-0.64516438,0.55031812,0.16999949,-0.64967836,0.12461054,0.53899859
6.16000000,0.27740033,0.77760879,-0.22959400,-0.47548600,0.84737651,0.40012525,0.04635875,-0.73001318,-0.64516438,0.55031812,0.16999949,-0.64967836,0.12461054,0.53899859
6.18000000,0.27740033,0.77760879,-0.22959400,-0.47548600,0.84737651,0.40012525,0.04635875,-0.73001318,-0.64516438,0.55031812,0.16999949,-0.64967836,0.12461054,0.53899859
6.20000000,0.27740033,0.77760879,-0.22959400,-0.47548600,0.84737651,0.40012525,0.04635875,-0.73001318,-0.64516438,0.55031812,0.16999949,-0.64967836,0.12461054,0.53899859
6.22000000,0.27740033,0.77760879,-0.22959400,-0.47548600,0.84737651,0.40012525,0.04635875,-0.73001318,-0.64516438,0.55031812,0.16999949,-0.64967836,0.12461054,0.53899859
6.24000000,0.27740033,0.77760879,-0.22959400,-0.47548600,0.84737651,0.40012525,0.04635875,-0.73001318,-0.64516438,0.55031812,0.16999949,-0.64967836,0.12461054,0.53899859
6.26000000,0.27740033,0.77760879,-0.22959400,-0.47548600,0.84737651,0.40012525,0.04635875,-0.73001318,-0.64516438,0.55031812,0.16999949,-0.64967836,0.12461054,0.53899859
6.28000000,0.27740033,0.77760879,-0.22959400,-0.47548600,0.84737651,0.40012525,0.04635875,-0.73001318,-0.64516438,0.55031812,0.16999949,-0.64967836,0.12461054,0.53899859
6.30000000,0.27740033,0.77760879,-0.22959400,-0.47548600,0.84737651,0.40012525,0.04635875,-0.73001318,-0.64516438,0.55031812,0.16999949,-0.64967836,0.12461054,0.53899859
6.32000000,0.27740033,0.77760879,-0.22959400,-0.47548600,0.84737651,0.40012525,0.04635875,-0.73001318,-0.64516438,0.55031812,0.16999949,-0.64967836,0.12461054,0.53899859
6.34000000,0.27740033,0.77760879,-0.22959400,-0.47548600,0.84737651,0.40012525,0.04635875,-0.73001318,-0.64516438,0.55031812,0.16999949,-0.64967836,0.12461054,0.53899859
6.36000000,0.27740033,0.77760879,-0.22959400,-0.47548600,0.84737651,0.40012525,0.04635875,-0.73001318,-0.64516438,0.55031812,0.16999949,-0.64967836,0.12461054,0.53899859
6.38000000,0.27740033,0.77760879,-0.22959400,-0.47548600,0.84737651,0.40012525,0.04635875,-0.73001318,-0.64516438,0.55031812,0.16999949,-0.64967836,0.12461054,0.53899859
6.40000000,0.27740033,0.77760879,-0.22959400,-0.47548600,0.84737651,0.40012525,0.04635875,-0.73001318,-0.64516438,0.55031812,0.16999949,-0.64967836,0.12461054,0.53899859
6.42000000,0.27740033,0.77760879,-0.22959400,-0.47548600,0.84737651,0.40012525,0.04635875,-0.73001318,-0.64516438,0.55031812,0.16999949,-0.64967836,0.12461054,0.53899859
6.44000000,0.27740033,0.77760879,-0.22959400,-0.47548600,0.84737651,0.40012525,0.04635875,-0.73001318,-0.64516438,0.55031812,0.16999949,-0.64967836,0.12461054,0.53899859
6.46000000,0.27740033,0.77760879,-0.22959400,-0.47548600,0.84737651,0.40012525,0.04635875,-0.73001318,-0.64516438,0.55031812,0.16999949,-0.64967836,0.12461054,0.53899859
6.48000000,0.27740033,0.77760879,-0.22959400,-0.47548600,0.84737651,0.40012525,0.04635875,-0.73001318,-0.64516438,0.55031812,0.16999949,-0.64967836,0.12461054,0.53899859
6.50000000,0.27740033,0.77760879,-0.22959400,-0.47548600,0.84737651,0.40012525,0.04635875,-0.73001318,-0.64516438,0.55031812,0.16999949,-0.64967836,0.12461054,0.53899859
6.52000000,0.27740033,0.77760879,-0.22959400,-0.47548600,0.84737651,0.40012525,0.04635875,-0.73001318,-0.64516438,0.55031812,0.16999949,-0.64967836,0.12461054,0.53899859
6.54000000,0.27740033,0.77760879,-0.22959400,-0.47548600,0.84737651,0.40012525,0.04635875,-0.73001318,-0.64516438,0.55031812,0.16999949,-0.64967836,0.12461054,0.53899859
6.56000000,0.27740033,0.77760879,-0.22959400,-0.47548600,0.84737651,0.40012525,0.04635875,-0.73001318,-0.64516438,0.55031812,0.16999949,-0.64967836,0.12461054,0.53899859
6.58000000,0.27740033,0.77760879,-0.22959400,-0.47548600,0.84737651,0.40012525,0.04635875,-0.73001318,-0.64516438,0.55031812,0.16999949,-0.64967836,0.12461054,0.53899859
6.60000000,0.27740033,0.77760879,-0.22959400,-0.47548600,0.84737651,0.40012525,0.04635875,-0.73001318,-0.64516438,0.55031812,0.16999949,-0.64967836,0.12461054,0.53899859
6.62000000,0.27740033,0.77760879,-0.22959400,-0.47548600,0.84737651,0.40012525,0.04635875,-0.73001318,-0.64516438,0.55031812,0.16999949,-0.64967836,0.12461054,0.53899859
6.64000000,0.27740033,0.77760879,-0.22959400,-0.47548600,0.84737651,0.40012525,0.04635875,-0.73001318,-0.64516438,0.55031812,0.16999949,-0.64967836,0.12461054,0.53899859
6.66000000,0.27740033,0.77760879,-0.22959400,-0.47548600,0.84737651,0.40012525,0.04635875,-0.73001318,-0.64516438,0.55031812,0.16999949,-0.64967836,0.12461054,0.53899859
6.68000000,0.27740033,0.77760879,-0.22959400,-0.47548600,0.84737651,0.40012525,0.04635875,-0.73001318,-0.64516438,0.55031812,0.16999949,-0.64967836,0.12461054,0.53899859
6.70000000,0.27740033,0.77760879,-0.22959400,-0.47548600,0.84737651,0.40012525,0.04635875,-0.73001318,-0.64516438,0.55031812,0.16999949,-0.64967836,0.12461054,0.53899859
6.72000000,0.27740033,0.77760879,-0.22959400,-0.47548600,0.84737651,0.40012525,0.04635875,-0.73001318,-0.64516438,0.55031812,0.16999949,-0.64967836,0.12461054,0.53899859
6.74000000,0.27740033,0.77760879,-0.22959400,-0.47548600,0.84737651,0.40012525,0.04635875,-0.73001318,-0.64516438,0.55031812,0.16999949,-0.64967836,0.12461054,0.53899859
6.76000000,0.27740033,0.77760879,-0.22959400,-0.47548600,0.84737651,0.40012525,0.04635875,-0.73001318,-0.64516438,0.55031812,0.16999949,-0.64967836,0.12461054,0.53899859
6.78000000,0.27740033,0.77760879,-0.22959400,-0.47548600,0.84737651,0.40012525,0.04635875,-0.73001318,-0.64516438,0.55031812,0.16999949,-0.64967836,0.12461054,0.53899859
6.80000000,0.27740033,0.77760879,-0.22959400,-0.47548600,0.84737651,0.40012525,0.04635875,-0.73001318,-0.64516438,0.55031812,0.16999949,-0.64967836,0.12461054,0.53899859
6.82000000,0.27740033,0.77760879,-0.22959400,-0.47548600,0.84737651,0.40012525,0.04635875,-0.73001318,-0.64516438,0.55031812,0.16999949,-0.64967836,0.12461054,0.53899859
6.84000000,0.27740033,0.77760879,-0.22959400,-0.47548600,0.84737651,0.40012525,0.04635875,-0.73001318,-0.64516438,0.55031812,0.16999949,-0.64967836,0.12461054,0.53899859
6.86000000,0.27740033,0.77760879,-0.22959400,-0.47548600,0.84737651,0.40012525,0.04635875,-0.73001318,-0.64516438,0.55031812,0.16999949,-0.64967836,0.12461054,0.53899859
6.88000000,0.27740033,0.77760879,-0.22959400,-0.47548600,0.84737651,0.40012525,0.04635875,-0.73001318,-0.64516438,0.55031812,0.16999949,-0.64967836,0.12461054,0.53899859
6.90000000,0.27740033,0.77760879,-0.22959400,-0.47548600,0.84737651,0.40012525,0.04635875,-0.73001318,-0.64516438,0.55031812,0.16999949,-0.64967836,0.12461054,0.53899859
6.92000000,0.27740033,0.77760879,-0.22959400,-0.47548600,0.84737651,0.40012525,0.04635875,-0.73001318,-0.64516438,0.55031812,0.16999949,-0.64967836,0.12461054,0.53899859
6.94000000,0.27740033,0.77760879,-0.22959400,-0.47548600,0.84737651,0.40012525,0.04635875,-0.73001318,-0.64516438,0.55031812,0.16999949,-0.64967836,0.12461054,0.53899859
6.96000000,0.27740033,0.77760879,-0.22959400,-0.47548600,0.84737651,0.40012525,0.04635875,-0.73001318,-0.64516438,0.55031812,0.16999949,-0.64967836,0.12461054,0.53899859
6.98000000,0.27740033,0.77760879,-0.22959400,-0.47548600,0.84737651,0.40012525,0.04635875,-0.73001318,-0.64516438,0.55031812,0.16999949,-0.64967836,0.12461054,0.53899859
7.00000000,0.27740033,0.77760879,-0.22959400,-0.47548600,0.84737651,0.40012525,0.04635875,-0.73001318,-0.64516438,0.55031812,0.16999949,-0.64967836,0.12461054,0.53899859
7.02000000,0.27740033,0.77760879,-0.22959400,-0.47548600,0.84737651,0.40012525,0.04635875,-0.73001318,-0.64516438,0.55031812,0.16999949,-0.64967836,0.12461054,0.53899859
7.04000000,0.27740033,0.77760879,-0.22959400,-0.47548600,0.84737651,0.40012525,0.04635875,-0.73001318,-0.64516438,0.55031812,0.16999949,-0.64967836,0.12461054,0.53899859
7.06000000,0.27740033,0.77760879,-0.22959400,-0.47548600,0.84737651,0.40012525,0.04635875,-0.73001318,-0.64516438,0.55031812,0.16999949,-0.64967836,0.12461054,0.53899859
7.08000000,0.27740033,0.77760879,-0.22959400,-0.47548600,0.84737651,0.40012525,0.04635875,-0.73001318,-0.64516438,0.55031812,0.16999949,-0.64967836,0.12461054,0.53899859
7.10000000,0.27740033,0.77760879,-0.22959400,-0.47548600,0.84737651,0.40012525,0.04635875,-0.73001318,-0.64516438,0.55031812,0.16999949,-0.64967836,0.12461054,0.53899859
7.12000000,0.27740033,0.77760879,-0.22959400,-0.47548600,0.84737651,0.40012525,0.04635875,-0.73001318,-0.64516438,0.55031812,0.16999949,-0.64967836,0.12461054,0.53899859
7.14000000,0.27740033,0.77760879,-0.22959400,-0.47548600,0.84737651,0.40012525,0.04635875,-0.73001318,-0.64516438,0.55031812,0.16999949,-0.64967836,0.12461054,0.53899859
7.16000000,0.27740033,0.77760879,-0.22959400,-0.47548600,0.84737651,0.40012525,0.04635875,-0.73001318,-0.64516438,0.55031812,0.16999949,-0.64967836,0.12461054,0.53899859
7.18000000,0.27740033,0.77760879,-0.22959400,-0.47548600,0.84737651,0.40012525,0.04635875,-0.73001318,-0.64516438,0.55031812,0.16999949,-0.64967836,0.12461054,0.53899859
7.20000000,0.27740033,0.77760879,-0.22959400,-0.47548600,0.84737651,0.40012525,0.04635875,-0.73001318,-0.64516438,0.55031812,0.16999949,-0.64967836,0.12461054,0.53899859
7.22000000,0.27740033,0.77760879,-0.22959400,-0.47548600,0.84737651,0.40012525,0.04635875,-0.73001318,-0.64516438,0.55031812,0.16999949,-0.64967836,0.12461054,0.53899859
7.24000000,0.27740033,0.77760879,-0.22959400,-0.47548600,0.84737651,0.40012525,0.04635875,-0.73001318,-0.64516438,0.55031812,0.16999949,-0.64967836,0.12461054,0.53899859
7.26000000,0.27740033,0.77760879,-0.22959400,-0.47548600,0.84737651,0.40012525,0.04635875,-0.73001318,-0.64516438,0.55031812,0.16999949,-0.64967836,0.12461054,0.53899859
7.28000000,0.27740033,0.77760879,-0.22959400,-0.47548600,0.84737651,0.40012525,0.04635875,-0.73001318,-0.64516438,0.55031812,0.16999949,-0.64967836,0.12461054,0.53899859
7.30000000,0.27740033,0.77760879,-0.22959400,-0.47548600,0.84737651,0.40012525,0.04635875,-0.73001318,-0.64516438,0.55031812,0.16999949,-0.64967836,0.12461054,0.53899859
7.32000000,0.27740033,0.77760879,-0.22959400,-0.47548600,0.84737651,0.40012525,0.04635875,-0.73001318,-0.64516438,0.55031812,0.16999949,-0.64967836,0.12461054,0.53899859
7.34000000,0.27740033,0.77760879,-0.22959400,-0.47548600,0.84737651,0.40012525,0.04635875,-0.73001318,-0.64516438,0.55031812,0.16999949,-0.64967836,0.12461054,0.53899859
7.36000000,0.27740033,0.77760879,-0.22959400,-0.47548600,0.84737651,0.40012525,0.04635875,-0.73001318,-0.64516438,0.55031812,0.16999949,-0.64967836,0.12461054,0.53899859
7.38000000,0.27740033,0.77760879,-0.22959400,-0.47548600,0.84737651,0.40012525,0.04635875,-0.73001318,-0.64516438,0.55031812,0.16999949,-0.64967836,0.12461054,0.53899859
7.40000000,0.27740033,0.77760879,-0.22959400,-0.47548600,0.84737651,0.40012525,0.04635875,-0.73001318,-0.64516438,0.55031812,0.16999949,-0.64967836,0.12461054,0.53899859
7.42000000,0.27740033,0.77760879,-0.22959400,-0.47548600,0.84737651,0.40012525,0.04635875,-0.73001318,-0.64516438,0.55031812,0.16999949,-0.64967836,0.12461054,0.53899859
7.44000000,0.27740033,0.77760879,-0.22959400,-0.47548600,0.84737651,0.40012525,0.04635875,-0.73001318,-0.64516438,0.55031812,0.16999949,-0.64967836,0.12461054,0.53899859
7.46000000,0.27740033,0.77760879,-0.22959400,-0.47548600,0.84737651,0.40012525,0.04635875,-0.73001318,-0.64516438,0.55031812,0.16999949,-0.64967836,0.12461054,0.53899859
7.48000000,0.27740033,0.77760879,-0.22959400,-0.47548600,0.84737651,0.40012525,0.04635875,-0.73001318,-0.64516438,0.55031812,0.16999949,-0.64967836,0.12461054,0.53899859
7.50000000,0.27740033,0.77760879,-0.22959400,-0.47548600,0.84737651,0.40012525,0.04635875,-0.73001318,-0.64516438,0.55031812,0.16999949,-0.64967836,0.12461054,0.53899859
7.52000000,0.27740033,0.77760879,-0.22959400,-0.47548600,0.84737651,0.40012525,0.04635875,-0.73001318,-0.64516438,0.55031812,0.16999949,-0.64967836,0.12461054,0.53899859
7.54000000,0.27740033,0.77760879,-0.22959400,-0.47548600,0.84737651,0.40012525,0.04635875,-0.73001318,-0.64516438,0.55031812,0.16999949,-0.64967836,0.12461054,0.53899859
7.56000000,0.27740033,0.77760879,-0.22959400,-0.47548600,0.84737651,0.40012525,0.04635875,-0.73001318,-0.64516438,0.55031812,0.16999949,-0.64967836,0.12461054,0.53899859
7.58000000,0.27740033,0.77760879,-0.22959400,-0.47548600,0.84737651,0.40012525,0.04635875,-0.73001318,-0.64516438,0.55031812,0.16999949,-0.64967836,0.12461054,0.53899859
7.60000000,0.27740033,0.77760879,-0.22959400,-0.47548600,0.84737651,0.40012525,0.04635875,-0.73001318,-0.64516438,0.55031812,0.16999949,-0.64967836,0.12461054,0.53899859
7.62000000,0.27740033,0.77760879,-0.22959400,-0.47548600,0.84737651,0.40012525,0.04635875,-0.73001318,-0.64516438,0.55031812,0.16999949,-0.64967836,0.12461054,0.53899859
7.64000000,0.27740033,0.77760879,-0.22959400,-0.47548600,0.84737651,0.40012525,0.04635875,-0.73001318,-0.64516438,0.55031812,0.16999949,-0.64967836,0.12461054,0.53899859
7.66000000,0.27740033,0.77760879,-0.22959400,-0.47548600,0.84737651,0.40012525,0.04635875,-0.73001318,-0.64516438,0.55031812,0.16999949,-0.64967836,0.12461054,0.53899859
7.68000000,0.27740033,0.77760879,-0.22959400,-0.47548600,0.84737651,0.40012525,0.04635875,-0.73001318,-0.64516438,0.55031812,0.16999949,-0.64967836,0.12461054,0.53899859
7.70000000,0.27740033,0.77760879,-0.22959400,-0.47548600,0.84737651,0.40012525,0.04635875,-0.73001318,-0.64516438,0.55031812,0.16999949,-0.64967836,0.12461054,0.53899859
7.72000000,0.27740033,0.77760879,-0.22959400,-0.47548600,0.84737651,0.40012525,0.04635875,-0.73001318,-0.64516438,0.55031812,0.16999949,-0.64967836,0.12461054,0.53899859
7.74000000,0.27740033,0.77760879,-0.22959400,-0.47548600,0.84737651,0.40012525,0.04635875,-0.73001318,-0.64516438,0.55031812,0.16999949,-0.64967836,0.12461054,0.53899859
7.76000000,0.27740033,0.77760879,-0.22959400,-0.47548600,0.84737651,0.40012525,0.04635875,-0.73001318,-0.64516438,0.55031812,0.16999949,-0.64967836,0.12461054,0.53899859
7.78000000,0.27740033,0.77760879,-0.22959400,-0.47548600,0.84737651,0.40012525,0.04635875,-0.73001318,-0.64516438,0.55031812,0.16999949,-0.64967836,0.12461054,0.53899859
7.80000000,0.27740033,0.77760879,-0.22959400,-0.47548600,0.84737651,0.40012525,0.04635875,-0.73001318,-0.64516438,0.55031812,0.16999949,-0.64967836,0.12461054,0.53899859
7.82000000,0.27740033,0.77760879,-0.22959400,-0.47548600,0.84737651,0.40012525,0.04635875,-0.73001318,-0.64516438,0.55031812,0.16999949,-0.64967836,0.12461054,0.53899859
7.84000000,0.27740033,0.77760879,-0.22959400,-0.47548600,0.84737651,0.40012525,0.04635875,-0.73001318,-0.64516438,0.55031812,0.16999949,-0.64967836,0.12461054,0.53899859
7.86000000,0.27740033,0.77760879,-0.22959400,-0.47548600,0.84737651,0.40012525,0.04635875,-0.73001318,-0.64516438,0.55031812,0.16999949,-0.64967836,0.12461054,0.53899859
7.88000000,0.27740033,0.77760879,-0.22959400,-0.47548600,0.84737651,0.40012525,0.04635875,-0.73001318,-0.64516438,0.55031812,0.16999949,-0.64967836,0.12461054,0.53899859
7.90000000,0.27740033,0.77760879,-0.22959400,-0.47548600,0.84737651,0.40012525,0.04635875,-0.73001318,-0.64516438,0.55031812,0.16999949,-0.64967836,0.12461054,0.53899859
7.92000000,0.27740033,0.77760879,-0.22959400,-0.47548600,0.84737651,0.40012525,0.04635875,-0.73001318,-0.64516438,0.55031812,0.16999949,-0.64967836,0.12461054,0.53899859
7.94000000,0.27740033,0.77760879,-0.22959400,-0.47548600,0.84737651,0.40012525,0.04635875,-0.73001318,-0.64516438,0.55031812,0.16999949,-0.64967836,0.12461054,0.53899859
7.96000000,0.27740033,0.77760879,-0.22959400,-0.47548600,0.84737651,0.40012525,0.04635875,-0.73001318,-0.64516438,0.55031812,0.16999949,-0.64967836,0.12461054,0.53899859
7.98000000,0.27740033,0.77760879,-0.22959400,-0.47548600,0.84737651,0.40012525,0.04635875,-0.73001318,-0.64516438,0.55031812,0.16999949,-0.64967836,0.12461054,0.53899859
8.00000000,0.27740033,0.77760879,-0.22959400,-0.47548600,0.84737651,0.40012525,0.04635875,-0.73001318,-0.64516438,0.55031812,0.16999949,-0.64967836,0.12461054,0.53899859
8.02000000,0.27740033,0.77760879,-0.22959400,-0.47548600,0.84737651,0.40012525,0.04635875,-0.73001318,-0.64516438,0.55031812,0.16999949,-0.64967836,0.12461054,0.53899859
8.04000000,0.27740033,0.77760879,-0.22959400,-0.47548600,0.84737651,0.40012525,0.04635875,-0.73001318,-0.64516438,0.55031812,0.16999949,-0.64967836,0.12461054,0.53899859
8.06000000,0.27740033,0.77760879,-0.22959400,-0.47548600,0.84737651,0.40012525,0.04635875,-0.73001318,-0.64516438,0.55031812,0.16999949,-0.64967836,0.12461054,0.53899859
8.08000000,0.27740033,0.77760879,-0.22959400,-0.47548600,0.84737651,0.40012525,0.04635875,-0.73001318,-0.64516438,0.55031812,0.16999949,-0.64967836,0.12461054,0.53899859
8.10000000,0.27740033,0.77760879,-0.22959400,-0.47548600,0.84737651,0.40012525,0.04635875,-0.73001318,-0.64516438,0.55031812,0.16999949,-0.64967836,0.12461054,0.53899859
8.12000000,0.27740033,0.77760879,-0.22959400,-0.47548600,0.84737651,0.40012525,0.04635875,-0.73001318,-0.64516438,0.55031812,0.16999949,-0.64967836,0.12461054,0.53899859
8.14000000,0.27740033,0.77760879,-0.22959400,-0.47548600,0.84737651,0.40012525,0.04635875,-0.73001318,-0.64516438,0.55031812,0.16999949,-0.64967836,0.12461054,0.53899859
8.16000000,0.27740033,0.77760879,-0.22959400,-0.47548600,0.84737651,0.40012525,0.04635875,-0.73001318,-0.64516438,0.55031812,0.16999949,-0.64967836,0.12461054,0.53899859
8.18000000,0.27740033,0.77760879,-0.22959400,-0.47548600,0.84737651,0.40012525,0.04635875,-0.73001318,-0.64516438,0.55031812,0.16999949,-0.64967836,0.12461054,0.53899859
8.20000000,0.27740033,0.77760879,-0.22959400,-0.47548600,0.84737651,0.40012525,0.04635875,-0.73001318,-0.64516438,0.55031812,0.16999949,-0.64967836,0.12461054,0.53899859
8.22000000,0.27740033,0.77760879,-0.22959400,-0.47548600,0.84737651,0.40012525,0.04635875,-0.73001318,-0.64516438,0.55031812,0.16999949,-0.64967836,0.12461054,0.53899859
8.24000000,0.27740033,0.77760879,-0.22959400,-0.47548600,0.84737651,0.40012525,0.04635875,-0.73001318,-0.64516438,0.55031812,0.16999949,-0.64967836,0.12461054,0.53899859
8.26000000,0.27740033,0.77760879,-0.22959400,-0.47548600,0.84737651,0.40012525,0.04635875,-0.73001318,-0.64516438,0.55031812,0.16999949,-0.64967836,0.12461054,0.53899859
8.28000000,0.27740033,0.77760879,-0.22959400,-0.47548600,0.84737651,0.40012525,0.04635875,-0.73001318,-0.64516438,0.55031812,0.16999949,-0.64967836,0.12461054,0.53899859
8.30000000,0.27740033,0.77760879,-0.22959400,-0.47548600,0.84737651,0.40012525,0.04635875,-0.73001318,-0.64516438,0.55031812,0.16999949,-0.64967836,0.12461054,0.53899859
8.32000000,0.27740033,0.77760879,-0.22959400,-0.47548600,0.84737651,0.40012525,0.04635875,-0.73001318,-0.64516438,0.55031812,0.16999949,-0.64967836,0.12461054,0.53899859
8.34000000,0.27740033,0.77760879,-0.22959400,-0.47548600,0.84737651,0.40012525,0.04635875,-0.73001318,-0.64516438,0.55031812,0.16999949,-0.64967836,0.12461054,0.53899859
8.36000000,0.27740033,0.77760879,-0.22959400,-0.47548600,0.84737651,0.40012525,0.04635875,-0.73001318,-0.64516438,0.55031812,0.16999949,-0.64967836,0.12461054,0.53899859
8.38000000,0.27740033,0.77760879,-0.22959400,-0.47548600,0.84737651,0.40012525,0.04635875,-0.73001318,-0.64516438,0.55031812,0.16999949,-0.64967836,0.12461054,0.53899859
8.40000000,0.27740033,0.77760879,-0.22959400,-0.47548600,0.84737651,0.40012525,0.04635875,-0.73001318,-0.64516438,0.55031812,0.16999949,-0.64967836,0.12461054,0.53899859
8.42000000,0.27740033,0.77760879,-0.22959400,-0.47548600,0.84737651,0.40012525,0.04635875,-0.73001318,-0.64516438,0.55031812,0.16999949,-0.64967836,0.12461054,0.53899859
8.44000000,0.27740033,0.77760879,-0.22959400,-0.47548600,0.84737651,0.40012525,0.04635875,-0.73001318,-0.64516438,0.55031812,0.16999949,-0.64967836,0.12461054,0.53899859
8.46000000,0.27740033,0.77760879,-0.22959400,-0.47548600,0.84737651,0.40012525,0.04635875,-0.73001318,-0.64516438,0.55031812,0.16999949,-0.64967836,0.12461054,0.53899859
8.48000000,0.27740033,0.77760879,-0.22959400,-0.47548600,0.84737651,0.40012525,0.04635875,-0.73001318,-0.64516438,0.55031812,0.16999949,-0.64967836,0.12461054,0.53899859
8.50000000,0.27740033,0.77760879,-0.22959400,-0.47548600,0.84737651,0.40012525,0.04635875,-0.73001318,-0.64516438,0.55031812,0.16999949,-0.64967836,0.12461054,0.53899859
8.52000000,0.27740033,0.77760879,-0.22959400,-0.47548600,0.84737651,0.40012525,0.04635875,-0.73001318,-0.64516438,0.55031812,0.16999949,-0.64967836,0.12461054,0.53899859
8.54000000,0.27740033,0.77760879,-0.22959400,-0.47548600,0.84737651,0.40012525,0.04635875,-0.73001318,-0.64516438,0.55031812,0.16999949,-0.64967836,0.12461054,0.53899859
8.56000000,0.27740033,0.77760879,-0.22959400,-0.47548600,0.84737651,0.40012525,0.04635875,-0.73001318,-0.64516438,0.55031812,0.16999949,-0.64967836,0.12461054,0.53899859
8.58000000,0.27740033,0.77760879,-0.22959400,-0.47548600,0.84737651,0.40012525,0.04635875,-0.73001318,-0.64516438,0.55031812,0.16999949,-0.64967836,0.12461054,0.53899859
8.60000000,0.27740033,0.77760879,-0.22959400,-0.47548600,0.84737651,0.40012525,0.04635875,-0.73001318,-0.64516438,0.55031812,0.16999949,-0.64967836,0.12461054,0.53899859
8.62000000,0.27740033,0.77760879,-0.22959400,-0.47548600,0.84737651,0.40012525,0.04635875,-0.73001318,-0.64516438,0.55031812,0.16999949,-0.64967836,0.12461054,0.53899859
8.64000000,0.27740033,0.77760879,-0.22959400,-0.47548600,0.84737651,0.40012525,0.04635875,-0.73001318,-0.64516438,0.55031812,0.16999949,-0.64967836,0.12461054,0.53899859
8.66000000,0.27740033,0.77760879,-0.22959400,-0.47548600,0.84737651,0.40012525,0.04635875,-0.73001318,-0.64516438,0.55031812,0.16999949,-0.64967836,0.12461054,0.53899859
8.68000000,0.27740033,0.77760879,-0.22959400,-0.47548600,0.84737651,0.40012525,0.04635875,-0.73001318,-0.64516438,0.55031812,0.16999949,-0.64967836,0.12461054,0.53899859
8.70000000,0.27740033,0.77760879,-0.22959400,-0.47548600,0.84737651,0.40012525,0.04635875,-0.73001318,-0.64516438,0.55031812,0.16999949,-0.64967836,0.12461054,0.53899859
8.72000000,0.27740033,0.77760879,-0.22959400,-0.47548600,0.84737651,0.40012525,0.04635875,-0.73001318,-0.64516438,0.55031812,0.16999949,-0.64967836,0.12461054,0.53899859
8.74000000,0.27740033,0.77760879,-0.22959400,-0.47548600,0.84737651,0.40012525,0.04635875,-0.73001318,-0.64516438,0.55031812,0.16999949,-0.64967836,0.12461054,0.53899859
8.76000000,0.27740033,0.77760879,-0.22959400,-0.47548600,0.84737651,0.40012525,0.04635875,-0.73001318,-0.64516438,0.55031812,0.16999949,-0.64967836,0.12461054,0.53899859
8.78000000,0.27740033,0.77760879,-0.22959400,-0.47548600,0.84737651,0.40012525,0.04635875,-0.73001318,-0.64516438,0.55031812,0.16999949,-0.64967836,0.12461054,0.53899859
8.80000000,0.27740033,0.77760879,-0.22959400,-0.47548600,0.84737651,0.40012525,0.04635875,-0.73001318,-0.64516438,0.55031812,0.16999949,-0.64967836,0.12461054,0.53899859
8.82000000,0.27740033,0.77760879,-0.22959400,-0.47548600,0.84737651,0.40012525,0.04635875,-0.73001318,-0.64516438,0.55031812,0.16999949,-0.64967836,0.12461054,0.53899859
8.84000000,0.27740033,0.77760879,-0.22959400,-0.47548600,0.84737651,0.40012525,0.04635875,-0.73001318,-0.64516438,0.55031812,0.16999949,-0.64967836,0.12461054,0.53899859
8.86000000,0.27740033,0.77760879,-0.22959400,-0.47548600,0.84737651,0.40012525,0.04635875,-0.73001318,-0.64516438,0.55031812,0.16999949,-0.64967836,0.12461054,0.53899859
8.88000000,0.27740033,0.77760879,-0.22959400,-0.47548600,0.84737651,0.40012525,0.04635875,-0.73001318,-0.64516438,0.55031812,0.16999949,-0.64967836,0.12461054,0.53899859
8.90000000,0.27740033,0.77760879,-0.22959400,-0.47548600,0.84737651,0.40012525,0.04635875,-0.73001318,-0.64516438,0.55031812,0.16999949,-0.64967836,0.12461054,0.53899859
8.92000000,0.27740033,0.77760879,-0.22959400,-0.47548600,0.84737651,0.40012525,0.04635875,-0.73001318,-0.64516438,0.55031812,0.16999949,-0.64967836,0.12461054,0.53899859
8.94000000,0.27740033,0.77760879,-0.22959400,-0.47548600,0.84737651,0.40012525,0.04635875,-0.73001318,-0.64516438,0.55031812,0.16999949,-0.64967836,0.12461054,0.53899859
8.96000000,0.27740033,0.77760879,-0.22959400,-0.47548600,0.84737651,0.40012525,0.04635875,-0.73001318,-0.64516438,0.55031812,0.16999949,-0.64967836,0.12461054,0.53899859
8.98000000,0.27740033,0.77760879,-0.22959400,-0.47548600,0.84737651,0.40012525,0.04635875,-0.73001318,-0.64516438,0.55031812,0.16999949,-0.64967836,0.12461054,0.53899859
9.00000000,0.27740033,0.77760879,-0.22959400,-0.47548600,0.84737651,0.40012525,0.04635875,-0.73001318,-0.64516438,0.55031812,0.16999949,-0.64967836,0.12461054,0.53899859
9.02000000,0.27740033,0.77760879,-0.22959400,-0.47548600,0.84737651,0.40012525,0.04635875,-0.73001318,-0.64516438,0.55031812,0.16999949,-0.64967836,0.12461054,0.53899859
9.04000000,0.27740033,0.77760879,-0.22959400,-0.47548600,0.84737651,0.40012525,0.04635875,-0.73001318,-0.64516438,0.55031812,0.16999949,-0.64967836,0.12461054,0.53899859
9.06000000,0.27740033,0.77760879,-0.22959400,-0.47548600,0.84737651,0.40012525,0.04635875,-0.73001318,-0.64516438,0.55031812,0.16999949,-0.64967836,0.12461054,0.53899859
9.08000000,0.27740033,0.77760879,-0.22959400,-0.47548600,0.84737651,0.40012525,0.04635875,-0.73001318,-0.64516438,0.55031812,0.16999949,-0.64967836,0.12461054,0.53899859
9.10000000,0.27740033,0.77760879,-0.22959400,-0.47548600,0.84737651,0.40012525,0.04635875,-0.73001318,-0.64516438,0.55031812,0.16999949,-0.64967836,0.12461054,0.53899859
9.12000000,0.27740033,0.77760879,-0.22959400,-0.47548600,0.84737651,0.40012525,0.04635875,-0.73001318,-0.64516438,0.55031812,0.16999949,-0.64967836,0.12461054,0.53899859
9.14000000,0.27740033,0.77760879,-0.22959400,-0.47548600,0.84737651,0.40012525,0.04635875,-0.73001318,-0.64516438,0.55031812,0.16999949,-0.64967836,0.12461054,0.53899859
9.16000000,0.27740033,0.77760879,-0.22959400,-0.47548600,0.84737651,0.40012525,0.04635875,-0.73001318,-0.64516438,0.55031812,0.16999949,-0.64967836,0.12461054,0.53899859
9.18000000,0.27740033,0.77760879,-0.22959400,-0.47548600,0.84737651,0.40012525,0.04635875,-0.73001318,-0.64516438,0.55031812,0.16999949,-0.64967836,0.12461054,0.53899859
9.20000000,0.27740033,0.77760879,-0.22959400,-0.47548600,0.84737651,0.40012525,0.04635875,-0.73001318,-0.64516438,0.55031812,0.16999949,-0.64967836,0.12461054,0.53899859
9.22000000,0.27740033,0.77760879,-0.22959400,-0.47548600,0.84737651,0.40012525,0.04635875,-0.73001318,-0.64516438,0.55031812,0.16999949,-0.64967836,0.12461054,0.53899859
9.24000000,0.27740033,0.77760879,-0.22959400,-0.47548600,0.84737651,0.40012525,0.04635875,-0.73001318,-0.64516438,0.55031812,0.16999949,-0.64967836,0.12461054,0.53899859
9.26000000,0.27740033,0.77760879,-0.22959400,-0.47548600,0.84737651,0.40012525,0.04635875,-0.73001318,-0.64516438,0.55031812,0.16999949,-0.64967836,0.12461054,0.53899859
9.28000000,0.27740033,0.77760879,-0.22959400,-0.47548600,0.84737651,0.40012525,0.04635875,-0.73001318,-0.64516438,0.55031812,0.16999949,-0.64967836,0.12461054,0.53899859
9.30000000,0.27740033,0.77760879,-0.22959400,-0.47548600,0.84737651,0.40012525,0.04635875,-0.73001318,-0.64516438,0.55031812,0.16999949,-0.64967836,0.12461054,0.53899859
9.32000000,0.27740033,0.77760879,-0.22959400,-0.47548600,0.84737651,0.40012525,0.04635875,-0.73001318,-0.64516438,0.55031812,0.16999949,-0.64967836,0.12461054,0.53899859
9.34000000,0.27740033,0.77760879,-0.22959400,-0.47548600,0.84737651,0.40012525,0.04635875,-0.73001318,-0.64516438,0.55031812,0.16999949,-0.64967836,0.12461054,0.53899859
9.36000000,0.27740033,0.77760879,-0.22959400,-0.47548600,0.84737651,0.40012525,0.04635875,-0.73001318,-0.64516438,0.55031812,0.16999949,-0.64967836,0.12461054,0.53899859
9.38000000,0.27740033,0.77760879,-0.22959400,-0.47548600,0.84737651,0.40012525,0.04635875,-0.73001318,-0.64516438,0.55031812,0.16999949,-0.64967836,0.12461054,0.53899859
9.40000000,0.27740033,0.77760879,-0.22959400,-0.47548600,0.84737651,0.40012525,0.04635875,-0.73001318,-0.64516438,0.55031812,0.16999949,-0.64967836,0.12461054,0.53899859
9.42000000,0.27740033,0.77760879,-0.22959400,-0.47548600,0.84737651,0.40012525,0.04635875,-0.73001318,-0.64516438,0.55031812,0.16999949,-0.64967836,0.12461054,0.53899859
9.44000000,0.27740033,0.77760879,-0.22959400,-0.47548600,0.84737651,0.40012525,0.04635875,-0.73001318,-0.64516438,0.55031812,0.16999949,-0.64967836,0.12461054,0.53899859
9.46000000,0.27740033,0.77760879,-0.22959400,-0.47548600,0.84737651,0.40012525,0.04635875,-0.73001318,-0.64516438,0.55031812,0.16999949,-0.64967836,0.12461054,0.53899859
9.48000000,0.27740033,0.77760879,-0.22959400,-0.47548600,0.84737651,0.40012525,0.04635875,-0.73001318,-0.64516438,0.55031812,0.16999949,-0.64967836,0.12461054,0.53899859
9.50000000,0.27740033,0.77760879,-0.22959400,-0.47548600,0.84737651,0.40012525,0.04635875,-0.73001318,-0.64516438,0.55031812,0.16999949,-0.64967836,0.12461054,0.53899859
9.52000000,0.27740033,0.77760879,-0.22959400,-0.47548600,0.84737651,0.40012525,0.04635875,-0.73001318,-0.64516438,0.55031812,0.16999949,-0.64967836,0.12461054,0.53899859
9.54000000,0.27740033,0.77760879,-0.22959400,-0.47548600,0.84737651,0.40012525,0.04635875,-0.73001318,-0.64516438,0.55031812,0.16999949,-0.64967836,0.12461054,0.53899859
9.56000000,0.27740033,0.77760879,-0.22959400,-0.47548600,0.84737651,0.40012525,0.04635875,-0.73001318,-0.64516438,0.55031812,0.16999949,-0.64967836,0.12461054,0.53899859
9.58000000,0.27740033,0.77760879,-0.22959400,-0.47548600,0.84737651,0.40012525,0.04635875,-0.73001318,-0.64516438,0.55031812,0.16999949,-0.64967836,0.12461054,0.53899859
9.60000000,0.27740033,0.77760879,-0.22959400,-0.47548600,0.84737651,0.40012525,0.04635875,-0.73001318,-0.64516438,0.55031812,0.16999949,-0.64967836,0.12461054,0.53899859
9.62000000,0.27740033,0.77760879,-0.22959400,-0.47548600,0.84737651,0.40012525,0.04635875,-0.73001318,-0.64516438,0.55031812,0.16999949,-0.64967836,0.12461054,0.53899859
9.64000000,0.27740033,0.77760879,-0.22959400,-0.47548600,0.84737651,0.40012525,0.04635875,-0.73001318,-0.64516438,0.55031812,0.16999949,-0.64967836,0.12461054,0.53899859
9.66000000,0.27740033,0.77760879,-0.22959400,-0.47548600,0.84737651,0.40012525,0.04635875,-0.73001318,-0.64516438,0.55031812,0.16999949,-0.64967836,0.12461054,0.53899859
9.68000000,0.27740033,0.77760879,-0.22959400,-0.47548600,0.84737651,0.40012525,0.04635875,-0.73001318,-0.64516438,0.55031812,0.16999949,-0.64967836,0.12461054,0.53899859
9.70000000,0.27740033,0.77760879,-0.22959400,-0.47548600,0.84737651,0.40012525,0.04635875,-0.73001318,-0.64516438,0.55031812,0.16999949,-0.64967836,0.12461054,0.53899859
9.72000000,0.27740033,0.77760879,-0.22959400,-0.47548600,0.84737651,0.40012525,0.04635875,-0.73001318,-0.64516438,0.55031812,0.16999949,-0.64967836,0.12461054,0.53899859
9.74000000,0.27740033,0.77760879,-0.22959400,-0.47548600,0.84737651,0.40012525,0.04635875,-0.73001318,-0.64516438,0.55031812,0.16999949,-0.64967836,0.12461054,0.53899859
9.76000000,0.27740033,0.77760879,-0.22959400,-0.47548600,0.84737651,0.40012525,0.04635875,-0.73001318,-0.64516438,0.55031812,0.16999949,-0.64967836,0.12461054,0.53899859
9.78000000,0.27740033,0.77760879,-0.22959400,-0.47548600,0.84737651,0.40012525,0.04635875,-0.73001318,-0.64516438,0.55031812,0.16999949,-0.64967836,0.12461054,0.53899859
9.80000000,0.27740033,0.77760879,-0.22959400,-0.47548600,0.84737651,0.40012525,0.04635875,-0.73001318,-0.64516438,0.55031812,0.16999949,-0.64967836,0.12461054,0.53899859
9.82000000,0.27740033,0.77760879,-0.22959400,-0.47548600,0.84737651,0.40012525,0.04635875,-0.73001318,-0.64516438,0.55031812,0.16999949,-0.64967836,0.12461054,0.53899859
9.84000000,0.27740033,0.77760879,-0.22959400,-0.47548600,0.84737651,0.40012525,0.04635875,-0.73001318,-0.64516438,0.55031812,0.16999949,-0.64967836,0.12461054,0.53899859
9.86000000,0.27740033,0.77760879,-0.22959400,-0.47548600,0.84737651,0.40012525,0.04635875,-0.73001318,-0.64516438,0.55031812,0.16999949,-0.64967836,0.12461054,0.53899859
9.88000000,0.27740033,0.77760879,-0.22959400,-0.47548600,0.84737651,0.40012525,0.04635875,-0.73001318,-0.64516438,0.55031812,0.16999949,-0.64967836,0.12461054,0.53899859
9.90000000,0.27740033,0.77760879,-0.22959400,-0.47548600,0.84737651,0.40012525,0.04635875,-0.73001318,-0.64516438,0.55031812,0.16999949,-0.64967836,0.12461054,0.53899859
9.92000000,0.27740033,0.77760879,-0.22959400,-0.47548600,0.84737651,0.40012525,0.04635875,-0.73001318,-0.64516438,0.55031812,0.16999949,-0.64967836,0.12461054,0.53899859
9.94000000,0.27740033,0.77760879,-0.22959400,-0.47548600,0.84737651,0.40012525,0.04635875,-0.73001318,-0.64516438,0.55031812,0.16999949,-0.64967836,0.12461054,0.53899859
9.96000000,0.27740033,0.77760879,-0.22959400,-0.47548600,0.84737651,0.40012525,0.04635875,-0.73001318,-0.64516438,0.55031812,0.16999949,-0.64967836,0.12461054,0.53899859
9.98000000,0.27740033,0.77760879,-0.22959400,-0.47548600,0.84737651,0.40012525,0.04635875,-0.73001318,-0.64516438,0.55031812,0.16999949,-0.64967836,0.12461054,0.53899859
10.00000000,0.27740033,0.77760879,-0.22959400,-0.47548600,0.84737651,0.40012525,0.04635875,-0.73001318,-0.64516438,0.55031812,0.16999949,-0.64967836,0.12461054,0.53899859
10.02000000,0.27740033,0.77760879,-0.22959400,-0.47548600,0.84737651,0.40012525,0.04635875,-0.73001318,-0.64516438,0.55031812,0.16999949,-0.64967836,0.12461054,0.53899859
10.04000000,0.27740033,0.77760879,-0.22959400,-0.47548600,0.84737651,0.40012525,0.04635875,-0.73001318,-0.64516438,0.55031812,0.16999949,-0.64967836,0.12461054,0.53899859
10.06000000,0.27740033,0.77760879,-0.22959400,-0.47548600,0.84737651,0.40012525,0.04635875,-0.73001318,-0.64516438,0.55031812,0.16999949,-0.64967836,0.12461054,0.53899859
10.08000000,0.27740033,0.77760879,-0.22959400,-0.47548600,0.84737651,0.40012525,0.04635875,-0.73001318,-0.64516438,0.55031812,0.16999949,-0.64967836,0.12461054,0.53899859
10.10000000,0.27740033,0.77760879,-0.22959400,-0.47548600,0.84737651,0.40012525,0.04635875,-0.73001318,-0.64516438,0.55031812,0.16999949,-0.64967836,0.12461054,0.53899859
10.12000000,0.27740033,0.77760879,-0.22959400,-0.47548600,0.84737651,0.40012525,0.04635875,-0.73001318,-0.64516438,0.55031812,0.16999949,-0.64967836,0.12461054,0.53899859
10.14000000,0.27740033,0.77760879,-0.22959400,-0.47548600,0.84737651,0.40012525,0.04635875,-0.73001318,-0.64516438,0.55031812,0.16999949,-0.64967836,0.12461054,0.53899859
10.16000000,0.27740033,0.77760879,-0.22959400,-0.47548600,0.84737651,0.40012525,0.04635875,-0.73001318,-0.64516438,0.55031812,0.16999949,-0.64967836,0.12461054,0.53899859
10.18000000,0.27740033,0.77760879,-0.22959400,-0.47548600,0.84737651,0.40012525,0.04635875,-0.73001318,-0.64516438,0.55031812,0.16999949,-0.64967836,0.12461054,0.53899859
10.20000000,0.27740033,0.77760879,-0.22959400,-0.47548600,0.84737651,0.40012525,0.04635875,-0.73001318,-0.64516438,0.55031812,0.16999949,-0.64967836,0.12461054,0.53899859
10.22000000,0.27740033,0.77760879,-0.22959400,-0.47548600,0.84737651,0.40012525,0.04635875,-0.73001318,-0.64516438,0.55031812,0.16999949,-0.64967836,0.12461054,0.53899859
10.24000000,0.27740033,0.77760879,-0.22959400,-0.47548600,0.84737651,0.40012525,0.04635875,-0.73001318,-0.64516438,0.55031812,0.16999949,-0.64967836,0.12461054,0.53899859
10.26000000,0.27740033,0.77760879,-0.22959400,-0.47548600,0.84737651,0.40012525,0.04635875,-0.73001318,-0.64516438,0.55031812,0.16999949,-0.64967836,0.12461054,0.53899859
10.28000000,0.27740033,0.77760879,-0.22959400,-0.47548600,0.84737651,0.40012525,0.04635875,-0.73001318,-0.64516438,0.55031812,0.16999949,-0.64967836,0.12461054,0.53899859
10.30000000,0.27740033,0.77760879,-0.22959400,-0.47548600,0.84737651,0.40012525,0.04635875,-0.73001318,-0.64516438,0.55031812,0.16999949,-0.64967836,0.12461054,0.53899859
10.32000000,0.27740033,0.77760879,-0.22959400,-0.47548600,0.84737651,0.40012525,0.04635875,-0.73001318,-0.64516438,0.55031812,0.16999949,-0.64967836,0.12461054,0.53899859
10.34000000,0.27740033,0.77760879,-0.22959400,-0.47548600,0.84737651,0.40012525,0.04635875,-0.73001318,-0.64516438,0.55031812,0.16999949,-0.64967836,0.12461054,0.53899859
10.36000000,0.27740033,0.77760879,-0.22959400,-0.47548600,0.84737651,0.40012525,0.04635875,-0.73001318,-0.64516438,0.55031812,0.16999949,-0.64967836,0.12461054,0.53899859
10.38000000,0.27740033,0.77760879,-0.22959400,-0.47548600,0.84737651,0.40012525,0.04635875,-0.73001318,-0.64516438,0.55031812,0.16999949,-0.64967836,0.12461054,0.53899859
10.40000000,0.27740033,0.77760879,-0.22959400,-0.47548600,0.84737651,0.40012525,0.04635875,-0.73001318,-0.64516438,0.55031812,0.16999949,-0.64967836,0.12461054,0.53899859
10.42000000,0.27740033,0.77760879,-0.22959400,-0.47548600,0.84737651,0.40012525,0.04635875,-0.73001318,-0.64516438,0.55031812,0.16999949,-0.64967836,0.12461054,0.53899859
10.44000000,0.27740033,0.77760879,-0.22959400,-0.47548600,0.84737651,0.40012525,0.04635875,-0.73001318,-0.64516438,0.55031812,0.16999949,-0.64967836,0.12461054,0.53899859
10.46000000,0.27740033,0.77760879,-0.22959400,-0.47548600,0.84737651,0.40012525,0.04635875,-0.73001318,-0.64516438,0.55031812,0.16999949,-0.64967836,0.12461054,0.53899859
10.48000000,0.27740033,0.77760879,-0.22959400,-0.47548600,0.84737651,0.40012525,0.04635875,-0.73001318,-0.64516438,0.55031812,0.16999949,-0.64967836,0.12461054,0.53899859
10.50000000,0.27740033,0.77760879,-0.22959400,-0.47548600,0.84737651,0.40012525,0.04635875,-0.73001318,-0.64516438,0.55031812,0.16999949,-0.64967836,0.12461054,0.53899859
10.52000000,0.27740033,0.77760879,-0.22959400,-0.47548600,0.84737651,0.40012525,0.04635875,-0.73001318,-0.64516438,0.55031812,0.16999949,-0.64967836,0.12461054,0.53899859
10.54000000,0.27740033,0.77760879,-0.22959400,-0.47548600,0.84737651,0.40012525,0.04635875,-0.73001318,-0.64516438,0.55031812,0.16999949,-0.64967836,0.12461054,0.53899859
10.56000000,0.27740033,0.77760879,-0.22959400,-0.47548600,0.84737651,0.40012525,0.04635875,-0.73001318,-0.64516438,0.55031812,0.16999949,-0.64967836,0.12461054,0.53899859
10.58000000,0.27740033,0.77760879,-0.22959400,-0.47548600,0.84737651,0.40012525,0.04635875,-0.73001318,-0.64516438,0.55031812,0.16999949,-0.64967836,0.12461054,0.53899859
10.60000000,0.27740033,0.77760879,-0.22959400,-0.47548600,0.84737651,0.40012525,0.04635875,-0.73001318,-0.64516438,0.55031812,0.16999949,-0.64967836,0.12461054,0.53899859
10.62000000,0.27740033,0.77760879,-0.22959400,-0.47548600,0.84737651,0.40012525,0.04635875,-0.73001318,-0.64516438,0.55031812,0.16999949,-0.64967836,0.12461054,0.53899859
10.64000000,0.27740033,0.77760879,-0.22959400,-0.47548600,0.84737651,0.40012525,0.04635875,-0.73001318,-0.64516438,0.55031812,0.16999949,-0.64967836,0.12461054,0.53899859
10.66000000,0.27740033,0.77760879,-0.22959400,-0.47548600,0.84737651,0.40012525,0.04635875,-0.73001318,-0.64516438,0.55031812,0.16999949,-0.64967836,0.12461054,0.53899859
10.68000000,0.27740033,0.77760879,-0.22959400,-0.47548600,0.84737651,0.40012525,0.04635875,-0.73001318,-0.64516438,0.55031812,0.16999949,-0.64967836,0.12461054,0.53899859
10.70000000,0.27740033,0.77760879,-0.22959400,-0.47548600,0.84737651,0.40012525,0.04635875,-0.73001318,-0.64516438,0.55031812,0.16999949,-0.64967836,0.12461054,0.53899859
10.72000000,0.27740033,0.77760879,-0.22959400,-0.47548600,0.84737651,0.40012525,0.04635875,-0.73001318,-0.64516438,0.55031812,0.16999949,-0.64967836,0.12461054,0.53899859
10.74000000,0.27740033,0.77760879,-0.22959400,-0.47548600,0.84737651,0.40012525,0.04635875,-0.73001318,-0.64516438,0.55031812,0.16999949,-0.64967836,0.12461054,0.53899859
10.76000000,0.27740033,0.77760879,-0.22959400,-0.47548600,0.84737651,0.40012525,0.04635875,-0.73001318,-0.64516438,0.55031812,0.16999949,-0.64967836,0.12461054,0.53899859
10.78000000,0.27740033,0.77760879,-0.22959400,-0.47548600,0.84737651,0.40012525,0.04635875,-0.73001318,-0.64516438,0.55031812,0.16999949,-0.64967836,0.12461054,0.53899859
10.80000000,0.27740033,0.77760879,-0.22959400,-0.47548600,0.84737651,0.40012525,0.04635875,-0.73001318,-0.64516438,0.55031812,0.16999949,-0.64967836,0.12461054,0.53899859
10.82000000,0.27740033,0.77760879,-0.22959400,-0.47548600,0.84737651,0.40012525,0.04635875,-0.73001318,-0.64516438,0.55031812,0.16999949,-0.64967836,0.12461054,0.53899859
10.84000000,0.27740033,0.77760879,-0.22959400,-0.47548600,0.84737651,0.40012525,0.04635875,-0.73001318,-0.64516438,0.55031812,0.16999949,-0.64967836,0.12461054,0.53899859
10.86000000,0.27740033,0.77760879,-0.22959400,-0.47548600,0.84737651,0.40012525,0.04635875,-0.73001318,-0.64516438,0.55031812,0.16999949,-0.64967836,0.12461054,0.53899859
10.88000000,0.27740033,0.77760879,-0.22959400,-0.47548600,0.84737651,0.40012525,0.04635875,-0.73001318,-0.64516438,0.55031812,0.16999949,-0.64967836,0.12461054,0.53899859
10.90000000,0.27740033,0.77760879,-0.22959400,-0.47548600,0.84737651,0.40012525,0.04635875,-0.73001318,-0.64516438,0.55031812,0.16999949,-0.64967836,0.12461054,0.53899859
10.92000000,0.27740033,0.77760879,-0.22959400,-0.47548600,0.84737651,0.40012525,0.04635875,-0.73001318,-0.64516438,0.55031812,0.16999949,-0.64967836,0.12461054,0.53899859
10.94000000,0.27740033,0.77760879,-0.22959400,-0.47548600,0.84737651,0.40012525,0.04635875,-0.73001318,-0.64516438,0.55031812,0.16999949,-0.64967836,0.12461054,0.53899859
10.96000000,0.27740033,0.77760879,-0.22959400,-0.47548600,0.84737651,0.40012525,0.04635875,-0.73001318,-0.64516438,0.55031812,0.16999949,-0.64967836,0.12461054,0.53899859
10.98000000,0.27740033,0.77760879,-0.22959400,-0.47548600,0.84737651,0.40012525,0.04635875,-0.73001318,-0.64516438,0.55031812,0.16999949,-0.64967836,0.12461054,0.53899859
11.00000000,0.27740033,0.77760879,-0.22959400,-0.47548600,0.84737651,0.40012525,0.04635875,-0.73001318,-0.64516438,0.55031812,0.16999949,-0.64967836,0.12461054,0.53899859
11.02000000,0.27740033,0.77760879,-0.22959400,-0.47548600,0.84737651,0.40012525,0.04635875,-0.73001318,-0.64516438,0.55031812,0.16999949,-0.64967836,0.12461054,0.53899859
11.04000000,0.27740033,0.77760879,-0.22959400,-0.47548600,0.84737651,0.40012525,0.04635875,-0.73001318,-0.64516438,0.55031812,0.16999949,-0.64967836,0.12461054,0.53899859
11.06000000,0.27740033,0.77760879,-0.22959400,-0.47548600,0.84737651,0.40012525,0.04635875,-0.73001318,-0.64516438,0.55031812,0.16999949,-0.64967836,0.12461054,0.53899859
11.08000000,0.27740033,0.77760879,-0.22959400,-0.47548600,0.84737651,0.40012525,0.04635875,-0.73001318,-0.64516438,0.55031812,0.16999949,-0.64967836,0.12461054,0.53899859
11.10000000,0.27740033,0.77760879,-0.22959400,-0.47548600,0.84737651,0.40012525,0.04635875,-0.73001318,-0.64516438,0.55031812,0.16999949,-0.64967836,0.12461054,0.53899859
11.12000000,0.27740033,0.77760879,-0.22959400,-0.47548600,0.84737651,0.40012525,0.04635875,-0.73001318,-0.64516438,0.55031812,0.16999949,-0.64967836,0.12461054,0.53899859
11.14000000,0.27740033,0.77760879,-0.22959400,-0.47548600,0.84737651,0.40012525,0.04635875,-0.73001318,-0.64516438,0.55031812,0.16999949,-0.64967836,0.12461054,0.53899859
11.16000000,0.27740033,0.77760879,-0.22959400,-0.47548600,0.84737651,0.40012525,0.04635875,-0.73001318,-0.64516438,0.55031812,0.16999949,-0.64967836,0.12461054,0.53899859
11.18000000,0.27740033,0.77760879,-0.22959400,-0.47548600,0.84737651,0.40012525,0.04635875,-0.73001318,-0.64516438,0.55031812,0.16999949,-0.64967836,0.12461054,0.53899859
11.20000000,0.27740033,0.77760879,-0.22959400,-0.47548600,0.84737651,0.40012525,0.04635875,-0.73001318,-0.64516438,0.55031812,0.16999949,-0.64967836,0.12461054,0.53899859
11.22000000,0.27740033,0.77760879,-0.22959400,-0.47548600,0.84737651,0.40012525,0.04635875,-0.73001318,-0.64516438,0.55031812,0.16999949,-0.64967836,0.12461054,0.53899859
11.24000000,0.27740033,0.77760879,-0.22959400,-0.47548600,0.84737651,0.40012525,0.04635875,-0.73001318,-0.64516438,0.55031812,0.16999949,-0.64967836,0.12461054,0.53899859
11.26000000,0.27740033,0.77760879,-0.22959400,-0.47548600,0.84737651,0.40012525,0.04635875,-0.73001318,-0.64516438,0.55031812,0.16999949,-0.64967836,0.12461054,0.53899859
11.28000000,0.27740033,0.77760879,-0.22959400,-0.47548600,0.84737651,0.40012525,0.04635875,-0.73001318,-0.64516438,0.55031812,0.16999949,-0.64967836,0.12461054,0.53899859
11.30000000,0.27740033,0.77760879,-0.22959400,-0.47548600,0.84737651,0.40012525,0.04635875,-0.73001318,-0.64516438,0.55031812,0.16999949,-0.64967836,0.12461054,0.53899859
11.32000000,0.27740033,0.77760879,-0.22959400,-0.47548600,0.84737651,0.40012525,0.04635875,-0.73001318,-0.64516438,0.55031812,0.16999949,-0.64967836,0.12461054,0.53899859
11.34000000,0.27740033,0.77760879,-0.22959400,-0.47548600,0.84737651,0.40012525,0.04635875,-0.73001318,-0.64516438,0.55031812,0.16999949,-0.64967836,0.12461054,0.53899859
11.36000000,0.27740033,0.77760879,-0.22959400,-0.47548600,0.84737651,0.40012525,0.04635875,-0.73001318,-0.64516438,0.55031812,0.16999949,-0.64967836,0.12461054,0.53899859
11.38000000,0.27740033,0.77760879,-0.22959400,-0.47548600,0.84737651,0.40012525,0.04635875,-0.73001318,-0.64516438,0.55031812,0.16999949,-0.64967836,0.12461054,0.53899859
11.40000000,0.27740033,0.77760879,-0.22959400,-0.47548600,0.84737651,0.40012525,0.04635875,-0.73001318,-0.64516438,0.55031812,0.16999949,-0.64967836,0.12461054,0.53899859
11.42000000,0.27740033,0.77760879,-0.22959400,-0.47548600,0.84737651,0.40012525,0.04635875,-0.73001318,-0.64516438,0.55031812,0.16999949,-0.64967836,0.12461054,0.53899859
11.44000000,0.27740033,0.77760879,-0.22959400,-0.47548600,0.84737651,0.40012525,0.04635875,-0.73001318,-0.64516438,0.55031812,0.16999949,-0.64967836,0.12461054,0.53899859
11.46000000,0.27740033,0.77760879,-0.22959400,-0.47548600,0.84737651,0.40012525,0.04635875,-0.73001318,-0.64516438,0.55031812,0.16999949,-0.64967836,0.12461054,0.53899859
11.48000000,0.27740033,0.77760879,-0.22959400,-0.47548600,0.84737651,0.40012525,0.04635875,-0.73001318,-0.64516438,0.55031812,0.16999949,-0.64967836,0.12461054,0.53899859
11.50000000,0.27740033,0.77760879,-0.22959400,-0.47548600,0.84737651,0.40012525,0.04635875,-0.73001318,-0.64516438,0.55031812,0.16999949,-0.64967836,0.12461054,0.53899859
11.52000000,0.27740033,0.77760879,-0.22959400,-0.47548600,0.84737651,0.40012525,0.04635875,-0.73001318,-0.64516438,0.55031812,0.16999949,-0.64967836,0.12461054,0.53899859
11.54000000,0.27740033,0.77760879,-0.22959400,-0.47548600,0.84737651,0.40012525,0.04635875,-0.73001318,-0.64516438,0.55031812,0.16999949,-0.64967836,0.12461054,0.53899859
11.56000000,0.27740033,0.77760879,-0.22959400,-0.47548600,0.84737651,0.40012525,0.04635875,-0.73001318,-0.64516438,0.55031812,0.16999949,-0.64967836,0.12461054,0.53899859
11.58000000,0.27740033,0.77760879,-0.22959400,-0.47548600,0.84737651,0.40012525,0.04635875,-0.73001318,-0.64516438,0.55031812,0.16999949,-0.64967836,0.12461054,0.53899859
11.60000000,0.27740033,0.77760879,-0.22959400,-0.47548600,0.84737651,0.40012525,0.04635875,-0.73001318,-0.64516438,0.55031812,0.16999949,-0.64967836,0.12461054,0.53899859
11.62000000,0.27740033,0.77760879,-0.22959400,-0.47548600,0.84737651,0.40012525,0.04635875,-0.73001318,-0.64516438,0.55031812,0.16999949,-0.64967836,0.12461054,0.53899859
11.64000000,0.27740033,0.77760879,-0.22959400,-0.47548600,0.84737651,0.40012525,0.04635875,-0.73001318,-0.64516438,0.55031812,0.16999949,-0.64967836,0.12461054,0.53899859
11.66000000,0.27740033,0.77760879,-0.22959400,-0.47548600,0.84737651,0.40012525,0.04635875,-0.73001318,-0.64516438,0.55031812,0.16999949,-0.64967836,0.12461054,0.53899859
11.68000000,0.27740033,0.77760879,-0.22959400,-0.47548600,0.84737651,0.40012525,0.04635875,-0.73001318,-0.64516438,0.55031812,0.16999949,-0.64967836,0.12461054,0.53899859
