gracetata/LocomotionHEC/legged_lab/Reference Data/ArmHack/StandPerturb/TestData/ArmOnly/poses/synthesized/synthesized_arm_pose_01_seed20260714_hold20s_50hz.csv
time_s,left_shoulder_pitch_joint,left_shoulder_roll_joint,left_shoulder_yaw_joint,left_elbow_joint,left_wrist_roll_joint,left_wrist_pitch_joint,left_wrist_yaw_joint,right_shoulder_pitch_joint,right_shoulder_roll_joint,right_shoulder_yaw_joint,right_elbow_joint,right_wrist_roll_joint,right_wrist_pitch_joint,right_wrist_yaw_joint
0.00000000,-0.26806911,0.81615129,-0.32947771,-0.36948638,0.63449621,0.25769815,-0.47130231,0.27843663,-0.77841100,0.22944881,-0.47519271,-0.84815483,0.40067427,-0.04657445
0.02000000,-0.26806911,0.81615129,-0.32947771,-0.36948638,0.63449621,0.25769815,-0.47130231,0.27843663,-0.77841100,0.22944881,-0.47519271,-0.84815483,0.40067427,-0.04657445
0.04000000,-0.26806911,0.81615129,-0.32947771,-0.36948638,0.63449621,0.25769815,-0.47130231,0.27843663,-0.77841100,0.22944881,-0.47519271,-0.84815483,0.40067427,-0.04657445
0.06000000,-0.26806911,0.81615129,-0.32947771,-0.36948638,0.63449621,0.25769815,-0.47130231,0.27843663,-0.77841100,0.22944881,-0.47519271,-0.84815483,0.40067427,-0.04657445
0.08000000,-0.26806911,0.81615129,-0.32947771,-0.36948638,0.63449621,0.25769815,-0.47130231,0.27843663,-0.77841100,0.22944881,-0.47519271,-0.84815483,0.40067427,-0.04657445
0.10000000,-0.26806911,0.81615129,-0.32947771,-0.36948638,0.63449621,0.25769815,-0.47130231,0.27843663,-0.77841100,0.22944881,-0.47519271,-0.84815483,0.40067427,-0.04657445
0.12000000,-0.26806911,0.81615129,-0.32947771,-0.36948638,0.63449621,0.25769815,-0.47130231,0.27843663,-0.77841100,0.22944881,-0.47519271,-0.84815483,0.40067427,-0.04657445
0.14000000,-0.26806911,0.81615129,-0.32947771,-0.36948638,0.63449621,0.25769815,-0.47130231,0.27843663,-0.77841100,0.22944881,-0.47519271,-0.84815483,0.40067427,-0.04657445
0.16000000,-0.26806911,0.81615129,-0.32947771,-0.36948638,0.63449621,0.25769815,-0.47130231,0.27843663,-0.77841100,0.22944881,-0.47519271,-0.84815483,0.40067427,-0.04657445
0.18000000,-0.26806911,0.81615129,-0.32947771,-0.36948638,0.63449621,0.25769815,-0.47130231,0.27843663,-0.77841100,0.22944881,-0.47519271,-0.84815483,0.40067427,-0.04657445
0.20000000,-0.26806911,0.81615129,-0.32947771,-0.36948638,0.63449621,0.25769815,-0.47130231,0.27843663,-0.77841100,0.22944881,-0.47519271,-0.84815483,0.40067427,-0.04657445
0.22000000,-0.26806911,0.81615129,-0.32947771,-0.36948638,0.63449621,0.25769815,-0.47130231,0.27843663,-0.77841100,0.22944881,-0.47519271,-0.84815483,0.40067427,-0.04657445
0.24000000,-0.26806911,0.81615129,-0.32947771,-0.36948638,0.63449621,0.25769815,-0.47130231,0.27843663,-0.77841100,0.22944881,-0.47519271,-0.84815483,0.40067427,-0.04657445
0.26000000,-0.26806911,0.81615129,-0.32947771,-0.36948638,0.63449621,0.25769815,-0.47130231,0.27843663,-0.77841100,0.22944881,-0.47519271,-0.84815483,0.40067427,-0.04657445
0.28000000,-0.26806911,0.81615129,-0.32947771,-0.36948638,0.63449621,0.25769815,-0.47130231,0.27843663,-0.77841100,0.22944881,-0.47519271,-0.84815483,0.40067427,-0.04657445
0.30000000,-0.26806911,0.81615129,-0.32947771,-0.36948638,0.63449621,0.25769815,-0.47130231,0.27843663,-0.77841100,0.22944881,-0.47519271,-0.84815483,0.40067427,-0.04657445
0.32000000,-0.26806911,0.81615129,-0.32947771,-0.36948638,0.63449621,0.25769815,-0.47130231,0.27843663,-0.77841100,0.22944881,-0.47519271,-0.84815483,0.40067427,-0.04657445
0.34000000,-0.26806911,0.81615129,-0.32947771,-0.36948638,0.63449621,0.25769815,-0.47130231,0.27843663,-0.77841100,0.22944881,-0.47519271,-0.84815483,0.40067427,-0.04657445
0.36000000,-0.26806911,0.81615129,-0.32947771,-0.36948638,0.63449621,0.25769815,-0.47130231,0.27843663,-0.77841100,0.22944881,-0.47519271,-0.84815483,0.40067427,-0.04657445
0.38000000,-0.26806911,0.81615129,-0.32947771,-0.36948638,0.63449621,0.25769815,-0.47130231,0.27843663,-0.77841100,0.22944881,-0.47519271,-0.84815483,0.40067427,-0.04657445
0.40000000,-0.26806911,0.81615129,-0.32947771,-0.36948638,0.63449621,0.25769815,-0.47130231,0.27843663,-0.77841100,0.22944881,-0.47519271,-0.84815483,0.40067427,-0.04657445
0.42000000,-0.26806911,0.81615129,-0.32947771,-0.36948638,0.63449621,0.25769815,-0.47130231,0.27843663,-0.77841100,0.22944881,-0.47519271,-0.84815483,0.40067427,-0.04657445
0.44000000,-0.26806911,0.81615129,-0.32947771,-0.36948638,0.63449621,0.25769815,-0.47130231,0.27843663,-0.77841100,0.22944881,-0.47519271,-0.84815483,0.40067427,-0.04657445
0.46000000,-0.26806911,0.81615129,-0.32947771,-0.36948638,0.63449621,0.25769815,-0.47130231,0.27843663,-0.77841100,0.22944881,-0.47519271,-0.84815483,0.40067427,-0.04657445
0.48000000,-0.26806911,0.81615129,-0.32947771,-0.36948638,0.63449621,0.25769815,-0.47130231,0.27843663,-0.77841100,0.22944881,-0.47519271,-0.84815483,0.40067427,-0.04657445
0.50000000,-0.26806911,0.81615129,-0.32947771,-0.36948638,0.63449621,0.25769815,-0.47130231,0.27843663,-0.77841100,0.22944881,-0.47519271,-0.84815483,0.40067427,-0.04657445
0.52000000,-0.26806911,0.81615129,-0.32947771,-0.36948638,0.63449621,0.25769815,-0.47130231,0.27843663,-0.77841100,0.22944881,-0.47519271,-0.84815483,0.40067427,-0.04657445
0.54000000,-0.26806911,0.81615129,-0.32947771,-0.36948638,0.63449621,0.25769815,-0.47130231,0.27843663,-0.77841100,0.22944881,-0.47519271,-0.84815483,0.40067427,-0.04657445
0.56000000,-0.26806911,0.81615129,-0.32947771,-0.36948638,0.63449621,0.25769815,-0.47130231,0.27843663,-0.77841100,0.22944881,-0.47519271,-0.84815483,0.40067427,-0.04657445
0.58000000,-0.26806911,0.81615129,-0.32947771,-0.36948638,0.63449621,0.25769815,-0.47130231,0.27843663,-0.77841100,0.22944881,-0.47519271,-0.84815483,0.40067427,-0.04657445
0.60000000,-0.26806911,0.81615129,-0.32947771,-0.36948638,0.63449621,0.25769815,-0.47130231,0.27843663,-0.77841100,0.22944881,-0.47519271,-0.84815483,0.40067427,-0.04657445
0.62000000,-0.26806911,0.81615129,-0.32947771,-0.36948638,0.63449621,0.25769815,-0.47130231,0.27843663,-0.77841100,0.22944881,-0.47519271,-0.84815483,0.40067427,-0.04657445
0.64000000,-0.26806911,0.81615129,-0.32947771,-0.36948638,0.63449621,0.25769815,-0.47130231,0.27843663,-0.77841100,0.22944881,-0.47519271,-0.84815483,0.40067427,-0.04657445
0.66000000,-0.26806911,0.81615129,-0.32947771,-0.36948638,0.63449621,0.25769815,-0.47130231,0.27843663,-0.77841100,0.22944881,-0.47519271,-0.84815483,0.40067427,-0.04657445
0.68000000,-0.26806911,0.81615129,-0.32947771,-0.36948638,0.63449621,0.25769815,-0.47130231,0.27843663,-0.77841100,0.22944881,-0.47519271,-0.84815483,0.40067427,-0.04657445
0.70000000,-0.26806911,0.81615129,-0.32947771,-0.36948638,0.63449621,0.25769815,-0.47130231,0.27843663,-0.77841100,0.22944881,-0.47519271,-0.84815483,0.40067427,-0.04657445
0.72000000,-0.26806911,0.81615129,-0.32947771,-0.36948638,0.63449621,0.25769815,-0.47130231,0.27843663,-0.77841100,0.22944881,-0.47519271,-0.84815483,0.40067427,-0.04657445
0.74000000,-0.26806911,0.81615129,-0.32947771,-0.36948638,0.63449621,0.25769815,-0.47130231,0.27843663,-0.77841100,0.22944881,-0.47519271,-0.84815483,0.40067427,-0.04657445
0.76000000,-0.26806911,0.81615129,-0.32947771,-0.36948638,0.63449621,0.25769815,-0.47130231,0.27843663,-0.77841100,0.22944881,-0.47519271,-0.84815483,0.40067427,-0.04657445
0.78000000,-0.26806911,0.81615129,-0.32947771,-0.36948638,0.63449621,0.25769815,-0.47130231,0.27843663,-0.77841100,0.22944881,-0.47519271,-0.84815483,0.40067427,-0.04657445
0.80000000,-0.26806911,0.81615129,-0.32947771,-0.36948638,0.63449621,0.25769815,-0.47130231,0.27843663,-0.77841100,0.22944881,-0.47519271,-0.84815483,0.40067427,-0.04657445
0.82000000,-0.26806911,0.81615129,-0.32947771,-0.36948638,0.63449621,0.25769815,-0.47130231,0.27843663,-0.77841100,0.22944881,-0.47519271,-0.84815483,0.40067427,-0.04657445
0.84000000,-0.26806911,0.81615129,-0.32947771,-0.36948638,0.63449621,0.25769815,-0.47130231,0.27843663,-0.77841100,0.22944881,-0.47519271,-0.84815483,0.40067427,-0.04657445
0.86000000,-0.26806911,0.81615129,-0.32947771,-0.36948638,0.63449621,0.25769815,-0.47130231,0.27843663,-0.77841100,0.22944881,-0.47519271,-0.84815483,0.40067427,-0.04657445
0.88000000,-0.26806911,0.81615129,-0.32947771,-0.36948638,0.63449621,0.25769815,-0.47130231,0.27843663,-0.77841100,0.22944881,-0.47519271,-0.84815483,0.40067427,-0.04657445
0.90000000,-0.26806911,0.81615129,-0.32947771,-0.36948638,0.63449621,0.25769815,-0.47130231,0.27843663,-0.77841100,0.22944881,-0.47519271,-0.84815483,0.40067427,-0.04657445
0.92000000,-0.26806911,0.81615129,-0.32947771,-0.36948638,0.63449621,0.25769815,-0.47130231,0.27843663,-0.77841100,0.22944881,-0.47519271,-0.84815483,0.40067427,-0.04657445
0.94000000,-0.26806911,0.81615129,-0.32947771,-0.36948638,0.63449621,0.25769815,-0.47130231,0.27843663,-0.77841100,0.22944881,-0.47519271,-0.84815483,0.40067427,-0.04657445
0.96000000,-0.26806911,0.81615129,-0.32947771,-0.36948638,0.63449621,0.25769815,-0.47130231,0.27843663,-0.77841100,0.22944881,-0.47519271,-0.84815483,0.40067427,-0.04657445
0.98000000,-0.26806911,0.81615129,-0.32947771,-0.36948638,0.63449621,0.25769815,-0.47130231,0.27843663,-0.77841100,0.22944881,-0.47519271,-0.84815483,0.40067427,-0.04657445
1.00000000,-0.26806911,0.81615129,-0.32947771,-0.36948638,0.63449621,0.25769815,-0.47130231,0.27843663,-0.77841100,0.22944881,-0.47519271,-0.84815483,0.40067427,-0.04657445
1.02000000,-0.26806911,0.81615129,-0.32947771,-0.36948638,0.63449621,0.25769815,-0.47130231,0.27843663,-0.77841100,0.22944881,-0.47519271,-0.84815483,0.40067427,-0.04657445
1.04000000,-0.26806911,0.81615129,-0.32947771,-0.36948638,0.63449621,0.25769815,-0.47130231,0.27843663,-0.77841100,0.22944881,-0.47519271,-0.84815483,0.40067427,-0.04657445
1.06000000,-0.26806911,0.81615129,-0.32947771,-0.36948638,0.63449621,0.25769815,-0.47130231,0.27843663,-0.77841100,0.22944881,-0.47519271,-0.84815483,0.40067427,-0.04657445
1.08000000,-0.26806911,0.81615129,-0.32947771,-0.36948638,0.63449621,0.25769815,-0.47130231,0.27843663,-0.77841100,0.22944881,-0.47519271,-0.84815483,0.40067427,-0.04657445
1.10000000,-0.26806911,0.81615129,-0.32947771,-0.36948638,0.63449621,0.25769815,-0.47130231,0.27843663,-0.77841100,0.22944881,-0.47519271,-0.84815483,0.40067427,-0.04657445
1.12000000,-0.26806911,0.81615129,-0.32947771,-0.36948638,0.63449621,0.25769815,-0.47130231,0.27843663,-0.77841100,0.22944881,-0.47519271,-0.84815483,0.40067427,-0.04657445
1.14000000,-0.26806911,0.81615129,-0.32947771,-0.36948638,0.63449621,0.25769815,-0.47130231,0.27843663,-0.77841100,0.22944881,-0.47519271,-0.84815483,0.40067427,-0.04657445
1.16000000,-0.26806911,0.81615129,-0.32947771,-0.36948638,0.63449621,0.25769815,-0.47130231,0.27843663,-0.77841100,0.22944881,-0.47519271,-0.84815483,0.40067427,-0.04657445
1.18000000,-0.26806911,0.81615129,-0.32947771,-0.36948638,0.63449621,0.25769815,-0.47130231,0.27843663,-0.77841100,0.22944881,-0.47519271,-0.84815483,0.40067427,-0.04657445
1.20000000,-0.26806911,0.81615129,-0.32947771,-0.36948638,0.63449621,0.25769815,-0.47130231,0.27843663,-0.77841100,0.22944881,-0.47519271,-0.84815483,0.40067427,-0.04657445
1.22000000,-0.26806911,0.81615129,-0.32947771,-0.36948638,0.63449621,0.25769815,-0.47130231,0.27843663,-0.77841100,0.22944881,-0.47519271,-0.84815483,0.40067427,-0.04657445
1.24000000,-0.26806911,0.81615129,-0.32947771,-0.36948638,0.63449621,0.25769815,-0.47130231,0.27843663,-0.77841100,0.22944881,-0.47519271,-0.84815483,0.40067427,-0.04657445
1.26000000,-0.26806911,0.81615129,-0.32947771,-0.36948638,0.63449621,0.25769815,-0.47130231,0.27843663,-0.77841100,0.22944881,-0.47519271,-0.84815483,0.40067427,-0.04657445
1.28000000,-0.26806911,0.81615129,-0.32947771,-0.36948638,0.63449621,0.25769815,-0.47130231,0.27843663,-0.77841100,0.22944881,-0.47519271,-0.84815483,0.40067427,-0.04657445
1.30000000,-0.26806911,0.81615129,-0.32947771,-0.36948638,0.63449621,0.25769815,-0.47130231,0.27843663,-0.77841100,0.22944881,-0.47519271,-0.84815483,0.40067427,-0.04657445
1.32000000,-0.26806911,0.81615129,-0.32947771,-0.36948638,0.63449621,0.25769815,-0.47130231,0.27843663,-0.77841100,0.22944881,-0.47519271,-0.84815483,0.40067427,-0.04657445
1.34000000,-0.26806911,0.81615129,-0.32947771,-0.36948638,0.63449621,0.25769815,-0.47130231,0.27843663,-0.77841100,0.22944881,-0.47519271,-0.84815483,0.40067427,-0.04657445
1.36000000,-0.26806911,0.81615129,-0.32947771,-0.36948638,0.63449621,0.25769815,-0.47130231,0.27843663,-0.77841100,0.22944881,-0.47519271,-0.84815483,0.40067427,-0.04657445
1.38000000,-0.26806911,0.81615129,-0.32947771,-0.36948638,0.63449621,0.25769815,-0.47130231,0.27843663,-0.77841100,0.22944881,-0.47519271,-0.84815483,0.40067427,-0.04657445
1.40000000,-0.26806911,0.81615129,-0.32947771,-0.36948638,0.63449621,0.25769815,-0.47130231,0.27843663,-0.77841100,0.22944881,-0.47519271,-0.84815483,0.40067427,-0.04657445
1.42000000,-0.26806911,0.81615129,-0.32947771,-0.36948638,0.63449621,0.25769815,-0.47130231,0.27843663,-0.77841100,0.22944881,-0.47519271,-0.84815483,0.40067427,-0.04657445
1.44000000,-0.26806911,0.81615129,-0.32947771,-0.36948638,0.63449621,0.25769815,-0.47130231,0.27843663,-0.77841100,0.22944881,-0.47519271,-0.84815483,0.40067427,-0.04657445
1.46000000,-0.26806911,0.81615129,-0.32947771,-0.36948638,0.63449621,0.25769815,-0.47130231,0.27843663,-0.77841100,0.22944881,-0.47519271,-0.84815483,0.40067427,-0.04657445
1.48000000,-0.26806911,0.81615129,-0.32947771,-0.36948638,0.63449621,0.25769815,-0.47130231,0.27843663,-0.77841100,0.22944881,-0.47519271,-0.84815483,0.40067427,-0.04657445
1.50000000,-0.26806911,0.81615129,-0.32947771,-0.36948638,0.63449621,0.25769815,-0.47130231,0.27843663,-0.77841100,0.22944881,-0.47519271,-0.84815483,0.40067427,-0.04657445
1.52000000,-0.26806911,0.81615129,-0.32947771,-0.36948638,0.63449621,0.25769815,-0.47130231,0.27843663,-0.77841100,0.22944881,-0.47519271,-0.84815483,0.40067427,-0.04657445
1.54000000,-0.26806911,0.81615129,-0.32947771,-0.36948638,0.63449621,0.25769815,-0.47130231,0.27843663,-0.77841100,0.22944881,-0.47519271,-0.84815483,0.40067427,-0.04657445
1.56000000,-0.26806911,0.81615129,-0.32947771,-0.36948638,0.63449621,0.25769815,-0.47130231,0.27843663,-0.77841100,0.22944881,-0.47519271,-0.84815483,0.40067427,-0.04657445
1.58000000,-0.26806911,0.81615129,-0.32947771,-0.36948638,0.63449621,0.25769815,-0.47130231,0.27843663,-0.77841100,0.22944881,-0.47519271,-0.84815483,0.40067427,-0.04657445
1.60000000,-0.26806911,0.81615129,-0.32947771,-0.36948638,0.63449621,0.25769815,-0.47130231,0.27843663,-0.77841100,0.22944881,-0.47519271,-0.84815483,0.40067427,-0.04657445
1.62000000,-0.26806911,0.81615129,-0.32947771,-0.36948638,0.63449621,0.25769815,-0.47130231,0.27843663,-0.77841100,0.22944881,-0.47519271,-0.84815483,0.40067427,-0.04657445
1.64000000,-0.26806911,0.81615129,-0.32947771,-0.36948638,0.63449621,0.25769815,-0.47130231,0.27843663,-0.77841100,0.22944881,-0.47519271,-0.84815483,0.40067427,-0.04657445
1.66000000,-0.26806911,0.81615129,-0.32947771,-0.36948638,0.63449621,0.25769815,-0.47130231,0.27843663,-0.77841100,0.22944881,-0.47519271,-0.84815483,0.40067427,-0.04657445
1.68000000,-0.26806911,0.81615129,-0.32947771,-0.36948638,0.63449621,0.25769815,-0.47130231,0.27843663,-0.77841100,0.22944881,-0.47519271,-0.84815483,0.40067427,-0.04657445
1.70000000,-0.26806911,0.81615129,-0.32947771,-0.36948638,0.63449621,0.25769815,-0.47130231,0.27843663,-0.77841100,0.22944881,-0.47519271,-0.84815483,0.40067427,-0.04657445
1.72000000,-0.26806911,0.81615129,-0.32947771,-0.36948638,0.63449621,0.25769815,-0.47130231,0.27843663,-0.77841100,0.22944881,-0.47519271,-0.84815483,0.40067427,-0.04657445
1.74000000,-0.26806911,0.81615129,-0.32947771,-0.36948638,0.63449621,0.25769815,-0.47130231,0.27843663,-0.77841100,0.22944881,-0.47519271,-0.84815483,0.40067427,-0.04657445
1.76000000,-0.26806911,0.81615129,-0.32947771,-0.36948638,0.63449621,0.25769815,-0.47130231,0.27843663,-0.77841100,0.22944881,-0.47519271,-0.84815483,0.40067427,-0.04657445
1.78000000,-0.26806911,0.81615129,-0.32947771,-0.36948638,0.63449621,0.25769815,-0.47130231,0.27843663,-0.77841100,0.22944881,-0.47519271,-0.84815483,0.40067427,-0.04657445
1.80000000,-0.26806911,0.81615129,-0.32947771,-0.36948638,0.63449621,0.25769815,-0.47130231,0.27843663,-0.77841100,0.22944881,-0.47519271,-0.84815483,0.40067427,-0.04657445
1.82000000,-0.26806911,0.81615129,-0.32947771,-0.36948638,0.63449621,0.25769815,-0.47130231,0.27843663,-0.77841100,0.22944881,-0.47519271,-0.84815483,0.40067427,-0.04657445
1.84000000,-0.26806911,0.81615129,-0.32947771,-0.36948638,0.63449621,0.25769815,-0.47130231,0.27843663,-0.77841100,0.22944881,-0.47519271,-0.84815483,0.40067427,-0.04657445
1.86000000,-0.26806911,0.81615129,-0.32947771,-0.36948638,0.63449621,0.25769815,-0.47130231,0.27843663,-0.77841100,0.22944881,-0.47519271,-0.84815483,0.40067427,-0.04657445
1.88000000,-0.26806911,0.81615129,-0.32947771,-0.36948638,0.63449621,0.25769815,-0.47130231,0.27843663,-0.77841100,0.22944881,-0.47519271,-0.84815483,0.40067427,-0.04657445
1.90000000,-0.26806911,0.81615129,-0.32947771,-0.36948638,0.63449621,0.25769815,-0.47130231,0.27843663,-0.77841100,0.22944881,-0.47519271,-0.84815483,0.40067427,-0.04657445
1.92000000,-0.26806911,0.81615129,-0.32947771,-0.36948638,0.63449621,0.25769815,-0.47130231,0.27843663,-0.77841100,0.22944881,-0.47519271,-0.84815483,0.40067427,-0.04657445
1.94000000,-0.26806911,0.81615129,-0.32947771,-0.36948638,0.63449621,0.25769815,-0.47130231,0.27843663,-0.77841100,0.22944881,-0.47519271,-0.84815483,0.40067427,-0.04657445
1.96000000,-0.26806911,0.81615129,-0.32947771,-0.36948638,0.63449621,0.25769815,-0.47130231,0.27843663,-0.77841100,0.22944881,-0.47519271,-0.84815483,0.40067427,-0.04657445
1.98000000,-0.26806911,0.81615129,-0.32947771,-0.36948638,0.63449621,0.25769815,-0.47130231,0.27843663,-0.77841100,0.22944881,-0.47519271,-0.84815483,0.40067427,-0.04657445
2.00000000,-0.26806911,0.81615129,-0.32947771,-0.36948638,0.63449621,0.25769815,-0.47130231,0.27843663,-0.77841100,0.22944881,-0.47519271,-0.84815483,0.40067427,-0.04657445
2.02000000,-0.26806911,0.81615129,-0.32947771,-0.36948638,0.63449621,0.25769815,-0.47130231,0.27843663,-0.77841100,0.22944881,-0.47519271,-0.84815483,0.40067427,-0.04657445
2.04000000,-0.26806911,0.81615129,-0.32947771,-0.36948638,0.63449621,0.25769815,-0.47130231,0.27843663,-0.77841100,0.22944881,-0.47519271,-0.84815483,0.40067427,-0.04657445
2.06000000,-0.26806911,0.81615129,-0.32947771,-0.36948638,0.63449621,0.25769815,-0.47130231,0.27843663,-0.77841100,0.22944881,-0.47519271,-0.84815483,0.40067427,-0.04657445
2.08000000,-0.26806911,0.81615129,-0.32947771,-0.36948638,0.63449621,0.25769815,-0.47130231,0.27843663,-0.77841100,0.22944881,-0.47519271,-0.84815483,0.40067427,-0.04657445
2.10000000,-0.26806911,0.81615129,-0.32947771,-0.36948638,0.63449621,0.25769815,-0.47130231,0.27843663,-0.77841100,0.22944881,-0.47519271,-0.84815483,0.40067427,-0.04657445
2.12000000,-0.26806911,0.81615129,-0.32947771,-0.36948638,0.63449621,0.25769815,-0.47130231,0.27843663,-0.77841100,0.22944881,-0.47519271,-0.84815483,0.40067427,-0.04657445
2.14000000,-0.26806911,0.81615129,-0.32947771,-0.36948638,0.63449621,0.25769815,-0.47130231,0.27843663,-0.77841100,0.22944881,-0.47519271,-0.84815483,0.40067427,-0.04657445
2.16000000,-0.26806911,0.81615129,-0.32947771,-0.36948638,0.63449621,0.25769815,-0.47130231,0.27843663,-0.77841100,0.22944881,-0.47519271,-0.84815483,0.40067427,-0.04657445
2.18000000,-0.26806911,0.81615129,-0.32947771,-0.36948638,0.63449621,0.25769815,-0.47130231,0.27843663,-0.77841100,0.22944881,-0.47519271,-0.84815483,0.40067427,-0.04657445
2.20000000,-0.26806911,0.81615129,-0.32947771,-0.36948638,0.63449621,0.25769815,-0.47130231,0.27843663,-0.77841100,0.22944881,-0.47519271,-0.84815483,0.40067427,-0.04657445
2.22000000,-0.26806911,0.81615129,-0.32947771,-0.36948638,0.63449621,0.25769815,-0.47130231,0.27843663,-0.77841100,0.22944881,-0.47519271,-0.84815483,0.40067427,-0.04657445
2.24000000,-0.26806911,0.81615129,-0.32947771,-0.36948638,0.63449621,0.25769815,-0.47130231,0.27843663,-0.77841100,0.22944881,-0.47519271,-0.84815483,0.40067427,-0.04657445
2.26000000,-0.26806911,0.81615129,-0.32947771,-0.36948638,0.63449621,0.25769815,-0.47130231,0.27843663,-0.77841100,0.22944881,-0.47519271,-0.84815483,0.40067427,-0.04657445
2.28000000,-0.26806911,0.81615129,-0.32947771,-0.36948638,0.63449621,0.25769815,-0.47130231,0.27843663,-0.77841100,0.22944881,-0.47519271,-0.84815483,0.40067427,-0.04657445
2.30000000,-0.26806911,0.81615129,-0.32947771,-0.36948638,0.63449621,0.25769815,-0.47130231,0.27843663,-0.77841100,0.22944881,-0.47519271,-0.84815483,0.40067427,-0.04657445
2.32000000,-0.26806911,0.81615129,-0.32947771,-0.36948638,0.63449621,0.25769815,-0.47130231,0.27843663,-0.77841100,0.22944881,-0.47519271,-0.84815483,0.40067427,-0.04657445
2.34000000,-0.26806911,0.81615129,-0.32947771,-0.36948638,0.63449621,0.25769815,-0.47130231,0.27843663,-0.77841100,0.22944881,-0.47519271,-0.84815483,0.40067427,-0.04657445
2.36000000,-0.26806911,0.81615129,-0.32947771,-0.36948638,0.63449621,0.25769815,-0.47130231,0.27843663,-0.77841100,0.22944881,-0.47519271,-0.84815483,0.40067427,-0.04657445
2.38000000,-0.26806911,0.81615129,-0.32947771,-0.36948638,0.63449621,0.25769815,-0.47130231,0.27843663,-0.77841100,0.22944881,-0.47519271,-0.84815483,0.40067427,-0.04657445
2.40000000,-0.26806911,0.81615129,-0.32947771,-0.36948638,0.63449621,0.25769815,-0.47130231,0.27843663,-0.77841100,0.22944881,-0.47519271,-0.84815483,0.40067427,-0.04657445
2.42000000,-0.26806911,0.81615129,-0.32947771,-0.36948638,0.63449621,0.25769815,-0.47130231,0.27843663,-0.77841100,0.22944881,-0.47519271,-0.84815483,0.40067427,-0.04657445
2.44000000,-0.26806911,0.81615129,-0.32947771,-0.36948638,0.63449621,0.25769815,-0.47130231,0.27843663,-0.77841100,0.22944881,-0.47519271,-0.84815483,0.40067427,-0.04657445
2.46000000,-0.26806911,0.81615129,-0.32947771,-0.36948638,0.63449621,0.25769815,-0.47130231,0.27843663,-0.77841100,0.22944881,-0.47519271,-0.84815483,0.40067427,-0.04657445
2.48000000,-0.26806911,0.81615129,-0.32947771,-0.36948638,0.63449621,0.25769815,-0.47130231,0.27843663,-0.77841100,0.22944881,-0.47519271,-0.84815483,0.40067427,-0.04657445
2.50000000,-0.26806911,0.81615129,-0.32947771,-0.36948638,0.63449621,0.25769815,-0.47130231,0.27843663,-0.77841100,0.22944881,-0.47519271,-0.84815483,0.40067427,-0.04657445
2.52000000,-0.26806911,0.81615129,-0.32947771,-0.36948638,0.63449621,0.25769815,-0.47130231,0.27843663,-0.77841100,0.22944881,-0.47519271,-0.84815483,0.40067427,-0.04657445
2.54000000,-0.26806911,0.81615129,-0.32947771,-0.36948638,0.63449621,0.25769815,-0.47130231,0.27843663,-0.77841100,0.22944881,-0.47519271,-0.84815483,0.40067427,-0.04657445
2.56000000,-0.26806911,0.81615129,-0.32947771,-0.36948638,0.63449621,0.25769815,-0.47130231,0.27843663,-0.77841100,0.22944881,-0.47519271,-0.84815483,0.40067427,-0.04657445
2.58000000,-0.26806911,0.81615129,-0.32947771,-0.36948638,0.63449621,0.25769815,-0.47130231,0.27843663,-0.77841100,0.22944881,-0.47519271,-0.84815483,0.40067427,-0.04657445
2.60000000,-0.26806911,0.81615129,-0.32947771,-0.36948638,0.63449621,0.25769815,-0.47130231,0.27843663,-0.77841100,0.22944881,-0.47519271,-0.84815483,0.40067427,-0.04657445
2.62000000,-0.26806911,0.81615129,-0.32947771,-0.36948638,0.63449621,0.25769815,-0.47130231,0.27843663,-0.77841100,0.22944881,-0.47519271,-0.84815483,0.40067427,-0.04657445
2.64000000,-0.26806911,0.81615129,-0.32947771,-0.36948638,0.63449621,0.25769815,-0.47130231,0.27843663,-0.77841100,0.22944881,-0.47519271,-0.84815483,0.40067427,-0.04657445
2.66000000,-0.26806911,0.81615129,-0.32947771,-0.36948638,0.63449621,0.25769815,-0.47130231,0.27843663,-0.77841100,0.22944881,-0.47519271,-0.84815483,0.40067427,-0.04657445
2.68000000,-0.26806911,0.81615129,-0.32947771,-0.36948638,0.63449621,0.25769815,-0.47130231,0.27843663,-0.77841100,0.22944881,-0.47519271,-0.84815483,0.40067427,-0.04657445
2.70000000,-0.26806911,0.81615129,-0.32947771,-0.36948638,0.63449621,0.25769815,-0.47130231,0.27843663,-0.77841100,0.22944881,-0.47519271,-0.84815483,0.40067427,-0.04657445
2.72000000,-0.26806911,0.81615129,-0.32947771,-0.36948638,0.63449621,0.25769815,-0.47130231,0.27843663,-0.77841100,0.22944881,-0.47519271,-0.84815483,0.40067427,-0.04657445
2.74000000,-0.26806911,0.81615129,-0.32947771,-0.36948638,0.63449621,0.25769815,-0.47130231,0.27843663,-0.77841100,0.22944881,-0.47519271,-0.84815483,0.40067427,-0.04657445
2.76000000,-0.26806911,0.81615129,-0.32947771,-0.36948638,0.63449621,0.25769815,-0.47130231,0.27843663,-0.77841100,0.22944881,-0.47519271,-0.84815483,0.40067427,-0.04657445
2.78000000,-0.26806911,0.81615129,-0.32947771,-0.36948638,0.63449621,0.25769815,-0.47130231,0.27843663,-0.77841100,0.22944881,-0.47519271,-0.84815483,0.40067427,-0.04657445
2.80000000,-0.26806911,0.81615129,-0.32947771,-0.36948638,0.63449621,0.25769815,-0.47130231,0.27843663,-0.77841100,0.22944881,-0.47519271,-0.84815483,0.40067427,-0.04657445
2.82000000,-0.26806911,0.81615129,-0.32947771,-0.36948638,0.63449621,0.25769815,-0.47130231,0.27843663,-0.77841100,0.22944881,-0.47519271,-0.84815483,0.40067427,-0.04657445
2.84000000,-0.26806911,0.81615129,-0.32947771,-0.36948638,0.63449621,0.25769815,-0.47130231,0.27843663,-0.77841100,0.22944881,-0.47519271,-0.84815483,0.40067427,-0.04657445
2.86000000,-0.26806911,0.81615129,-0.32947771,-0.36948638,0.63449621,0.25769815,-0.47130231,0.27843663,-0.77841100,0.22944881,-0.47519271,-0.84815483,0.40067427,-0.04657445
2.88000000,-0.26806911,0.81615129,-0.32947771,-0.36948638,0.63449621,0.25769815,-0.47130231,0.27843663,-0.77841100,0.22944881,-0.47519271,-0.84815483,0.40067427,-0.04657445
2.90000000,-0.26806911,0.81615129,-0.32947771,-0.36948638,0.63449621,0.25769815,-0.47130231,0.27843663,-0.77841100,0.22944881,-0.47519271,-0.84815483,0.40067427,-0.04657445
2.92000000,-0.26806911,0.81615129,-0.32947771,-0.36948638,0.63449621,0.25769815,-0.47130231,0.27843663,-0.77841100,0.22944881,-0.47519271,-0.84815483,0.40067427,-0.04657445
2.94000000,-0.26806911,0.81615129,-0.32947771,-0.36948638,0.63449621,0.25769815,-0.47130231,0.27843663,-0.77841100,0.22944881,-0.47519271,-0.84815483,0.40067427,-0.04657445
2.96000000,-0.26806911,0.81615129,-0.32947771,-0.36948638,0.63449621,0.25769815,-0.47130231,0.27843663,-0.77841100,0.22944881,-0.47519271,-0.84815483,0.40067427,-0.04657445
2.98000000,-0.26806911,0.81615129,-0.32947771,-0.36948638,0.63449621,0.25769815,-0.47130231,0.27843663,-0.77841100,0.22944881,-0.47519271,-0.84815483,0.40067427,-0.04657445
3.00000000,-0.26806911,0.81615129,-0.32947771,-0.36948638,0.63449621,0.25769815,-0.47130231,0.27843663,-0.77841100,0.22944881,-0.47519271,-0.84815483,0.40067427,-0.04657445
3.02000000,-0.26806911,0.81615129,-0.32947771,-0.36948638,0.63449621,0.25769815,-0.47130231,0.27843663,-0.77841100,0.22944881,-0.47519271,-0.84815483,0.40067427,-0.04657445
3.04000000,-0.26806911,0.81615129,-0.32947771,-0.36948638,0.63449621,0.25769815,-0.47130231,0.27843663,-0.77841100,0.22944881,-0.47519271,-0.84815483,0.40067427,-0.04657445
3.06000000,-0.26806911,0.81615129,-0.32947771,-0.36948638,0.63449621,0.25769815,-0.47130231,0.27843663,-0.77841100,0.22944881,-0.47519271,-0.84815483,0.40067427,-0.04657445
3.08000000,-0.26806911,0.81615129,-0.32947771,-0.36948638,0.63449621,0.25769815,-0.47130231,0.27843663,-0.77841100,0.22944881,-0.47519271,-0.84815483,0.40067427,-0.04657445
3.10000000,-0.26806911,0.81615129,-0.32947771,-0.36948638,0.63449621,0.25769815,-0.47130231,0.27843663,-0.77841100,0.22944881,-0.47519271,-0.84815483,0.40067427,-0.04657445
3.12000000,-0.26806911,0.81615129,-0.32947771,-0.36948638,0.63449621,0.25769815,-0.47130231,0.27843663,-0.77841100,0.22944881,-0.47519271,-0.84815483,0.40067427,-0.04657445
3.14000000,-0.26806911,0.81615129,-0.32947771,-0.36948638,0.63449621,0.25769815,-0.47130231,0.27843663,-0.77841100,0.22944881,-0.47519271,-0.84815483,0.40067427,-0.04657445
3.16000000,-0.26806911,0.81615129,-0.32947771,-0.36948638,0.63449621,0.25769815,-0.47130231,0.27843663,-0.77841100,0.22944881,-0.47519271,-0.84815483,0.40067427,-0.04657445
3.18000000,-0.26806911,0.81615129,-0.32947771,-0.36948638,0.63449621,0.25769815,-0.47130231,0.27843663,-0.77841100,0.22944881,-0.47519271,-0.84815483,0.40067427,-0.04657445
3.20000000,-0.26806911,0.81615129,-0.32947771,-0.36948638,0.63449621,0.25769815,-0.47130231,0.27843663,-0.77841100,0.22944881,-0.47519271,-0.84815483,0.40067427,-0.04657445
3.22000000,-0.26806911,0.81615129,-0.32947771,-0.36948638,0.63449621,0.25769815,-0.47130231,0.27843663,-0.77841100,0.22944881,-0.47519271,-0.84815483,0.40067427,-0.04657445
3.24000000,-0.26806911,0.81615129,-0.32947771,-0.36948638,0.63449621,0.25769815,-0.47130231,0.27843663,-0.77841100,0.22944881,-0.47519271,-0.84815483,0.40067427,-0.04657445
3.26000000,-0.26806911,0.81615129,-0.32947771,-0.36948638,0.63449621,0.25769815,-0.47130231,0.27843663,-0.77841100,0.22944881,-0.47519271,-0.84815483,0.40067427,-0.04657445
3.28000000,-0.26806911,0.81615129,-0.32947771,-0.36948638,0.63449621,0.25769815,-0.47130231,0.27843663,-0.77841100,0.22944881,-0.47519271,-0.84815483,0.40067427,-0.04657445
3.30000000,-0.26806911,0.81615129,-0.32947771,-0.36948638,0.63449621,0.25769815,-0.47130231,0.27843663,-0.77841100,0.22944881,-0.47519271,-0.84815483,0.40067427,-0.04657445
3.32000000,-0.26806911,0.81615129,-0.32947771,-0.36948638,0.63449621,0.25769815,-0.47130231,0.27843663,-0.77841100,0.22944881,-0.47519271,-0.84815483,0.40067427,-0.04657445
3.34000000,-0.26806911,0.81615129,-0.32947771,-0.36948638,0.63449621,0.25769815,-0.47130231,0.27843663,-0.77841100,0.22944881,-0.47519271,-0.84815483,0.40067427,-0.04657445
3.36000000,-0.26806911,0.81615129,-0.32947771,-0.36948638,0.63449621,0.25769815,-0.47130231,0.27843663,-0.77841100,0.22944881,-0.47519271,-0.84815483,0.40067427,-0.04657445
3.38000000,-0.26806911,0.81615129,-0.32947771,-0.36948638,0.63449621,0.25769815,-0.47130231,0.27843663,-0.77841100,0.22944881,-0.47519271,-0.84815483,0.40067427,-0.04657445
3.40000000,-0.26806911,0.81615129,-0.32947771,-0.36948638,0.63449621,0.25769815,-0.47130231,0.27843663,-0.77841100,0.22944881,-0.47519271,-0.84815483,0.40067427,-0.04657445
3.42000000,-0.26806911,0.81615129,-0.32947771,-0.36948638,0.63449621,0.25769815,-0.47130231,0.27843663,-0.77841100,0.22944881,-0.47519271,-0.84815483,0.40067427,-0.04657445
3.44000000,-0.26806911,0.81615129,-0.32947771,-0.36948638,0.63449621,0.25769815,-0.47130231,0.27843663,-0.77841100,0.22944881,-0.47519271,-0.84815483,0.40067427,-0.04657445
3.46000000,-0.26806911,0.81615129,-0.32947771,-0.36948638,0.63449621,0.25769815,-0.47130231,0.27843663,-0.77841100,0.22944881,-0.47519271,-0.84815483,0.40067427,-0.04657445
3.48000000,-0.26806911,0.81615129,-0.32947771,-0.36948638,0.63449621,0.25769815,-0.47130231,0.27843663,-0.77841100,0.22944881,-0.47519271,-0.84815483,0.40067427,-0.04657445
3.50000000,-0.26806911,0.81615129,-0.32947771,-0.36948638,0.63449621,0.25769815,-0.47130231,0.27843663,-0.77841100,0.22944881,-0.47519271,-0.84815483,0.40067427,-0.04657445
3.52000000,-0.26806911,0.81615129,-0.32947771,-0.36948638,0.63449621,0.25769815,-0.47130231,0.27843663,-0.77841100,0.22944881,-0.47519271,-0.84815483,0.40067427,-0.04657445
3.54000000,-0.26806911,0.81615129,-0.32947771,-0.36948638,0.63449621,0.25769815,-0.47130231,0.27843663,-0.77841100,0.22944881,-0.47519271,-0.84815483,0.40067427,-0.04657445
3.56000000,-0.26806911,0.81615129,-0.32947771,-0.36948638,0.63449621,0.25769815,-0.47130231,0.27843663,-0.77841100,0.22944881,-0.47519271,-0.84815483,0.40067427,-0.04657445
3.58000000,-0.26806911,0.81615129,-0.32947771,-0.36948638,0.63449621,0.25769815,-0.47130231,0.27843663,-0.77841100,0.22944881,-0.47519271,-0.84815483,0.40067427,-0.04657445
3.60000000,-0.26806911,0.81615129,-0.32947771,-0.36948638,0.63449621,0.25769815,-0.47130231,0.27843663,-0.77841100,0.22944881,-0.47519271,-0.84815483,0.40067427,-0.04657445
3.62000000,-0.26806911,0.81615129,-0.32947771,-0.36948638,0.63449621,0.25769815,-0.47130231,0.27843663,-0.77841100,0.22944881,-0.47519271,-0.84815483,0.40067427,-0.04657445
3.64000000,-0.26806911,0.81615129,-0.32947771,-0.36948638,0.63449621,0.25769815,-0.47130231,0.27843663,-0.77841100,0.22944881,-0.47519271,-0.84815483,0.40067427,-0.04657445
3.66000000,-0.26806911,0.81615129,-0.32947771,-0.36948638,0.63449621,0.25769815,-0.47130231,0.27843663,-0.77841100,0.22944881,-0.47519271,-0.84815483,0.40067427,-0.04657445
3.68000000,-0.26806911,0.81615129,-0.32947771,-0.36948638,0.63449621,0.25769815,-0.47130231,0.27843663,-0.77841100,0.22944881,-0.47519271,-0.84815483,0.40067427,-0.04657445
3.70000000,-0.26806911,0.81615129,-0.32947771,-0.36948638,0.63449621,0.25769815,-0.47130231,0.27843663,-0.77841100,0.22944881,-0.47519271,-0.84815483,0.40067427,-0.04657445
3.72000000,-0.26806911,0.81615129,-0.32947771,-0.36948638,0.63449621,0.25769815,-0.47130231,0.27843663,-0.77841100,0.22944881,-0.47519271,-0.84815483,0.40067427,-0.04657445
3.74000000,-0.26806911,0.81615129,-0.32947771,-0.36948638,0.63449621,0.25769815,-0.47130231,0.27843663,-0.77841100,0.22944881,-0.47519271,-0.84815483,0.40067427,-0.04657445
3.76000000,-0.26806911,0.81615129,-0.32947771,-0.36948638,0.63449621,0.25769815,-0.47130231,0.27843663,-0.77841100,0.22944881,-0.47519271,-0.84815483,0.40067427,-0.04657445
3.78000000,-0.26806911,0.81615129,-0.32947771,-0.36948638,0.63449621,0.25769815,-0.47130231,0.27843663,-0.77841100,0.22944881,-0.47519271,-0.84815483,0.40067427,-0.04657445
3.80000000,-0.26806911,0.81615129,-0.32947771,-0.36948638,0.63449621,0.25769815,-0.47130231,0.27843663,-0.77841100,0.22944881,-0.47519271,-0.84815483,0.40067427,-0.04657445
3.82000000,-0.26806911,0.81615129,-0.32947771,-0.36948638,0.63449621,0.25769815,-0.47130231,0.27843663,-0.77841100,0.22944881,-0.47519271,-0.84815483,0.40067427,-0.04657445
3.84000000,-0.26806911,0.81615129,-0.32947771,-0.36948638,0.63449621,0.25769815,-0.47130231,0.27843663,-0.77841100,0.22944881,-0.47519271,-0.84815483,0.40067427,-0.04657445
3.86000000,-0.26806911,0.81615129,-0.32947771,-0.36948638,0.63449621,0.25769815,-0.47130231,0.27843663,-0.77841100,0.22944881,-0.47519271,-0.84815483,0.40067427,-0.04657445
3.88000000,-0.26806911,0.81615129,-0.32947771,-0.36948638,0.63449621,0.25769815,-0.47130231,0.27843663,-0.77841100,0.22944881,-0.47519271,-0.84815483,0.40067427,-0.04657445
3.90000000,-0.26806911,0.81615129,-0.32947771,-0.36948638,0.63449621,0.25769815,-0.47130231,0.27843663,-0.77841100,0.22944881,-0.47519271,-0.84815483,0.40067427,-0.04657445
3.92000000,-0.26806911,0.81615129,-0.32947771,-0.36948638,0.63449621,0.25769815,-0.47130231,0.27843663,-0.77841100,0.22944881,-0.47519271,-0.84815483,0.40067427,-0.04657445
3.94000000,-0.26806911,0.81615129,-0.32947771,-0.36948638,0.63449621,0.25769815,-0.47130231,0.27843663,-0.77841100,0.22944881,-0.47519271,-0.84815483,0.40067427,-0.04657445
3.96000000,-0.26806911,0.81615129,-0.32947771,-0.36948638,0.63449621,0.25769815,-0.47130231,0.27843663,-0.77841100,0.22944881,-0.47519271,-0.84815483,0.40067427,-0.04657445
3.98000000,-0.26806911,0.81615129,-0.32947771,-0.36948638,0.63449621,0.25769815,-0.47130231,0.27843663,-0.77841100,0.22944881,-0.47519271,-0.84815483,0.40067427,-0.04657445
4.00000000,-0.26806911,0.81615129,-0.32947771,-0.36948638,0.63449621,0.25769815,-0.47130231,0.27843663,-0.77841100,0.22944881,-0.47519271,-0.84815483,0.40067427,-0.04657445
4.02000000,-0.26806911,0.81615129,-0.32947771,-0.36948638,0.63449621,0.25769815,-0.47130231,0.27843663,-0.77841100,0.22944881,-0.47519271,-0.84815483,0.40067427,-0.04657445
4.04000000,-0.26806911,0.81615129,-0.32947771,-0.36948638,0.63449621,0.25769815,-0.47130231,0.27843663,-0.77841100,0.22944881,-0.47519271,-0.84815483,0.40067427,-0.04657445
4.06000000,-0.26806911,0.81615129,-0.32947771,-0.36948638,0.63449621,0.25769815,-0.47130231,0.27843663,-0.77841100,0.22944881,-0.47519271,-0.84815483,0.40067427,-0.04657445
4.08000000,-0.26806911,0.81615129,-0.32947771,-0.36948638,0.63449621,0.25769815,-0.47130231,0.27843663,-0.77841100,0.22944881,-0.47519271,-0.84815483,0.40067427,-0.04657445
4.10000000,-0.26806911,0.81615129,-0.32947771,-0.36948638,0.63449621,0.25769815,-0.47130231,0.27843663,-0.77841100,0.22944881,-0.47519271,-0.84815483,0.40067427,-0.04657445
4.12000000,-0.26806911,0.81615129,-0.32947771,-0.36948638,0.63449621,0.25769815,-0.47130231,0.27843663,-0.77841100,0.22944881,-0.47519271,-0.84815483,0.40067427,-0.04657445
4.14000000,-0.26806911,0.81615129,-0.32947771,-0.36948638,0.63449621,0.25769815,-0.47130231,0.27843663,-0.77841100,0.22944881,-0.47519271,-0.84815483,0.40067427,-0.04657445
4.16000000,-0.26806911,0.81615129,-0.32947771,-0.36948638,0.63449621,0.25769815,-0.47130231,0.27843663,-0.77841100,0.22944881,-0.47519271,-0.84815483,0.40067427,-0.04657445
4.18000000,-0.26806911,0.81615129,-0.32947771,-0.36948638,0.63449621,0.25769815,-0.47130231,0.27843663,-0.77841100,0.22944881,-0.47519271,-0.84815483,0.40067427,-0.04657445
4.20000000,-0.26806911,0.81615129,-0.32947771,-0.36948638,0.63449621,0.25769815,-0.47130231,0.27843663,-0.77841100,0.22944881,-0.47519271,-0.84815483,0.40067427,-0.04657445
4.22000000,-0.26806911,0.81615129,-0.32947771,-0.36948638,0.63449621,0.25769815,-0.47130231,0.27843663,-0.77841100,0.22944881,-0.47519271,-0.84815483,0.40067427,-0.04657445
4.24000000,-0.26806911,0.81615129,-0.32947771,-0.36948638,0.63449621,0.25769815,-0.47130231,0.27843663,-0.77841100,0.22944881,-0.47519271,-0.84815483,0.40067427,-0.04657445
4.26000000,-0.26806911,0.81615129,-0.32947771,-0.36948638,0.63449621,0.25769815,-0.47130231,0.27843663,-0.77841100,0.22944881,-0.47519271,-0.84815483,0.40067427,-0.04657445
4.28000000,-0.26806911,0.81615129,-0.32947771,-0.36948638,0.63449621,0.25769815,-0.47130231,0.27843663,-0.77841100,0.22944881,-0.47519271,-0.84815483,0.40067427,-0.04657445
4.30000000,-0.26806911,0.81615129,-0.32947771,-0.36948638,0.63449621,0.25769815,-0.47130231,0.27843663,-0.77841100,0.22944881,-0.47519271,-0.84815483,0.40067427,-0.04657445
4.32000000,-0.26806911,0.81615129,-0.32947771,-0.36948638,0.63449621,0.25769815,-0.47130231,0.27843663,-0.77841100,0.22944881,-0.47519271,-0.84815483,0.40067427,-0.04657445
4.34000000,-0.26806911,0.81615129,-0.32947771,-0.36948638,0.63449621,0.25769815,-0.47130231,0.27843663,-0.77841100,0.22944881,-0.47519271,-0.84815483,0.40067427,-0.04657445
4.36000000,-0.26806911,0.81615129,-0.32947771,-0.36948638,0.63449621,0.25769815,-0.47130231,0.27843663,-0.77841100,0.22944881,-0.47519271,-0.84815483,0.40067427,-0.04657445
4.38000000,-0.26806911,0.81615129,-0.32947771,-0.36948638,0.63449621,0.25769815,-0.47130231,0.27843663,-0.77841100,0.22944881,-0.47519271,-0.84815483,0.40067427,-0.04657445
4.40000000,-0.26806911,0.81615129,-0.32947771,-0.36948638,0.63449621,0.25769815,-0.47130231,0.27843663,-0.77841100,0.22944881,-0.47519271,-0.84815483,0.40067427,-0.04657445
4.42000000,-0.26806911,0.81615129,-0.32947771,-0.36948638,0.63449621,0.25769815,-0.47130231,0.27843663,-0.77841100,0.22944881,-0.47519271,-0.84815483,0.40067427,-0.04657445
4.44000000,-0.26806911,0.81615129,-0.32947771,-0.36948638,0.63449621,0.25769815,-0.47130231,0.27843663,-0.77841100,0.22944881,-0.47519271,-0.84815483,0.40067427,-0.04657445
4.46000000,-0.26806911,0.81615129,-0.32947771,-0.36948638,0.63449621,0.25769815,-0.47130231,0.27843663,-0.77841100,0.22944881,-0.47519271,-0.84815483,0.40067427,-0.04657445
4.48000000,-0.26806911,0.81615129,-0.32947771,-0.36948638,0.63449621,0.25769815,-0.47130231,0.27843663,-0.77841100,0.22944881,-0.47519271,-0.84815483,0.40067427,-0.04657445
4.50000000,-0.26806911,0.81615129,-0.32947771,-0.36948638,0.63449621,0.25769815,-0.47130231,0.27843663,-0.77841100,0.22944881,-0.47519271,-0.84815483,0.40067427,-0.04657445
4.52000000,-0.26806911,0.81615129,-0.32947771,-0.36948638,0.63449621,0.25769815,-0.47130231,0.27843663,-0.77841100,0.22944881,-0.47519271,-0.84815483,0.40067427,-0.04657445
4.54000000,-0.26806911,0.81615129,-0.32947771,-0.36948638,0.63449621,0.25769815,-0.47130231,0.27843663,-0.77841100,0.22944881,-0.47519271,-0.84815483,0.40067427,-0.04657445
4.56000000,-0.26806911,0.81615129,-0.32947771,-0.36948638,0.63449621,0.25769815,-0.47130231,0.27843663,-0.77841100,0.22944881,-0.47519271,-0.84815483,0.40067427,-0.04657445
4.58000000,-0.26806911,0.81615129,-0.32947771,-0.36948638,0.63449621,0.25769815,-0.47130231,0.27843663,-0.77841100,0.22944881,-0.47519271,-0.84815483,0.40067427,-0.04657445
4.60000000,-0.26806911,0.81615129,-0.32947771,-0.36948638,0.63449621,0.25769815,-0.47130231,0.27843663,-0.77841100,0.22944881,-0.47519271,-0.84815483,0.40067427,-0.04657445
4.62000000,-0.26806911,0.81615129,-0.32947771,-0.36948638,0.63449621,0.25769815,-0.47130231,0.27843663,-0.77841100,0.22944881,-0.47519271,-0.84815483,0.40067427,-0.04657445
4.64000000,-0.26806911,0.81615129,-0.32947771,-0.36948638,0.63449621,0.25769815,-0.47130231,0.27843663,-0.77841100,0.22944881,-0.47519271,-0.84815483,0.40067427,-0.04657445
4.66000000,-0.26806911,0.81615129,-0.32947771,-0.36948638,0.63449621,0.25769815,-0.47130231,0.27843663,-0.77841100,0.22944881,-0.47519271,-0.84815483,0.40067427,-0.04657445
4.68000000,-0.26806911,0.81615129,-0.32947771,-0.36948638,0.63449621,0.25769815,-0.47130231,0.27843663,-0.77841100,0.22944881,-0.47519271,-0.84815483,0.40067427,-0.04657445
4.70000000,-0.26806911,0.81615129,-0.32947771,-0.36948638,0.63449621,0.25769815,-0.47130231,0.27843663,-0.77841100,0.22944881,-0.47519271,-0.84815483,0.40067427,-0.04657445
4.72000000,-0.26806911,0.81615129,-0.32947771,-0.36948638,0.63449621,0.25769815,-0.47130231,0.27843663,-0.77841100,0.22944881,-0.47519271,-0.84815483,0.40067427,-0.04657445
4.74000000,-0.26806911,0.81615129,-0.32947771,-0.36948638,0.63449621,0.25769815,-0.47130231,0.27843663,-0.77841100,0.22944881,-0.47519271,-0.84815483,0.40067427,-0.04657445
4.76000000,-0.26806911,0.81615129,-0.32947771,-0.36948638,0.63449621,0.25769815,-0.47130231,0.27843663,-0.77841100,0.22944881,-0.47519271,-0.84815483,0.40067427,-0.04657445
4.78000000,-0.26806911,0.81615129,-0.32947771,-0.36948638,0.63449621,0.25769815,-0.47130231,0.27843663,-0.77841100,0.22944881,-0.47519271,-0.84815483,0.40067427,-0.04657445
4.80000000,-0.26806911,0.81615129,-0.32947771,-0.36948638,0.63449621,0.25769815,-0.47130231,0.27843663,-0.77841100,0.22944881,-0.47519271,-0.84815483,0.40067427,-0.04657445
4.82000000,-0.26806911,0.81615129,-0.32947771,-0.36948638,0.63449621,0.25769815,-0.47130231,0.27843663,-0.77841100,0.22944881,-0.47519271,-0.84815483,0.40067427,-0.04657445
4.84000000,-0.26806911,0.81615129,-0.32947771,-0.36948638,0.63449621,0.25769815,-0.47130231,0.27843663,-0.77841100,0.22944881,-0.47519271,-0.84815483,0.40067427,-0.04657445
4.86000000,-0.26806911,0.81615129,-0.32947771,-0.36948638,0.63449621,0.25769815,-0.47130231,0.27843663,-0.77841100,0.22944881,-0.47519271,-0.84815483,0.40067427,-0.04657445
4.88000000,-0.26806911,0.81615129,-0.32947771,-0.36948638,0.63449621,0.25769815,-0.47130231,0.27843663,-0.77841100,0.22944881,-0.47519271,-0.84815483,0.40067427,-0.04657445
4.90000000,-0.26806911,0.81615129,-0.32947771,-0.36948638,0.63449621,0.25769815,-0.47130231,0.27843663,-0.77841100,0.22944881,-0.47519271,-0.84815483,0.40067427,-0.04657445
4.92000000,-0.26806911,0.81615129,-0.32947771,-0.36948638,0.63449621,0.25769815,-0.47130231,0.27843663,-0.77841100,0.22944881,-0.47519271,-0.84815483,0.40067427,-0.04657445
4.94000000,-0.26806911,0.81615129,-0.32947771,-0.36948638,0.63449621,0.25769815,-0.47130231,0.27843663,-0.77841100,0.22944881,-0.47519271,-0.84815483,0.40067427,-0.04657445
4.96000000,-0.26806911,0.81615129,-0.32947771,-0.36948638,0.63449621,0.25769815,-0.47130231,0.27843663,-0.77841100,0.22944881,-0.47519271,-0.84815483,0.40067427,-0.04657445
4.98000000,-0.26806911,0.81615129,-0.32947771,-0.36948638,0.63449621,0.25769815,-0.47130231,0.27843663,-0.77841100,0.22944881,-0.47519271,-0.84815483,0.40067427,-0.04657445
5.00000000,-0.26806911,0.81615129,-0.32947771,-0.36948638,0.63449621,0.25769815,-0.47130231,0.27843663,-0.77841100,0.22944881,-0.47519271,-0.84815483,0.40067427,-0.04657445
5.02000000,-0.26806911,0.81615129,-0.32947771,-0.36948638,0.63449621,0.25769815,-0.47130231,0.27843663,-0.77841100,0.22944881,-0.47519271,-0.84815483,0.40067427,-0.04657445
5.04000000,-0.26806911,0.81615129,-0.32947771,-0.36948638,0.63449621,0.25769815,-0.47130231,0.27843663,-0.77841100,0.22944881,-0.47519271,-0.84815483,0.40067427,-0.04657445
5.06000000,-0.26806911,0.81615129,-0.32947771,-0.36948638,0.63449621,0.25769815,-0.47130231,0.27843663,-0.77841100,0.22944881,-0.47519271,-0.84815483,0.40067427,-0.04657445
5.08000000,-0.26806911,0.81615129,-0.32947771,-0.36948638,0.63449621,0.25769815,-0.47130231,0.27843663,-0.77841100,0.22944881,-0.47519271,-0.84815483,0.40067427,-0.04657445
5.10000000,-0.26806911,0.81615129,-0.32947771,-0.36948638,0.63449621,0.25769815,-0.47130231,0.27843663,-0.77841100,0.22944881,-0.47519271,-0.84815483,0.40067427,-0.04657445
5.12000000,-0.26806911,0.81615129,-0.32947771,-0.36948638,0.63449621,0.25769815,-0.47130231,0.27843663,-0.77841100,0.22944881,-0.47519271,-0.84815483,0.40067427,-0.04657445
5.14000000,-0.26806911,0.81615129,-0.32947771,-0.36948638,0.63449621,0.25769815,-0.47130231,0.27843663,-0.77841100,0.22944881,-0.47519271,-0.84815483,0.40067427,-0.04657445
5.16000000,-0.26806911,0.81615129,-0.32947771,-0.36948638,0.63449621,0.25769815,-0.47130231,0.27843663,-0.77841100,0.22944881,-0.47519271,-0.84815483,0.40067427,-0.04657445
5.18000000,-0.26806911,0.81615129,-0.32947771,-0.36948638,0.63449621,0.25769815,-0.47130231,0.27843663,-0.77841100,0.22944881,-0.47519271,-0.84815483,0.40067427,-0.04657445
5.20000000,-0.26806911,0.81615129,-0.32947771,-0.36948638,0.63449621,0.25769815,-0.47130231,0.27843663,-0.77841100,0.22944881,-0.47519271,-0.84815483,0.40067427,-0.04657445
5.22000000,-0.26806911,0.81615129,-0.32947771,-0.36948638,0.63449621,0.25769815,-0.47130231,0.27843663,-0.77841100,0.22944881,-0.47519271,-0.84815483,0.40067427,-0.04657445
5.24000000,-0.26806911,0.81615129,-0.32947771,-0.36948638,0.63449621,0.25769815,-0.47130231,0.27843663,-0.77841100,0.22944881,-0.47519271,-0.84815483,0.40067427,-0.04657445
5.26000000,-0.26806911,0.81615129,-0.32947771,-0.36948638,0.63449621,0.25769815,-0.47130231,0.27843663,-0.77841100,0.22944881,-0.47519271,-0.84815483,0.40067427,-0.04657445
5.28000000,-0.26806911,0.81615129,-0.32947771,-0.36948638,0.63449621,0.25769815,-0.47130231,0.27843663,-0.77841100,0.22944881,-0.47519271,-0.84815483,0.40067427,-0.04657445
5.30000000,-0.26806911,0.81615129,-0.32947771,-0.36948638,0.63449621,0.25769815,-0.47130231,0.27843663,-0.77841100,0.22944881,-0.47519271,-0.84815483,0.40067427,-0.04657445
5.32000000,-0.26806911,0.81615129,-0.32947771,-0.36948638,0.63449621,0.25769815,-0.47130231,0.27843663,-0.77841100,0.22944881,-0.47519271,-0.84815483,0.40067427,-0.04657445
5.34000000,-0.26806911,0.81615129,-0.32947771,-0.36948638,0.63449621,0.25769815,-0.47130231,0.27843663,-0.77841100,0.22944881,-0.47519271,-0.84815483,0.40067427,-0.04657445
5.36000000,-0.26806911,0.81615129,-0.32947771,-0.36948638,0.63449621,0.25769815,-0.47130231,0.27843663,-0.77841100,0.22944881,-0.47519271,-0.84815483,0.40067427,-0.04657445
5.38000000,-0.26806911,0.81615129,-0.32947771,-0.36948638,0.63449621,0.25769815,-0.47130231,0.27843663,-0.77841100,0.22944881,-0.47519271,-0.84815483,0.40067427,-0.04657445
5.40000000,-0.26806911,0.81615129,-0.32947771,-0.36948638,0.63449621,0.25769815,-0.47130231,0.27843663,-0.77841100,0.22944881,-0.47519271,-0.84815483,0.40067427,-0.04657445
5.42000000,-0.26806911,0.81615129,-0.32947771,-0.36948638,0.63449621,0.25769815,-0.47130231,0.27843663,-0.77841100,0.22944881,-0.47519271,-0.84815483,0.40067427,-0.04657445
5.44000000,-0.26806911,0.81615129,-0.32947771,-0.36948638,0.63449621,0.25769815,-0.47130231,0.27843663,-0.77841100,0.22944881,-0.47519271,-0.84815483,0.40067427,-0.04657445
5.46000000,-0.26806911,0.81615129,-0.32947771,-0.36948638,0.63449621,0.25769815,-0.47130231,0.27843663,-0.77841100,0.22944881,-0.47519271,-0.84815483,0.40067427,-0.04657445
5.48000000,-0.26806911,0.81615129,-0.32947771,-0.36948638,0.63449621,0.25769815,-0.47130231,0.27843663,-0.77841100,0.22944881,-0.47519271,-0.84815483,0.40067427,-0.04657445
5.50000000,-0.26806911,0.81615129,-0.32947771,-0.36948638,0.63449621,0.25769815,-0.47130231,0.27843663,-0.77841100,0.22944881,-0.47519271,-0.84815483,0.40067427,-0.04657445
5.52000000,-0.26806911,0.81615129,-0.32947771,-0.36948638,0.63449621,0.25769815,-0.47130231,0.27843663,-0.77841100,0.22944881,-0.47519271,-0.84815483,0.40067427,-0.04657445
5.54000000,-0.26806911,0.81615129,-0.32947771,-0.36948638,0.63449621,0.25769815,-0.47130231,0.27843663,-0.77841100,0.22944881,-0.47519271,-0.84815483,0.40067427,-0.04657445
5.56000000,-0.26806911,0.81615129,-0.32947771,-0.36948638,0.63449621,0.25769815,-0.47130231,0.27843663,-0.77841100,0.22944881,-0.47519271,-0.84815483,0.40067427,-0.04657445
5.58000000,-0.26806911,0.81615129,-0.32947771,-0.36948638,0.63449621,0.25769815,-0.47130231,0.27843663,-0.77841100,0.22944881,-0.47519271,-0.84815483,0.40067427,-0.04657445
5.60000000,-0.26806911,0.81615129,-0.32947771,-0.36948638,0.63449621,0.25769815,-0.47130231,0.27843663,-0.77841100,0.22944881,-0.47519271,-0.84815483,0.40067427,-0.04657445
5.62000000,-0.26806911,0.81615129,-0.32947771,-0.36948638,0.63449621,0.25769815,-0.47130231,0.27843663,-0.77841100,0.22944881,-0.47519271,-0.84815483,0.40067427,-0.04657445
5.64000000,-0.26806911,0.81615129,-0.32947771,-0.36948638,0.63449621,0.25769815,-0.47130231,0.27843663,-0.77841100,0.22944881,-0.47519271,-0.84815483,0.40067427,-0.04657445
5.66000000,-0.26806911,0.81615129,-0.32947771,-0.36948638,0.63449621,0.25769815,-0.47130231,0.27843663,-0.77841100,0.22944881,-0.47519271,-0.84815483,0.40067427,-0.04657445
5.68000000,-0.26806911,0.81615129,-0.32947771,-0.36948638,0.63449621,0.25769815,-0.47130231,0.27843663,-0.77841100,0.22944881,-0.47519271,-0.84815483,0.40067427,-0.04657445
5.70000000,-0.26806911,0.81615129,-0.32947771,-0.36948638,0.63449621,0.25769815,-0.47130231,0.27843663,-0.77841100,0.22944881,-0.47519271,-0.84815483,0.40067427,-0.04657445
5.72000000,-0.26806911,0.81615129,-0.32947771,-0.36948638,0.63449621,0.25769815,-0.47130231,0.27843663,-0.77841100,0.22944881,-0.47519271,-0.84815483,0.40067427,-0.04657445
5.74000000,-0.26806911,0.81615129,-0.32947771,-0.36948638,0.63449621,0.25769815,-0.47130231,0.27843663,-0.77841100,0.22944881,-0.47519271,-0.84815483,0.40067427,-0.04657445
5.76000000,-0.26806911,0.81615129,-0.32947771,-0.36948638,0.63449621,0.25769815,-0.47130231,0.27843663,-0.77841100,0.22944881,-0.47519271,-0.84815483,0.40067427,-0.04657445
5.78000000,-0.26806911,0.81615129,-0.32947771,-0.36948638,0.63449621,0.25769815,-0.47130231,0.27843663,-0.77841100,0.22944881,-0.47519271,-0.84815483,0.40067427,-0.04657445
5.80000000,-0.26806911,0.81615129,-0.32947771,-0.36948638,0.63449621,0.25769815,-0.47130231,0.27843663,-0.77841100,0.22944881,-0.47519271,-0.84815483,0.40067427,-0.04657445
5.82000000,-0.26806911,0.81615129,-0.32947771,-0.36948638,0.63449621,0.25769815,-0.47130231,0.27843663,-0.77841100,0.22944881,-0.47519271,-0.84815483,0.40067427,-0.04657445
5.84000000,-0.26806911,0.81615129,-0.32947771,-0.36948638,0.63449621,0.25769815,-0.47130231,0.27843663,-0.77841100,0.22944881,-0.47519271,-0.84815483,0.40067427,-0.04657445
5.86000000,-0.26806911,0.81615129,-0.32947771,-0.36948638,0.63449621,0.25769815,-0.47130231,0.27843663,-0.77841100,0.22944881,-0.47519271,-0.84815483,0.40067427,-0.04657445
5.88000000,-0.26806911,0.81615129,-0.32947771,-0.36948638,0.63449621,0.25769815,-0.47130231,0.27843663,-0.77841100,0.22944881,-0.47519271,-0.84815483,0.40067427,-0.04657445
5.90000000,-0.26806911,0.81615129,-0.32947771,-0.36948638,0.63449621,0.25769815,-0.47130231,0.27843663,-0.77841100,0.22944881,-0.47519271,-0.84815483,0.40067427,-0.04657445
5.92000000,-0.26806911,0.81615129,-0.32947771,-0.36948638,0.63449621,0.25769815,-0.47130231,0.27843663,-0.77841100,0.22944881,-0.47519271,-0.84815483,0.40067427,-0.04657445
5.94000000,-0.26806911,0.81615129,-0.32947771,-0.36948638,0.63449621,0.25769815,-0.47130231,0.27843663,-0.77841100,0.22944881,-0.47519271,-0.84815483,0.40067427,-0.04657445
5.96000000,-0.26806911,0.81615129,-0.32947771,-0.36948638,0.63449621,0.25769815,-0.47130231,0.27843663,-0.77841100,0.22944881,-0.47519271,-0.84815483,0.40067427,-0.04657445
5.98000000,-0.26806911,0.81615129,-0.32947771,-0.36948638,0.63449621,0.25769815,-0.47130231,0.27843663,-0.77841100,0.22944881,-0.47519271,-0.84815483,0.40067427,-0.04657445
6.00000000,-0.26806911,0.81615129,-0.32947771,-0.36948638,0.63449621,0.25769815,-0.47130231,0.27843663,-0.77841100,0.22944881,-0.47519271,-0.84815483,0.40067427,-0.04657445
6.02000000,-0.26806911,0.81615129,-0.32947771,-0.36948638,0.63449621,0.25769815,-0.47130231,0.27843663,-0.77841100,0.22944881,-0.47519271,-0.84815483,0.40067427,-0.04657445
6.04000000,-0.26806911,0.81615129,-0.32947771,-0.36948638,0.63449621,0.25769815,-0.47130231,0.27843663,-0.77841100,0.22944881,-0.47519271,-0.84815483,0.40067427,-0.04657445
6.06000000,-0.26806911,0.81615129,-0.32947771,-0.36948638,0.63449621,0.25769815,-0.47130231,0.27843663,-0.77841100,0.22944881,-0.47519271,-0.84815483,0.40067427,-0.04657445
6.08000000,-0.26806911,0.81615129,-0.32947771,-0.36948638,0.63449621,0.25769815,-0.47130231,0.27843663,-0.77841100,0.22944881,-0.47519271,-0.84815483,0.40067427,-0.04657445
6.10000000,-0.26806911,0.81615129,-0.32947771,-0.36948638,0.63449621,0.25769815,-0.47130231,0.27843663,-0.77841100,0.22944881,-0.47519271,-0.84815483,0.40067427,-0.04657445
6.12000000,-0.26806911,0.81615129,-0.32947771,-0.36948638,0.63449621,0.25769815,-0.47130231,0.27843663,-0.77841100,0.22944881,-0.47519271,-0.84815483,0.40067427,-0.04657445
6.14000000,-0.26806911,0.81615129,-0.32947771,-0.36948638,0.63449621,0.25769815,-0.47130231,0.27843663,-0.77841100,0.22944881,-0.47519271,-0.84815483,0.40067427,-0.04657445
6.16000000,-0.26806911,0.81615129,-0.32947771,-0.36948638,0.63449621,0.25769815,-0.47130231,0.27843663,-0.77841100,0.22944881,-0.47519271,-0.84815483,0.40067427,-0.04657445
6.18000000,-0.26806911,0.81615129,-0.32947771,-0.36948638,0.63449621,0.25769815,-0.47130231,0.27843663,-0.77841100,0.22944881,-0.47519271,-0.84815483,0.40067427,-0.04657445
6.20000000,-0.26806911,0.81615129,-0.32947771,-0.36948638,0.63449621,0.25769815,-0.47130231,0.27843663,-0.77841100,0.22944881,-0.47519271,-0.84815483,0.40067427,-0.04657445
6.22000000,-0.26806911,0.81615129,-0.32947771,-0.36948638,0.63449621,0.25769815,-0.47130231,0.27843663,-0.77841100,0.22944881,-0.47519271,-0.84815483,0.40067427,-0.04657445
6.24000000,-0.26806911,0.81615129,-0.32947771,-0.36948638,0.63449621,0.25769815,-0.47130231,0.27843663,-0.77841100,0.22944881,-0.47519271,-0.84815483,0.40067427,-0.04657445
6.26000000,-0.26806911,0.81615129,-0.32947771,-0.36948638,0.63449621,0.25769815,-0.47130231,0.27843663,-0.77841100,0.22944881,-0.47519271,-0.84815483,0.40067427,-0.04657445
6.28000000,-0.26806911,0.81615129,-0.32947771,-0.36948638,0.63449621,0.25769815,-0.47130231,0.27843663,-0.77841100,0.22944881,-0.47519271,-0.84815483,0.40067427,-0.04657445
6.30000000,-0.26806911,0.81615129,-0.32947771,-0.36948638,0.63449621,0.25769815,-0.47130231,0.27843663,-0.77841100,0.22944881,-0.47519271,-0.84815483,0.40067427,-0.04657445
6.32000000,-0.26806911,0.81615129,-0.32947771,-0.36948638,0.63449621,0.25769815,-0.47130231,0.27843663,-0.77841100,0.22944881,-0.47519271,-0.84815483,0.40067427,-0.04657445
6.34000000,-0.26806911,0.81615129,-0.32947771,-0.36948638,0.63449621,0.25769815,-0.47130231,0.27843663,-0.77841100,0.22944881,-0.47519271,-0.84815483,0.40067427,-0.04657445
6.36000000,-0.26806911,0.81615129,-0.32947771,-0.36948638,0.63449621,0.25769815,-0.47130231,0.27843663,-0.77841100,0.22944881,-0.47519271,-0.84815483,0.40067427,-0.04657445
6.38000000,-0.26806911,0.81615129,-0.32947771,-0.36948638,0.63449621,0.25769815,-0.47130231,0.27843663,-0.77841100,0.22944881,-0.47519271,-0.84815483,0.40067427,-0.04657445
6.40000000,-0.26806911,0.81615129,-0.32947771,-0.36948638,0.63449621,0.25769815,-0.47130231,0.27843663,-0.77841100,0.22944881,-0.47519271,-0.84815483,0.40067427,-0.04657445
6.42000000,-0.26806911,0.81615129,-0.32947771,-0.36948638,0.63449621,0.25769815,-0.47130231,0.27843663,-0.77841100,0.22944881,-0.47519271,-0.84815483,0.40067427,-0.04657445
6.44000000,-0.26806911,0.81615129,-0.32947771,-0.36948638,0.63449621,0.25769815,-0.47130231,0.27843663,-0.77841100,0.22944881,-0.47519271,-0.84815483,0.40067427,-0.04657445
6.46000000,-0.26806911,0.81615129,-0.32947771,-0.36948638,0.63449621,0.25769815,-0.47130231,0.27843663,-0.77841100,0.22944881,-0.47519271,-0.84815483,0.40067427,-0.04657445
6.48000000,-0.26806911,0.81615129,-0.32947771,-0.36948638,0.63449621,0.25769815,-0.47130231,0.27843663,-0.77841100,0.22944881,-0.47519271,-0.84815483,0.40067427,-0.04657445
6.50000000,-0.26806911,0.81615129,-0.32947771,-0.36948638,0.63449621,0.25769815,-0.47130231,0.27843663,-0.77841100,0.22944881,-0.47519271,-0.84815483,0.40067427,-0.04657445
6.52000000,-0.26806911,0.81615129,-0.32947771,-0.36948638,0.63449621,0.25769815,-0.47130231,0.27843663,-0.77841100,0.22944881,-0.47519271,-0.84815483,0.40067427,-0.04657445
6.54000000,-0.26806911,0.81615129,-0.32947771,-0.36948638,0.63449621,0.25769815,-0.47130231,0.27843663,-0.77841100,0.22944881,-0.47519271,-0.84815483,0.40067427,-0.04657445
6.56000000,-0.26806911,0.81615129,-0.32947771,-0.36948638,0.63449621,0.25769815,-0.47130231,0.27843663,-0.77841100,0.22944881,-0.47519271,-0.84815483,0.40067427,-0.04657445
6.58000000,-0.26806911,0.81615129,-0.32947771,-0.36948638,0.63449621,0.25769815,-0.47130231,0.27843663,-0.77841100,0.22944881,-0.47519271,-0.84815483,0.40067427,-0.04657445
6.60000000,-0.26806911,0.81615129,-0.32947771,-0.36948638,0.63449621,0.25769815,-0.47130231,0.27843663,-0.77841100,0.22944881,-0.47519271,-0.84815483,0.40067427,-0.04657445
6.62000000,-0.26806911,0.81615129,-0.32947771,-0.36948638,0.63449621,0.25769815,-0.47130231,0.27843663,-0.77841100,0.22944881,-0.47519271,-0.84815483,0.40067427,-0.04657445
6.64000000,-0.26806911,0.81615129,-0.32947771,-0.36948638,0.63449621,0.25769815,-0.47130231,0.27843663,-0.77841100,0.22944881,-0.47519271,-0.84815483,0.40067427,-0.04657445
6.66000000,-0.26806911,0.81615129,-0.32947771,-0.36948638,0.63449621,0.25769815,-0.47130231,0.27843663,-0.77841100,0.22944881,-0.47519271,-0.84815483,0.40067427,-0.04657445
6.68000000,-0.26806911,0.81615129,-0.32947771,-0.36948638,0.63449621,0.25769815,-0.47130231,0.27843663,-0.77841100,0.22944881,-0.47519271,-0.84815483,0.40067427,-0.04657445
6.70000000,-0.26806911,0.81615129,-0.32947771,-0.36948638,0.63449621,0.25769815,-0.47130231,0.27843663,-0.77841100,0.22944881,-0.47519271,-0.84815483,0.40067427,-0.04657445
6.72000000,-0.26806911,0.81615129,-0.32947771,-0.36948638,0.63449621,0.25769815,-0.47130231,0.27843663,-0.77841100,0.22944881,-0.47519271,-0.84815483,0.40067427,-0.04657445
6.74000000,-0.26806911,0.81615129,-0.32947771,-0.36948638,0.63449621,0.25769815,-0.47130231,0.27843663,-0.77841100,0.22944881,-0.47519271,-0.84815483,0.40067427,-0.04657445
6.76000000,-0.26806911,0.81615129,-0.32947771,-0.36948638,0.63449621,0.25769815,-0.47130231,0.27843663,-0.77841100,0.22944881,-0.47519271,-0.84815483,0.40067427,-0.04657445
6.78000000,-0.26806911,0.81615129,-0.32947771,-0.36948638,0.63449621,0.25769815,-0.47130231,0.27843663,-0.77841100,0.22944881,-0.47519271,-0.84815483,0.40067427,-0.04657445
6.80000000,-0.26806911,0.81615129,-0.32947771,-0.36948638,0.63449621,0.25769815,-0.47130231,0.27843663,-0.77841100,0.22944881,-0.47519271,-0.84815483,0.40067427,-0.04657445
6.82000000,-0.26806911,0.81615129,-0.32947771,-0.36948638,0.63449621,0.25769815,-0.47130231,0.27843663,-0.77841100,0.22944881,-0.47519271,-0.84815483,0.40067427,-0.04657445
6.84000000,-0.26806911,0.81615129,-0.32947771,-0.36948638,0.63449621,0.25769815,-0.47130231,0.27843663,-0.77841100,0.22944881,-0.47519271,-0.84815483,0.40067427,-0.04657445
6.86000000,-0.26806911,0.81615129,-0.32947771,-0.36948638,0.63449621,0.25769815,-0.47130231,0.27843663,-0.77841100,0.22944881,-0.47519271,-0.84815483,0.40067427,-0.04657445
6.88000000,-0.26806911,0.81615129,-0.32947771,-0.36948638,0.63449621,0.25769815,-0.47130231,0.27843663,-0.77841100,0.22944881,-0.47519271,-0.84815483,0.40067427,-0.04657445
6.90000000,-0.26806911,0.81615129,-0.32947771,-0.36948638,0.63449621,0.25769815,-0.47130231,0.27843663,-0.77841100,0.22944881,-0.47519271,-0.84815483,0.40067427,-0.04657445
6.92000000,-0.26806911,0.81615129,-0.32947771,-0.36948638,0.63449621,0.25769815,-0.47130231,0.27843663,-0.77841100,0.22944881,-0.47519271,-0.84815483,0.40067427,-0.04657445
6.94000000,-0.26806911,0.81615129,-0.32947771,-0.36948638,0.63449621,0.25769815,-0.47130231,0.27843663,-0.77841100,0.22944881,-0.47519271,-0.84815483,0.40067427,-0.04657445
6.96000000,-0.26806911,0.81615129,-0.32947771,-0.36948638,0.63449621,0.25769815,-0.47130231,0.27843663,-0.77841100,0.22944881,-0.47519271,-0.84815483,0.40067427,-0.04657445
6.98000000,-0.26806911,0.81615129,-0.32947771,-0.36948638,0.63449621,0.25769815,-0.47130231,0.27843663,-0.77841100,0.22944881,-0.47519271,-0.84815483,0.40067427,-0.04657445
7.00000000,-0.26806911,0.81615129,-0.32947771,-0.36948638,0.63449621,0.25769815,-0.47130231,0.27843663,-0.77841100,0.22944881,-0.47519271,-0.84815483,0.40067427,-0.04657445
7.02000000,-0.26806911,0.81615129,-0.32947771,-0.36948638,0.63449621,0.25769815,-0.47130231,0.27843663,-0.77841100,0.22944881,-0.47519271,-0.84815483,0.40067427,-0.04657445
7.04000000,-0.26806911,0.81615129,-0.32947771,-0.36948638,0.63449621,0.25769815,-0.47130231,0.27843663,-0.77841100,0.22944881,-0.47519271,-0.84815483,0.40067427,-0.04657445
7.06000000,-0.26806911,0.81615129,-0.32947771,-0.36948638,0.63449621,0.25769815,-0.47130231,0.27843663,-0.77841100,0.22944881,-0.47519271,-0.84815483,0.40067427,-0.04657445
7.08000000,-0.26806911,0.81615129,-0.32947771,-0.36948638,0.63449621,0.25769815,-0.47130231,0.27843663,-0.77841100,0.22944881,-0.47519271,-0.84815483,0.40067427,-0.04657445
7.10000000,-0.26806911,0.81615129,-0.32947771,-0.36948638,0.63449621,0.25769815,-0.47130231,0.27843663,-0.77841100,0.22944881,-0.47519271,-0.84815483,0.40067427,-0.04657445
7.12000000,-0.26806911,0.81615129,-0.32947771,-0.36948638,0.63449621,0.25769815,-0.47130231,0.27843663,-0.77841100,0.22944881,-0.47519271,-0.84815483,0.40067427,-0.04657445
7.14000000,-0.26806911,0.81615129,-0.32947771,-0.36948638,0.63449621,0.25769815,-0.47130231,0.27843663,-0.77841100,0.22944881,-0.47519271,-0.84815483,0.40067427,-0.04657445
7.16000000,-0.26806911,0.81615129,-0.32947771,-0.36948638,0.63449621,0.25769815,-0.47130231,0.27843663,-0.77841100,0.22944881,-0.47519271,-0.84815483,0.40067427,-0.04657445
7.18000000,-0.26806911,0.81615129,-0.32947771,-0.36948638,0.63449621,0.25769815,-0.47130231,0.27843663,-0.77841100,0.22944881,-0.47519271,-0.84815483,0.40067427,-0.04657445
7.20000000,-0.26806911,0.81615129,-0.32947771,-0.36948638,0.63449621,0.25769815,-0.47130231,0.27843663,-0.77841100,0.22944881,-0.47519271,-0.84815483,0.40067427,-0.04657445
7.22000000,-0.26806911,0.81615129,-0.32947771,-0.36948638,0.63449621,0.25769815,-0.47130231,0.27843663,-0.77841100,0.22944881,-0.47519271,-0.84815483,0.40067427,-0.04657445
7.24000000,-0.26806911,0.81615129,-0.32947771,-0.36948638,0.63449621,0.25769815,-0.47130231,0.27843663,-0.77841100,0.22944881,-0.47519271,-0.84815483,0.40067427,-0.04657445
7.26000000,-0.26806911,0.81615129,-0.32947771,-0.36948638,0.63449621,0.25769815,-0.47130231,0.27843663,-0.77841100,0.22944881,-0.47519271,-0.84815483,0.40067427,-0.04657445
7.28000000,-0.26806911,0.81615129,-0.32947771,-0.36948638,0.63449621,0.25769815,-0.47130231,0.27843663,-0.77841100,0.22944881,-0.47519271,-0.84815483,0.40067427,-0.04657445
7.30000000,-0.26806911,0.81615129,-0.32947771,-0.36948638,0.63449621,0.25769815,-0.47130231,0.27843663,-0.77841100,0.22944881,-0.47519271,-0.84815483,0.40067427,-0.04657445
7.32000000,-0.26806911,0.81615129,-0.32947771,-0.36948638,0.63449621,0.25769815,-0.47130231,0.27843663,-0.77841100,0.22944881,-0.47519271,-0.84815483,0.40067427,-0.04657445
7.34000000,-0.26806911,0.81615129,-0.32947771,-0.36948638,0.63449621,0.25769815,-0.47130231,0.27843663,-0.77841100,0.22944881,-0.47519271,-0.84815483,0.40067427,-0.04657445
7.36000000,-0.26806911,0.81615129,-0.32947771,-0.36948638,0.63449621,0.25769815,-0.47130231,0.27843663,-0.77841100,0.22944881,-0.47519271,-0.84815483,0.40067427,-0.04657445
7.38000000,-0.26806911,0.81615129,-0.32947771,-0.36948638,0.63449621,0.25769815,-0.47130231,0.27843663,-0.77841100,0.22944881,-0.47519271,-0.84815483,0.40067427,-0.04657445
7.40000000,-0.26806911,0.81615129,-0.32947771,-0.36948638,0.63449621,0.25769815,-0.47130231,0.27843663,-0.77841100,0.22944881,-0.47519271,-0.84815483,0.40067427,-0.04657445
7.42000000,-0.26806911,0.81615129,-0.32947771,-0.36948638,0.63449621,0.25769815,-0.47130231,0.27843663,-0.77841100,0.22944881,-0.47519271,-0.84815483,0.40067427,-0.04657445
7.44000000,-0.26806911,0.81615129,-0.32947771,-0.36948638,0.63449621,0.25769815,-0.47130231,0.27843663,-0.77841100,0.22944881,-0.47519271,-0.84815483,0.40067427,-0.04657445
7.46000000,-0.26806911,0.81615129,-0.32947771,-0.36948638,0.63449621,0.25769815,-0.47130231,0.27843663,-0.77841100,0.22944881,-0.47519271,-0.84815483,0.40067427,-0.04657445
7.48000000,-0.26806911,0.81615129,-0.32947771,-0.36948638,0.63449621,0.25769815,-0.47130231,0.27843663,-0.77841100,0.22944881,-0.47519271,-0.84815483,0.40067427,-0.04657445
7.50000000,-0.26806911,0.81615129,-0.32947771,-0.36948638,0.63449621,0.25769815,-0.47130231,0.27843663,-0.77841100,0.22944881,-0.47519271,-0.84815483,0.40067427,-0.04657445
7.52000000,-0.26806911,0.81615129,-0.32947771,-0.36948638,0.63449621,0.25769815,-0.47130231,0.27843663,-0.77841100,0.22944881,-0.47519271,-0.84815483,0.40067427,-0.04657445
7.54000000,-0.26806911,0.81615129,-0.32947771,-0.36948638,0.63449621,0.25769815,-0.47130231,0.27843663,-0.77841100,0.22944881,-0.47519271,-0.84815483,0.40067427,-0.04657445
7.56000000,-0.26806911,0.81615129,-0.32947771,-0.36948638,0.63449621,0.25769815,-0.47130231,0.27843663,-0.77841100,0.22944881,-0.47519271,-0.84815483,0.40067427,-0.04657445
7.58000000,-0.26806911,0.81615129,-0.32947771,-0.36948638,0.63449621,0.25769815,-0.47130231,0.27843663,-0.77841100,0.22944881,-0.47519271,-0.84815483,0.40067427,-0.04657445
7.60000000,-0.26806911,0.81615129,-0.32947771,-0.36948638,0.63449621,0.25769815,-0.47130231,0.27843663,-0.77841100,0.22944881,-0.47519271,-0.84815483,0.40067427,-0.04657445
7.62000000,-0.26806911,0.81615129,-0.32947771,-0.36948638,0.63449621,0.25769815,-0.47130231,0.27843663,-0.77841100,0.22944881,-0.47519271,-0.84815483,0.40067427,-0.04657445
7.64000000,-0.26806911,0.81615129,-0.32947771,-0.36948638,0.63449621,0.25769815,-0.47130231,0.27843663,-0.77841100,0.22944881,-0.47519271,-0.84815483,0.40067427,-0.04657445
7.66000000,-0.26806911,0.81615129,-0.32947771,-0.36948638,0.63449621,0.25769815,-0.47130231,0.27843663,-0.77841100,0.22944881,-0.47519271,-0.84815483,0.40067427,-0.04657445
7.68000000,-0.26806911,0.81615129,-0.32947771,-0.36948638,0.63449621,0.25769815,-0.47130231,0.27843663,-0.77841100,0.22944881,-0.47519271,-0.84815483,0.40067427,-0.04657445
7.70000000,-0.26806911,0.81615129,-0.32947771,-0.36948638,0.63449621,0.25769815,-0.47130231,0.27843663,-0.77841100,0.22944881,-0.47519271,-0.84815483,0.40067427,-0.04657445
7.72000000,-0.26806911,0.81615129,-0.32947771,-0.36948638,0.63449621,0.25769815,-0.47130231,0.27843663,-0.77841100,0.22944881,-0.47519271,-0.84815483,0.40067427,-0.04657445
7.74000000,-0.26806911,0.81615129,-0.32947771,-0.36948638,0.63449621,0.25769815,-0.47130231,0.27843663,-0.77841100,0.22944881,-0.47519271,-0.84815483,0.40067427,-0.04657445
7.76000000,-0.26806911,0.81615129,-0.32947771,-0.36948638,0.63449621,0.25769815,-0.47130231,0.27843663,-0.77841100,0.22944881,-0.47519271,-0.84815483,0.40067427,-0.04657445
7.78000000,-0.26806911,0.81615129,-0.32947771,-0.36948638,0.63449621,0.25769815,-0.47130231,0.27843663,-0.77841100,0.22944881,-0.47519271,-0.84815483,0.40067427,-0.04657445
7.80000000,-0.26806911,0.81615129,-0.32947771,-0.36948638,0.63449621,0.25769815,-0.47130231,0.27843663,-0.77841100,0.22944881,-0.47519271,-0.84815483,0.40067427,-0.04657445
7.82000000,-0.26806911,0.81615129,-0.32947771,-0.36948638,0.63449621,0.25769815,-0.47130231,0.27843663,-0.77841100,0.22944881,-0.47519271,-0.84815483,0.40067427,-0.04657445
7.84000000,-0.26806911,0.81615129,-0.32947771,-0.36948638,0.63449621,0.25769815,-0.47130231,0.27843663,-0.77841100,0.22944881,-0.47519271,-0.84815483,0.40067427,-0.04657445
7.86000000,-0.26806911,0.81615129,-0.32947771,-0.36948638,0.63449621,0.25769815,-0.47130231,0.27843663,-0.77841100,0.22944881,-0.47519271,-0.84815483,0.40067427,-0.04657445
7.88000000,-0.26806911,0.81615129,-0.32947771,-0.36948638,0.63449621,0.25769815,-0.47130231,0.27843663,-0.77841100,0.22944881,-0.47519271,-0.84815483,0.40067427,-0.04657445
7.90000000,-0.26806911,0.81615129,-0.32947771,-0.36948638,0.63449621,0.25769815,-0.47130231,0.27843663,-0.77841100,0.22944881,-0.47519271,-0.84815483,0.40067427,-0.04657445
7.92000000,-0.26806911,0.81615129,-0.32947771,-0.36948638,0.63449621,0.25769815,-0.47130231,0.27843663,-0.77841100,0.22944881,-0.47519271,-0.84815483,0.40067427,-0.04657445
7.94000000,-0.26806911,0.81615129,-0.32947771,-0.36948638,0.63449621,0.25769815,-0.47130231,0.27843663,-0.77841100,0.22944881,-0.47519271,-0.84815483,0.40067427,-0.04657445
7.96000000,-0.26806911,0.81615129,-0.32947771,-0.36948638,0.63449621,0.25769815,-0.47130231,0.27843663,-0.77841100,0.22944881,-0.47519271,-0.84815483,0.40067427,-0.04657445
7.98000000,-0.26806911,0.81615129,-0.32947771,-0.36948638,0.63449621,0.25769815,-0.47130231,0.27843663,-0.77841100,0.22944881,-0.47519271,-0.84815483,0.40067427,-0.04657445
8.00000000,-0.26806911,0.81615129,-0.32947771,-0.36948638,0.63449621,0.25769815,-0.47130231,0.27843663,-0.77841100,0.22944881,-0.47519271,-0.84815483,0.40067427,-0.04657445
8.02000000,-0.26806911,0.81615129,-0.32947771,-0.36948638,0.63449621,0.25769815,-0.47130231,0.27843663,-0.77841100,0.22944881,-0.47519271,-0.84815483,0.40067427,-0.04657445
8.04000000,-0.26806911,0.81615129,-0.32947771,-0.36948638,0.63449621,0.25769815,-0.47130231,0.27843663,-0.77841100,0.22944881,-0.47519271,-0.84815483,0.40067427,-0.04657445
8.06000000,-0.26806911,0.81615129,-0.32947771,-0.36948638,0.63449621,0.25769815,-0.47130231,0.27843663,-0.77841100,0.22944881,-0.47519271,-0.84815483,0.40067427,-0.04657445
8.08000000,-0.26806911,0.81615129,-0.32947771,-0.36948638,0.63449621,0.25769815,-0.47130231,0.27843663,-0.77841100,0.22944881,-0.47519271,-0.84815483,0.40067427,-0.04657445
8.10000000,-0.26806911,0.81615129,-0.32947771,-0.36948638,0.63449621,0.25769815,-0.47130231,0.27843663,-0.77841100,0.22944881,-0.47519271,-0.84815483,0.40067427,-0.04657445
8.12000000,-0.26806911,0.81615129,-0.32947771,-0.36948638,0.63449621,0.25769815,-0.47130231,0.27843663,-0.77841100,0.22944881,-0.47519271,-0.84815483,0.40067427,-0.04657445
8.14000000,-0.26806911,0.81615129,-0.32947771,-0.36948638,0.63449621,0.25769815,-0.47130231,0.27843663,-0.77841100,0.22944881,-0.47519271,-0.84815483,0.40067427,-0.04657445
8.16000000,-0.26806911,0.81615129,-0.32947771,-0.36948638,0.63449621,0.25769815,-0.47130231,0.27843663,-0.77841100,0.22944881,-0.47519271,-0.84815483,0.40067427,-0.04657445
8.18000000,-0.26806911,0.81615129,-0.32947771,-0.36948638,0.63449621,0.25769815,-0.47130231,0.27843663,-0.77841100,0.22944881,-0.47519271,-0.84815483,0.40067427,-0.04657445
8.20000000,-0.26806911,0.81615129,-0.32947771,-0.36948638,0.63449621,0.25769815,-0.47130231,0.27843663,-0.77841100,0.22944881,-0.47519271,-0.84815483,0.40067427,-0.04657445
8.22000000,-0.26806911,0.81615129,-0.32947771,-0.36948638,0.63449621,0.25769815,-0.47130231,0.27843663,-0.77841100,0.22944881,-0.47519271,-0.84815483,0.40067427,-0.04657445
8.24000000,-0.26806911,0.81615129,-0.32947771,-0.36948638,0.63449621,0.25769815,-0.47130231,0.27843663,-0.77841100,0.22944881,-0.47519271,-0.84815483,0.40067427,-0.04657445
8.26000000,-0.26806911,0.81615129,-0.32947771,-0.36948638,0.63449621,0.25769815,-0.47130231,0.27843663,-0.77841100,0.22944881,-0.47519271,-0.84815483,0.40067427,-0.04657445
8.28000000,-0.26806911,0.81615129,-0.32947771,-0.36948638,0.63449621,0.25769815,-0.47130231,0.27843663,-0.77841100,0.22944881,-0.47519271,-0.84815483,0.40067427,-0.04657445
8.30000000,-0.26806911,0.81615129,-0.32947771,-0.36948638,0.63449621,0.25769815,-0.47130231,0.27843663,-0.77841100,0.22944881,-0.47519271,-0.84815483,0.40067427,-0.04657445
8.32000000,-0.26806911,0.81615129,-0.32947771,-0.36948638,0.63449621,0.25769815,-0.47130231,0.27843663,-0.77841100,0.22944881,-0.47519271,-0.84815483,0.40067427,-0.04657445
8.34000000,-0.26806911,0.81615129,-0.32947771,-0.36948638,0.63449621,0.25769815,-0.47130231,0.27843663,-0.77841100,0.22944881,-0.47519271,-0.84815483,0.40067427,-0.04657445
8.36000000,-0.26806911,0.81615129,-0.32947771,-0.36948638,0.63449621,0.25769815,-0.47130231,0.27843663,-0.77841100,0.22944881,-0.47519271,-0.84815483,0.40067427,-0.04657445
8.38000000,-0.26806911,0.81615129,-0.32947771,-0.36948638,0.63449621,0.25769815,-0.47130231,0.27843663,-0.77841100,0.22944881,-0.47519271,-0.84815483,0.40067427,-0.04657445
8.40000000,-0.26806911,0.81615129,-0.32947771,-0.36948638,0.63449621,0.25769815,-0.47130231,0.27843663,-0.77841100,0.22944881,-0.47519271,-0.84815483,0.40067427,-0.04657445
8.42000000,-0.26806911,0.81615129,-0.32947771,-0.36948638,0.63449621,0.25769815,-0.47130231,0.27843663,-0.77841100,0.22944881,-0.47519271,-0.84815483,0.40067427,-0.04657445
8.44000000,-0.26806911,0.81615129,-0.32947771,-0.36948638,0.63449621,0.25769815,-0.47130231,0.27843663,-0.77841100,0.22944881,-0.47519271,-0.84815483,0.40067427,-0.04657445
8.46000000,-0.26806911,0.81615129,-0.32947771,-0.36948638,0.63449621,0.25769815,-0.47130231,0.27843663,-0.77841100,0.22944881,-0.47519271,-0.84815483,0.40067427,-0.04657445
8.48000000,-0.26806911,0.81615129,-0.32947771,-0.36948638,0.63449621,0.25769815,-0.47130231,0.27843663,-0.77841100,0.22944881,-0.47519271,-0.84815483,0.40067427,-0.04657445
8.50000000,-0.26806911,0.81615129,-0.32947771,-0.36948638,0.63449621,0.25769815,-0.47130231,0.27843663,-0.77841100,0.22944881,-0.47519271,-0.84815483,0.40067427,-0.04657445
8.52000000,-0.26806911,0.81615129,-0.32947771,-0.36948638,0.63449621,0.25769815,-0.47130231,0.27843663,-0.77841100,0.22944881,-0.47519271,-0.84815483,0.40067427,-0.04657445
8.54000000,-0.26806911,0.81615129,-0.32947771,-0.36948638,0.63449621,0.25769815,-0.47130231,0.27843663,-0.77841100,0.22944881,-0.47519271,-0.84815483,0.40067427,-0.04657445
8.56000000,-0.26806911,0.81615129,-0.32947771,-0.36948638,0.63449621,0.25769815,-0.47130231,0.27843663,-0.77841100,0.22944881,-0.47519271,-0.84815483,0.40067427,-0.04657445
8.58000000,-0.26806911,0.81615129,-0.32947771,-0.36948638,0.63449621,0.25769815,-0.47130231,0.27843663,-0.77841100,0.22944881,-0.47519271,-0.84815483,0.40067427,-0.04657445
8.60000000,-0.26806911,0.81615129,-0.32947771,-0.36948638,0.63449621,0.25769815,-0.47130231,0.27843663,-0.77841100,0.22944881,-0.47519271,-0.84815483,0.40067427,-0.04657445
8.62000000,-0.26806911,0.81615129,-0.32947771,-0.36948638,0.63449621,0.25769815,-0.47130231,0.27843663,-0.77841100,0.22944881,-0.47519271,-0.84815483,0.40067427,-0.04657445
8.64000000,-0.26806911,0.81615129,-0.32947771,-0.36948638,0.63449621,0.25769815,-0.47130231,0.27843663,-0.77841100,0.22944881,-0.47519271,-0.84815483,0.40067427,-0.04657445
8.66000000,-0.26806911,0.81615129,-0.32947771,-0.36948638,0.63449621,0.25769815,-0.47130231,0.27843663,-0.77841100,0.22944881,-0.47519271,-0.84815483,0.40067427,-0.04657445
8.68000000,-0.26806911,0.81615129,-0.32947771,-0.36948638,0.63449621,0.25769815,-0.47130231,0.27843663,-0.77841100,0.22944881,-0.47519271,-0.84815483,0.40067427,-0.04657445
8.70000000,-0.26806911,0.81615129,-0.32947771,-0.36948638,0.63449621,0.25769815,-0.47130231,0.27843663,-0.77841100,0.22944881,-0.47519271,-0.84815483,0.40067427,-0.04657445
8.72000000,-0.26806911,0.81615129,-0.32947771,-0.36948638,0.63449621,0.25769815,-0.47130231,0.27843663,-0.77841100,0.22944881,-0.47519271,-0.84815483,0.40067427,-0.04657445
8.74000000,-0.26806911,0.81615129,-0.32947771,-0.36948638,0.63449621,0.25769815,-0.47130231,0.27843663,-0.77841100,0.22944881,-0.47519271,-0.84815483,0.40067427,-0.04657445
8.76000000,-0.26806911,0.81615129,-0.32947771,-0.36948638,0.63449621,0.25769815,-0.47130231,0.27843663,-0.77841100,0.22944881,-0.47519271,-0.84815483,0.40067427,-0.04657445
8.78000000,-0.26806911,0.81615129,-0.32947771,-0.36948638,0.63449621,0.25769815,-0.47130231,0.27843663,-0.77841100,0.22944881,-0.47519271,-0.84815483,0.40067427,-0.04657445
8.80000000,-0.26806911,0.81615129,-0.32947771,-0.36948638,0.63449621,0.25769815,-0.47130231,0.27843663,-0.77841100,0.22944881,-0.47519271,-0.84815483,0.40067427,-0.04657445
8.82000000,-0.26806911,0.81615129,-0.32947771,-0.36948638,0.63449621,0.25769815,-0.47130231,0.27843663,-0.77841100,0.22944881,-0.47519271,-0.84815483,0.40067427,-0.04657445
8.84000000,-0.26806911,0.81615129,-0.32947771,-0.36948638,0.63449621,0.25769815,-0.47130231,0.27843663,-0.77841100,0.22944881,-0.47519271,-0.84815483,0.40067427,-0.04657445
8.86000000,-0.26806911,0.81615129,-0.32947771,-0.36948638,0.63449621,0.25769815,-0.47130231,0.27843663,-0.77841100,0.22944881,-0.47519271,-0.84815483,0.40067427,-0.04657445
8.88000000,-0.26806911,0.81615129,-0.32947771,-0.36948638,0.63449621,0.25769815,-0.47130231,0.27843663,-0.77841100,0.22944881,-0.47519271,-0.84815483,0.40067427,-0.04657445
8.90000000,-0.26806911,0.81615129,-0.32947771,-0.36948638,0.63449621,0.25769815,-0.47130231,0.27843663,-0.77841100,0.22944881,-0.47519271,-0.84815483,0.40067427,-0.04657445
8.92000000,-0.26806911,0.81615129,-0.32947771,-0.36948638,0.63449621,0.25769815,-0.47130231,0.27843663,-0.77841100,0.22944881,-0.47519271,-0.84815483,0.40067427,-0.04657445
8.94000000,-0.26806911,0.81615129,-0.32947771,-0.36948638,0.63449621,0.25769815,-0.47130231,0.27843663,-0.77841100,0.22944881,-0.47519271,-0.84815483,0.40067427,-0.04657445
8.96000000,-0.26806911,0.81615129,-0.32947771,-0.36948638,0.63449621,0.25769815,-0.47130231,0.27843663,-0.77841100,0.22944881,-0.47519271,-0.84815483,0.40067427,-0.04657445
8.98000000,-0.26806911,0.81615129,-0.32947771,-0.36948638,0.63449621,0.25769815,-0.47130231,0.27843663,-0.77841100,0.22944881,-0.47519271,-0.84815483,0.40067427,-0.04657445
9.00000000,-0.26806911,0.81615129,-0.32947771,-0.36948638,0.63449621,0.25769815,-0.47130231,0.27843663,-0.77841100,0.22944881,-0.47519271,-0.84815483,0.40067427,-0.04657445
9.02000000,-0.26806911,0.81615129,-0.32947771,-0.36948638,0.63449621,0.25769815,-0.47130231,0.27843663,-0.77841100,0.22944881,-0.47519271,-0.84815483,0.40067427,-0.04657445
9.04000000,-0.26806911,0.81615129,-0.32947771,-0.36948638,0.63449621,0.25769815,-0.47130231,0.27843663,-0.77841100,0.22944881,-0.47519271,-0.84815483,0.40067427,-0.04657445
9.06000000,-0.26806911,0.81615129,-0.32947771,-0.36948638,0.63449621,0.25769815,-0.47130231,0.27843663,-0.77841100,0.22944881,-0.47519271,-0.84815483,0.40067427,-0.04657445
9.08000000,-0.26806911,0.81615129,-0.32947771,-0.36948638,0.63449621,0.25769815,-0.47130231,0.27843663,-0.77841100,0.22944881,-0.47519271,-0.84815483,0.40067427,-0.04657445
9.10000000,-0.26806911,0.81615129,-0.32947771,-0.36948638,0.63449621,0.25769815,-0.47130231,0.27843663,-0.77841100,0.22944881,-0.47519271,-0.84815483,0.40067427,-0.04657445
9.12000000,-0.26806911,0.81615129,-0.32947771,-0.36948638,0.63449621,0.25769815,-0.47130231,0.27843663,-0.77841100,0.22944881,-0.47519271,-0.84815483,0.40067427,-0.04657445
9.14000000,-0.26806911,0.81615129,-0.32947771,-0.36948638,0.63449621,0.25769815,-0.47130231,0.27843663,-0.77841100,0.22944881,-0.47519271,-0.84815483,0.40067427,-0.04657445
9.16000000,-0.26806911,0.81615129,-0.32947771,-0.36948638,0.63449621,0.25769815,-0.47130231,0.27843663,-0.77841100,0.22944881,-0.47519271,-0.84815483,0.40067427,-0.04657445
9.18000000,-0.26806911,0.81615129,-0.32947771,-0.36948638,0.63449621,0.25769815,-0.47130231,0.27843663,-0.77841100,0.22944881,-0.47519271,-0.84815483,0.40067427,-0.04657445
9.20000000,-0.26806911,0.81615129,-0.32947771,-0.36948638,0.63449621,0.25769815,-0.47130231,0.27843663,-0.77841100,0.22944881,-0.47519271,-0.84815483,0.40067427,-0.04657445
9.22000000,-0.26806911,0.81615129,-0.32947771,-0.36948638,0.63449621,0.25769815,-0.47130231,0.27843663,-0.77841100,0.22944881,-0.47519271,-0.84815483,0.40067427,-0.04657445
9.24000000,-0.26806911,0.81615129,-0.32947771,-0.36948638,0.63449621,0.25769815,-0.47130231,0.27843663,-0.77841100,0.22944881,-0.47519271,-0.84815483,0.40067427,-0.04657445
9.26000000,-0.26806911,0.81615129,-0.32947771,-0.36948638,0.63449621,0.25769815,-0.47130231,0.27843663,-0.77841100,0.22944881,-0.47519271,-0.84815483,0.40067427,-0.04657445
9.28000000,-0.26806911,0.81615129,-0.32947771,-0.36948638,0.63449621,0.25769815,-0.47130231,0.27843663,-0.77841100,0.22944881,-0.47519271,-0.84815483,0.40067427,-0.04657445
9.30000000,-0.26806911,0.81615129,-0.32947771,-0.36948638,0.63449621,0.25769815,-0.47130231,0.27843663,-0.77841100,0.22944881,-0.47519271,-0.84815483,0.40067427,-0.04657445
9.32000000,-0.26806911,0.81615129,-0.32947771,-0.36948638,0.63449621,0.25769815,-0.47130231,0.27843663,-0.77841100,0.22944881,-0.47519271,-0.84815483,0.40067427,-0.04657445
9.34000000,-0.26806911,0.81615129,-0.32947771,-0.36948638,0.63449621,0.25769815,-0.47130231,0.27843663,-0.77841100,0.22944881,-0.47519271,-0.84815483,0.40067427,-0.04657445
9.36000000,-0.26806911,0.81615129,-0.32947771,-0.36948638,0.63449621,0.25769815,-0.47130231,0.27843663,-0.77841100,0.22944881,-0.47519271,-0.84815483,0.40067427,-0.04657445
9.38000000,-0.26806911,0.81615129,-0.32947771,-0.36948638,0.63449621,0.25769815,-0.47130231,0.27843663,-0.77841100,0.22944881,-0.47519271,-0.84815483,0.40067427,-0.04657445
9.40000000,-0.26806911,0.81615129,-0.32947771,-0.36948638,0.63449621,0.25769815,-0.47130231,0.27843663,-0.77841100,0.22944881,-0.47519271,-0.84815483,0.40067427,-0.04657445
9.42000000,-0.26806911,0.81615129,-0.32947771,-0.36948638,0.63449621,0.25769815,-0.47130231,0.27843663,-0.77841100,0.22944881,-0.47519271,-0.84815483,0.40067427,-0.04657445
9.44000000,-0.26806911,0.81615129,-0.32947771,-0.36948638,0.63449621,0.25769815,-0.47130231,0.27843663,-0.77841100,0.22944881,-0.47519271,-0.84815483,0.40067427,-0.04657445
9.46000000,-0.26806911,0.81615129,-0.32947771,-0.36948638,0.63449621,0.25769815,-0.47130231,0.27843663,-0.77841100,0.22944881,-0.47519271,-0.84815483,0.40067427,-0.04657445
9.48000000,-0.26806911,0.81615129,-0.32947771,-0.36948638,0.63449621,0.25769815,-0.47130231,0.27843663,-0.77841100,0.22944881,-0.47519271,-0.84815483,0.40067427,-0.04657445
9.50000000,-0.26806911,0.81615129,-0.32947771,-0.36948638,0.63449621,0.25769815,-0.47130231,0.27843663,-0.77841100,0.22944881,-0.47519271,-0.84815483,0.40067427,-0.04657445
9.52000000,-0.26806911,0.81615129,-0.32947771,-0.36948638,0.63449621,0.25769815,-0.47130231,0.27843663,-0.77841100,0.22944881,-0.47519271,-0.84815483,0.40067427,-0.04657445
9.54000000,-0.26806911,0.81615129,-0.32947771,-0.36948638,0.63449621,0.25769815,-0.47130231,0.27843663,-0.77841100,0.22944881,-0.47519271,-0.84815483,0.40067427,-0.04657445
9.56000000,-0.26806911,0.81615129,-0.32947771,-0.36948638,0.63449621,0.25769815,-0.47130231,0.27843663,-0.77841100,0.22944881,-0.47519271,-0.84815483,0.40067427,-0.04657445
9.58000000,-0.26806911,0.81615129,-0.32947771,-0.36948638,0.63449621,0.25769815,-0.47130231,0.27843663,-0.77841100,0.22944881,-0.47519271,-0.84815483,0.40067427,-0.04657445
9.60000000,-0.26806911,0.81615129,-0.32947771,-0.36948638,0.63449621,0.25769815,-0.47130231,0.27843663,-0.77841100,0.22944881,-0.47519271,-0.84815483,0.40067427,-0.04657445
9.62000000,-0.26806911,0.81615129,-0.32947771,-0.36948638,0.63449621,0.25769815,-0.47130231,0.27843663,-0.77841100,0.22944881,-0.47519271,-0.84815483,0.40067427,-0.04657445
9.64000000,-0.26806911,0.81615129,-0.32947771,-0.36948638,0.63449621,0.25769815,-0.47130231,0.27843663,-0.77841100,0.22944881,-0.47519271,-0.84815483,0.40067427,-0.04657445
9.66000000,-0.26806911,0.81615129,-0.32947771,-0.36948638,0.63449621,0.25769815,-0.47130231,0.27843663,-0.77841100,0.22944881,-0.47519271,-0.84815483,0.40067427,-0.04657445
9.68000000,-0.26806911,0.81615129,-0.32947771,-0.36948638,0.63449621,0.25769815,-0.47130231,0.27843663,-0.77841100,0.22944881,-0.47519271,-0.84815483,0.40067427,-0.04657445
9.70000000,-0.26806911,0.81615129,-0.32947771,-0.36948638,0.63449621,0.25769815,-0.47130231,0.27843663,-0.77841100,0.22944881,-0.47519271,-0.84815483,0.40067427,-0.04657445
9.72000000,-0.26806911,0.81615129,-0.32947771,-0.36948638,0.63449621,0.25769815,-0.47130231,0.27843663,-0.77841100,0.22944881,-0.47519271,-0.84815483,0.40067427,-0.04657445
9.74000000,-0.26806911,0.81615129,-0.32947771,-0.36948638,0.63449621,0.25769815,-0.47130231,0.27843663,-0.77841100,0.22944881,-0.47519271,-0.84815483,0.40067427,-0.04657445
9.76000000,-0.26806911,0.81615129,-0.32947771,-0.36948638,0.63449621,0.25769815,-0.47130231,0.27843663,-0.77841100,0.22944881,-0.47519271,-0.84815483,0.40067427,-0.04657445
9.78000000,-0.26806911,0.81615129,-0.32947771,-0.36948638,0.63449621,0.25769815,-0.47130231,0.27843663,-0.77841100,0.22944881,-0.47519271,-0.84815483,0.40067427,-0.04657445
9.80000000,-0.26806911,0.81615129,-0.32947771,-0.36948638,0.63449621,0.25769815,-0.47130231,0.27843663,-0.77841100,0.22944881,-0.47519271,-0.84815483,0.40067427,-0.04657445
9.82000000,-0.26806911,0.81615129,-0.32947771,-0.36948638,0.63449621,0.25769815,-0.47130231,0.27843663,-0.77841100,0.22944881,-0.47519271,-0.84815483,0.40067427,-0.04657445
9.84000000,-0.26806911,0.81615129,-0.32947771,-0.36948638,0.63449621,0.25769815,-0.47130231,0.27843663,-0.77841100,0.22944881,-0.47519271,-0.84815483,0.40067427,-0.04657445
9.86000000,-0.26806911,0.81615129,-0.32947771,-0.36948638,0.63449621,0.25769815,-0.47130231,0.27843663,-0.77841100,0.22944881,-0.47519271,-0.84815483,0.40067427,-0.04657445
9.88000000,-0.26806911,0.81615129,-0.32947771,-0.36948638,0.63449621,0.25769815,-0.47130231,0.27843663,-0.77841100,0.22944881,-0.47519271,-0.84815483,0.40067427,-0.04657445
9.90000000,-0.26806911,0.81615129,-0.32947771,-0.36948638,0.63449621,0.25769815,-0.47130231,0.27843663,-0.77841100,0.22944881,-0.47519271,-0.84815483,0.40067427,-0.04657445
9.92000000,-0.26806911,0.81615129,-0.32947771,-0.36948638,0.63449621,0.25769815,-0.47130231,0.27843663,-0.77841100,0.22944881,-0.47519271,-0.84815483,0.40067427,-0.04657445
9.94000000,-0.26806911,0.81615129,-0.32947771,-0.36948638,0.63449621,0.25769815,-0.47130231,0.27843663,-0.77841100,0.22944881,-0.47519271,-0.84815483,0.40067427,-0.04657445
9.96000000,-0.26806911,0.81615129,-0.32947771,-0.36948638,0.63449621,0.25769815,-0.47130231,0.27843663,-0.77841100,0.22944881,-0.47519271,-0.84815483,0.40067427,-0.04657445
9.98000000,-0.26806911,0.81615129,-0.32947771,-0.36948638,0.63449621,0.25769815,-0.47130231,0.27843663,-0.77841100,0.22944881,-0.47519271,-0.84815483,0.40067427,-0.04657445
10.00000000,-0.26806911,0.81615129,-0.32947771,-0.36948638,0.63449621,0.25769815,-0.47130231,0.27843663,-0.77841100,0.22944881,-0.47519271,-0.84815483,0.40067427,-0.04657445
10.02000000,-0.26806911,0.81615129,-0.32947771,-0.36948638,0.63449621,0.25769815,-0.47130231,0.27843663,-0.77841100,0.22944881,-0.47519271,-0.84815483,0.40067427,-0.04657445
10.04000000,-0.26806911,0.81615129,-0.32947771,-0.36948638,0.63449621,0.25769815,-0.47130231,0.27843663,-0.77841100,0.22944881,-0.47519271,-0.84815483,0.40067427,-0.04657445
10.06000000,-0.26806911,0.81615129,-0.32947771,-0.36948638,0.63449621,0.25769815,-0.47130231,0.27843663,-0.77841100,0.22944881,-0.47519271,-0.84815483,0.40067427,-0.04657445
10.08000000,-0.26806911,0.81615129,-0.32947771,-0.36948638,0.63449621,0.25769815,-0.47130231,0.27843663,-0.77841100,0.22944881,-0.47519271,-0.84815483,0.40067427,-0.04657445
10.10000000,-0.26806911,0.81615129,-0.32947771,-0.36948638,0.63449621,0.25769815,-0.47130231,0.27843663,-0.77841100,0.22944881,-0.47519271,-0.84815483,0.40067427,-0.04657445
10.12000000,-0.26806911,0.81615129,-0.32947771,-0.36948638,0.63449621,0.25769815,-0.47130231,0.27843663,-0.77841100,0.22944881,-0.47519271,-0.84815483,0.40067427,-0.04657445
10.14000000,-0.26806911,0.81615129,-0.32947771,-0.36948638,0.63449621,0.25769815,-0.47130231,0.27843663,-0.77841100,0.22944881,-0.47519271,-0.84815483,0.40067427,-0.04657445
10.16000000,-0.26806911,0.81615129,-0.32947771,-0.36948638,0.63449621,0.25769815,-0.47130231,0.27843663,-0.77841100,0.22944881,-0.47519271,-0.84815483,0.40067427,-0.04657445
10.18000000,-0.26806911,0.81615129,-0.32947771,-0.36948638,0.63449621,0.25769815,-0.47130231,0.27843663,-0.77841100,0.22944881,-0.47519271,-0.84815483,0.40067427,-0.04657445
10.20000000,-0.26806911,0.81615129,-0.32947771,-0.36948638,0.63449621,0.25769815,-0.47130231,0.27843663,-0.77841100,0.22944881,-0.47519271,-0.84815483,0.40067427,-0.04657445
10.22000000,-0.26806911,0.81615129,-0.32947771,-0.36948638,0.63449621,0.25769815,-0.47130231,0.27843663,-0.77841100,0.22944881,-0.47519271,-0.84815483,0.40067427,-0.04657445
10.24000000,-0.26806911,0.81615129,-0.32947771,-0.36948638,0.63449621,0.25769815,-0.47130231,0.27843663,-0.77841100,0.22944881,-0.47519271,-0.84815483,0.40067427,-0.04657445
10.26000000,-0.26806911,0.81615129,-0.32947771,-0.36948638,0.63449621,0.25769815,-0.47130231,0.27843663,-0.77841100,0.22944881,-0.47519271,-0.84815483,0.40067427,-0.04657445
10.28000000,-0.26806911,0.81615129,-0.32947771,-0.36948638,0.63449621,0.25769815,-0.47130231,0.27843663,-0.77841100,0.22944881,-0.47519271,-0.84815483,0.40067427,-0.04657445
10.30000000,-0.26806911,0.81615129,-0.32947771,-0.36948638,0.63449621,0.25769815,-0.47130231,0.27843663,-0.77841100,0.22944881,-0.47519271,-0.84815483,0.40067427,-0.04657445
10.32000000,-0.26806911,0.81615129,-0.32947771,-0.36948638,0.63449621,0.25769815,-0.47130231,0.27843663,-0.77841100,0.22944881,-0.47519271,-0.84815483,0.40067427,-0.04657445
10.34000000,-0.26806911,0.81615129,-0.32947771,-0.36948638,0.63449621,0.25769815,-0.47130231,0.27843663,-0.77841100,0.22944881,-0.47519271,-0.84815483,0.40067427,-0.04657445
10.36000000,-0.26806911,0.81615129,-0.32947771,-0.36948638,0.63449621,0.25769815,-0.47130231,0.27843663,-0.77841100,0.22944881,-0.47519271,-0.84815483,0.40067427,-0.04657445
10.38000000,-0.26806911,0.81615129,-0.32947771,-0.36948638,0.63449621,0.25769815,-0.47130231,0.27843663,-0.77841100,0.22944881,-0.47519271,-0.84815483,0.40067427,-0.04657445
10.40000000,-0.26806911,0.81615129,-0.32947771,-0.36948638,0.63449621,0.25769815,-0.47130231,0.27843663,-0.77841100,0.22944881,-0.47519271,-0.84815483,0.40067427,-0.04657445
10.42000000,-0.26806911,0.81615129,-0.32947771,-0.36948638,0.63449621,0.25769815,-0.47130231,0.27843663,-0.77841100,0.22944881,-0.47519271,-0.84815483,0.40067427,-0.04657445
10.44000000,-0.26806911,0.81615129,-0.32947771,-0.36948638,0.63449621,0.25769815,-0.47130231,0.27843663,-0.77841100,0.22944881,-0.47519271,-0.84815483,0.40067427,-0.04657445
10.46000000,-0.26806911,0.81615129,-0.32947771,-0.36948638,0.63449621,0.25769815,-0.47130231,0.27843663,-0.77841100,0.22944881,-0.47519271,-0.84815483,0.40067427,-0.04657445
10.48000000,-0.26806911,0.81615129,-0.32947771,-0.36948638,0.63449621,0.25769815,-0.47130231,0.27843663,-0.77841100,0.22944881,-0.47519271,-0.84815483,0.40067427,-0.04657445
10.50000000,-0.26806911,0.81615129,-0.32947771,-0.36948638,0.63449621,0.25769815,-0.47130231,0.27843663,-0.77841100,0.22944881,-0.47519271,-0.84815483,0.40067427,-0.04657445
10.52000000,-0.26806911,0.81615129,-0.32947771,-0.36948638,0.63449621,0.25769815,-0.47130231,0.27843663,-0.77841100,0.22944881,-0.47519271,-0.84815483,0.40067427,-0.04657445
10.54000000,-0.26806911,0.81615129,-0.32947771,-0.36948638,0.63449621,0.25769815,-0.47130231,0.27843663,-0.77841100,0.22944881,-0.47519271,-0.84815483,0.40067427,-0.04657445
10.56000000,-0.26806911,0.81615129,-0.32947771,-0.36948638,0.63449621,0.25769815,-0.47130231,0.27843663,-0.77841100,0.22944881,-0.47519271,-0.84815483,0.40067427,-0.04657445
10.58000000,-0.26806911,0.81615129,-0.32947771,-0.36948638,0.63449621,0.25769815,-0.47130231,0.27843663,-0.77841100,0.22944881,-0.47519271,-0.84815483,0.40067427,-0.04657445
10.60000000,-0.26806911,0.81615129,-0.32947771,-0.36948638,0.63449621,0.25769815,-0.47130231,0.27843663,-0.77841100,0.22944881,-0.47519271,-0.84815483,0.40067427,-0.04657445
10.62000000,-0.26806911,0.81615129,-0.32947771,-0.36948638,0.63449621,0.25769815,-0.47130231,0.27843663,-0.77841100,0.22944881,-0.47519271,-0.84815483,0.40067427,-0.04657445
10.64000000,-0.26806911,0.81615129,-0.32947771,-0.36948638,0.63449621,0.25769815,-0.47130231,0.27843663,-0.77841100,0.22944881,-0.47519271,-0.84815483,0.40067427,-0.04657445
10.66000000,-0.26806911,0.81615129,-0.32947771,-0.36948638,0.63449621,0.25769815,-0.47130231,0.27843663,-0.77841100,0.22944881,-0.47519271,-0.84815483,0.40067427,-0.04657445
10.68000000,-0.26806911,0.81615129,-0.32947771,-0.36948638,0.63449621,0.25769815,-0.47130231,0.27843663,-0.77841100,0.22944881,-0.47519271,-0.84815483,0.40067427,-0.04657445
10.70000000,-0.26806911,0.81615129,-0.32947771,-0.36948638,0.63449621,0.25769815,-0.47130231,0.27843663,-0.77841100,0.22944881,-0.47519271,-0.84815483,0.40067427,-0.04657445
10.72000000,-0.26806911,0.81615129,-0.32947771,-0.36948638,0.63449621,0.25769815,-0.47130231,0.27843663,-0.77841100,0.22944881,-0.47519271,-0.84815483,0.40067427,-0.04657445
10.74000000,-0.26806911,0.81615129,-0.32947771,-0.36948638,0.63449621,0.25769815,-0.47130231,0.27843663,-0.77841100,0.22944881,-0.47519271,-0.84815483,0.40067427,-0.04657445
10.76000000,-0.26806911,0.81615129,-0.32947771,-0.36948638,0.63449621,0.25769815,-0.47130231,0.27843663,-0.77841100,0.22944881,-0.47519271,-0.84815483,0.40067427,-0.04657445
10.78000000,-0.26806911,0.81615129,-0.32947771,-0.36948638,0.63449621,0.25769815,-0.47130231,0.27843663,-0.77841100,0.22944881,-0.47519271,-0.84815483,0.40067427,-0.04657445
10.80000000,-0.26806911,0.81615129,-0.32947771,-0.36948638,0.63449621,0.25769815,-0.47130231,0.27843663,-0.77841100,0.22944881,-0.47519271,-0.84815483,0.40067427,-0.04657445
10.82000000,-0.26806911,0.81615129,-0.32947771,-0.36948638,0.63449621,0.25769815,-0.47130231,0.27843663,-0.77841100,0.22944881,-0.47519271,-0.84815483,0.40067427,-0.04657445
10.84000000,-0.26806911,0.81615129,-0.32947771,-0.36948638,0.63449621,0.25769815,-0.47130231,0.27843663,-0.77841100,0.22944881,-0.47519271,-0.84815483,0.40067427,-0.04657445
10.86000000,-0.26806911,0.81615129,-0.32947771,-0.36948638,0.63449621,0.25769815,-0.47130231,0.27843663,-0.77841100,0.22944881,-0.47519271,-0.84815483,0.40067427,-0.04657445
10.88000000,-0.26806911,0.81615129,-0.32947771,-0.36948638,0.63449621,0.25769815,-0.47130231,0.27843663,-0.77841100,0.22944881,-0.47519271,-0.84815483,0.40067427,-0.04657445
10.90000000,-0.26806911,0.81615129,-0.32947771,-0.36948638,0.63449621,0.25769815,-0.47130231,0.27843663,-0.77841100,0.22944881,-0.47519271,-0.84815483,0.40067427,-0.04657445
10.92000000,-0.26806911,0.81615129,-0.32947771,-0.36948638,0.63449621,0.25769815,-0.47130231,0.27843663,-0.77841100,0.22944881,-0.47519271,-0.84815483,0.40067427,-0.04657445
10.94000000,-0.26806911,0.81615129,-0.32947771,-0.36948638,0.63449621,0.25769815,-0.47130231,0.27843663,-0.77841100,0.22944881,-0.47519271,-0.84815483,0.40067427,-0.04657445
10.96000000,-0.26806911,0.81615129,-0.32947771,-0.36948638,0.63449621,0.25769815,-0.47130231,0.27843663,-0.77841100,0.22944881,-0.47519271,-0.84815483,0.40067427,-0.04657445
10.98000000,-0.26806911,0.81615129,-0.32947771,-0.36948638,0.63449621,0.25769815,-0.47130231,0.27843663,-0.77841100,0.22944881,-0.47519271,-0.84815483,0.40067427,-0.04657445
11.00000000,-0.26806911,0.81615129,-0.32947771,-0.36948638,0.63449621,0.25769815,-0.47130231,0.27843663,-0.77841100,0.22944881,-0.47519271,-0.84815483,0.40067427,-0.04657445
11.02000000,-0.26806911,0.81615129,-0.32947771,-0.36948638,0.63449621,0.25769815,-0.47130231,0.27843663,-0.77841100,0.22944881,-0.47519271,-0.84815483,0.40067427,-0.04657445
11.04000000,-0.26806911,0.81615129,-0.32947771,-0.36948638,0.63449621,0.25769815,-0.47130231,0.27843663,-0.77841100,0.22944881,-0.47519271,-0.84815483,0.40067427,-0.04657445
11.06000000,-0.26806911,0.81615129,-0.32947771,-0.36948638,0.63449621,0.25769815,-0.47130231,0.27843663,-0.77841100,0.22944881,-0.47519271,-0.84815483,0.40067427,-0.04657445
11.08000000,-0.26806911,0.81615129,-0.32947771,-0.36948638,0.63449621,0.25769815,-0.47130231,0.27843663,-0.77841100,0.22944881,-0.47519271,-0.84815483,0.40067427,-0.04657445
11.10000000,-0.26806911,0.81615129,-0.32947771,-0.36948638,0.63449621,0.25769815,-0.47130231,0.27843663,-0.77841100,0.22944881,-0.47519271,-0.84815483,0.40067427,-0.04657445
11.12000000,-0.26806911,0.81615129,-0.32947771,-0.36948638,0.63449621,0.25769815,-0.47130231,0.27843663,-0.77841100,0.22944881,-0.47519271,-0.84815483,0.40067427,-0.04657445
11.14000000,-0.26806911,0.81615129,-0.32947771,-0.36948638,0.63449621,0.25769815,-0.47130231,0.27843663,-0.77841100,0.22944881,-0.47519271,-0.84815483,0.40067427,-0.04657445
11.16000000,-0.26806911,0.81615129,-0.32947771,-0.36948638,0.63449621,0.25769815,-0.47130231,0.27843663,-0.77841100,0.22944881,-0.47519271,-0.84815483,0.40067427,-0.04657445
11.18000000,-0.26806911,0.81615129,-0.32947771,-0.36948638,0.63449621,0.25769815,-0.47130231,0.27843663,-0.77841100,0.22944881,-0.47519271,-0.84815483,0.40067427,-0.04657445
11.20000000,-0.26806911,0.81615129,-0.32947771,-0.36948638,0.63449621,0.25769815,-0.47130231,0.27843663,-0.77841100,0.22944881,-0.47519271,-0.84815483,0.40067427,-0.04657445
11.22000000,-0.26806911,0.81615129,-0.32947771,-0.36948638,0.63449621,0.25769815,-0.47130231,0.27843663,-0.77841100,0.22944881,-0.47519271,-0.84815483,0.40067427,-0.04657445
11.24000000,-0.26806911,0.81615129,-0.32947771,-0.36948638,0.63449621,0.25769815,-0.47130231,0.27843663,-0.77841100,0.22944881,-0.47519271,-0.84815483,0.40067427,-0.04657445
11.26000000,-0.26806911,0.81615129,-0.32947771,-0.36948638,0.63449621,0.25769815,-0.47130231,0.27843663,-0.77841100,0.22944881,-0.47519271,-0.84815483,0.40067427,-0.04657445
11.28000000,-0.26806911,0.81615129,-0.32947771,-0.36948638,0.63449621,0.25769815,-0.47130231,0.27843663,-0.77841100,0.22944881,-0.47519271,-0.84815483,0.40067427,-0.04657445
11.30000000,-0.26806911,0.81615129,-0.32947771,-0.36948638,0.63449621,0.25769815,-0.47130231,0.27843663,-0.77841100,0.22944881,-0.47519271,-0.84815483,0.40067427,-0.04657445
11.32000000,-0.26806911,0.81615129,-0.32947771,-0.36948638,0.63449621,0.25769815,-0.47130231,0.27843663,-0.77841100,0.22944881,-0.47519271,-0.84815483,0.40067427,-0.04657445
11.34000000,-0.26806911,0.81615129,-0.32947771,-0.36948638,0.63449621,0.25769815,-0.47130231,0.27843663,-0.77841100,0.22944881,-0.47519271,-0.84815483,0.40067427,-0.04657445
11.36000000,-0.26806911,0.81615129,-0.32947771,-0.36948638,0.63449621,0.25769815,-0.47130231,0.27843663,-0.77841100,0.22944881,-0.47519271,-0.84815483,0.40067427,-0.04657445
11.38000000,-0.26806911,0.81615129,-0.32947771,-0.36948638,0.63449621,0.25769815,-0.47130231,0.27843663,-0.77841100,0.22944881,-0.47519271,-0.84815483,0.40067427,-0.04657445
11.40000000,-0.26806911,0.81615129,-0.32947771,-0.36948638,0.63449621,0.25769815,-0.47130231,0.27843663,-0.77841100,0.22944881,-0.47519271,-0.84815483,0.40067427,-0.04657445
11.42000000,-0.26806911,0.81615129,-0.32947771,-0.36948638,0.63449621,0.25769815,-0.47130231,0.27843663,-0.77841100,0.22944881,-0.47519271,-0.84815483,0.40067427,-0.04657445
11.44000000,-0.26806911,0.81615129,-0.32947771,-0.36948638,0.63449621,0.25769815,-0.47130231,0.27843663,-0.77841100,0.22944881,-0.47519271,-0.84815483,0.40067427,-0.04657445
11.46000000,-0.26806911,0.81615129,-0.32947771,-0.36948638,0.63449621,0.25769815,-0.47130231,0.27843663,-0.77841100,0.22944881,-0.47519271,-0.84815483,0.40067427,-0.04657445
11.48000000,-0.26806911,0.81615129,-0.32947771,-0.36948638,0.63449621,0.25769815,-0.47130231,0.27843663,-0.77841100,0.22944881,-0.47519271,-0.84815483,0.40067427,-0.04657445
