gracetata/LocomotionHEC/legged_lab/Reference Data/ArmHack/StandPerturb/TestData/ArmOnly/poses/synthesized/synthesized_arm_pose_03_seed20260714_hold20s_50hz.csv
time_s,left_shoulder_pitch_joint,left_shoulder_roll_joint,left_shoulder_yaw_joint,left_elbow_joint,left_wrist_roll_joint,left_wrist_pitch_joint,left_wrist_yaw_joint,right_shoulder_pitch_joint,right_shoulder_roll_joint,right_shoulder_yaw_joint,right_elbow_joint,right_wrist_roll_joint,right_wrist_pitch_joint,right_wrist_yaw_joint
0.00000000,-0.39883314,0.62257036,-0.50269798,0.12337469,0.76012860,0.16881981,-0.22079259,-0.01565016,-0.84457463,0.23111575,-0.48916929,-0.69303860,0.37538951,0.28166091
0.02000000,-0.39883314,0.62257036,-0.50269798,0.12337469,0.76012860,0.16881981,-0.22079259,-0.01565016,-0.84457463,0.23111575,-0.48916929,-0.69303860,0.37538951,0.28166091
0.04000000,-0.39883314,0.62257036,-0.50269798,0.12337469,0.76012860,0.16881981,-0.22079259,-0.01565016,-0.84457463,0.23111575,-0.48916929,-0.69303860,0.37538951,0.28166091
0.06000000,-0.39883314,0.62257036,-0.50269798,0.12337469,0.76012860,0.16881981,-0.22079259,-0.01565016,-0.84457463,0.23111575,-0.48916929,-0.69303860,0.37538951,0.28166091
0.08000000,-0.39883314,0.62257036,-0.50269798,0.12337469,0.76012860,0.16881981,-0.22079259,-0.01565016,-0.84457463,0.23111575,-0.48916929,-0.69303860,0.37538951,0.28166091
0.10000000,-0.39883314,0.62257036,-0.50269798,0.12337469,0.76012860,0.16881981,-0.22079259,-0.01565016,-0.84457463,0.23111575,-0.48916929,-0.69303860,0.37538951,0.28166091
0.12000000,-0.39883314,0.62257036,-0.50269798,0.12337469,0.76012860,0.16881981,-0.22079259,-0.01565016,-0.84457463,0.23111575,-0.48916929,-0.69303860,0.37538951,0.28166091
0.14000000,-0.39883314,0.62257036,-0.50269798,0.12337469,0.76012860,0.16881981,-0.22079259,-0.01565016,-0.84457463,0.23111575,-0.48916929,-0.69303860,0.37538951,0.28166091
0.16000000,-0.39883314,0.62257036,-0.50269798,0.12337469,0.76012860,0.16881981,-0.22079259,-0.01565016,-0.84457463,0.23111575,-0.48916929,-0.69303860,0.37538951,0.28166091
0.18000000,-0.39883314,0.62257036,-0.50269798,0.12337469,0.76012860,0.16881981,-0.22079259,-0.01565016,-0.84457463,0.23111575,-0.48916929,-0.69303860,0.37538951,0.28166091
0.20000000,-0.39883314,0.62257036,-0.50269798,0.12337469,0.76012860,0.16881981,-0.22079259,-0.01565016,-0.84457463,0.23111575,-0.48916929,-0.69303860,0.37538951,0.28166091
0.22000000,-0.39883314,0.62257036,-0.50269798,0.12337469,0.76012860,0.16881981,-0.22079259,-0.01565016,-0.84457463,0.23111575,-0.48916929,-0.69303860,0.37538951,0.28166091
0.24000000,-0.39883314,0.62257036,-0.50269798,0.12337469,0.76012860,0.16881981,-0.22079259,-0.01565016,-0.84457463,0.23111575,-0.48916929,-0.69303860,0.37538951,0.28166091
0.26000000,-0.39883314,0.62257036,-0.50269798,0.12337469,0.76012860,0.16881981,-0.22079259,-0.01565016,-0.84457463,0.23111575,-0.48916929,-0.69303860,0.37538951,0.28166091
0.28000000,-0.39883314,0.62257036,-0.50269798,0.12337469,0.76012860,0.16881981,-0.22079259,-0.01565016,-0.84457463,0.23111575,-0.48916929,-0.69303860,0.37538951,0.28166091
0.30000000,-0.39883314,0.62257036,-0.50269798,0.12337469,0.76012860,0.16881981,-0.22079259,-0.01565016,-0.84457463,0.23111575,-0.48916929,-0.69303860,0.37538951,0.28166091
0.32000000,-0.39883314,0.62257036,-0.50269798,0.12337469,0.76012860,0.16881981,-0.22079259,-0.01565016,-0.84457463,0.23111575,-0.48916929,-0.69303860,0.37538951,0.28166091
0.34000000,-0.39883314,0.62257036,-0.50269798,0.12337469,0.76012860,0.16881981,-0.22079259,-0.01565016,-0.84457463,0.23111575,-0.48916929,-0.69303860,0.37538951,0.28166091
0.36000000,-0.39883314,0.62257036,-0.50269798,0.12337469,0.76012860,0.16881981,-0.22079259,-0.01565016,-0.84457463,0.23111575,-0.48916929,-0.69303860,0.37538951,0.28166091
0.38000000,-0.39883314,0.62257036,-0.50269798,0.12337469,0.76012860,0.16881981,-0.22079259,-0.01565016,-0.84457463,0.23111575,-0.48916929,-0.69303860,0.37538951,0.28166091
0.40000000,-0.39883314,0.62257036,-0.50269798,0.12337469,0.76012860,0.16881981,-0.22079259,-0.01565016,-0.84457463,0.23111575,-0.48916929,-0.69303860,0.37538951,0.28166091
0.42000000,-0.39883314,0.62257036,-0.50269798,0.12337469,0.76012860,0.16881981,-0.22079259,-0.01565016,-0.84457463,0.23111575,-0.48916929,-0.69303860,0.37538951,0.28166091
0.44000000,-0.39883314,0.62257036,-0.50269798,0.12337469,0.76012860,0.16881981,-0.22079259,-0.01565016,-0.84457463,0.23111575,-0.48916929,-0.69303860,0.37538951,0.28166091
0.46000000,-0.39883314,0.62257036,-0.50269798,0.12337469,0.76012860,0.16881981,-0.22079259,-0.01565016,-0.84457463,0.23111575,-0.48916929,-0.69303860,0.37538951,0.28166091
0.48000000,-0.39883314,0.62257036,-0.50269798,0.12337469,0.76012860,0.16881981,-0.22079259,-0.01565016,-0.84457463,0.23111575,-0.48916929,-0.69303860,0.37538951,0.28166091
0.50000000,-0.39883314,0.62257036,-0.50269798,0.12337469,0.76012860,0.16881981,-0.22079259,-0.01565016,-0.84457463,0.23111575,-0.48916929,-0.69303860,0.37538951,0.28166091
0.52000000,-0.39883314,0.62257036,-0.50269798,0.12337469,0.76012860,0.16881981,-0.22079259,-0.01565016,-0.84457463,0.23111575,-0.48916929,-0.69303860,0.37538951,0.28166091
0.54000000,-0.39883314,0.62257036,-0.50269798,0.12337469,0.76012860,0.16881981,-0.22079259,-0.01565016,-0.84457463,0.23111575,-0.48916929,-0.69303860,0.37538951,0.28166091
0.56000000,-0.39883314,0.62257036,-0.50269798,0.12337469,0.76012860,0.16881981,-0.22079259,-0.01565016,-0.84457463,0.23111575,-0.48916929,-0.69303860,0.37538951,0.28166091
0.58000000,-0.39883314,0.62257036,-0.50269798,0.12337469,0.76012860,0.16881981,-0.22079259,-0.01565016,-0.84457463,0.23111575,-0.48916929,-0.69303860,0.37538951,0.28166091
0.60000000,-0.39883314,0.62257036,-0.50269798,0.12337469,0.76012860,0.16881981,-0.22079259,-0.01565016,-0.84457463,0.23111575,-0.48916929,-0.69303860,0.37538951,0.28166091
0.62000000,-0.39883314,0.62257036,-0.50269798,0.12337469,0.76012860,0.16881981,-0.22079259,-0.01565016,-0.84457463,0.23111575,-0.48916929,-0.69303860,0.37538951,0.28166091
0.64000000,-0.39883314,0.62257036,-0.50269798,0.12337469,0.76012860,0.16881981,-0.22079259,-0.01565016,-0.84457463,0.23111575,-0.48916929,-0.69303860,0.37538951,0.28166091
0.66000000,-0.39883314,0.62257036,-0.50269798,0.12337469,0.76012860,0.16881981,-0.22079259,-0.01565016,-0.84457463,0.23111575,-0.48916929,-0.69303860,0.37538951,0.28166091
0.68000000,-0.39883314,0.62257036,-0.50269798,0.12337469,0.76012860,0.16881981,-0.22079259,-0.01565016,-0.84457463,0.23111575,-0.48916929,-0.69303860,0.37538951,0.28166091
0.70000000,-0.39883314,0.62257036,-0.50269798,0.12337469,0.76012860,0.16881981,-0.22079259,-0.01565016,-0.84457463,0.23111575,-0.48916929,-0.69303860,0.37538951,0.28166091
0.72000000,-0.39883314,0.62257036,-0.50269798,0.12337469,0.76012860,0.16881981,-0.22079259,-0.01565016,-0.84457463,0.23111575,-0.48916929,-0.69303860,0.37538951,0.28166091
0.74000000,-0.39883314,0.62257036,-0.50269798,0.12337469,0.76012860,0.16881981,-0.22079259,-0.01565016,-0.84457463,0.23111575,-0.48916929,-0.69303860,0.37538951,0.28166091
0.76000000,-0.39883314,0.62257036,-0.50269798,0.12337469,0.76012860,0.16881981,-0.22079259,-0.01565016,-0.84457463,0.23111575,-0.48916929,-0.69303860,0.37538951,0.28166091
0.78000000,-0.39883314,0.62257036,-0.50269798,0.12337469,0.76012860,0.16881981,-0.22079259,-0.01565016,-0.84457463,0.23111575,-0.48916929,-0.69303860,0.37538951,0.28166091
0.80000000,-0.39883314,0.62257036,-0.50269798,0.12337469,0.76012860,0.16881981,-0.22079259,-0.01565016,-0.84457463,0.23111575,-0.48916929,-0.69303860,0.37538951,0.28166091
0.82000000,-0.39883314,0.62257036,-0.50269798,0.12337469,0.76012860,0.16881981,-0.22079259,-0.01565016,-0.84457463,0.23111575,-0.48916929,-0.69303860,0.37538951,0.28166091
0.84000000,-0.39883314,0.62257036,-0.50269798,0.12337469,0.76012860,0.16881981,-0.22079259,-0.01565016,-0.84457463,0.23111575,-0.48916929,-0.69303860,0.37538951,0.28166091
0.86000000,-0.39883314,0.62257036,-0.50269798,0.12337469,0.76012860,0.16881981,-0.22079259,-0.01565016,-0.84457463,0.23111575,-0.48916929,-0.69303860,0.37538951,0.28166091
0.88000000,-0.39883314,0.62257036,-0.50269798,0.12337469,0.76012860,0.16881981,-0.22079259,-0.01565016,-0.84457463,0.23111575,-0.48916929,-0.69303860,0.37538951,0.28166091
0.90000000,-0.39883314,0.62257036,-0.50269798,0.12337469,0.76012860,0.16881981,-0.22079259,-0.01565016,-0.84457463,0.23111575,-0.48916929,-0.69303860,0.37538951,0.28166091
0.92000000,-0.39883314,0.62257036,-0.50269798,0.12337469,0.76012860,0.16881981,-0.22079259,-0.01565016,-0.84457463,0.23111575,-0.48916929,-0.69303860,0.37538951,0.28166091
0.94000000,-0.39883314,0.62257036,-0.50269798,0.12337469,0.76012860,0.16881981,-0.22079259,-0.01565016,-0.84457463,0.23111575,-0.48916929,-0.69303860,0.37538951,0.28166091
0.96000000,-0.39883314,0.62257036,-0.50269798,0.12337469,0.76012860,0.16881981,-0.22079259,-0.01565016,-0.84457463,0.23111575,-0.48916929,-0.69303860,0.37538951,0.28166091
0.98000000,-0.39883314,0.62257036,-0.50269798,0.12337469,0.76012860,0.16881981,-0.22079259,-0.01565016,-0.84457463,0.23111575,-0.48916929,-0.69303860,0.37538951,0.28166091
1.00000000,-0.39883314,0.62257036,-0.50269798,0.12337469,0.76012860,0.16881981,-0.22079259,-0.01565016,-0.84457463,0.23111575,-0.48916929,-0.69303860,0.37538951,0.28166091
1.02000000,-0.39883314,0.62257036,-0.50269798,0.12337469,0.76012860,0.16881981,-0.22079259,-0.01565016,-0.84457463,0.23111575,-0.48916929,-0.69303860,0.37538951,0.28166091
1.04000000,-0.39883314,0.62257036,-0.50269798,0.12337469,0.76012860,0.16881981,-0.22079259,-0.01565016,-0.84457463,0.23111575,-0.48916929,-0.69303860,0.37538951,0.28166091
1.06000000,-0.39883314,0.62257036,-0.50269798,0.12337469,0.76012860,0.16881981,-0.22079259,-0.01565016,-0.84457463,0.23111575,-0.48916929,-0.69303860,0.37538951,0.28166091
1.08000000,-0.39883314,0.62257036,-0.50269798,0.12337469,0.76012860,0.16881981,-0.22079259,-0.01565016,-0.84457463,0.23111575,-0.48916929,-0.69303860,0.37538951,0.28166091
1.10000000,-0.39883314,0.62257036,-0.50269798,0.12337469,0.76012860,0.16881981,-0.22079259,-0.01565016,-0.84457463,0.23111575,-0.48916929,-0.69303860,0.37538951,0.28166091
1.12000000,-0.39883314,0.62257036,-0.50269798,0.12337469,0.76012860,0.16881981,-0.22079259,-0.01565016,-0.84457463,0.23111575,-0.48916929,-0.69303860,0.37538951,0.28166091
1.14000000,-0.39883314,0.62257036,-0.50269798,0.12337469,0.76012860,0.16881981,-0.22079259,-0.01565016,-0.84457463,0.23111575,-0.48916929,-0.69303860,0.37538951,0.28166091
1.16000000,-0.39883314,0.62257036,-0.50269798,0.12337469,0.76012860,0.16881981,-0.22079259,-0.01565016,-0.84457463,0.23111575,-0.48916929,-0.69303860,0.37538951,0.28166091
1.18000000,-0.39883314,0.62257036,-0.50269798,0.12337469,0.76012860,0.16881981,-0.22079259,-0.01565016,-0.84457463,0.23111575,-0.48916929,-0.69303860,0.37538951,0.28166091
1.20000000,-0.39883314,0.62257036,-0.50269798,0.12337469,0.76012860,0.16881981,-0.22079259,-0.01565016,-0.84457463,0.23111575,-0.48916929,-0.69303860,0.37538951,0.28166091
1.22000000,-0.39883314,0.62257036,-0.50269798,0.12337469,0.76012860,0.16881981,-0.22079259,-0.01565016,-0.84457463,0.23111575,-0.48916929,-0.69303860,0.37538951,0.28166091
1.24000000,-0.39883314,0.62257036,-0.50269798,0.12337469,0.76012860,0.16881981,-0.22079259,-0.01565016,-0.84457463,0.23111575,-0.48916929,-0.69303860,0.37538951,0.28166091
1.26000000,-0.39883314,0.62257036,-0.50269798,0.12337469,0.76012860,0.16881981,-0.22079259,-0.01565016,-0.84457463,0.23111575,-0.48916929,-0.69303860,0.37538951,0.28166091
1.28000000,-0.39883314,0.62257036,-0.50269798,0.12337469,0.76012860,0.16881981,-0.22079259,-0.01565016,-0.84457463,0.23111575,-0.48916929,-0.69303860,0.37538951,0.28166091
1.30000000,-0.39883314,0.62257036,-0.50269798,0.12337469,0.76012860,0.16881981,-0.22079259,-0.01565016,-0.84457463,0.23111575,-0.48916929,-0.69303860,0.37538951,0.28166091
1.32000000,-0.39883314,0.62257036,-0.50269798,0.12337469,0.76012860,0.16881981,-0.22079259,-0.01565016,-0.84457463,0.23111575,-0.48916929,-0.69303860,0.37538951,0.28166091
1.34000000,-0.39883314,0.62257036,-0.50269798,0.12337469,0.76012860,0.16881981,-0.22079259,-0.01565016,-0.84457463,0.23111575,-0.48916929,-0.69303860,0.37538951,0.28166091
1.36000000,-0.39883314,0.62257036,-0.50269798,0.12337469,0.76012860,0.16881981,-0.22079259,-0.01565016,-0.84457463,0.23111575,-0.48916929,-0.69303860,0.37538951,0.28166091
1.38000000,-0.39883314,0.62257036,-0.50269798,0.12337469,0.76012860,0.16881981,-0.22079259,-0.01565016,-0.84457463,0.23111575,-0.48916929,-0.69303860,0.37538951,0.28166091
1.40000000,-0.39883314,0.62257036,-0.50269798,0.12337469,0.76012860,0.16881981,-0.22079259,-0.01565016,-0.84457463,0.23111575,-0.48916929,-0.69303860,0.37538951,0.28166091
1.42000000,-0.39883314,0.62257036,-0.50269798,0.12337469,0.76012860,0.16881981,-0.22079259,-0.01565016,-0.84457463,0.23111575,-0.48916929,-0.69303860,0.37538951,0.28166091
1.44000000,-0.39883314,0.62257036,-0.50269798,0.12337469,0.76012860,0.16881981,-0.22079259,-0.01565016,-0.84457463,0.23111575,-0.48916929,-0.69303860,0.37538951,0.28166091
1.46000000,-0.39883314,0.62257036,-0.50269798,0.12337469,0.76012860,0.16881981,-0.22079259,-0.01565016,-0.84457463,0.23111575,-0.48916929,-0.69303860,0.37538951,0.28166091
1.48000000,-0.39883314,0.62257036,-0.50269798,0.12337469,0.76012860,0.16881981,-0.22079259,-0.01565016,-0.84457463,0.23111575,-0.48916929,-0.69303860,0.37538951,0.28166091
1.50000000,-0.39883314,0.62257036,-0.50269798,0.12337469,0.76012860,0.16881981,-0.22079259,-0.01565016,-0.84457463,0.23111575,-0.48916929,-0.69303860,0.37538951,0.28166091
1.52000000,-0.39883314,0.62257036,-0.50269798,0.12337469,0.76012860,0.16881981,-0.22079259,-0.01565016,-0.84457463,0.23111575,-0.48916929,-0.69303860,0.37538951,0.28166091
1.54000000,-0.39883314,0.62257036,-0.50269798,0.12337469,0.76012860,0.16881981,-0.22079259,-0.01565016,-0.84457463,0.23111575,-0.48916929,-0.69303860,0.37538951,0.28166091
1.56000000,-0.39883314,0.62257036,-0.50269798,0.12337469,0.76012860,0.16881981,-0.22079259,-0.01565016,-0.84457463,0.23111575,-0.48916929,-0.69303860,0.37538951,0.28166091
1.58000000,-0.39883314,0.62257036,-0.50269798,0.12337469,0.76012860,0.16881981,-0.22079259,-0.01565016,-0.84457463,0.23111575,-0.48916929,-0.69303860,0.37538951,0.28166091
1.60000000,-0.39883314,0.62257036,-0.50269798,0.12337469,0.76012860,0.16881981,-0.22079259,-0.01565016,-0.84457463,0.23111575,-0.48916929,-0.69303860,0.37538951,0.28166091
1.62000000,-0.39883314,0.62257036,-0.50269798,0.12337469,0.76012860,0.16881981,-0.22079259,-0.01565016,-0.84457463,0.23111575,-0.48916929,-0.69303860,0.37538951,0.28166091
1.64000000,-0.39883314,0.62257036,-0.50269798,0.12337469,0.76012860,0.16881981,-0.22079259,-0.01565016,-0.84457463,0.23111575,-0.48916929,-0.69303860,0.37538951,0.28166091
1.66000000,-0.39883314,0.62257036,-0.50269798,0.12337469,0.76012860,0.16881981,-0.22079259,-0.01565016,-0.84457463,0.23111575,-0.48916929,-0.69303860,0.37538951,0.28166091
1.68000000,-0.39883314,0.62257036,-0.50269798,0.12337469,0.76012860,0.16881981,-0.22079259,-0.01565016,-0.84457463,0.23111575,-0.48916929,-0.69303860,0.37538951,0.28166091
1.70000000,-0.39883314,0.62257036,-0.50269798,0.12337469,0.76012860,0.16881981,-0.22079259,-0.01565016,-0.84457463,0.23111575,-0.48916929,-0.69303860,0.37538951,0.28166091
1.72000000,-0.39883314,0.62257036,-0.50269798,0.12337469,0.76012860,0.16881981,-0.22079259,-0.01565016,-0.84457463,0.23111575,-0.48916929,-0.69303860,0.37538951,0.28166091
1.74000000,-0.39883314,0.62257036,-0.50269798,0.12337469,0.76012860,0.16881981,-0.22079259,-0.01565016,-0.84457463,0.23111575,-0.48916929,-0.69303860,0.37538951,0.28166091
1.76000000,-0.39883314,0.62257036,-0.50269798,0.12337469,0.76012860,0.16881981,-0.22079259,-0.01565016,-0.84457463,0.23111575,-0.48916929,-0.69303860,0.37538951,0.28166091
1.78000000,-0.39883314,0.62257036,-0.50269798,0.12337469,0.76012860,0.16881981,-0.22079259,-0.01565016,-0.84457463,0.23111575,-0.48916929,-0.69303860,0.37538951,0.28166091
1.80000000,-0.39883314,0.62257036,-0.50269798,0.12337469,0.76012860,0.16881981,-0.22079259,-0.01565016,-0.84457463,0.23111575,-0.48916929,-0.69303860,0.37538951,0.28166091
1.82000000,-0.39883314,0.62257036,-0.50269798,0.12337469,0.76012860,0.16881981,-0.22079259,-0.01565016,-0.84457463,0.23111575,-0.48916929,-0.69303860,0.37538951,0.28166091
1.84000000,-0.39883314,0.62257036,-0.50269798,0.12337469,0.76012860,0.16881981,-0.22079259,-0.01565016,-0.84457463,0.23111575,-0.48916929,-0.69303860,0.37538951,0.28166091
1.86000000,-0.39883314,0.62257036,-0.50269798,0.12337469,0.76012860,0.16881981,-0.22079259,-0.01565016,-0.84457463,0.23111575,-0.48916929,-0.69303860,0.37538951,0.28166091
1.88000000,-0.39883314,0.62257036,-0.50269798,0.12337469,0.76012860,0.16881981,-0.22079259,-0.01565016,-0.84457463,0.23111575,-0.48916929,-0.69303860,0.37538951,0.28166091
1.90000000,-0.39883314,0.62257036,-0.50269798,0.12337469,0.76012860,0.16881981,-0.22079259,-0.01565016,-0.84457463,0.23111575,-0.48916929,-0.69303860,0.37538951,0.28166091
1.92000000,-0.39883314,0.62257036,-0.50269798,0.12337469,0.76012860,0.16881981,-0.22079259,-0.01565016,-0.84457463,0.23111575,-0.48916929,-0.69303860,0.37538951,0.28166091
1.94000000,-0.39883314,0.62257036,-0.50269798,0.12337469,0.76012860,0.16881981,-0.22079259,-0.01565016,-0.84457463,0.23111575,-0.48916929,-0.69303860,0.37538951,0.28166091
1.96000000,-0.39883314,0.62257036,-0.50269798,0.12337469,0.76012860,0.16881981,-0.22079259,-0.01565016,-0.84457463,0.23111575,-0.48916929,-0.69303860,0.37538951,0.28166091
1.98000000,-0.39883314,0.62257036,-0.50269798,0.12337469,0.76012860,0.16881981,-0.22079259,-0.01565016,-0.84457463,0.23111575,-0.48916929,-0.69303860,0.37538951,0.28166091
2.00000000,-0.39883314,0.62257036,-0.50269798,0.12337469,0.76012860,0.16881981,-0.22079259,-0.01565016,-0.84457463,0.23111575,-0.48916929,-0.69303860,0.37538951,0.28166091
2.02000000,-0.39883314,0.62257036,-0.50269798,0.12337469,0.76012860,0.16881981,-0.22079259,-0.01565016,-0.84457463,0.23111575,-0.48916929,-0.69303860,0.37538951,0.28166091
2.04000000,-0.39883314,0.62257036,-0.50269798,0.12337469,0.76012860,0.16881981,-0.22079259,-0.01565016,-0.84457463,0.23111575,-0.48916929,-0.69303860,0.37538951,0.28166091
2.06000000,-0.39883314,0.62257036,-0.50269798,0.12337469,0.76012860,0.16881981,-0.22079259,-0.01565016,-0.84457463,0.23111575,-0.48916929,-0.69303860,0.37538951,0.28166091
2.08000000,-0.39883314,0.62257036,-0.50269798,0.12337469,0.76012860,0.16881981,-0.22079259,-0.01565016,-0.84457463,0.23111575,-0.48916929,-0.69303860,0.37538951,0.28166091
2.10000000,-0.39883314,0.62257036,-0.50269798,0.12337469,0.76012860,0.16881981,-0.22079259,-0.01565016,-0.84457463,0.23111575,-0.48916929,-0.69303860,0.37538951,0.28166091
2.12000000,-0.39883314,0.62257036,-0.50269798,0.12337469,0.76012860,0.16881981,-0.22079259,-0.01565016,-0.84457463,0.23111575,-0.48916929,-0.69303860,0.37538951,0.28166091
2.14000000,-0.39883314,0.62257036,-0.50269798,0.12337469,0.76012860,0.16881981,-0.22079259,-0.01565016,-0.84457463,0.23111575,-0.48916929,-0.69303860,0.37538951,0.28166091
2.16000000,-0.39883314,0.62257036,-0.50269798,0.12337469,0.76012860,0.16881981,-0.22079259,-0.01565016,-0.84457463,0.23111575,-0.48916929,-0.69303860,0.37538951,0.28166091
2.18000000,-0.39883314,0.62257036,-0.50269798,0.12337469,0.76012860,0.16881981,-0.22079259,-0.01565016,-0.84457463,0.23111575,-0.48916929,-0.69303860,0.37538951,0.28166091
2.20000000,-0.39883314,0.62257036,-0.50269798,0.12337469,0.76012860,0.16881981,-0.22079259,-0.01565016,-0.84457463,0.23111575,-0.48916929,-0.69303860,0.37538951,0.28166091
2.22000000,-0.39883314,0.62257036,-0.50269798,0.12337469,0.76012860,0.16881981,-0.22079259,-0.01565016,-0.84457463,0.23111575,-0.48916929,-0.69303860,0.37538951,0.28166091
2.24000000,-0.39883314,0.62257036,-0.50269798,0.12337469,0.76012860,0.16881981,-0.22079259,-0.01565016,-0.84457463,0.23111575,-0.48916929,-0.69303860,0.37538951,0.28166091
2.26000000,-0.39883314,0.62257036,-0.50269798,0.12337469,0.76012860,0.16881981,-0.22079259,-0.01565016,-0.84457463,0.23111575,-0.48916929,-0.69303860,0.37538951,0.28166091
2.28000000,-0.39883314,0.62257036,-0.50269798,0.12337469,0.76012860,0.16881981,-0.22079259,-0.01565016,-0.84457463,0.23111575,-0.48916929,-0.69303860,0.37538951,0.28166091
2.30000000,-0.39883314,0.62257036,-0.50269798,0.12337469,0.76012860,0.16881981,-0.22079259,-0.01565016,-0.84457463,0.23111575,-0.48916929,-0.69303860,0.37538951,0.28166091
2.32000000,-0.39883314,0.62257036,-0.50269798,0.12337469,0.76012860,0.16881981,-0.22079259,-0.01565016,-0.84457463,0.23111575,-0.48916929,-0.69303860,0.37538951,0.28166091
2.34000000,-0.39883314,0.62257036,-0.50269798,0.12337469,0.76012860,0.16881981,-0.22079259,-0.01565016,-0.84457463,0.23111575,-0.48916929,-0.69303860,0.37538951,0.28166091
2.36000000,-0.39883314,0.62257036,-0.50269798,0.12337469,0.76012860,0.16881981,-0.22079259,-0.01565016,-0.84457463,0.23111575,-0.48916929,-0.69303860,0.37538951,0.28166091
2.38000000,-0.39883314,0.62257036,-0.50269798,0.12337469,0.76012860,0.16881981,-0.22079259,-0.01565016,-0.84457463,0.23111575,-0.48916929,-0.69303860,0.37538951,0.28166091
2.40000000,-0.39883314,0.62257036,-0.50269798,0.12337469,0.76012860,0.16881981,-0.22079259,-0.01565016,-0.84457463,0.23111575,-0.48916929,-0.69303860,0.37538951,0.28166091
2.42000000,-0.39883314,0.62257036,-0.50269798,0.12337469,0.76012860,0.16881981,-0.22079259,-0.01565016,-0.84457463,0.23111575,-0.48916929,-0.69303860,0.37538951,0.28166091
2.44000000,-0.39883314,0.62257036,-0.50269798,0.12337469,0.76012860,0.16881981,-0.22079259,-0.01565016,-0.84457463,0.23111575,-0.48916929,-0.69303860,0.37538951,0.28166091
2.46000000,-0.39883314,0.62257036,-0.50269798,0.12337469,0.76012860,0.16881981,-0.22079259,-0.01565016,-0.84457463,0.23111575,-0.48916929,-0.69303860,0.37538951,0.28166091
2.48000000,-0.39883314,0.62257036,-0.50269798,0.12337469,0.76012860,0.16881981,-0.22079259,-0.01565016,-0.84457463,0.23111575,-0.48916929,-0.69303860,0.37538951,0.28166091
2.50000000,-0.39883314,0.62257036,-0.50269798,0.12337469,0.76012860,0.16881981,-0.22079259,-0.01565016,-0.84457463,0.23111575,-0.48916929,-0.69303860,0.37538951,0.28166091
2.52000000,-0.39883314,0.62257036,-0.50269798,0.12337469,0.76012860,0.16881981,-0.22079259,-0.01565016,-0.84457463,0.23111575,-0.48916929,-0.69303860,0.37538951,0.28166091
2.54000000,-0.39883314,0.62257036,-0.50269798,0.12337469,0.76012860,0.16881981,-0.22079259,-0.01565016,-0.84457463,0.23111575,-0.48916929,-0.69303860,0.37538951,0.28166091
2.56000000,-0.39883314,0.62257036,-0.50269798,0.12337469,0.76012860,0.16881981,-0.22079259,-0.01565016,-0.84457463,0.23111575,-0.48916929,-0.69303860,0.37538951,0.28166091
2.58000000,-0.39883314,0.62257036,-0.50269798,0.12337469,0.76012860,0.16881981,-0.22079259,-0.01565016,-0.84457463,0.23111575,-0.48916929,-0.69303860,0.37538951,0.28166091
2.60000000,-0.39883314,0.62257036,-0.50269798,0.12337469,0.76012860,0.16881981,-0.22079259,-0.01565016,-0.84457463,0.23111575,-0.48916929,-0.69303860,0.37538951,0.28166091
2.62000000,-0.39883314,0.62257036,-0.50269798,0.12337469,0.76012860,0.16881981,-0.22079259,-0.01565016,-0.84457463,0.23111575,-0.48916929,-0.69303860,0.37538951,0.28166091
2.64000000,-0.39883314,0.62257036,-0.50269798,0.12337469,0.76012860,0.16881981,-0.22079259,-0.01565016,-0.84457463,0.23111575,-0.48916929,-0.69303860,0.37538951,0.28166091
2.66000000,-0.39883314,0.62257036,-0.50269798,0.12337469,0.76012860,0.16881981,-0.22079259,-0.01565016,-0.84457463,0.23111575,-0.48916929,-0.69303860,0.37538951,0.28166091
2.68000000,-0.39883314,0.62257036,-0.50269798,0.12337469,0.76012860,0.16881981,-0.22079259,-0.01565016,-0.84457463,0.23111575,-0.48916929,-0.69303860,0.37538951,0.28166091
2.70000000,-0.39883314,0.62257036,-0.50269798,0.12337469,0.76012860,0.16881981,-0.22079259,-0.01565016,-0.84457463,0.23111575,-0.48916929,-0.69303860,0.37538951,0.28166091
2.72000000,-0.39883314,0.62257036,-0.50269798,0.12337469,0.76012860,0.16881981,-0.22079259,-0.01565016,-0.84457463,0.23111575,-0.48916929,-0.69303860,0.37538951,0.28166091
2.74000000,-0.39883314,0.62257036,-0.50269798,0.12337469,0.76012860,0.16881981,-0.22079259,-0.01565016,-0.84457463,0.23111575,-0.48916929,-0.69303860,0.37538951,0.28166091
2.76000000,-0.39883314,0.62257036,-0.50269798,0.12337469,0.76012860,0.16881981,-0.22079259,-0.01565016,-0.84457463,0.23111575,-0.48916929,-0.69303860,0.37538951,0.28166091
2.78000000,-0.39883314,0.62257036,-0.50269798,0.12337469,0.76012860,0.16881981,-0.22079259,-0.01565016,-0.84457463,0.23111575,-0.48916929,-0.69303860,0.37538951,0.28166091
2.80000000,-0.39883314,0.62257036,-0.50269798,0.12337469,0.76012860,0.16881981,-0.22079259,-0.01565016,-0.84457463,0.23111575,-0.48916929,-0.69303860,0.37538951,0.28166091
2.82000000,-0.39883314,0.62257036,-0.50269798,0.12337469,0.76012860,0.16881981,-0.22079259,-0.01565016,-0.84457463,0.23111575,-0.48916929,-0.69303860,0.37538951,0.28166091
2.84000000,-0.39883314,0.62257036,-0.50269798,0.12337469,0.76012860,0.16881981,-0.22079259,-0.01565016,-0.84457463,0.23111575,-0.48916929,-0.69303860,0.37538951,0.28166091
2.86000000,-0.39883314,0.62257036,-0.50269798,0.12337469,0.76012860,0.16881981,-0.22079259,-0.01565016,-0.84457463,0.23111575,-0.48916929,-0.69303860,0.37538951,0.28166091
2.88000000,-0.39883314,0.62257036,-0.50269798,0.12337469,0.76012860,0.16881981,-0.22079259,-0.01565016,-0.84457463,0.23111575,-0.48916929,-0.69303860,0.37538951,0.28166091
2.90000000,-0.39883314,0.62257036,-0.50269798,0.12337469,0.76012860,0.16881981,-0.22079259,-0.01565016,-0.84457463,0.23111575,-0.48916929,-0.69303860,0.37538951,0.28166091
2.92000000,-0.39883314,0.62257036,-0.50269798,0.12337469,0.76012860,0.16881981,-0.22079259,-0.01565016,-0.84457463,0.23111575,-0.48916929,-0.69303860,0.37538951,0.28166091
2.94000000,-0.39883314,0.62257036,-0.50269798,0.12337469,0.76012860,0.16881981,-0.22079259,-0.01565016,-0.84457463,0.23111575,-0.48916929,-0.69303860,0.37538951,0.28166091
2.96000000,-0.39883314,0.62257036,-0.50269798,0.12337469,0.76012860,0.16881981,-0.22079259,-0.01565016,-0.84457463,0.23111575,-0.48916929,-0.69303860,0.37538951,0.28166091
2.98000000,-0.39883314,0.62257036,-0.50269798,0.12337469,0.76012860,0.16881981,-0.22079259,-0.01565016,-0.84457463,0.23111575,-0.48916929,-0.69303860,0.37538951,0.28166091
3.00000000,-0.39883314,0.62257036,-0.50269798,0.12337469,0.76012860,0.16881981,-0.22079259,-0.01565016,-0.84457463,0.23111575,-0.48916929,-0.69303860,0.37538951,0.28166091
3.02000000,-0.39883314,0.62257036,-0.50269798,0.12337469,0.76012860,0.16881981,-0.22079259,-0.01565016,-0.84457463,0.23111575,-0.48916929,-0.69303860,0.37538951,0.28166091
3.04000000,-0.39883314,0.62257036,-0.50269798,0.12337469,0.76012860,0.16881981,-0.22079259,-0.01565016,-0.84457463,0.23111575,-0.48916929,-0.69303860,0.37538951,0.28166091
3.06000000,-0.39883314,0.62257036,-0.50269798,0.12337469,0.76012860,0.16881981,-0.22079259,-0.01565016,-0.84457463,0.23111575,-0.48916929,-0.69303860,0.37538951,0.28166091
3.08000000,-0.39883314,0.62257036,-0.50269798,0.12337469,0.76012860,0.16881981,-0.22079259,-0.01565016,-0.84457463,0.23111575,-0.48916929,-0.69303860,0.37538951,0.28166091
3.10000000,-0.39883314,0.62257036,-0.50269798,0.12337469,0.76012860,0.16881981,-0.22079259,-0.01565016,-0.84457463,0.23111575,-0.48916929,-0.69303860,0.37538951,0.28166091
3.12000000,-0.39883314,0.62257036,-0.50269798,0.12337469,0.76012860,0.16881981,-0.22079259,-0.01565016,-0.84457463,0.23111575,-0.48916929,-0.69303860,0.37538951,0.28166091
3.14000000,-0.39883314,0.62257036,-0.50269798,0.12337469,0.76012860,0.16881981,-0.22079259,-0.01565016,-0.84457463,0.23111575,-0.48916929,-0.69303860,0.37538951,0.28166091
3.16000000,-0.39883314,0.62257036,-0.50269798,0.12337469,0.76012860,0.16881981,-0.22079259,-0.01565016,-0.84457463,0.23111575,-0.48916929,-0.69303860,0.37538951,0.28166091
3.18000000,-0.39883314,0.62257036,-0.50269798,0.12337469,0.76012860,0.16881981,-0.22079259,-0.01565016,-0.84457463,0.23111575,-0.48916929,-0.69303860,0.37538951,0.28166091
3.20000000,-0.39883314,0.62257036,-0.50269798,0.12337469,0.76012860,0.16881981,-0.22079259,-0.01565016,-0.84457463,0.23111575,-0.48916929,-0.69303860,0.37538951,0.28166091
3.22000000,-0.39883314,0.62257036,-0.50269798,0.12337469,0.76012860,0.16881981,-0.22079259,-0.01565016,-0.84457463,0.23111575,-0.48916929,-0.69303860,0.37538951,0.28166091
3.24000000,-0.39883314,0.62257036,-0.50269798,0.12337469,0.76012860,0.16881981,-0.22079259,-0.01565016,-0.84457463,0.23111575,-0.48916929,-0.69303860,0.37538951,0.28166091
3.26000000,-0.39883314,0.62257036,-0.50269798,0.12337469,0.76012860,0.16881981,-0.22079259,-0.01565016,-0.84457463,0.23111575,-0.48916929,-0.69303860,0.37538951,0.28166091
3.28000000,-0.39883314,0.62257036,-0.50269798,0.12337469,0.76012860,0.16881981,-0.22079259,-0.01565016,-0.84457463,0.23111575,-0.48916929,-0.69303860,0.37538951,0.28166091
3.30000000,-0.39883314,0.62257036,-0.50269798,0.12337469,0.76012860,0.16881981,-0.22079259,-0.01565016,-0.84457463,0.23111575,-0.48916929,-0.69303860,0.37538951,0.28166091
3.32000000,-0.39883314,0.62257036,-0.50269798,0.12337469,0.76012860,0.16881981,-0.22079259,-0.01565016,-0.84457463,0.23111575,-0.48916929,-0.69303860,0.37538951,0.28166091
3.34000000,-0.39883314,0.62257036,-0.50269798,0.12337469,0.76012860,0.16881981,-0.22079259,-0.01565016,-0.84457463,0.23111575,-0.48916929,-0.69303860,0.37538951,0.28166091
3.36000000,-0.39883314,0.62257036,-0.50269798,0.12337469,0.76012860,0.16881981,-0.22079259,-0.01565016,-0.84457463,0.23111575,-0.48916929,-0.69303860,0.37538951,0.28166091
3.38000000,-0.39883314,0.62257036,-0.50269798,0.12337469,0.76012860,0.16881981,-0.22079259,-0.01565016,-0.84457463,0.23111575,-0.48916929,-0.69303860,0.37538951,0.28166091
3.40000000,-0.39883314,0.62257036,-0.50269798,0.12337469,0.76012860,0.16881981,-0.22079259,-0.01565016,-0.84457463,0.23111575,-0.48916929,-0.69303860,0.37538951,0.28166091
3.42000000,-0.39883314,0.62257036,-0.50269798,0.12337469,0.76012860,0.16881981,-0.22079259,-0.01565016,-0.84457463,0.23111575,-0.48916929,-0.69303860,0.37538951,0.28166091
3.44000000,-0.39883314,0.62257036,-0.50269798,0.12337469,0.76012860,0.16881981,-0.22079259,-0.01565016,-0.84457463,0.23111575,-0.48916929,-0.69303860,0.37538951,0.28166091
3.46000000,-0.39883314,0.62257036,-0.50269798,0.12337469,0.76012860,0.16881981,-0.22079259,-0.01565016,-0.84457463,0.23111575,-0.48916929,-0.69303860,0.37538951,0.28166091
3.48000000,-0.39883314,0.62257036,-0.50269798,0.12337469,0.76012860,0.16881981,-0.22079259,-0.01565016,-0.84457463,0.23111575,-0.48916929,-0.69303860,0.37538951,0.28166091
3.50000000,-0.39883314,0.62257036,-0.50269798,0.12337469,0.76012860,0.16881981,-0.22079259,-0.01565016,-0.84457463,0.23111575,-0.48916929,-0.69303860,0.37538951,0.28166091
3.52000000,-0.39883314,0.62257036,-0.50269798,0.12337469,0.76012860,0.16881981,-0.22079259,-0.01565016,-0.84457463,0.23111575,-0.48916929,-0.69303860,0.37538951,0.28166091
3.54000000,-0.39883314,0.62257036,-0.50269798,0.12337469,0.76012860,0.16881981,-0.22079259,-0.01565016,-0.84457463,0.23111575,-0.48916929,-0.69303860,0.37538951,0.28166091
3.56000000,-0.39883314,0.62257036,-0.50269798,0.12337469,0.76012860,0.16881981,-0.22079259,-0.01565016,-0.84457463,0.23111575,-0.48916929,-0.69303860,0.37538951,0.28166091
3.58000000,-0.39883314,0.62257036,-0.50269798,0.12337469,0.76012860,0.16881981,-0.22079259,-0.01565016,-0.84457463,0.23111575,-0.48916929,-0.69303860,0.37538951,0.28166091
3.60000000,-0.39883314,0.62257036,-0.50269798,0.12337469,0.76012860,0.16881981,-0.22079259,-0.01565016,-0.84457463,0.23111575,-0.48916929,-0.69303860,0.37538951,0.28166091
3.62000000,-0.39883314,0.62257036,-0.50269798,0.12337469,0.76012860,0.16881981,-0.22079259,-0.01565016,-0.84457463,0.23111575,-0.48916929,-0.69303860,0.37538951,0.28166091
3.64000000,-0.39883314,0.62257036,-0.50269798,0.12337469,0.76012860,0.16881981,-0.22079259,-0.01565016,-0.84457463,0.23111575,-0.48916929,-0.69303860,0.37538951,0.28166091
3.66000000,-0.39883314,0.62257036,-0.50269798,0.12337469,0.76012860,0.16881981,-0.22079259,-0.01565016,-0.84457463,0.23111575,-0.48916929,-0.69303860,0.37538951,0.28166091
3.68000000,-0.39883314,0.62257036,-0.50269798,0.12337469,0.76012860,0.16881981,-0.22079259,-0.01565016,-0.84457463,0.23111575,-0.48916929,-0.69303860,0.37538951,0.28166091
3.70000000,-0.39883314,0.62257036,-0.50269798,0.12337469,0.76012860,0.16881981,-0.22079259,-0.01565016,-0.84457463,0.23111575,-0.48916929,-0.69303860,0.37538951,0.28166091
3.72000000,-0.39883314,0.62257036,-0.50269798,0.12337469,0.76012860,0.16881981,-0.22079259,-0.01565016,-0.84457463,0.23111575,-0.48916929,-0.69303860,0.37538951,0.28166091
3.74000000,-0.39883314,0.62257036,-0.50269798,0.12337469,0.76012860,0.16881981,-0.22079259,-0.01565016,-0.84457463,0.23111575,-0.48916929,-0.69303860,0.37538951,0.28166091
3.76000000,-0.39883314,0.62257036,-0.50269798,0.12337469,0.76012860,0.16881981,-0.22079259,-0.01565016,-0.84457463,0.23111575,-0.48916929,-0.69303860,0.37538951,0.28166091
3.78000000,-0.39883314,0.62257036,-0.50269798,0.12337469,0.76012860,0.16881981,-0.22079259,-0.01565016,-0.84457463,0.23111575,-0.48916929,-0.69303860,0.37538951,0.28166091
3.80000000,-0.39883314,0.62257036,-0.50269798,0.12337469,0.76012860,0.16881981,-0.22079259,-0.01565016,-0.84457463,0.23111575,-0.48916929,-0.69303860,0.37538951,0.28166091
3.82000000,-0.39883314,0.62257036,-0.50269798,0.12337469,0.76012860,0.16881981,-0.22079259,-0.01565016,-0.84457463,0.23111575,-0.48916929,-0.69303860,0.37538951,0.28166091
3.84000000,-0.39883314,0.62257036,-0.50269798,0.12337469,0.76012860,0.16881981,-0.22079259,-0.01565016,-0.84457463,0.23111575,-0.48916929,-0.69303860,0.37538951,0.28166091
3.86000000,-0.39883314,0.62257036,-0.50269798,0.12337469,0.76012860,0.16881981,-0.22079259,-0.01565016,-0.84457463,0.23111575,-0.48916929,-0.69303860,0.37538951,0.28166091
3.88000000,-0.39883314,0.62257036,-0.50269798,0.12337469,0.76012860,0.16881981,-0.22079259,-0.01565016,-0.84457463,0.23111575,-0.48916929,-0.69303860,0.37538951,0.28166091
3.90000000,-0.39883314,0.62257036,-0.50269798,0.12337469,0.76012860,0.16881981,-0.22079259,-0.01565016,-0.84457463,0.23111575,-0.48916929,-0.69303860,0.37538951,0.28166091
3.92000000,-0.39883314,0.62257036,-0.50269798,0.12337469,0.76012860,0.16881981,-0.22079259,-0.01565016,-0.84457463,0.23111575,-0.48916929,-0.69303860,0.37538951,0.28166091
3.94000000,-0.39883314,0.62257036,-0.50269798,0.12337469,0.76012860,0.16881981,-0.22079259,-0.01565016,-0.84457463,0.23111575,-0.48916929,-0.69303860,0.37538951,0.28166091
3.96000000,-0.39883314,0.62257036,-0.50269798,0.12337469,0.76012860,0.16881981,-0.22079259,-0.01565016,-0.84457463,0.23111575,-0.48916929,-0.69303860,0.37538951,0.28166091
3.98000000,-0.39883314,0.62257036,-0.50269798,0.12337469,0.76012860,0.16881981,-0.22079259,-0.01565016,-0.84457463,0.23111575,-0.48916929,-0.69303860,0.37538951,0.28166091
4.00000000,-0.39883314,0.62257036,-0.50269798,0.12337469,0.76012860,0.16881981,-0.22079259,-0.01565016,-0.84457463,0.23111575,-0.48916929,-0.69303860,0.37538951,0.28166091
4.02000000,-0.39883314,0.62257036,-0.50269798,0.12337469,0.76012860,0.16881981,-0.22079259,-0.01565016,-0.84457463,0.23111575,-0.48916929,-0.69303860,0.37538951,0.28166091
4.04000000,-0.39883314,0.62257036,-0.50269798,0.12337469,0.76012860,0.16881981,-0.22079259,-0.01565016,-0.84457463,0.23111575,-0.48916929,-0.69303860,0.37538951,0.28166091
4.06000000,-0.39883314,0.62257036,-0.50269798,0.12337469,0.76012860,0.16881981,-0.22079259,-0.01565016,-0.84457463,0.23111575,-0.48916929,-0.69303860,0.37538951,0.28166091
4.08000000,-0.39883314,0.62257036,-0.50269798,0.12337469,0.76012860,0.16881981,-0.22079259,-0.01565016,-0.84457463,0.23111575,-0.48916929,-0.69303860,0.37538951,0.28166091
4.10000000,-0.39883314,0.62257036,-0.50269798,0.12337469,0.76012860,0.16881981,-0.22079259,-0.01565016,-0.84457463,0.23111575,-0.48916929,-0.69303860,0.37538951,0.28166091
4.12000000,-0.39883314,0.62257036,-0.50269798,0.12337469,0.76012860,0.16881981,-0.22079259,-0.01565016,-0.84457463,0.23111575,-0.48916929,-0.69303860,0.37538951,0.28166091
4.14000000,-0.39883314,0.62257036,-0.50269798,0.12337469,0.76012860,0.16881981,-0.22079259,-0.01565016,-0.84457463,0.23111575,-0.48916929,-0.69303860,0.37538951,0.28166091
4.16000000,-0.39883314,0.62257036,-0.50269798,0.12337469,0.76012860,0.16881981,-0.22079259,-0.01565016,-0.84457463,0.23111575,-0.48916929,-0.69303860,0.37538951,0.28166091
4.18000000,-0.39883314,0.62257036,-0.50269798,0.12337469,0.76012860,0.16881981,-0.22079259,-0.01565016,-0.84457463,0.23111575,-0.48916929,-0.69303860,0.37538951,0.28166091
4.20000000,-0.39883314,0.62257036,-0.50269798,0.12337469,0.76012860,0.16881981,-0.22079259,-0.01565016,-0.84457463,0.23111575,-0.48916929,-0.69303860,0.37538951,0.28166091
4.22000000,-0.39883314,0.62257036,-0.50269798,0.12337469,0.76012860,0.16881981,-0.22079259,-0.01565016,-0.84457463,0.23111575,-0.48916929,-0.69303860,0.37538951,0.28166091
4.24000000,-0.39883314,0.62257036,-0.50269798,0.12337469,0.76012860,0.16881981,-0.22079259,-0.01565016,-0.84457463,0.23111575,-0.48916929,-0.69303860,0.37538951,0.28166091
4.26000000,-0.39883314,0.62257036,-0.50269798,0.12337469,0.76012860,0.16881981,-0.22079259,-0.01565016,-0.84457463,0.23111575,-0.48916929,-0.69303860,0.37538951,0.28166091
4.28000000,-0.39883314,0.62257036,-0.50269798,0.12337469,0.76012860,0.16881981,-0.22079259,-0.01565016,-0.84457463,0.23111575,-0.48916929,-0.69303860,0.37538951,0.28166091
4.30000000,-0.39883314,0.62257036,-0.50269798,0.12337469,0.76012860,0.16881981,-0.22079259,-0.01565016,-0.84457463,0.23111575,-0.48916929,-0.69303860,0.37538951,0.28166091
4.32000000,-0.39883314,0.62257036,-0.50269798,0.12337469,0.76012860,0.16881981,-0.22079259,-0.01565016,-0.84457463,0.23111575,-0.48916929,-0.69303860,0.37538951,0.28166091
4.34000000,-0.39883314,0.62257036,-0.50269798,0.12337469,0.76012860,0.16881981,-0.22079259,-0.01565016,-0.84457463,0.23111575,-0.48916929,-0.69303860,0.37538951,0.28166091
4.36000000,-0.39883314,0.62257036,-0.50269798,0.12337469,0.76012860,0.16881981,-0.22079259,-0.01565016,-0.84457463,0.23111575,-0.48916929,-0.69303860,0.37538951,0.28166091
4.38000000,-0.39883314,0.62257036,-0.50269798,0.12337469,0.76012860,0.16881981,-0.22079259,-0.01565016,-0.84457463,0.23111575,-0.48916929,-0.69303860,0.37538951,0.28166091
4.40000000,-0.39883314,0.62257036,-0.50269798,0.12337469,0.76012860,0.16881981,-0.22079259,-0.01565016,-0.84457463,0.23111575,-0.48916929,-0.69303860,0.37538951,0.28166091
4.42000000,-0.39883314,0.62257036,-0.50269798,0.12337469,0.76012860,0.16881981,-0.22079259,-0.01565016,-0.84457463,0.23111575,-0.48916929,-0.69303860,0.37538951,0.28166091
4.44000000,-0.39883314,0.62257036,-0.50269798,0.12337469,0.76012860,0.16881981,-0.22079259,-0.01565016,-0.84457463,0.23111575,-0.48916929,-0.69303860,0.37538951,0.28166091
4.46000000,-0.39883314,0.62257036,-0.50269798,0.12337469,0.76012860,0.16881981,-0.22079259,-0.01565016,-0.84457463,0.23111575,-0.48916929,-0.69303860,0.37538951,0.28166091
4.48000000,-0.39883314,0.62257036,-0.50269798,0.12337469,0.76012860,0.16881981,-0.22079259,-0.01565016,-0.84457463,0.23111575,-0.48916929,-0.69303860,0.37538951,0.28166091
4.50000000,-0.39883314,0.62257036,-0.50269798,0.12337469,0.76012860,0.16881981,-0.22079259,-0.01565016,-0.84457463,0.23111575,-0.48916929,-0.69303860,0.37538951,0.28166091
4.52000000,-0.39883314,0.62257036,-0.50269798,0.12337469,0.76012860,0.16881981,-0.22079259,-0.01565016,-0.84457463,0.23111575,-0.48916929,-0.69303860,0.37538951,0.28166091
4.54000000,-0.39883314,0.62257036,-0.50269798,0.12337469,0.76012860,0.16881981,-0.22079259,-0.01565016,-0.84457463,0.23111575,-0.48916929,-0.69303860,0.37538951,0.28166091
4.56000000,-0.39883314,0.62257036,-0.50269798,0.12337469,0.76012860,0.16881981,-0.22079259,-0.01565016,-0.84457463,0.23111575,-0.48916929,-0.69303860,0.37538951,0.28166091
4.58000000,-0.39883314,0.62257036,-0.50269798,0.12337469,0.76012860,0.16881981,-0.22079259,-0.01565016,-0.84457463,0.23111575,-0.48916929,-0.69303860,0.37538951,0.28166091
4.60000000,-0.39883314,0.62257036,-0.50269798,0.12337469,0.76012860,0.16881981,-0.22079259,-0.01565016,-0.84457463,0.23111575,-0.48916929,-0.69303860,0.37538951,0.28166091
4.62000000,-0.39883314,0.62257036,-0.50269798,0.12337469,0.76012860,0.16881981,-0.22079259,-0.01565016,-0.84457463,0.23111575,-0.48916929,-0.69303860,0.37538951,0.28166091
4.64000000,-0.39883314,0.62257036,-0.50269798,0.12337469,0.76012860,0.16881981,-0.22079259,-0.01565016,-0.84457463,0.23111575,-0.48916929,-0.69303860,0.37538951,0.28166091
4.66000000,-0.39883314,0.62257036,-0.50269798,0.12337469,0.76012860,0.16881981,-0.22079259,-0.01565016,-0.84457463,0.23111575,-0.48916929,-0.69303860,0.37538951,0.28166091
4.68000000,-0.39883314,0.62257036,-0.50269798,0.12337469,0.76012860,0.16881981,-0.22079259,-0.01565016,-0.84457463,0.23111575,-0.48916929,-0.69303860,0.37538951,0.28166091
4.70000000,-0.39883314,0.62257036,-0.50269798,0.12337469,0.76012860,0.16881981,-0.22079259,-0.01565016,-0.84457463,0.23111575,-0.48916929,-0.69303860,0.37538951,0.28166091
4.72000000,-0.39883314,0.62257036,-0.50269798,0.12337469,0.76012860,0.16881981,-0.22079259,-0.01565016,-0.84457463,0.23111575,-0.48916929,-0.69303860,0.37538951,0.28166091
4.74000000,-0.39883314,0.62257036,-0.50269798,0.12337469,0.76012860,0.16881981,-0.22079259,-0.01565016,-0.84457463,0.23111575,-0.48916929,-0.69303860,0.37538951,0.28166091
4.76000000,-0.39883314,0.62257036,-0.50269798,0.12337469,0.76012860,0.16881981,-0.22079259,-0.01565016,-0.84457463,0.23111575,-0.48916929,-0.69303860,0.37538951,0.28166091
4.78000000,-0.39883314,0.62257036,-0.50269798,0.12337469,0.76012860,0.16881981,-0.22079259,-0.01565016,-0.84457463,0.23111575,-0.48916929,-0.69303860,0.37538951,0.28166091
4.80000000,-0.39883314,0.62257036,-0.50269798,0.12337469,0.76012860,0.16881981,-0.22079259,-0.01565016,-0.84457463,0.23111575,-0.48916929,-0.69303860,0.37538951,0.28166091
4.82000000,-0.39883314,0.62257036,-0.50269798,0.12337469,0.76012860,0.16881981,-0.22079259,-0.01565016,-0.84457463,0.23111575,-0.48916929,-0.69303860,0.37538951,0.28166091
4.84000000,-0.39883314,0.62257036,-0.50269798,0.12337469,0.76012860,0.16881981,-0.22079259,-0.01565016,-0.84457463,0.23111575,-0.48916929,-0.69303860,0.37538951,0.28166091
4.86000000,-0.39883314,0.62257036,-0.50269798,0.12337469,0.76012860,0.16881981,-0.22079259,-0.01565016,-0.84457463,0.23111575,-0.48916929,-0.69303860,0.37538951,0.28166091
4.88000000,-0.39883314,0.62257036,-0.50269798,0.12337469,0.76012860,0.16881981,-0.22079259,-0.01565016,-0.84457463,0.23111575,-0.48916929,-0.69303860,0.37538951,0.28166091
4.90000000,-0.39883314,0.62257036,-0.50269798,0.12337469,0.76012860,0.16881981,-0.22079259,-0.01565016,-0.84457463,0.23111575,-0.48916929,-0.69303860,0.37538951,0.28166091
4.92000000,-0.39883314,0.62257036,-0.50269798,0.12337469,0.76012860,0.16881981,-0.22079259,-0.01565016,-0.84457463,0.23111575,-0.48916929,-0.69303860,0.37538951,0.28166091
4.94000000,-0.39883314,0.62257036,-0.50269798,0.12337469,0.76012860,0.16881981,-0.22079259,-0.01565016,-0.84457463,0.23111575,-0.48916929,-0.69303860,0.37538951,0.28166091
4.96000000,-0.39883314,0.62257036,-0.50269798,0.12337469,0.76012860,0.16881981,-0.22079259,-0.01565016,-0.84457463,0.23111575,-0.48916929,-0.69303860,0.37538951,0.28166091
4.98000000,-0.39883314,0.62257036,-0.50269798,0.12337469,0.76012860,0.16881981,-0.22079259,-0.01565016,-0.84457463,0.23111575,-0.48916929,-0.69303860,0.37538951,0.28166091
5.00000000,-0.39883314,0.62257036,-0.50269798,0.12337469,0.76012860,0.16881981,-0.22079259,-0.01565016,-0.84457463,0.23111575,-0.48916929,-0.69303860,0.37538951,0.28166091
5.02000000,-0.39883314,0.62257036,-0.50269798,0.12337469,0.76012860,0.16881981,-0.22079259,-0.01565016,-0.84457463,0.23111575,-0.48916929,-0.69303860,0.37538951,0.28166091
5.04000000,-0.39883314,0.62257036,-0.50269798,0.12337469,0.76012860,0.16881981,-0.22079259,-0.01565016,-0.84457463,0.23111575,-0.48916929,-0.69303860,0.37538951,0.28166091
5.06000000,-0.39883314,0.62257036,-0.50269798,0.12337469,0.76012860,0.16881981,-0.22079259,-0.01565016,-0.84457463,0.23111575,-0.48916929,-0.69303860,0.37538951,0.28166091
5.08000000,-0.39883314,0.62257036,-0.50269798,0.12337469,0.76012860,0.16881981,-0.22079259,-0.01565016,-0.84457463,0.23111575,-0.48916929,-0.69303860,0.37538951,0.28166091
5.10000000,-0.39883314,0.62257036,-0.50269798,0.12337469,0.76012860,0.16881981,-0.22079259,-0.01565016,-0.84457463,0.23111575,-0.48916929,-0.69303860,0.37538951,0.28166091
5.12000000,-0.39883314,0.62257036,-0.50269798,0.12337469,0.76012860,0.16881981,-0.22079259,-0.01565016,-0.84457463,0.23111575,-0.48916929,-0.69303860,0.37538951,0.28166091
5.14000000,-0.39883314,0.62257036,-0.50269798,0.12337469,0.76012860,0.16881981,-0.22079259,-0.01565016,-0.84457463,0.23111575,-0.48916929,-0.69303860,0.37538951,0.28166091
5.16000000,-0.39883314,0.62257036,-0.50269798,0.12337469,0.76012860,0.16881981,-0.22079259,-0.01565016,-0.84457463,0.23111575,-0.48916929,-0.69303860,0.37538951,0.28166091
5.18000000,-0.39883314,0.62257036,-0.50269798,0.12337469,0.76012860,0.16881981,-0.22079259,-0.01565016,-0.84457463,0.23111575,-0.48916929,-0.69303860,0.37538951,0.28166091
5.20000000,-0.39883314,0.62257036,-0.50269798,0.12337469,0.76012860,0.16881981,-0.22079259,-0.01565016,-0.84457463,0.23111575,-0.48916929,-0.69303860,0.37538951,0.28166091
5.22000000,-0.39883314,0.62257036,-0.50269798,0.12337469,0.76012860,0.16881981,-0.22079259,-0.01565016,-0.84457463,0.23111575,-0.48916929,-0.69303860,0.37538951,0.28166091
5.24000000,-0.39883314,0.62257036,-0.50269798,0.12337469,0.76012860,0.16881981,-0.22079259,-0.01565016,-0.84457463,0.23111575,-0.48916929,-0.69303860,0.37538951,0.28166091
5.26000000,-0.39883314,0.62257036,-0.50269798,0.12337469,0.76012860,0.16881981,-0.22079259,-0.01565016,-0.84457463,0.23111575,-0.48916929,-0.69303860,0.37538951,0.28166091
5.28000000,-0.39883314,0.62257036,-0.50269798,0.12337469,0.76012860,0.16881981,-0.22079259,-0.01565016,-0.84457463,0.23111575,-0.48916929,-0.69303860,0.37538951,0.28166091
5.30000000,-0.39883314,0.62257036,-0.50269798,0.12337469,0.76012860,0.16881981,-0.22079259,-0.01565016,-0.84457463,0.23111575,-0.48916929,-0.69303860,0.37538951,0.28166091
5.32000000,-0.39883314,0.62257036,-0.50269798,0.12337469,0.76012860,0.16881981,-0.22079259,-0.01565016,-0.84457463,0.23111575,-0.48916929,-0.69303860,0.37538951,0.28166091
5.34000000,-0.39883314,0.62257036,-0.50269798,0.12337469,0.76012860,0.16881981,-0.22079259,-0.01565016,-0.84457463,0.23111575,-0.48916929,-0.69303860,0.37538951,0.28166091
5.36000000,-0.39883314,0.62257036,-0.50269798,0.12337469,0.76012860,0.16881981,-0.22079259,-0.01565016,-0.84457463,0.23111575,-0.48916929,-0.69303860,0.37538951,0.28166091
5.38000000,-0.39883314,0.62257036,-0.50269798,0.12337469,0.76012860,0.16881981,-0.22079259,-0.01565016,-0.84457463,0.23111575,-0.48916929,-0.69303860,0.37538951,0.28166091
5.40000000,-0.39883314,0.62257036,-0.50269798,0.12337469,0.76012860,0.16881981,-0.22079259,-0.01565016,-0.84457463,0.23111575,-0.48916929,-0.69303860,0.37538951,0.28166091
5.42000000,-0.39883314,0.62257036,-0.50269798,0.12337469,0.76012860,0.16881981,-0.22079259,-0.01565016,-0.84457463,0.23111575,-0.48916929,-0.69303860,0.37538951,0.28166091
5.44000000,-0.39883314,0.62257036,-0.50269798,0.12337469,0.76012860,0.16881981,-0.22079259,-0.01565016,-0.84457463,0.23111575,-0.48916929,-0.69303860,0.37538951,0.28166091
5.46000000,-0.39883314,0.62257036,-0.50269798,0.12337469,0.76012860,0.16881981,-0.22079259,-0.01565016,-0.84457463,0.23111575,-0.48916929,-0.69303860,0.37538951,0.28166091
5.48000000,-0.39883314,0.62257036,-0.50269798,0.12337469,0.76012860,0.16881981,-0.22079259,-0.01565016,-0.84457463,0.23111575,-0.48916929,-0.69303860,0.37538951,0.28166091
5.50000000,-0.39883314,0.62257036,-0.50269798,0.12337469,0.76012860,0.16881981,-0.22079259,-0.01565016,-0.84457463,0.23111575,-0.48916929,-0.69303860,0.37538951,0.28166091
5.52000000,-0.39883314,0.62257036,-0.50269798,0.12337469,0.76012860,0.16881981,-0.22079259,-0.01565016,-0.84457463,0.23111575,-0.48916929,-0.69303860,0.37538951,0.28166091
5.54000000,-0.39883314,0.62257036,-0.50269798,0.12337469,0.76012860,0.16881981,-0.22079259,-0.01565016,-0.84457463,0.23111575,-0.48916929,-0.69303860,0.37538951,0.28166091
5.56000000,-0.39883314,0.62257036,-0.50269798,0.12337469,0.76012860,0.16881981,-0.22079259,-0.01565016,-0.84457463,0.23111575,-0.48916929,-0.69303860,0.37538951,0.28166091
5.58000000,-0.39883314,0.62257036,-0.50269798,0.12337469,0.76012860,0.16881981,-0.22079259,-0.01565016,-0.84457463,0.23111575,-0.48916929,-0.69303860,0.37538951,0.28166091
5.60000000,-0.39883314,0.62257036,-0.50269798,0.12337469,0.76012860,0.16881981,-0.22079259,-0.01565016,-0.84457463,0.23111575,-0.48916929,-0.69303860,0.37538951,0.28166091
5.62000000,-0.39883314,0.62257036,-0.50269798,0.12337469,0.76012860,0.16881981,-0.22079259,-0.01565016,-0.84457463,0.23111575,-0.48916929,-0.69303860,0.37538951,0.28166091
5.64000000,-0.39883314,0.62257036,-0.50269798,0.12337469,0.76012860,0.16881981,-0.22079259,-0.01565016,-0.84457463,0.23111575,-0.48916929,-0.69303860,0.37538951,0.28166091
5.66000000,-0.39883314,0.62257036,-0.50269798,0.12337469,0.76012860,0.16881981,-0.22079259,-0.01565016,-0.84457463,0.23111575,-0.48916929,-0.69303860,0.37538951,0.28166091
5.68000000,-0.39883314,0.62257036,-0.50269798,0.12337469,0.76012860,0.16881981,-0.22079259,-0.01565016,-0.84457463,0.23111575,-0.48916929,-0.69303860,0.37538951,0.28166091
5.70000000,-0.39883314,0.62257036,-0.50269798,0.12337469,0.76012860,0.16881981,-0.22079259,-0.01565016,-0.84457463,0.23111575,-0.48916929,-0.69303860,0.37538951,0.28166091
5.72000000,-0.39883314,0.62257036,-0.50269798,0.12337469,0.76012860,0.16881981,-0.22079259,-0.01565016,-0.84457463,0.23111575,-0.48916929,-0.69303860,0.37538951,0.28166091
5.74000000,-0.39883314,0.62257036,-0.50269798,0.12337469,0.76012860,0.16881981,-0.22079259,-0.01565016,-0.84457463,0.23111575,-0.48916929,-0.69303860,0.37538951,0.28166091
5.76000000,-0.39883314,0.62257036,-0.50269798,0.12337469,0.76012860,0.16881981,-0.22079259,-0.01565016,-0.84457463,0.23111575,-0.48916929,-0.69303860,0.37538951,0.28166091
5.78000000,-0.39883314,0.62257036,-0.50269798,0.12337469,0.76012860,0.16881981,-0.22079259,-0.01565016,-0.84457463,0.23111575,-0.48916929,-0.69303860,0.37538951,0.28166091
5.80000000,-0.39883314,0.62257036,-0.50269798,0.12337469,0.76012860,0.16881981,-0.22079259,-0.01565016,-0.84457463,0.23111575,-0.48916929,-0.69303860,0.37538951,0.28166091
5.82000000,-0.39883314,0.62257036,-0.50269798,0.12337469,0.76012860,0.16881981,-0.22079259,-0.01565016,-0.84457463,0.23111575,-0.48916929,-0.69303860,0.37538951,0.28166091
5.84000000,-0.39883314,0.62257036,-0.50269798,0.12337469,0.76012860,0.16881981,-0.22079259,-0.01565016,-0.84457463,0.23111575,-0.48916929,-0.69303860,0.37538951,0.28166091
5.86000000,-0.39883314,0.62257036,-0.50269798,0.12337469,0.76012860,0.16881981,-0.22079259,-0.01565016,-0.84457463,0.23111575,-0.48916929,-0.69303860,0.37538951,0.28166091
5.88000000,-0.39883314,0.62257036,-0.50269798,0.12337469,0.76012860,0.16881981,-0.22079259,-0.01565016,-0.84457463,0.23111575,-0.48916929,-0.69303860,0.37538951,0.28166091
5.90000000,-0.39883314,0.62257036,-0.50269798,0.12337469,0.76012860,0.16881981,-0.22079259,-0.01565016,-0.84457463,0.23111575,-0.48916929,-0.69303860,0.37538951,0.28166091
5.92000000,-0.39883314,0.62257036,-0.50269798,0.12337469,0.76012860,0.16881981,-0.22079259,-0.01565016,-0.84457463,0.23111575,-0.48916929,-0.69303860,0.37538951,0.28166091
5.94000000,-0.39883314,0.62257036,-0.50269798,0.12337469,0.76012860,0.16881981,-0.22079259,-0.01565016,-0.84457463,0.23111575,-0.48916929,-0.69303860,0.37538951,0.28166091
5.96000000,-0.39883314,0.62257036,-0.50269798,0.12337469,0.76012860,0.16881981,-0.22079259,-0.01565016,-0.84457463,0.23111575,-0.48916929,-0.69303860,0.37538951,0.28166091
5.98000000,-0.39883314,0.62257036,-0.50269798,0.12337469,0.76012860,0.16881981,-0.22079259,-0.01565016,-0.84457463,0.23111575,-0.48916929,-0.69303860,0.37538951,0.28166091
6.00000000,-0.39883314,0.62257036,-0.50269798,0.12337469,0.76012860,0.16881981,-0.22079259,-0.01565016,-0.84457463,0.23111575,-0.48916929,-0.69303860,0.37538951,0.28166091
6.02000000,-0.39883314,0.62257036,-0.50269798,0.12337469,0.76012860,0.16881981,-0.22079259,-0.01565016,-0.84457463,0.23111575,-0.48916929,-0.69303860,0.37538951,0.28166091
6.04000000,-0.39883314,0.62257036,-0.50269798,0.12337469,0.76012860,0.16881981,-0.22079259,-0.01565016,-0.84457463,0.23111575,-0.48916929,-0.69303860,0.37538951,0.28166091
6.06000000,-0.39883314,0.62257036,-0.50269798,0.12337469,0.76012860,0.16881981,-0.22079259,-0.01565016,-0.84457463,0.23111575,-0.48916929,-0.69303860,0.37538951,0.28166091
6.08000000,-0.39883314,0.62257036,-0.50269798,0.12337469,0.76012860,0.16881981,-0.22079259,-0.01565016,-0.84457463,0.23111575,-0.48916929,-0.69303860,0.37538951,0.28166091
6.10000000,-0.39883314,0.62257036,-0.50269798,0.12337469,0.76012860,0.16881981,-0.22079259,-0.01565016,-0.84457463,0.23111575,-0.48916929,-0.69303860,0.37538951,0.28166091
6.12000000,-0.39883314,0.62257036,-0.50269798,0.12337469,0.76012860,0.16881981,-0.22079259,-0.01565016,-0.84457463,0.23111575,-0.48916929,-0.69303860,0.37538951,0.28166091
6.14000000,-0.39883314,0.62257036,-0.50269798,0.12337469,0.76012860,0.16881981,-0.22079259,-0.01565016,-0.84457463,0.23111575,-0.48916929,-0.69303860,0.37538951,0.28166091
6.16000000,-0.39883314,0.62257036,-0.50269798,0.12337469,0.76012860,0.16881981,-0.22079259,-0.01565016,-0.84457463,0.23111575,-0.48916929,-0.69303860,0.37538951,0.28166091
6.18000000,-0.39883314,0.62257036,-0.50269798,0.12337469,0.76012860,0.16881981,-0.22079259,-0.01565016,-0.84457463,0.23111575,-0.48916929,-0.69303860,0.37538951,0.28166091
6.20000000,-0.39883314,0.62257036,-0.50269798,0.12337469,0.76012860,0.16881981,-0.22079259,-0.01565016,-0.84457463,0.23111575,-0.48916929,-0.69303860,0.37538951,0.28166091
6.22000000,-0.39883314,0.62257036,-0.50269798,0.12337469,0.76012860,0.16881981,-0.22079259,-0.01565016,-0.84457463,0.23111575,-0.48916929,-0.69303860,0.37538951,0.28166091
6.24000000,-0.39883314,0.62257036,-0.50269798,0.12337469,0.76012860,0.16881981,-0.22079259,-0.01565016,-0.84457463,0.23111575,-0.48916929,-0.69303860,0.37538951,0.28166091
6.26000000,-0.39883314,0.62257036,-0.50269798,0.12337469,0.76012860,0.16881981,-0.22079259,-0.01565016,-0.84457463,0.23111575,-0.48916929,-0.69303860,0.37538951,0.28166091
6.28000000,-0.39883314,0.62257036,-0.50269798,0.12337469,0.76012860,0.16881981,-0.22079259,-0.01565016,-0.84457463,0.23111575,-0.48916929,-0.69303860,0.37538951,0.28166091
6.30000000,-0.39883314,0.62257036,-0.50269798,0.12337469,0.76012860,0.16881981,-0.22079259,-0.01565016,-0.84457463,0.23111575,-0.48916929,-0.69303860,0.37538951,0.28166091
6.32000000,-0.39883314,0.62257036,-0.50269798,0.12337469,0.76012860,0.16881981,-0.22079259,-0.01565016,-0.84457463,0.23111575,-0.48916929,-0.69303860,0.37538951,0.28166091
6.34000000,-0.39883314,0.62257036,-0.50269798,0.12337469,0.76012860,0.16881981,-0.22079259,-0.01565016,-0.84457463,0.23111575,-0.48916929,-0.69303860,0.37538951,0.28166091
6.36000000,-0.39883314,0.62257036,-0.50269798,0.12337469,0.76012860,0.16881981,-0.22079259,-0.01565016,-0.84457463,0.23111575,-0.48916929,-0.69303860,0.37538951,0.28166091
6.38000000,-0.39883314,0.62257036,-0.50269798,0.12337469,0.76012860,0.16881981,-0.22079259,-0.01565016,-0.84457463,0.23111575,-0.48916929,-0.69303860,0.37538951,0.28166091
6.40000000,-0.39883314,0.62257036,-0.50269798,0.12337469,0.76012860,0.16881981,-0.22079259,-0.01565016,-0.84457463,0.23111575,-0.48916929,-0.69303860,0.37538951,0.28166091
6.42000000,-0.39883314,0.62257036,-0.50269798,0.12337469,0.76012860,0.16881981,-0.22079259,-0.01565016,-0.84457463,0.23111575,-0.48916929,-0.69303860,0.37538951,0.28166091
6.44000000,-0.39883314,0.62257036,-0.50269798,0.12337469,0.76012860,0.16881981,-0.22079259,-0.01565016,-0.84457463,0.23111575,-0.48916929,-0.69303860,0.37538951,0.28166091
6.46000000,-0.39883314,0.62257036,-0.50269798,0.12337469,0.76012860,0.16881981,-0.22079259,-0.01565016,-0.84457463,0.23111575,-0.48916929,-0.69303860,0.37538951,0.28166091
6.48000000,-0.39883314,0.62257036,-0.50269798,0.12337469,0.76012860,0.16881981,-0.22079259,-0.01565016,-0.84457463,0.23111575,-0.48916929,-0.69303860,0.37538951,0.28166091
6.50000000,-0.39883314,0.62257036,-0.50269798,0.12337469,0.76012860,0.16881981,-0.22079259,-0.01565016,-0.84457463,0.23111575,-0.48916929,-0.69303860,0.37538951,0.28166091
6.52000000,-0.39883314,0.62257036,-0.50269798,0.12337469,0.76012860,0.16881981,-0.22079259,-0.01565016,-0.84457463,0.23111575,-0.48916929,-0.69303860,0.37538951,0.28166091
6.54000000,-0.39883314,0.62257036,-0.50269798,0.12337469,0.76012860,0.16881981,-0.22079259,-0.01565016,-0.84457463,0.23111575,-0.48916929,-0.69303860,0.37538951,0.28166091
6.56000000,-0.39883314,0.62257036,-0.50269798,0.12337469,0.76012860,0.16881981,-0.22079259,-0.01565016,-0.84457463,0.23111575,-0.48916929,-0.69303860,0.37538951,0.28166091
6.58000000,-0.39883314,0.62257036,-0.50269798,0.12337469,0.76012860,0.16881981,-0.22079259,-0.01565016,-0.84457463,0.23111575,-0.48916929,-0.69303860,0.37538951,0.28166091
6.60000000,-0.39883314,0.62257036,-0.50269798,0.12337469,0.76012860,0.16881981,-0.22079259,-0.01565016,-0.84457463,0.23111575,-0.48916929,-0.69303860,0.37538951,0.28166091
6.62000000,-0.39883314,0.62257036,-0.50269798,0.12337469,0.76012860,0.16881981,-0.22079259,-0.01565016,-0.84457463,0.23111575,-0.48916929,-0.69303860,0.37538951,0.28166091
6.64000000,-0.39883314,0.62257036,-0.50269798,0.12337469,0.76012860,0.16881981,-0.22079259,-0.01565016,-0.84457463,0.23111575,-0.48916929,-0.69303860,0.37538951,0.28166091
6.66000000,-0.39883314,0.62257036,-0.50269798,0.12337469,0.76012860,0.16881981,-0.22079259,-0.01565016,-0.84457463,0.23111575,-0.48916929,-0.69303860,0.37538951,0.28166091
6.68000000,-0.39883314,0.62257036,-0.50269798,0.12337469,0.76012860,0.16881981,-0.22079259,-0.01565016,-0.84457463,0.23111575,-0.48916929,-0.69303860,0.37538951,0.28166091
6.70000000,-0.39883314,0.62257036,-0.50269798,0.12337469,0.76012860,0.16881981,-0.22079259,-0.01565016,-0.84457463,0.23111575,-0.48916929,-0.69303860,0.37538951,0.28166091
6.72000000,-0.39883314,0.62257036,-0.50269798,0.12337469,0.76012860,0.16881981,-0.22079259,-0.01565016,-0.84457463,0.23111575,-0.48916929,-0.69303860,0.37538951,0.28166091
6.74000000,-0.39883314,0.62257036,-0.50269798,0.12337469,0.76012860,0.16881981,-0.22079259,-0.01565016,-0.84457463,0.23111575,-0.48916929,-0.69303860,0.37538951,0.28166091
6.76000000,-0.39883314,0.62257036,-0.50269798,0.12337469,0.76012860,0.16881981,-0.22079259,-0.01565016,-0.84457463,0.23111575,-0.48916929,-0.69303860,0.37538951,0.28166091
6.78000000,-0.39883314,0.62257036,-0.50269798,0.12337469,0.76012860,0.16881981,-0.22079259,-0.01565016,-0.84457463,0.23111575,-0.48916929,-0.69303860,0.37538951,0.28166091
6.80000000,-0.39883314,0.62257036,-0.50269798,0.12337469,0.76012860,0.16881981,-0.22079259,-0.01565016,-0.84457463,0.23111575,-0.48916929,-0.69303860,0.37538951,0.28166091
6.82000000,-0.39883314,0.62257036,-0.50269798,0.12337469,0.76012860,0.16881981,-0.22079259,-0.01565016,-0.84457463,0.23111575,-0.48916929,-0.69303860,0.37538951,0.28166091
6.84000000,-0.39883314,0.62257036,-0.50269798,0.12337469,0.76012860,0.16881981,-0.22079259,-0.01565016,-0.84457463,0.23111575,-0.48916929,-0.69303860,0.37538951,0.28166091
6.86000000,-0.39883314,0.62257036,-0.50269798,0.12337469,0.76012860,0.16881981,-0.22079259,-0.01565016,-0.84457463,0.23111575,-0.48916929,-0.69303860,0.37538951,0.28166091
6.88000000,-0.39883314,0.62257036,-0.50269798,0.12337469,0.76012860,0.16881981,-0.22079259,-0.01565016,-0.84457463,0.23111575,-0.48916929,-0.69303860,0.37538951,0.28166091
6.90000000,-0.39883314,0.62257036,-0.50269798,0.12337469,0.76012860,0.16881981,-0.22079259,-0.01565016,-0.84457463,0.23111575,-0.48916929,-0.69303860,0.37538951,0.28166091
6.92000000,-0.39883314,0.62257036,-0.50269798,0.12337469,0.76012860,0.16881981,-0.22079259,-0.01565016,-0.84457463,0.23111575,-0.48916929,-0.69303860,0.37538951,0.28166091
6.94000000,-0.39883314,0.62257036,-0.50269798,0.12337469,0.76012860,0.16881981,-0.22079259,-0.01565016,-0.84457463,0.23111575,-0.48916929,-0.69303860,0.37538951,0.28166091
6.96000000,-0.39883314,0.62257036,-0.50269798,0.12337469,0.76012860,0.16881981,-0.22079259,-0.01565016,-0.84457463,0.23111575,-0.48916929,-0.69303860,0.37538951,0.28166091
6.98000000,-0.39883314,0.62257036,-0.50269798,0.12337469,0.76012860,0.16881981,-0.22079259,-0.01565016,-0.84457463,0.23111575,-0.48916929,-0.69303860,0.37538951,0.28166091
7.00000000,-0.39883314,0.62257036,-0.50269798,0.12337469,0.76012860,0.16881981,-0.22079259,-0.01565016,-0.84457463,0.23111575,-0.48916929,-0.69303860,0.37538951,0.28166091
7.02000000,-0.39883314,0.62257036,-0.50269798,0.12337469,0.76012860,0.16881981,-0.22079259,-0.01565016,-0.84457463,0.23111575,-0.48916929,-0.69303860,0.37538951,0.28166091
7.04000000,-0.39883314,0.62257036,-0.50269798,0.12337469,0.76012860,0.16881981,-0.22079259,-0.01565016,-0.84457463,0.23111575,-0.48916929,-0.69303860,0.37538951,0.28166091
7.06000000,-0.39883314,0.62257036,-0.50269798,0.12337469,0.76012860,0.16881981,-0.22079259,-0.01565016,-0.84457463,0.23111575,-0.48916929,-0.69303860,0.37538951,0.28166091
7.08000000,-0.39883314,0.62257036,-0.50269798,0.12337469,0.76012860,0.16881981,-0.22079259,-0.01565016,-0.84457463,0.23111575,-0.48916929,-0.69303860,0.37538951,0.28166091
7.10000000,-0.39883314,0.62257036,-0.50269798,0.12337469,0.76012860,0.16881981,-0.22079259,-0.01565016,-0.84457463,0.23111575,-0.48916929,-0.69303860,0.37538951,0.28166091
7.12000000,-0.39883314,0.62257036,-0.50269798,0.12337469,0.76012860,0.16881981,-0.22079259,-0.01565016,-0.84457463,0.23111575,-0.48916929,-0.69303860,0.37538951,0.28166091
7.14000000,-0.39883314,0.62257036,-0.50269798,0.12337469,0.76012860,0.16881981,-0.22079259,-0.01565016,-0.84457463,0.23111575,-0.48916929,-0.69303860,0.37538951,0.28166091
7.16000000,-0.39883314,0.62257036,-0.50269798,0.12337469,0.76012860,0.16881981,-0.22079259,-0.01565016,-0.84457463,0.23111575,-0.48916929,-0.69303860,0.37538951,0.28166091
7.18000000,-0.39883314,0.62257036,-0.50269798,0.12337469,0.76012860,0.16881981,-0.22079259,-0.01565016,-0.84457463,0.23111575,-0.48916929,-0.69303860,0.37538951,0.28166091
7.20000000,-0.39883314,0.62257036,-0.50269798,0.12337469,0.76012860,0.16881981,-0.22079259,-0.01565016,-0.84457463,0.23111575,-0.48916929,-0.69303860,0.37538951,0.28166091
7.22000000,-0.39883314,0.62257036,-0.50269798,0.12337469,0.76012860,0.16881981,-0.22079259,-0.01565016,-0.84457463,0.23111575,-0.48916929,-0.69303860,0.37538951,0.28166091
7.24000000,-0.39883314,0.62257036,-0.50269798,0.12337469,0.76012860,0.16881981,-0.22079259,-0.01565016,-0.84457463,0.23111575,-0.48916929,-0.69303860,0.37538951,0.28166091
7.26000000,-0.39883314,0.62257036,-0.50269798,0.12337469,0.76012860,0.16881981,-0.22079259,-0.01565016,-0.84457463,0.23111575,-0.48916929,-0.69303860,0.37538951,0.28166091
7.28000000,-0.39883314,0.62257036,-0.50269798,0.12337469,0.76012860,0.16881981,-0.22079259,-0.01565016,-0.84457463,0.23111575,-0.48916929,-0.69303860,0.37538951,0.28166091
7.30000000,-0.39883314,0.62257036,-0.50269798,0.12337469,0.76012860,0.16881981,-0.22079259,-0.01565016,-0.84457463,0.23111575,-0.48916929,-0.69303860,0.37538951,0.28166091
7.32000000,-0.39883314,0.62257036,-0.50269798,0.12337469,0.76012860,0.16881981,-0.22079259,-0.01565016,-0.84457463,0.23111575,-0.48916929,-0.69303860,0.37538951,0.28166091
7.34000000,-0.39883314,0.62257036,-0.50269798,0.12337469,0.76012860,0.16881981,-0.22079259,-0.01565016,-0.84457463,0.23111575,-0.48916929,-0.69303860,0.37538951,0.28166091
7.36000000,-0.39883314,0.62257036,-0.50269798,0.12337469,0.76012860,0.16881981,-0.22079259,-0.01565016,-0.84457463,0.23111575,-0.48916929,-0.69303860,0.37538951,0.28166091
7.38000000,-0.39883314,0.62257036,-0.50269798,0.12337469,0.76012860,0.16881981,-0.22079259,-0.01565016,-0.84457463,0.23111575,-0.48916929,-0.69303860,0.37538951,0.28166091
7.40000000,-0.39883314,0.62257036,-0.50269798,0.12337469,0.76012860,0.16881981,-0.22079259,-0.01565016,-0.84457463,0.23111575,-0.48916929,-0.69303860,0.37538951,0.28166091
7.42000000,-0.39883314,0.62257036,-0.50269798,0.12337469,0.76012860,0.16881981,-0.22079259,-0.01565016,-0.84457463,0.23111575,-0.48916929,-0.69303860,0.37538951,0.28166091
7.44000000,-0.39883314,0.62257036,-0.50269798,0.12337469,0.76012860,0.16881981,-0.22079259,-0.01565016,-0.84457463,0.23111575,-0.48916929,-0.69303860,0.37538951,0.28166091
7.46000000,-0.39883314,0.62257036,-0.50269798,0.12337469,0.76012860,0.16881981,-0.22079259,-0.01565016,-0.84457463,0.23111575,-0.48916929,-0.69303860,0.37538951,0.28166091
7.48000000,-0.39883314,0.62257036,-0.50269798,0.12337469,0.76012860,0.16881981,-0.22079259,-0.01565016,-0.84457463,0.23111575,-0.48916929,-0.69303860,0.37538951,0.28166091
7.50000000,-0.39883314,0.62257036,-0.50269798,0.12337469,0.76012860,0.16881981,-0.22079259,-0.01565016,-0.84457463,0.23111575,-0.48916929,-0.69303860,0.37538951,0.28166091
7.52000000,-0.39883314,0.62257036,-0.50269798,0.12337469,0.76012860,0.16881981,-0.22079259,-0.01565016,-0.84457463,0.23111575,-0.48916929,-0.69303860,0.37538951,0.28166091
7.54000000,-0.39883314,0.62257036,-0.50269798,0.12337469,0.76012860,0.16881981,-0.22079259,-0.01565016,-0.84457463,0.23111575,-0.48916929,-0.69303860,0.37538951,0.28166091
7.56000000,-0.39883314,0.62257036,-0.50269798,0.12337469,0.76012860,0.16881981,-0.22079259,-0.01565016,-0.84457463,0.23111575,-0.48916929,-0.69303860,0.37538951,0.28166091
7.58000000,-0.39883314,0.62257036,-0.50269798,0.12337469,0.76012860,0.16881981,-0.22079259,-0.01565016,-0.84457463,0.23111575,-0.48916929,-0.69303860,0.37538951,0.28166091
7.60000000,-0.39883314,0.62257036,-0.50269798,0.12337469,0.76012860,0.16881981,-0.22079259,-0.01565016,-0.84457463,0.23111575,-0.48916929,-0.69303860,0.37538951,0.28166091
7.62000000,-0.39883314,0.62257036,-0.50269798,0.12337469,0.76012860,0.16881981,-0.22079259,-0.01565016,-0.84457463,0.23111575,-0.48916929,-0.69303860,0.37538951,0.28166091
7.64000000,-0.39883314,0.62257036,-0.50269798,0.12337469,0.76012860,0.16881981,-0.22079259,-0.01565016,-0.84457463,0.23111575,-0.48916929,-0.69303860,0.37538951,0.28166091
7.66000000,-0.39883314,0.62257036,-0.50269798,0.12337469,0.76012860,0.16881981,-0.22079259,-0.01565016,-0.84457463,0.23111575,-0.48916929,-0.69303860,0.37538951,0.28166091
7.68000000,-0.39883314,0.62257036,-0.50269798,0.12337469,0.76012860,0.16881981,-0.22079259,-0.01565016,-0.84457463,0.23111575,-0.48916929,-0.69303860,0.37538951,0.28166091
7.70000000,-0.39883314,0.62257036,-0.50269798,0.12337469,0.76012860,0.16881981,-0.22079259,-0.01565016,-0.84457463,0.23111575,-0.48916929,-0.69303860,0.37538951,0.28166091
7.72000000,-0.39883314,0.62257036,-0.50269798,0.12337469,0.76012860,0.16881981,-0.22079259,-0.01565016,-0.84457463,0.23111575,-0.48916929,-0.69303860,0.37538951,0.28166091
7.74000000,-0.39883314,0.62257036,-0.50269798,0.12337469,0.76012860,0.16881981,-0.22079259,-0.01565016,-0.84457463,0.23111575,-0.48916929,-0.69303860,0.37538951,0.28166091
7.76000000,-0.39883314,0.62257036,-0.50269798,0.12337469,0.76012860,0.16881981,-0.22079259,-0.01565016,-0.84457463,0.23111575,-0.48916929,-0.69303860,0.37538951,0.28166091
7.78000000,-0.39883314,0.62257036,-0.50269798,0.12337469,0.76012860,0.16881981,-0.22079259,-0.01565016,-0.84457463,0.23111575,-0.48916929,-0.69303860,0.37538951,0.28166091
7.80000000,-0.39883314,0.62257036,-0.50269798,0.12337469,0.76012860,0.16881981,-0.22079259,-0.01565016,-0.84457463,0.23111575,-0.48916929,-0.69303860,0.37538951,0.28166091
7.82000000,-0.39883314,0.62257036,-0.50269798,0.12337469,0.76012860,0.16881981,-0.22079259,-0.01565016,-0.84457463,0.23111575,-0.48916929,-0.69303860,0.37538951,0.28166091
7.84000000,-0.39883314,0.62257036,-0.50269798,0.12337469,0.76012860,0.16881981,-0.22079259,-0.01565016,-0.84457463,0.23111575,-0.48916929,-0.69303860,0.37538951,0.28166091
7.86000000,-0.39883314,0.62257036,-0.50269798,0.12337469,0.76012860,0.16881981,-0.22079259,-0.01565016,-0.84457463,0.23111575,-0.48916929,-0.69303860,0.37538951,0.28166091
7.88000000,-0.39883314,0.62257036,-0.50269798,0.12337469,0.76012860,0.16881981,-0.22079259,-0.01565016,-0.84457463,0.23111575,-0.48916929,-0.69303860,0.37538951,0.28166091
7.90000000,-0.39883314,0.62257036,-0.50269798,0.12337469,0.76012860,0.16881981,-0.22079259,-0.01565016,-0.84457463,0.23111575,-0.48916929,-0.69303860,0.37538951,0.28166091
7.92000000,-0.39883314,0.62257036,-0.50269798,0.12337469,0.76012860,0.16881981,-0.22079259,-0.01565016,-0.84457463,0.23111575,-0.48916929,-0.69303860,0.37538951,0.28166091
7.94000000,-0.39883314,0.62257036,-0.50269798,0.12337469,0.76012860,0.16881981,-0.22079259,-0.01565016,-0.84457463,0.23111575,-0.48916929,-0.69303860,0.37538951,0.28166091
7.96000000,-0.39883314,0.62257036,-0.50269798,0.12337469,0.76012860,0.16881981,-0.22079259,-0.01565016,-0.84457463,0.23111575,-0.48916929,-0.69303860,0.37538951,0.28166091
7.98000000,-0.39883314,0.62257036,-0.50269798,0.12337469,0.76012860,0.16881981,-0.22079259,-0.01565016,-0.84457463,0.23111575,-0.48916929,-0.69303860,0.37538951,0.28166091
8.00000000,-0.39883314,0.62257036,-0.50269798,0.12337469,0.76012860,0.16881981,-0.22079259,-0.01565016,-0.84457463,0.23111575,-0.48916929,-0.69303860,0.37538951,0.28166091
8.02000000,-0.39883314,0.62257036,-0.50269798,0.12337469,0.76012860,0.16881981,-0.22079259,-0.01565016,-0.84457463,0.23111575,-0.48916929,-0.69303860,0.37538951,0.28166091
8.04000000,-0.39883314,0.62257036,-0.50269798,0.12337469,0.76012860,0.16881981,-0.22079259,-0.01565016,-0.84457463,0.23111575,-0.48916929,-0.69303860,0.37538951,0.28166091
8.06000000,-0.39883314,0.62257036,-0.50269798,0.12337469,0.76012860,0.16881981,-0.22079259,-0.01565016,-0.84457463,0.23111575,-0.48916929,-0.69303860,0.37538951,0.28166091
8.08000000,-0.39883314,0.62257036,-0.50269798,0.12337469,0.76012860,0.16881981,-0.22079259,-0.01565016,-0.84457463,0.23111575,-0.48916929,-0.69303860,0.37538951,0.28166091
8.10000000,-0.39883314,0.62257036,-0.50269798,0.12337469,0.76012860,0.16881981,-0.22079259,-0.01565016,-0.84457463,0.23111575,-0.48916929,-0.69303860,0.37538951,0.28166091
8.12000000,-0.39883314,0.62257036,-0.50269798,0.12337469,0.76012860,0.16881981,-0.22079259,-0.01565016,-0.84457463,0.23111575,-0.48916929,-0.69303860,0.37538951,0.28166091
8.14000000,-0.39883314,0.62257036,-0.50269798,0.12337469,0.76012860,0.16881981,-0.22079259,-0.01565016,-0.84457463,0.23111575,-0.48916929,-0.69303860,0.37538951,0.28166091
8.16000000,-0.39883314,0.62257036,-0.50269798,0.12337469,0.76012860,0.16881981,-0.22079259,-0.01565016,-0.84457463,0.23111575,-0.48916929,-0.69303860,0.37538951,0.28166091
8.18000000,-0.39883314,0.62257036,-0.50269798,0.12337469,0.76012860,0.16881981,-0.22079259,-0.01565016,-0.84457463,0.23111575,-0.48916929,-0.69303860,0.37538951,0.28166091
8.20000000,-0.39883314,0.62257036,-0.50269798,0.12337469,0.76012860,0.16881981,-0.22079259,-0.01565016,-0.84457463,0.23111575,-0.48916929,-0.69303860,0.37538951,0.28166091
8.22000000,-0.39883314,0.62257036,-0.50269798,0.12337469,0.76012860,0.16881981,-0.22079259,-0.01565016,-0.84457463,0.23111575,-0.48916929,-0.69303860,0.37538951,0.28166091
8.24000000,-0.39883314,0.62257036,-0.50269798,0.12337469,0.76012860,0.16881981,-0.22079259,-0.01565016,-0.84457463,0.23111575,-0.48916929,-0.69303860,0.37538951,0.28166091
8.26000000,-0.39883314,0.62257036,-0.50269798,0.12337469,0.76012860,0.16881981,-0.22079259,-0.01565016,-0.84457463,0.23111575,-0.48916929,-0.69303860,0.37538951,0.28166091
8.28000000,-0.39883314,0.62257036,-0.50269798,0.12337469,0.76012860,0.16881981,-0.22079259,-0.01565016,-0.84457463,0.23111575,-0.48916929,-0.69303860,0.37538951,0.28166091
8.30000000,-0.39883314,0.62257036,-0.50269798,0.12337469,0.76012860,0.16881981,-0.22079259,-0.01565016,-0.84457463,0.23111575,-0.48916929,-0.69303860,0.37538951,0.28166091
8.32000000,-0.39883314,0.62257036,-0.50269798,0.12337469,0.76012860,0.16881981,-0.22079259,-0.01565016,-0.84457463,0.23111575,-0.48916929,-0.69303860,0.37538951,0.28166091
8.34000000,-0.39883314,0.62257036,-0.50269798,0.12337469,0.76012860,0.16881981,-0.22079259,-0.01565016,-0.84457463,0.23111575,-0.48916929,-0.69303860,0.37538951,0.28166091
8.36000000,-0.39883314,0.62257036,-0.50269798,0.12337469,0.76012860,0.16881981,-0.22079259,-0.01565016,-0.84457463,0.23111575,-0.48916929,-0.69303860,0.37538951,0.28166091
8.38000000,-0.39883314,0.62257036,-0.50269798,0.12337469,0.76012860,0.16881981,-0.22079259,-0.01565016,-0.84457463,0.23111575,-0.48916929,-0.69303860,0.37538951,0.28166091
8.40000000,-0.39883314,0.62257036,-0.50269798,0.12337469,0.76012860,0.16881981,-0.22079259,-0.01565016,-0.84457463,0.23111575,-0.48916929,-0.69303860,0.37538951,0.28166091
8.42000000,-0.39883314,0.62257036,-0.50269798,0.12337469,0.76012860,0.16881981,-0.22079259,-0.01565016,-0.84457463,0.23111575,-0.48916929,-0.69303860,0.37538951,0.28166091
8.44000000,-0.39883314,0.62257036,-0.50269798,0.12337469,0.76012860,0.16881981,-0.22079259,-0.01565016,-0.84457463,0.23111575,-0.48916929,-0.69303860,0.37538951,0.28166091
8.46000000,-0.39883314,0.62257036,-0.50269798,0.12337469,0.76012860,0.16881981,-0.22079259,-0.01565016,-0.84457463,0.23111575,-0.48916929,-0.69303860,0.37538951,0.28166091
8.48000000,-0.39883314,0.62257036,-0.50269798,0.12337469,0.76012860,0.16881981,-0.22079259,-0.01565016,-0.84457463,0.23111575,-0.48916929,-0.69303860,0.37538951,0.28166091
8.50000000,-0.39883314,0.62257036,-0.50269798,0.12337469,0.76012860,0.16881981,-0.22079259,-0.01565016,-0.84457463,0.23111575,-0.48916929,-0.69303860,0.37538951,0.28166091
8.52000000,-0.39883314,0.62257036,-0.50269798,0.12337469,0.76012860,0.16881981,-0.22079259,-0.01565016,-0.84457463,0.23111575,-0.48916929,-0.69303860,0.37538951,0.28166091
8.54000000,-0.39883314,0.62257036,-0.50269798,0.12337469,0.76012860,0.16881981,-0.22079259,-0.01565016,-0.84457463,0.23111575,-0.48916929,-0.69303860,0.37538951,0.28166091
8.56000000,-0.39883314,0.62257036,-0.50269798,0.12337469,0.76012860,0.16881981,-0.22079259,-0.01565016,-0.84457463,0.23111575,-0.48916929,-0.69303860,0.37538951,0.28166091
8.58000000,-0.39883314,0.62257036,-0.50269798,0.12337469,0.76012860,0.16881981,-0.22079259,-0.01565016,-0.84457463,0.23111575,-0.48916929,-0.69303860,0.37538951,0.28166091
8.60000000,-0.39883314,0.62257036,-0.50269798,0.12337469,0.76012860,0.16881981,-0.22079259,-0.01565016,-0.84457463,0.23111575,-0.48916929,-0.69303860,0.37538951,0.28166091
8.62000000,-0.39883314,0.62257036,-0.50269798,0.12337469,0.76012860,0.16881981,-0.22079259,-0.01565016,-0.84457463,0.23111575,-0.48916929,-0.69303860,0.37538951,0.28166091
8.64000000,-0.39883314,0.62257036,-0.50269798,0.12337469,0.76012860,0.16881981,-0.22079259,-0.01565016,-0.84457463,0.23111575,-0.48916929,-0.69303860,0.37538951,0.28166091
8.66000000,-0.39883314,0.62257036,-0.50269798,0.12337469,0.76012860,0.16881981,-0.22079259,-0.01565016,-0.84457463,0.23111575,-0.48916929,-0.69303860,0.37538951,0.28166091
8.68000000,-0.39883314,0.62257036,-0.50269798,0.12337469,0.76012860,0.16881981,-0.22079259,-0.01565016,-0.84457463,0.23111575,-0.48916929,-0.69303860,0.37538951,0.28166091
8.70000000,-0.39883314,0.62257036,-0.50269798,0.12337469,0.76012860,0.16881981,-0.22079259,-0.01565016,-0.84457463,0.23111575,-0.48916929,-0.69303860,0.37538951,0.28166091
8.72000000,-0.39883314,0.62257036,-0.50269798,0.12337469,0.76012860,0.16881981,-0.22079259,-0.01565016,-0.84457463,0.23111575,-0.48916929,-0.69303860,0.37538951,0.28166091
8.74000000,-0.39883314,0.62257036,-0.50269798,0.12337469,0.76012860,0.16881981,-0.22079259,-0.01565016,-0.84457463,0.23111575,-0.48916929,-0.69303860,0.37538951,0.28166091
8.76000000,-0.39883314,0.62257036,-0.50269798,0.12337469,0.76012860,0.16881981,-0.22079259,-0.01565016,-0.84457463,0.23111575,-0.48916929,-0.69303860,0.37538951,0.28166091
8.78000000,-0.39883314,0.62257036,-0.50269798,0.12337469,0.76012860,0.16881981,-0.22079259,-0.01565016,-0.84457463,0.23111575,-0.48916929,-0.69303860,0.37538951,0.28166091
8.80000000,-0.39883314,0.62257036,-0.50269798,0.12337469,0.76012860,0.16881981,-0.22079259,-0.01565016,-0.84457463,0.23111575,-0.48916929,-0.69303860,0.37538951,0.28166091
8.82000000,-0.39883314,0.62257036,-0.50269798,0.12337469,0.76012860,0.16881981,-0.22079259,-0.01565016,-0.84457463,0.23111575,-0.48916929,-0.69303860,0.37538951,0.28166091
8.84000000,-0.39883314,0.62257036,-0.50269798,0.12337469,0.76012860,0.16881981,-0.22079259,-0.01565016,-0.84457463,0.23111575,-0.48916929,-0.69303860,0.37538951,0.28166091
8.86000000,-0.39883314,0.62257036,-0.50269798,0.12337469,0.76012860,0.16881981,-0.22079259,-0.01565016,-0.84457463,0.23111575,-0.48916929,-0.69303860,0.37538951,0.28166091
8.88000000,-0.39883314,0.62257036,-0.50269798,0.12337469,0.76012860,0.16881981,-0.22079259,-0.01565016,-0.84457463,0.23111575,-0.48916929,-0.69303860,0.37538951,0.28166091
8.90000000,-0.39883314,0.62257036,-0.50269798,0.12337469,0.76012860,0.16881981,-0.22079259,-0.01565016,-0.84457463,0.23111575,-0.48916929,-0.69303860,0.37538951,0.28166091
8.92000000,-0.39883314,0.62257036,-0.50269798,0.12337469,0.76012860,0.16881981,-0.22079259,-0.01565016,-0.84457463,0.23111575,-0.48916929,-0.69303860,0.37538951,0.28166091
8.94000000,-0.39883314,0.62257036,-0.50269798,0.12337469,0.76012860,0.16881981,-0.22079259,-0.01565016,-0.84457463,0.23111575,-0.48916929,-0.69303860,0.37538951,0.28166091
8.96000000,-0.39883314,0.62257036,-0.50269798,0.12337469,0.76012860,0.16881981,-0.22079259,-0.01565016,-0.84457463,0.23111575,-0.48916929,-0.69303860,0.37538951,0.28166091
8.98000000,-0.39883314,0.62257036,-0.50269798,0.12337469,0.76012860,0.16881981,-0.22079259,-0.01565016,-0.84457463,0.23111575,-0.48916929,-0.69303860,0.37538951,0.28166091
9.00000000,-0.39883314,0.62257036,-0.50269798,0.12337469,0.76012860,0.16881981,-0.22079259,-0.01565016,-0.84457463,0.23111575,-0.48916929,-0.69303860,0.37538951,0.28166091
9.02000000,-0.39883314,0.62257036,-0.50269798,0.12337469,0.76012860,0.16881981,-0.22079259,-0.01565016,-0.84457463,0.23111575,-0.48916929,-0.69303860,0.37538951,0.28166091
9.04000000,-0.39883314,0.62257036,-0.50269798,0.12337469,0.76012860,0.16881981,-0.22079259,-0.01565016,-0.84457463,0.23111575,-0.48916929,-0.69303860,0.37538951,0.28166091
9.06000000,-0.39883314,0.62257036,-0.50269798,0.12337469,0.76012860,0.16881981,-0.22079259,-0.01565016,-0.84457463,0.23111575,-0.48916929,-0.69303860,0.37538951,0.28166091
9.08000000,-0.39883314,0.62257036,-0.50269798,0.12337469,0.76012860,0.16881981,-0.22079259,-0.01565016,-0.84457463,0.23111575,-0.48916929,-0.69303860,0.37538951,0.28166091
9.10000000,-0.39883314,0.62257036,-0.50269798,0.12337469,0.76012860,0.16881981,-0.22079259,-0.01565016,-0.84457463,0.23111575,-0.48916929,-0.69303860,0.37538951,0.28166091
9.12000000,-0.39883314,0.62257036,-0.50269798,0.12337469,0.76012860,0.16881981,-0.22079259,-0.01565016,-0.84457463,0.23111575,-0.48916929,-0.69303860,0.37538951,0.28166091
9.14000000,-0.39883314,0.62257036,-0.50269798,0.12337469,0.76012860,0.16881981,-0.22079259,-0.01565016,-0.84457463,0.23111575,-0.48916929,-0.69303860,0.37538951,0.28166091
9.16000000,-0.39883314,0.62257036,-0.50269798,0.12337469,0.76012860,0.16881981,-0.22079259,-0.01565016,-0.84457463,0.23111575,-0.48916929,-0.69303860,0.37538951,0.28166091
9.18000000,-0.39883314,0.62257036,-0.50269798,0.12337469,0.76012860,0.16881981,-0.22079259,-0.01565016,-0.84457463,0.23111575,-0.48916929,-0.69303860,0.37538951,0.28166091
9.20000000,-0.39883314,0.62257036,-0.50269798,0.12337469,0.76012860,0.16881981,-0.22079259,-0.01565016,-0.84457463,0.23111575,-0.48916929,-0.69303860,0.37538951,0.28166091
9.22000000,-0.39883314,0.62257036,-0.50269798,0.12337469,0.76012860,0.16881981,-0.22079259,-0.01565016,-0.84457463,0.23111575,-0.48916929,-0.69303860,0.37538951,0.28166091
9.24000000,-0.39883314,0.62257036,-0.50269798,0.12337469,0.76012860,0.16881981,-0.22079259,-0.01565016,-0.84457463,0.23111575,-0.48916929,-0.69303860,0.37538951,0.28166091
9.26000000,-0.39883314,0.62257036,-0.50269798,0.12337469,0.76012860,0.16881981,-0.22079259,-0.01565016,-0.84457463,0.23111575,-0.48916929,-0.69303860,0.37538951,0.28166091
9.28000000,-0.39883314,0.62257036,-0.50269798,0.12337469,0.76012860,0.16881981,-0.22079259,-0.01565016,-0.84457463,0.23111575,-0.48916929,-0.69303860,0.37538951,0.28166091
9.30000000,-0.39883314,0.62257036,-0.50269798,0.12337469,0.76012860,0.16881981,-0.22079259,-0.01565016,-0.84457463,0.23111575,-0.48916929,-0.69303860,0.37538951,0.28166091
9.32000000,-0.39883314,0.62257036,-0.50269798,0.12337469,0.76012860,0.16881981,-0.22079259,-0.01565016,-0.84457463,0.23111575,-0.48916929,-0.69303860,0.37538951,0.28166091
9.34000000,-0.39883314,0.62257036,-0.50269798,0.12337469,0.76012860,0.16881981,-0.22079259,-0.01565016,-0.84457463,0.23111575,-0.48916929,-0.69303860,0.37538951,0.28166091
9.36000000,-0.39883314,0.62257036,-0.50269798,0.12337469,0.76012860,0.16881981,-0.22079259,-0.01565016,-0.84457463,0.23111575,-0.48916929,-0.69303860,0.37538951,0.28166091
9.38000000,-0.39883314,0.62257036,-0.50269798,0.12337469,0.76012860,0.16881981,-0.22079259,-0.01565016,-0.84457463,0.23111575,-0.48916929,-0.69303860,0.37538951,0.28166091
9.40000000,-0.39883314,0.62257036,-0.50269798,0.12337469,0.76012860,0.16881981,-0.22079259,-0.01565016,-0.84457463,0.23111575,-0.48916929,-0.69303860,0.37538951,0.28166091
9.42000000,-0.39883314,0.62257036,-0.50269798,0.12337469,0.76012860,0.16881981,-0.22079259,-0.01565016,-0.84457463,0.23111575,-0.48916929,-0.69303860,0.37538951,0.28166091
9.44000000,-0.39883314,0.62257036,-0.50269798,0.12337469,0.76012860,0.16881981,-0.22079259,-0.01565016,-0.84457463,0.23111575,-0.48916929,-0.69303860,0.37538951,0.28166091
9.46000000,-0.39883314,0.62257036,-0.50269798,0.12337469,0.76012860,0.16881981,-0.22079259,-0.01565016,-0.84457463,0.23111575,-0.48916929,-0.69303860,0.37538951,0.28166091
9.48000000,-0.39883314,0.62257036,-0.50269798,0.12337469,0.76012860,0.16881981,-0.22079259,-0.01565016,-0.84457463,0.23111575,-0.48916929,-0.69303860,0.37538951,0.28166091
9.50000000,-0.39883314,0.62257036,-0.50269798,0.12337469,0.76012860,0.16881981,-0.22079259,-0.01565016,-0.84457463,0.23111575,-0.48916929,-0.69303860,0.37538951,0.28166091
9.52000000,-0.39883314,0.62257036,-0.50269798,0.12337469,0.76012860,0.16881981,-0.22079259,-0.01565016,-0.84457463,0.23111575,-0.48916929,-0.69303860,0.37538951,0.28166091
9.54000000,-0.39883314,0.62257036,-0.50269798,0.12337469,0.76012860,0.16881981,-0.22079259,-0.01565016,-0.84457463,0.23111575,-0.48916929,-0.69303860,0.37538951,0.28166091
9.56000000,-0.39883314,0.62257036,-0.50269798,0.12337469,0.76012860,0.16881981,-0.22079259,-0.01565016,-0.84457463,0.23111575,-0.48916929,-0.69303860,0.37538951,0.28166091
9.58000000,-0.39883314,0.62257036,-0.50269798,0.12337469,0.76012860,0.16881981,-0.22079259,-0.01565016,-0.84457463,0.23111575,-0.48916929,-0.69303860,0.37538951,0.28166091
9.60000000,-0.39883314,0.62257036,-0.50269798,0.12337469,0.76012860,0.16881981,-0.22079259,-0.01565016,-0.84457463,0.23111575,-0.48916929,-0.69303860,0.37538951,0.28166091
9.62000000,-0.39883314,0.62257036,-0.50269798,0.12337469,0.76012860,0.16881981,-0.22079259,-0.01565016,-0.84457463,0.23111575,-0.48916929,-0.69303860,0.37538951,0.28166091
9.64000000,-0.39883314,0.62257036,-0.50269798,0.12337469,0.76012860,0.16881981,-0.22079259,-0.01565016,-0.84457463,0.23111575,-0.48916929,-0.69303860,0.37538951,0.28166091
9.66000000,-0.39883314,0.62257036,-0.50269798,0.12337469,0.76012860,0.16881981,-0.22079259,-0.01565016,-0.84457463,0.23111575,-0.48916929,-0.69303860,0.37538951,0.28166091
9.68000000,-0.39883314,0.62257036,-0.50269798,0.12337469,0.76012860,0.16881981,-0.22079259,-0.01565016,-0.84457463,0.23111575,-0.48916929,-0.69303860,0.37538951,0.28166091
9.70000000,-0.39883314,0.62257036,-0.50269798,0.12337469,0.76012860,0.16881981,-0.22079259,-0.01565016,-0.84457463,0.23111575,-0.48916929,-0.69303860,0.37538951,0.28166091
9.72000000,-0.39883314,0.62257036,-0.50269798,0.12337469,0.76012860,0.16881981,-0.22079259,-0.01565016,-0.84457463,0.23111575,-0.48916929,-0.69303860,0.37538951,0.28166091
9.74000000,-0.39883314,0.62257036,-0.50269798,0.12337469,0.76012860,0.16881981,-0.22079259,-0.01565016,-0.84457463,0.23111575,-0.48916929,-0.69303860,0.37538951,0.28166091
9.76000000,-0.39883314,0.62257036,-0.50269798,0.12337469,0.76012860,0.16881981,-0.22079259,-0.01565016,-0.84457463,0.23111575,-0.48916929,-0.69303860,0.37538951,0.28166091
9.78000000,-0.39883314,0.62257036,-0.50269798,0.12337469,0.76012860,0.16881981,-0.22079259,-0.01565016,-0.84457463,0.23111575,-0.48916929,-0.69303860,0.37538951,0.28166091
9.80000000,-0.39883314,0.62257036,-0.50269798,0.12337469,0.76012860,0.16881981,-0.22079259,-0.01565016,-0.84457463,0.23111575,-0.48916929,-0.69303860,0.37538951,0.28166091
9.82000000,-0.39883314,0.62257036,-0.50269798,0.12337469,0.76012860,0.16881981,-0.22079259,-0.01565016,-0.84457463,0.23111575,-0.48916929,-0.69303860,0.37538951,0.28166091
9.84000000,-0.39883314,0.62257036,-0.50269798,0.12337469,0.76012860,0.16881981,-0.22079259,-0.01565016,-0.84457463,0.23111575,-0.48916929,-0.69303860,0.37538951,0.28166091
9.86000000,-0.39883314,0.62257036,-0.50269798,0.12337469,0.76012860,0.16881981,-0.22079259,-0.01565016,-0.84457463,0.23111575,-0.48916929,-0.69303860,0.37538951,0.28166091
9.88000000,-0.39883314,0.62257036,-0.50269798,0.12337469,0.76012860,0.16881981,-0.22079259,-0.01565016,-0.84457463,0.23111575,-0.48916929,-0.69303860,0.37538951,0.28166091
9.90000000,-0.39883314,0.62257036,-0.50269798,0.12337469,0.76012860,0.16881981,-0.22079259,-0.01565016,-0.84457463,0.23111575,-0.48916929,-0.69303860,0.37538951,0.28166091
9.92000000,-0.39883314,0.62257036,-0.50269798,0.12337469,0.76012860,0.16881981,-0.22079259,-0.01565016,-0.84457463,0.23111575,-0.48916929,-0.69303860,0.37538951,0.28166091
9.94000000,-0.39883314,0.62257036,-0.50269798,0.12337469,0.76012860,0.16881981,-0.22079259,-0.01565016,-0.84457463,0.23111575,-0.48916929,-0.69303860,0.37538951,0.28166091
9.96000000,-0.39883314,0.62257036,-0.50269798,0.12337469,0.76012860,0.16881981,-0.22079259,-0.01565016,-0.84457463,0.23111575,-0.48916929,-0.69303860,0.37538951,0.28166091
9.98000000,-0.39883314,0.62257036,-0.50269798,0.12337469,0.76012860,0.16881981,-0.22079259,-0.01565016,-0.84457463,0.23111575,-0.48916929,-0.69303860,0.37538951,0.28166091
10.00000000,-0.39883314,0.62257036,-0.50269798,0.12337469,0.76012860,0.16881981,-0.22079259,-0.01565016,-0.84457463,0.23111575,-0.48916929,-0.69303860,0.37538951,0.28166091
10.02000000,-0.39883314,0.62257036,-0.50269798,0.12337469,0.76012860,0.16881981,-0.22079259,-0.01565016,-0.84457463,0.23111575,-0.48916929,-0.69303860,0.37538951,0.28166091
10.04000000,-0.39883314,0.62257036,-0.50269798,0.12337469,0.76012860,0.16881981,-0.22079259,-0.01565016,-0.84457463,0.23111575,-0.48916929,-0.69303860,0.37538951,0.28166091
10.06000000,-0.39883314,0.62257036,-0.50269798,0.12337469,0.76012860,0.16881981,-0.22079259,-0.01565016,-0.84457463,0.23111575,-0.48916929,-0.69303860,0.37538951,0.28166091
10.08000000,-0.39883314,0.62257036,-0.50269798,0.12337469,0.76012860,0.16881981,-0.22079259,-0.01565016,-0.84457463,0.23111575,-0.48916929,-0.69303860,0.37538951,0.28166091
10.10000000,-0.39883314,0.62257036,-0.50269798,0.12337469,0.76012860,0.16881981,-0.22079259,-0.01565016,-0.84457463,0.23111575,-0.48916929,-0.69303860,0.37538951,0.28166091
10.12000000,-0.39883314,0.62257036,-0.50269798,0.12337469,0.76012860,0.16881981,-0.22079259,-0.01565016,-0.84457463,0.23111575,-0.48916929,-0.69303860,0.37538951,0.28166091
10.14000000,-0.39883314,0.62257036,-0.50269798,0.12337469,0.76012860,0.16881981,-0.22079259,-0.01565016,-0.84457463,0.23111575,-0.48916929,-0.69303860,0.37538951,0.28166091
10.16000000,-0.39883314,0.62257036,-0.50269798,0.12337469,0.76012860,0.16881981,-0.22079259,-0.01565016,-0.84457463,0.23111575,-0.48916929,-0.69303860,0.37538951,0.28166091
10.18000000,-0.39883314,0.62257036,-0.50269798,0.12337469,0.76012860,0.16881981,-0.22079259,-0.01565016,-0.84457463,0.23111575,-0.48916929,-0.69303860,0.37538951,0.28166091
10.20000000,-0.39883314,0.62257036,-0.50269798,0.12337469,0.76012860,0.16881981,-0.22079259,-0.01565016,-0.84457463,0.23111575,-0.48916929,-0.69303860,0.37538951,0.28166091
10.22000000,-0.39883314,0.62257036,-0.50269798,0.12337469,0.76012860,0.16881981,-0.22079259,-0.01565016,-0.84457463,0.23111575,-0.48916929,-0.69303860,0.37538951,0.28166091
10.24000000,-0.39883314,0.62257036,-0.50269798,0.12337469,0.76012860,0.16881981,-0.22079259,-0.01565016,-0.84457463,0.23111575,-0.48916929,-0.69303860,0.37538951,0.28166091
10.26000000,-0.39883314,0.62257036,-0.50269798,0.12337469,0.76012860,0.16881981,-0.22079259,-0.01565016,-0.84457463,0.23111575,-0.48916929,-0.69303860,0.37538951,0.28166091
10.28000000,-0.39883314,0.62257036,-0.50269798,0.12337469,0.76012860,0.16881981,-0.22079259,-0.01565016,-0.84457463,0.23111575,-0.48916929,-0.69303860,0.37538951,0.28166091
10.30000000,-0.39883314,0.62257036,-0.50269798,0.12337469,0.76012860,0.16881981,-0.22079259,-0.01565016,-0.84457463,0.23111575,-0.48916929,-0.69303860,0.37538951,0.28166091
10.32000000,-0.39883314,0.62257036,-0.50269798,0.12337469,0.76012860,0.16881981,-0.22079259,-0.01565016,-0.84457463,0.23111575,-0.48916929,-0.69303860,0.37538951,0.28166091
10.34000000,-0.39883314,0.62257036,-0.50269798,0.12337469,0.76012860,0.16881981,-0.22079259,-0.01565016,-0.84457463,0.23111575,-0.48916929,-0.69303860,0.37538951,0.28166091
10.36000000,-0.39883314,0.62257036,-0.50269798,0.12337469,0.76012860,0.16881981,-0.22079259,-0.01565016,-0.84457463,0.23111575,-0.48916929,-0.69303860,0.37538951,0.28166091
10.38000000,-0.39883314,0.62257036,-0.50269798,0.12337469,0.76012860,0.16881981,-0.22079259,-0.01565016,-0.84457463,0.23111575,-0.48916929,-0.69303860,0.37538951,0.28166091
10.40000000,-0.39883314,0.62257036,-0.50269798,0.12337469,0.76012860,0.16881981,-0.22079259,-0.01565016,-0.84457463,0.23111575,-0.48916929,-0.69303860,0.37538951,0.28166091
10.42000000,-0.39883314,0.62257036,-0.50269798,0.12337469,0.76012860,0.16881981,-0.22079259,-0.01565016,-0.84457463,0.23111575,-0.48916929,-0.69303860,0.37538951,0.28166091
10.44000000,-0.39883314,0.62257036,-0.50269798,0.12337469,0.76012860,0.16881981,-0.22079259,-0.01565016,-0.84457463,0.23111575,-0.48916929,-0.69303860,0.37538951,0.28166091
10.46000000,-0.39883314,0.62257036,-0.50269798,0.12337469,0.76012860,0.16881981,-0.22079259,-0.01565016,-0.84457463,0.23111575,-0.48916929,-0.69303860,0.37538951,0.28166091
10.48000000,-0.39883314,0.62257036,-0.50269798,0.12337469,0.76012860,0.16881981,-0.22079259,-0.01565016,-0.84457463,0.23111575,-0.48916929,-0.69303860,0.37538951,0.28166091
10.50000000,-0.39883314,0.62257036,-0.50269798,0.12337469,0.76012860,0.16881981,-0.22079259,-0.01565016,-0.84457463,0.23111575,-0.48916929,-0.69303860,0.37538951,0.28166091
10.52000000,-0.39883314,0.62257036,-0.50269798,0.12337469,0.76012860,0.16881981,-0.22079259,-0.01565016,-0.84457463,0.23111575,-0.48916929,-0.69303860,0.37538951,0.28166091
10.54000000,-0.39883314,0.62257036,-0.50269798,0.12337469,0.76012860,0.16881981,-0.22079259,-0.01565016,-0.84457463,0.23111575,-0.48916929,-0.69303860,0.37538951,0.28166091
10.56000000,-0.39883314,0.62257036,-0.50269798,0.12337469,0.76012860,0.16881981,-0.22079259,-0.01565016,-0.84457463,0.23111575,-0.48916929,-0.69303860,0.37538951,0.28166091
10.58000000,-0.39883314,0.62257036,-0.50269798,0.12337469,0.76012860,0.16881981,-0.22079259,-0.01565016,-0.84457463,0.23111575,-0.48916929,-0.69303860,0.37538951,0.28166091
10.60000000,-0.39883314,0.62257036,-0.50269798,0.12337469,0.76012860,0.16881981,-0.22079259,-0.01565016,-0.84457463,0.23111575,-0.48916929,-0.69303860,0.37538951,0.28166091
10.62000000,-0.39883314,0.62257036,-0.50269798,0.12337469,0.76012860,0.16881981,-0.22079259,-0.01565016,-0.84457463,0.23111575,-0.48916929,-0.69303860,0.37538951,0.28166091
10.64000000,-0.39883314,0.62257036,-0.50269798,0.12337469,0.76012860,0.16881981,-0.22079259,-0.01565016,-0.84457463,0.23111575,-0.48916929,-0.69303860,0.37538951,0.28166091
10.66000000,-0.39883314,0.62257036,-0.50269798,0.12337469,0.76012860,0.16881981,-0.22079259,-0.01565016,-0.84457463,0.23111575,-0.48916929,-0.69303860,0.37538951,0.28166091
10.68000000,-0.39883314,0.62257036,-0.50269798,0.12337469,0.76012860,0.16881981,-0.22079259,-0.01565016,-0.84457463,0.23111575,-0.48916929,-0.69303860,0.37538951,0.28166091
10.70000000,-0.39883314,0.62257036,-0.50269798,0.12337469,0.76012860,0.16881981,-0.22079259,-0.01565016,-0.84457463,0.23111575,-0.48916929,-0.69303860,0.37538951,0.28166091
10.72000000,-0.39883314,0.62257036,-0.50269798,0.12337469,0.76012860,0.16881981,-0.22079259,-0.01565016,-0.84457463,0.23111575,-0.48916929,-0.69303860,0.37538951,0.28166091
10.74000000,-0.39883314,0.62257036,-0.50269798,0.12337469,0.76012860,0.16881981,-0.22079259,-0.01565016,-0.84457463,0.23111575,-0.48916929,-0.69303860,0.37538951,0.28166091
10.76000000,-0.39883314,0.62257036,-0.50269798,0.12337469,0.76012860,0.16881981,-0.22079259,-0.01565016,-0.84457463,0.23111575,-0.48916929,-0.69303860,0.37538951,0.28166091
10.78000000,-0.39883314,0.62257036,-0.50269798,0.12337469,0.76012860,0.16881981,-0.22079259,-0.01565016,-0.84457463,0.23111575,-0.48916929,-0.69303860,0.37538951,0.28166091
10.80000000,-0.39883314,0.62257036,-0.50269798,0.12337469,0.76012860,0.16881981,-0.22079259,-0.01565016,-0.84457463,0.23111575,-0.48916929,-0.69303860,0.37538951,0.28166091
10.82000000,-0.39883314,0.62257036,-0.50269798,0.12337469,0.76012860,0.16881981,-0.22079259,-0.01565016,-0.84457463,0.23111575,-0.48916929,-0.69303860,0.37538951,0.28166091
10.84000000,-0.39883314,0.62257036,-0.50269798,0.12337469,0.76012860,0.16881981,-0.22079259,-0.01565016,-0.84457463,0.23111575,-0.48916929,-0.69303860,0.37538951,0.28166091
10.86000000,-0.39883314,0.62257036,-0.50269798,0.12337469,0.76012860,0.16881981,-0.22079259,-0.01565016,-0.84457463,0.23111575,-0.48916929,-0.69303860,0.37538951,0.28166091
10.88000000,-0.39883314,0.62257036,-0.50269798,0.12337469,0.76012860,0.16881981,-0.22079259,-0.01565016,-0.84457463,0.23111575,-0.48916929,-0.69303860,0.37538951,0.28166091
10.90000000,-0.39883314,0.62257036,-0.50269798,0.12337469,0.76012860,0.16881981,-0.22079259,-0.01565016,-0.84457463,0.23111575,-0.48916929,-0.69303860,0.37538951,0.28166091
10.92000000,-0.39883314,0.62257036,-0.50269798,0.12337469,0.76012860,0.16881981,-0.22079259,-0.01565016,-0.84457463,0.23111575,-0.48916929,-0.69303860,0.37538951,0.28166091
10.94000000,-0.39883314,0.62257036,-0.50269798,0.12337469,0.76012860,0.16881981,-0.22079259,-0.01565016,-0.84457463,0.23111575,-0.48916929,-0.69303860,0.37538951,0.28166091
10.96000000,-0.39883314,0.62257036,-0.50269798,0.12337469,0.76012860,0.16881981,-0.22079259,-0.01565016,-0.84457463,0.23111575,-0.48916929,-0.69303860,0.37538951,0.28166091
10.98000000,-0.39883314,0.62257036,-0.50269798,0.12337469,0.76012860,0.16881981,-0.22079259,-0.01565016,-0.84457463,0.23111575,-0.48916929,-0.69303860,0.37538951,0.28166091
11.00000000,-0.39883314,0.62257036,-0.50269798,0.12337469,0.76012860,0.16881981,-0.22079259,-0.01565016,-0.84457463,0.23111575,-0.48916929,-0.69303860,0.37538951,0.28166091
11.02000000,-0.39883314,0.62257036,-0.50269798,0.12337469,0.76012860,0.16881981,-0.22079259,-0.01565016,-0.84457463,0.23111575,-0.48916929,-0.69303860,0.37538951,0.28166091
11.04000000,-0.39883314,0.62257036,-0.50269798,0.12337469,0.76012860,0.16881981,-0.22079259,-0.01565016,-0.84457463,0.23111575,-0.48916929,-0.69303860,0.37538951,0.28166091
11.06000000,-0.39883314,0.62257036,-0.50269798,0.12337469,0.76012860,0.16881981,-0.22079259,-0.01565016,-0.84457463,0.23111575,-0.48916929,-0.69303860,0.37538951,0.28166091
11.08000000,-0.39883314,0.62257036,-0.50269798,0.12337469,0.76012860,0.16881981,-0.22079259,-0.01565016,-0.84457463,0.23111575,-0.48916929,-0.69303860,0.37538951,0.28166091
11.10000000,-0.39883314,0.62257036,-0.50269798,0.12337469,0.76012860,0.16881981,-0.22079259,-0.01565016,-0.84457463,0.23111575,-0.48916929,-0.69303860,0.37538951,0.28166091
11.12000000,-0.39883314,0.62257036,-0.50269798,0.12337469,0.76012860,0.16881981,-0.22079259,-0.01565016,-0.84457463,0.23111575,-0.48916929,-0.69303860,0.37538951,0.28166091
11.14000000,-0.39883314,0.62257036,-0.50269798,0.12337469,0.76012860,0.16881981,-0.22079259,-0.01565016,-0.84457463,0.23111575,-0.48916929,-0.69303860,0.37538951,0.28166091
11.16000000,-0.39883314,0.62257036,-0.50269798,0.12337469,0.76012860,0.16881981,-0.22079259,-0.01565016,-0.84457463,0.23111575,-0.48916929,-0.69303860,0.37538951,0.28166091
11.18000000,-0.39883314,0.62257036,-0.50269798,0.12337469,0.76012860,0.16881981,-0.22079259,-0.01565016,-0.84457463,0.23111575,-0.48916929,-0.69303860,0.37538951,0.28166091
11.20000000,-0.39883314,0.62257036,-0.50269798,0.12337469,0.76012860,0.16881981,-0.22079259,-0.01565016,-0.84457463,0.23111575,-0.48916929,-0.69303860,0.37538951,0.28166091
11.22000000,-0.39883314,0.62257036,-0.50269798,0.12337469,0.76012860,0.16881981,-0.22079259,-0.01565016,-0.84457463,0.23111575,-0.48916929,-0.69303860,0.37538951,0.28166091
11.24000000,-0.39883314,0.62257036,-0.50269798,0.12337469,0.76012860,0.16881981,-0.22079259,-0.01565016,-0.84457463,0.23111575,-0.48916929,-0.69303860,0.37538951,0.28166091
11.26000000,-0.39883314,0.62257036,-0.50269798,0.12337469,0.76012860,0.16881981,-0.22079259,-0.01565016,-0.84457463,0.23111575,-0.48916929,-0.69303860,0.37538951,0.28166091
11.28000000,-0.39883314,0.62257036,-0.50269798,0.12337469,0.76012860,0.16881981,-0.22079259,-0.01565016,-0.84457463,0.23111575,-0.48916929,-0.69303860,0.37538951,0.28166091
11.30000000,-0.39883314,0.62257036,-0.50269798,0.12337469,0.76012860,0.16881981,-0.22079259,-0.01565016,-0.84457463,0.23111575,-0.48916929,-0.69303860,0.37538951,0.28166091
11.32000000,-0.39883314,0.62257036,-0.50269798,0.12337469,0.76012860,0.16881981,-0.22079259,-0.01565016,-0.84457463,0.23111575,-0.48916929,-0.69303860,0.37538951,0.28166091
11.34000000,-0.39883314,0.62257036,-0.50269798,0.12337469,0.76012860,0.16881981,-0.22079259,-0.01565016,-0.84457463,0.23111575,-0.48916929,-0.69303860,0.37538951,0.28166091
11.36000000,-0.39883314,0.62257036,-0.50269798,0.12337469,0.76012860,0.16881981,-0.22079259,-0.01565016,-0.84457463,0.23111575,-0.48916929,-0.69303860,0.37538951,0.28166091
11.38000000,-0.39883314,0.62257036,-0.50269798,0.12337469,0.76012860,0.16881981,-0.22079259,-0.01565016,-0.84457463,0.23111575,-0.48916929,-0.69303860,0.37538951,0.28166091
11.40000000,-0.39883314,0.62257036,-0.50269798,0.12337469,0.76012860,0.16881981,-0.22079259,-0.01565016,-0.84457463,0.23111575,-0.48916929,-0.69303860,0.37538951,0.28166091
11.42000000,-0.39883314,0.62257036,-0.50269798,0.12337469,0.76012860,0.16881981,-0.22079259,-0.01565016,-0.84457463,0.23111575,-0.48916929,-0.69303860,0.37538951,0.28166091
11.44000000,-0.39883314,0.62257036,-0.50269798,0.12337469,0.76012860,0.16881981,-0.22079259,-0.01565016,-0.84457463,0.23111575,-0.48916929,-0.69303860,0.37538951,0.28166091
11.46000000,-0.39883314,0.62257036,-0.50269798,0.12337469,0.76012860,0.16881981,-0.22079259,-0.01565016,-0.84457463,0.23111575,-0.48916929,-0.69303860,0.37538951,0.28166091
11.48000000,-0.39883314,0.62257036,-0.50269798,0.12337469,0.76012860,0.16881981,-0.22079259,-0.01565016,-0.84457463,0.23111575,-0.48916929,-0.69303860,0.37538951,0.28166091
11.50000000,-0.39883314,0.62257036,-0.50269798,0.12337469,0.76012860,0.16881981,-0.22079259,-0.01565016,-0.84457463,0.23111575,-0.48916929,-0.69303860,0.37538951,0.28166091
11.52000000,-0.39883314,0.62257036,-0.50269798,0.12337469,0.76012860,0.16881981,-0.22079259,-0.01565016,-0.84457463,0.23111575,-0.48916929,-0.69303860,0.37538951,0.28166091
11.54000000,-0.39883314,0.62257036,-0.50269798,0.12337469,0.76012860,0.16881981,-0.22079259,-0.01565016,-0.84457463,0.23111575,-0.48916929,-0.69303860,0.37538951,0.28166091
11.56000000,-0.39883314,0.62257036,-0.50269798,0.12337469,0.76012860,0.16881981,-0.22079259,-0.01565016,-0.84457463,0.23111575,-0.48916929,-0.69303860,0.37538951,0.28166091
