gracetata/LocomotionHEC/legged_lab/Reference Data/ArmHack/StandPerturb/TestData/ArmOnly/poses/synthesized/synthesized_arm_pose_02_seed20260714_hold20s_50hz.csv
time_s,left_shoulder_pitch_joint,left_shoulder_roll_joint,left_shoulder_yaw_joint,left_elbow_joint,left_wrist_roll_joint,left_wrist_pitch_joint,left_wrist_yaw_joint,right_shoulder_pitch_joint,right_shoulder_roll_joint,right_shoulder_yaw_joint,right_elbow_joint,right_wrist_roll_joint,right_wrist_pitch_joint,right_wrist_yaw_joint
0.00000000,0.14560912,0.90513280,-0.12011193,-0.68083642,0.77354329,0.55410631,-0.40422881,-0.24564667,-0.89603498,0.23218192,-0.49934563,-0.57231069,0.35573379,0.53749327
0.02000000,0.14560912,0.90513280,-0.12011193,-0.68083642,0.77354329,0.55410631,-0.40422881,-0.24564667,-0.89603498,0.23218192,-0.49934563,-0.57231069,0.35573379,0.53749327
0.04000000,0.14560912,0.90513280,-0.12011193,-0.68083642,0.77354329,0.55410631,-0.40422881,-0.24564667,-0.89603498,0.23218192,-0.49934563,-0.57231069,0.35573379,0.53749327
0.06000000,0.14560912,0.90513280,-0.12011193,-0.68083642,0.77354329,0.55410631,-0.40422881,-0.24564667,-0.89603498,0.23218192,-0.49934563,-0.57231069,0.35573379,0.53749327
0.08000000,0.14560912,0.90513280,-0.12011193,-0.68083642,0.77354329,0.55410631,-0.40422881,-0.24564667,-0.89603498,0.23218192,-0.49934563,-0.57231069,0.35573379,0.53749327
0.10000000,0.14560912,0.90513280,-0.12011193,-0.68083642,0.77354329,0.55410631,-0.40422881,-0.24564667,-0.89603498,0.23218192,-0.49934563,-0.57231069,0.35573379,0.53749327
0.12000000,0.14560912,0.90513280,-0.12011193,-0.68083642,0.77354329,0.55410631,-0.40422881,-0.24564667,-0.89603498,0.23218192,-0.49934563,-0.57231069,0.35573379,0.53749327
0.14000000,0.14560912,0.90513280,-0.12011193,-0.68083642,0.77354329,0.55410631,-0.40422881,-0.24564667,-0.89603498,0.23218192,-0.49934563,-0.57231069,0.35573379,0.53749327
0.16000000,0.14560912,0.90513280,-0.12011193,-0.68083642,0.77354329,0.55410631,-0.40422881,-0.24564667,-0.89603498,0.23218192,-0.49934563,-0.57231069,0.35573379,0.53749327
0.18000000,0.14560912,0.90513280,-0.12011193,-0.68083642,0.77354329,0.55410631,-0.40422881,-0.24564667,-0.89603498,0.23218192,-0.49934563,-0.57231069,0.35573379,0.53749327
0.20000000,0.14560912,0.90513280,-0.12011193,-0.68083642,0.77354329,0.55410631,-0.40422881,-0.24564667,-0.89603498,0.23218192,-0.49934563,-0.57231069,0.35573379,0.53749327
0.22000000,0.14560912,0.90513280,-0.12011193,-0.68083642,0.77354329,0.55410631,-0.40422881,-0.24564667,-0.89603498,0.23218192,-0.49934563,-0.57231069,0.35573379,0.53749327
0.24000000,0.14560912,0.90513280,-0.12011193,-0.68083642,0.77354329,0.55410631,-0.40422881,-0.24564667,-0.89603498,0.23218192,-0.49934563,-0.57231069,0.35573379,0.53749327
0.26000000,0.14560912,0.90513280,-0.12011193,-0.68083642,0.77354329,0.55410631,-0.40422881,-0.24564667,-0.89603498,0.23218192,-0.49934563,-0.57231069,0.35573379,0.53749327
0.28000000,0.14560912,0.90513280,-0.12011193,-0.68083642,0.77354329,0.55410631,-0.40422881,-0.24564667,-0.89603498,0.23218192,-0.49934563,-0.57231069,0.35573379,0.53749327
0.30000000,0.14560912,0.90513280,-0.12011193,-0.68083642,0.77354329,0.55410631,-0.40422881,-0.24564667,-0.89603498,0.23218192,-0.49934563,-0.57231069,0.35573379,0.53749327
0.32000000,0.14560912,0.90513280,-0.12011193,-0.68083642,0.77354329,0.55410631,-0.40422881,-0.24564667,-0.89603498,0.23218192,-0.49934563,-0.57231069,0.35573379,0.53749327
0.34000000,0.14560912,0.90513280,-0.12011193,-0.68083642,0.77354329,0.55410631,-0.40422881,-0.24564667,-0.89603498,0.23218192,-0.49934563,-0.57231069,0.35573379,0.53749327
0.36000000,0.14560912,0.90513280,-0.12011193,-0.68083642,0.77354329,0.55410631,-0.40422881,-0.24564667,-0.89603498,0.23218192,-0.49934563,-0.57231069,0.35573379,0.53749327
0.38000000,0.14560912,0.90513280,-0.12011193,-0.68083642,0.77354329,0.55410631,-0.40422881,-0.24564667,-0.89603498,0.23218192,-0.49934563,-0.57231069,0.35573379,0.53749327
0.40000000,0.14560912,0.90513280,-0.12011193,-0.68083642,0.77354329,0.55410631,-0.40422881,-0.24564667,-0.89603498,0.23218192,-0.49934563,-0.57231069,0.35573379,0.53749327
0.42000000,0.14560912,0.90513280,-0.12011193,-0.68083642,0.77354329,0.55410631,-0.40422881,-0.24564667,-0.89603498,0.23218192,-0.49934563,-0.57231069,0.35573379,0.53749327
0.44000000,0.14560912,0.90513280,-0.12011193,-0.68083642,0.77354329,0.55410631,-0.40422881,-0.24564667,-0.89603498,0.23218192,-0.49934563,-0.57231069,0.35573379,0.53749327
0.46000000,0.14560912,0.90513280,-0.12011193,-0.68083642,0.77354329,0.55410631,-0.40422881,-0.24564667,-0.89603498,0.23218192,-0.49934563,-0.57231069,0.35573379,0.53749327
0.48000000,0.14560912,0.90513280,-0.12011193,-0.68083642,0.77354329,0.55410631,-0.40422881,-0.24564667,-0.89603498,0.23218192,-0.49934563,-0.57231069,0.35573379,0.53749327
0.50000000,0.14560912,0.90513280,-0.12011193,-0.68083642,0.77354329,0.55410631,-0.40422881,-0.24564667,-0.89603498,0.23218192,-0.49934563,-0.57231069,0.35573379,0.53749327
0.52000000,0.14560912,0.90513280,-0.12011193,-0.68083642,0.77354329,0.55410631,-0.40422881,-0.24564667,-0.89603498,0.23218192,-0.49934563,-0.57231069,0.35573379,0.53749327
0.54000000,0.14560912,0.90513280,-0.12011193,-0.68083642,0.77354329,0.55410631,-0.40422881,-0.24564667,-0.89603498,0.23218192,-0.49934563,-0.57231069,0.35573379,0.53749327
0.56000000,0.14560912,0.90513280,-0.12011193,-0.68083642,0.77354329,0.55410631,-0.40422881,-0.24564667,-0.89603498,0.23218192,-0.49934563,-0.57231069,0.35573379,0.53749327
0.58000000,0.14560912,0.90513280,-0.12011193,-0.68083642,0.77354329,0.55410631,-0.40422881,-0.24564667,-0.89603498,0.23218192,-0.49934563,-0.57231069,0.35573379,0.53749327
0.60000000,0.14560912,0.90513280,-0.12011193,-0.68083642,0.77354329,0.55410631,-0.40422881,-0.24564667,-0.89603498,0.23218192,-0.49934563,-0.57231069,0.35573379,0.53749327
0.62000000,0.14560912,0.90513280,-0.12011193,-0.68083642,0.77354329,0.55410631,-0.40422881,-0.24564667,-0.89603498,0.23218192,-0.49934563,-0.57231069,0.35573379,0.53749327
0.64000000,0.14560912,0.90513280,-0.12011193,-0.68083642,0.77354329,0.55410631,-0.40422881,-0.24564667,-0.89603498,0.23218192,-0.49934563,-0.57231069,0.35573379,0.53749327
0.66000000,0.14560912,0.90513280,-0.12011193,-0.68083642,0.77354329,0.55410631,-0.40422881,-0.24564667,-0.89603498,0.23218192,-0.49934563,-0.57231069,0.35573379,0.53749327
0.68000000,0.14560912,0.90513280,-0.12011193,-0.68083642,0.77354329,0.55410631,-0.40422881,-0.24564667,-0.89603498,0.23218192,-0.49934563,-0.57231069,0.35573379,0.53749327
0.70000000,0.14560912,0.90513280,-0.12011193,-0.68083642,0.77354329,0.55410631,-0.40422881,-0.24564667,-0.89603498,0.23218192,-0.49934563,-0.57231069,0.35573379,0.53749327
0.72000000,0.14560912,0.90513280,-0.12011193,-0.68083642,0.77354329,0.55410631,-0.40422881,-0.24564667,-0.89603498,0.23218192,-0.49934563,-0.57231069,0.35573379,0.53749327
0.74000000,0.14560912,0.90513280,-0.12011193,-0.68083642,0.77354329,0.55410631,-0.40422881,-0.24564667,-0.89603498,0.23218192,-0.49934563,-0.57231069,0.35573379,0.53749327
0.76000000,0.14560912,0.90513280,-0.12011193,-0.68083642,0.77354329,0.55410631,-0.40422881,-0.24564667,-0.89603498,0.23218192,-0.49934563,-0.57231069,0.35573379,0.53749327
0.78000000,0.14560912,0.90513280,-0.12011193,-0.68083642,0.77354329,0.55410631,-0.40422881,-0.24564667,-0.89603498,0.23218192,-0.49934563,-0.57231069,0.35573379,0.53749327
0.80000000,0.14560912,0.90513280,-0.12011193,-0.68083642,0.77354329,0.55410631,-0.40422881,-0.24564667,-0.89603498,0.23218192,-0.49934563,-0.57231069,0.35573379,0.53749327
0.82000000,0.14560912,0.90513280,-0.12011193,-0.68083642,0.77354329,0.55410631,-0.40422881,-0.24564667,-0.89603498,0.23218192,-0.49934563,-0.57231069,0.35573379,0.53749327
0.84000000,0.14560912,0.90513280,-0.12011193,-0.68083642,0.77354329,0.55410631,-0.40422881,-0.24564667,-0.89603498,0.23218192,-0.49934563,-0.57231069,0.35573379,0.53749327
0.86000000,0.14560912,0.90513280,-0.12011193,-0.68083642,0.77354329,0.55410631,-0.40422881,-0.24564667,-0.89603498,0.23218192,-0.49934563,-0.57231069,0.35573379,0.53749327
0.88000000,0.14560912,0.90513280,-0.12011193,-0.68083642,0.77354329,0.55410631,-0.40422881,-0.24564667,-0.89603498,0.23218192,-0.49934563,-0.57231069,0.35573379,0.53749327
0.90000000,0.14560912,0.90513280,-0.12011193,-0.68083642,0.77354329,0.55410631,-0.40422881,-0.24564667,-0.89603498,0.23218192,-0.49934563,-0.57231069,0.35573379,0.53749327
0.92000000,0.14560912,0.90513280,-0.12011193,-0.68083642,0.77354329,0.55410631,-0.40422881,-0.24564667,-0.89603498,0.23218192,-0.49934563,-0.57231069,0.35573379,0.53749327
0.94000000,0.14560912,0.90513280,-0.12011193,-0.68083642,0.77354329,0.55410631,-0.40422881,-0.24564667,-0.89603498,0.23218192,-0.49934563,-0.57231069,0.35573379,0.53749327
0.96000000,0.14560912,0.90513280,-0.12011193,-0.68083642,0.77354329,0.55410631,-0.40422881,-0.24564667,-0.89603498,0.23218192,-0.49934563,-0.57231069,0.35573379,0.53749327
0.98000000,0.14560912,0.90513280,-0.12011193,-0.68083642,0.77354329,0.55410631,-0.40422881,-0.24564667,-0.89603498,0.23218192,-0.49934563,-0.57231069,0.35573379,0.53749327
1.00000000,0.14560912,0.90513280,-0.12011193,-0.68083642,0.77354329,0.55410631,-0.40422881,-0.24564667,-0.89603498,0.23218192,-0.49934563,-0.57231069,0.35573379,0.53749327
1.02000000,0.14560912,0.90513280,-0.12011193,-0.68083642,0.77354329,0.55410631,-0.40422881,-0.24564667,-0.89603498,0.23218192,-0.49934563,-0.57231069,0.35573379,0.53749327
1.04000000,0.14560912,0.90513280,-0.12011193,-0.68083642,0.77354329,0.55410631,-0.40422881,-0.24564667,-0.89603498,0.23218192,-0.49934563,-0.57231069,0.35573379,0.53749327
1.06000000,0.14560912,0.90513280,-0.12011193,-0.68083642,0.77354329,0.55410631,-0.40422881,-0.24564667,-0.89603498,0.23218192,-0.49934563,-0.57231069,0.35573379,0.53749327
1.08000000,0.14560912,0.90513280,-0.12011193,-0.68083642,0.77354329,0.55410631,-0.40422881,-0.24564667,-0.89603498,0.23218192,-0.49934563,-0.57231069,0.35573379,0.53749327
1.10000000,0.14560912,0.90513280,-0.12011193,-0.68083642,0.77354329,0.55410631,-0.40422881,-0.24564667,-0.89603498,0.23218192,-0.49934563,-0.57231069,0.35573379,0.53749327
1.12000000,0.14560912,0.90513280,-0.12011193,-0.68083642,0.77354329,0.55410631,-0.40422881,-0.24564667,-0.89603498,0.23218192,-0.49934563,-0.57231069,0.35573379,0.53749327
1.14000000,0.14560912,0.90513280,-0.12011193,-0.68083642,0.77354329,0.55410631,-0.40422881,-0.24564667,-0.89603498,0.23218192,-0.49934563,-0.57231069,0.35573379,0.53749327
1.16000000,0.14560912,0.90513280,-0.12011193,-0.68083642,0.77354329,0.55410631,-0.40422881,-0.24564667,-0.89603498,0.23218192,-0.49934563,-0.57231069,0.35573379,0.53749327
1.18000000,0.14560912,0.90513280,-0.12011193,-0.68083642,0.77354329,0.55410631,-0.40422881,-0.24564667,-0.89603498,0.23218192,-0.49934563,-0.57231069,0.35573379,0.53749327
1.20000000,0.14560912,0.90513280,-0.12011193,-0.68083642,0.77354329,0.55410631,-0.40422881,-0.24564667,-0.89603498,0.23218192,-0.49934563,-0.57231069,0.35573379,0.53749327
1.22000000,0.14560912,0.90513280,-0.12011193,-0.68083642,0.77354329,0.55410631,-0.40422881,-0.24564667,-0.89603498,0.23218192,-0.49934563,-0.57231069,0.35573379,0.53749327
1.24000000,0.14560912,0.90513280,-0.12011193,-0.68083642,0.77354329,0.55410631,-0.40422881,-0.24564667,-0.89603498,0.23218192,-0.49934563,-0.57231069,0.35573379,0.53749327
1.26000000,0.14560912,0.90513280,-0.12011193,-0.68083642,0.77354329,0.55410631,-0.40422881,-0.24564667,-0.89603498,0.23218192,-0.49934563,-0.57231069,0.35573379,0.53749327
1.28000000,0.14560912,0.90513280,-0.12011193,-0.68083642,0.77354329,0.55410631,-0.40422881,-0.24564667,-0.89603498,0.23218192,-0.49934563,-0.57231069,0.35573379,0.53749327
1.30000000,0.14560912,0.90513280,-0.12011193,-0.68083642,0.77354329,0.55410631,-0.40422881,-0.24564667,-0.89603498,0.23218192,-0.49934563,-0.57231069,0.35573379,0.53749327
1.32000000,0.14560912,0.90513280,-0.12011193,-0.68083642,0.77354329,0.55410631,-0.40422881,-0.24564667,-0.89603498,0.23218192,-0.49934563,-0.57231069,0.35573379,0.53749327
1.34000000,0.14560912,0.90513280,-0.12011193,-0.68083642,0.77354329,0.55410631,-0.40422881,-0.24564667,-0.89603498,0.23218192,-0.49934563,-0.57231069,0.35573379,0.53749327
1.36000000,0.14560912,0.90513280,-0.12011193,-0.68083642,0.77354329,0.55410631,-0.40422881,-0.24564667,-0.89603498,0.23218192,-0.49934563,-0.57231069,0.35573379,0.53749327
1.38000000,0.14560912,0.90513280,-0.12011193,-0.68083642,0.77354329,0.55410631,-0.40422881,-0.24564667,-0.89603498,0.23218192,-0.49934563,-0.57231069,0.35573379,0.53749327
1.40000000,0.14560912,0.90513280,-0.12011193,-0.68083642,0.77354329,0.55410631,-0.40422881,-0.24564667,-0.89603498,0.23218192,-0.49934563,-0.57231069,0.35573379,0.53749327
1.42000000,0.14560912,0.90513280,-0.12011193,-0.68083642,0.77354329,0.55410631,-0.40422881,-0.24564667,-0.89603498,0.23218192,-0.49934563,-0.57231069,0.35573379,0.53749327
1.44000000,0.14560912,0.90513280,-0.12011193,-0.68083642,0.77354329,0.55410631,-0.40422881,-0.24564667,-0.89603498,0.23218192,-0.49934563,-0.57231069,0.35573379,0.53749327
1.46000000,0.14560912,0.90513280,-0.12011193,-0.68083642,0.77354329,0.55410631,-0.40422881,-0.24564667,-0.89603498,0.23218192,-0.49934563,-0.57231069,0.35573379,0.53749327
1.48000000,0.14560912,0.90513280,-0.12011193,-0.68083642,0.77354329,0.55410631,-0.40422881,-0.24564667,-0.89603498,0.23218192,-0.49934563,-0.57231069,0.35573379,0.53749327
1.50000000,0.14560912,0.90513280,-0.12011193,-0.68083642,0.77354329,0.55410631,-0.40422881,-0.24564667,-0.89603498,0.23218192,-0.49934563,-0.57231069,0.35573379,0.53749327
1.52000000,0.14560912,0.90513280,-0.12011193,-0.68083642,0.77354329,0.55410631,-0.40422881,-0.24564667,-0.89603498,0.23218192,-0.49934563,-0.57231069,0.35573379,0.53749327
1.54000000,0.14560912,0.90513280,-0.12011193,-0.68083642,0.77354329,0.55410631,-0.40422881,-0.24564667,-0.89603498,0.23218192,-0.49934563,-0.57231069,0.35573379,0.53749327
1.56000000,0.14560912,0.90513280,-0.12011193,-0.68083642,0.77354329,0.55410631,-0.40422881,-0.24564667,-0.89603498,0.23218192,-0.49934563,-0.57231069,0.35573379,0.53749327
1.58000000,0.14560912,0.90513280,-0.12011193,-0.68083642,0.77354329,0.55410631,-0.40422881,-0.24564667,-0.89603498,0.23218192,-0.49934563,-0.57231069,0.35573379,0.53749327
1.60000000,0.14560912,0.90513280,-0.12011193,-0.68083642,0.77354329,0.55410631,-0.40422881,-0.24564667,-0.89603498,0.23218192,-0.49934563,-0.57231069,0.35573379,0.53749327
1.62000000,0.14560912,0.90513280,-0.12011193,-0.68083642,0.77354329,0.55410631,-0.40422881,-0.24564667,-0.89603498,0.23218192,-0.49934563,-0.57231069,0.35573379,0.53749327
1.64000000,0.14560912,0.90513280,-0.12011193,-0.68083642,0.77354329,0.55410631,-0.40422881,-0.24564667,-0.89603498,0.23218192,-0.49934563,-0.57231069,0.35573379,0.53749327
1.66000000,0.14560912,0.90513280,-0.12011193,-0.68083642,0.77354329,0.55410631,-0.40422881,-0.24564667,-0.89603498,0.23218192,-0.49934563,-0.57231069,0.35573379,0.53749327
1.68000000,0.14560912,0.90513280,-0.12011193,-0.68083642,0.77354329,0.55410631,-0.40422881,-0.24564667,-0.89603498,0.23218192,-0.49934563,-0.57231069,0.35573379,0.53749327
1.70000000,0.14560912,0.90513280,-0.12011193,-0.68083642,0.77354329,0.55410631,-0.40422881,-0.24564667,-0.89603498,0.23218192,-0.49934563,-0.57231069,0.35573379,0.53749327
1.72000000,0.14560912,0.90513280,-0.12011193,-0.68083642,0.77354329,0.55410631,-0.40422881,-0.24564667,-0.89603498,0.23218192,-0.49934563,-0.57231069,0.35573379,0.53749327
1.74000000,0.14560912,0.90513280,-0.12011193,-0.68083642,0.77354329,0.55410631,-0.40422881,-0.24564667,-0.89603498,0.23218192,-0.49934563,-0.57231069,0.35573379,0.53749327
1.76000000,0.14560912,0.90513280,-0.12011193,-0.68083642,0.77354329,0.55410631,-0.40422881,-0.24564667,-0.89603498,0.23218192,-0.49934563,-0.57231069,0.35573379,0.53749327
1.78000000,0.14560912,0.90513280,-0.12011193,-0.68083642,0.77354329,0.55410631,-0.40422881,-0.24564667,-0.89603498,0.23218192,-0.49934563,-0.57231069,0.35573379,0.53749327
1.80000000,0.14560912,0.90513280,-0.12011193,-0.68083642,0.77354329,0.55410631,-0.40422881,-0.24564667,-0.89603498,0.23218192,-0.49934563,-0.57231069,0.35573379,0.53749327
1.82000000,0.14560912,0.90513280,-0.12011193,-0.68083642,0.77354329,0.55410631,-0.40422881,-0.24564667,-0.89603498,0.23218192,-0.49934563,-0.57231069,0.35573379,0.53749327
1.84000000,0.14560912,0.90513280,-0.12011193,-0.68083642,0.77354329,0.55410631,-0.40422881,-0.24564667,-0.89603498,0.23218192,-0.49934563,-0.57231069,0.35573379,0.53749327
1.86000000,0.14560912,0.90513280,-0.12011193,-0.68083642,0.77354329,0.55410631,-0.40422881,-0.24564667,-0.89603498,0.23218192,-0.49934563,-0.57231069,0.35573379,0.53749327
1.88000000,0.14560912,0.90513280,-0.12011193,-0.68083642,0.77354329,0.55410631,-0.40422881,-0.24564667,-0.89603498,0.23218192,-0.49934563,-0.57231069,0.35573379,0.53749327
1.90000000,0.14560912,0.90513280,-0.12011193,-0.68083642,0.77354329,0.55410631,-0.40422881,-0.24564667,-0.89603498,0.23218192,-0.49934563,-0.57231069,0.35573379,0.53749327
1.92000000,0.14560912,0.90513280,-0.12011193,-0.68083642,0.77354329,0.55410631,-0.40422881,-0.24564667,-0.89603498,0.23218192,-0.49934563,-0.57231069,0.35573379,0.53749327
1.94000000,0.14560912,0.90513280,-0.12011193,-0.68083642,0.77354329,0.55410631,-0.40422881,-0.24564667,-0.89603498,0.23218192,-0.49934563,-0.57231069,0.35573379,0.53749327
1.96000000,0.14560912,0.90513280,-0.12011193,-0.68083642,0.77354329,0.55410631,-0.40422881,-0.24564667,-0.89603498,0.23218192,-0.49934563,-0.57231069,0.35573379,0.53749327
1.98000000,0.14560912,0.90513280,-0.12011193,-0.68083642,0.77354329,0.55410631,-0.40422881,-0.24564667,-0.89603498,0.23218192,-0.49934563,-0.57231069,0.35573379,0.53749327
2.00000000,0.14560912,0.90513280,-0.12011193,-0.68083642,0.77354329,0.55410631,-0.40422881,-0.24564667,-0.89603498,0.23218192,-0.49934563,-0.57231069,0.35573379,0.53749327
2.02000000,0.14560912,0.90513280,-0.12011193,-0.68083642,0.77354329,0.55410631,-0.40422881,-0.24564667,-0.89603498,0.23218192,-0.49934563,-0.57231069,0.35573379,0.53749327
2.04000000,0.14560912,0.90513280,-0.12011193,-0.68083642,0.77354329,0.55410631,-0.40422881,-0.24564667,-0.89603498,0.23218192,-0.49934563,-0.57231069,0.35573379,0.53749327
2.06000000,0.14560912,0.90513280,-0.12011193,-0.68083642,0.77354329,0.55410631,-0.40422881,-0.24564667,-0.89603498,0.23218192,-0.49934563,-0.57231069,0.35573379,0.53749327
2.08000000,0.14560912,0.90513280,-0.12011193,-0.68083642,0.77354329,0.55410631,-0.40422881,-0.24564667,-0.89603498,0.23218192,-0.49934563,-0.57231069,0.35573379,0.53749327
2.10000000,0.14560912,0.90513280,-0.12011193,-0.68083642,0.77354329,0.55410631,-0.40422881,-0.24564667,-0.89603498,0.23218192,-0.49934563,-0.57231069,0.35573379,0.53749327
2.12000000,0.14560912,0.90513280,-0.12011193,-0.68083642,0.77354329,0.55410631,-0.40422881,-0.24564667,-0.89603498,0.23218192,-0.49934563,-0.57231069,0.35573379,0.53749327
2.14000000,0.14560912,0.90513280,-0.12011193,-0.68083642,0.77354329,0.55410631,-0.40422881,-0.24564667,-0.89603498,0.23218192,-0.49934563,-0.57231069,0.35573379,0.53749327
2.16000000,0.14560912,0.90513280,-0.12011193,-0.68083642,0.77354329,0.55410631,-0.40422881,-0.24564667,-0.89603498,0.23218192,-0.49934563,-0.57231069,0.35573379,0.53749327
2.18000000,0.14560912,0.90513280,-0.12011193,-0.68083642,0.77354329,0.55410631,-0.40422881,-0.24564667,-0.89603498,0.23218192,-0.49934563,-0.57231069,0.35573379,0.53749327
2.20000000,0.14560912,0.90513280,-0.12011193,-0.68083642,0.77354329,0.55410631,-0.40422881,-0.24564667,-0.89603498,0.23218192,-0.49934563,-0.57231069,0.35573379,0.53749327
2.22000000,0.14560912,0.90513280,-0.12011193,-0.68083642,0.77354329,0.55410631,-0.40422881,-0.24564667,-0.89603498,0.23218192,-0.49934563,-0.57231069,0.35573379,0.53749327
2.24000000,0.14560912,0.90513280,-0.12011193,-0.68083642,0.77354329,0.55410631,-0.40422881,-0.24564667,-0.89603498,0.23218192,-0.49934563,-0.57231069,0.35573379,0.53749327
2.26000000,0.14560912,0.90513280,-0.12011193,-0.68083642,0.77354329,0.55410631,-0.40422881,-0.24564667,-0.89603498,0.23218192,-0.49934563,-0.57231069,0.35573379,0.53749327
2.28000000,0.14560912,0.90513280,-0.12011193,-0.68083642,0.77354329,0.55410631,-0.40422881,-0.24564667,-0.89603498,0.23218192,-0.49934563,-0.57231069,0.35573379,0.53749327
2.30000000,0.14560912,0.90513280,-0.12011193,-0.68083642,0.77354329,0.55410631,-0.40422881,-0.24564667,-0.89603498,0.23218192,-0.49934563,-0.57231069,0.35573379,0.53749327
2.32000000,0.14560912,0.90513280,-0.12011193,-0.68083642,0.77354329,0.55410631,-0.40422881,-0.24564667,-0.89603498,0.23218192,-0.49934563,-0.57231069,0.35573379,0.53749327
2.34000000,0.14560912,0.90513280,-0.12011193,-0.68083642,0.77354329,0.55410631,-0.40422881,-0.24564667,-0.89603498,0.23218192,-0.49934563,-0.57231069,0.35573379,0.53749327
2.36000000,0.14560912,0.90513280,-0.12011193,-0.68083642,0.77354329,0.55410631,-0.40422881,-0.24564667,-0.89603498,0.23218192,-0.49934563,-0.57231069,0.35573379,0.53749327
2.38000000,0.14560912,0.90513280,-0.12011193,-0.68083642,0.77354329,0.55410631,-0.40422881,-0.24564667,-0.89603498,0.23218192,-0.49934563,-0.57231069,0.35573379,0.53749327
2.40000000,0.14560912,0.90513280,-0.12011193,-0.68083642,0.77354329,0.55410631,-0.40422881,-0.24564667,-0.89603498,0.23218192,-0.49934563,-0.57231069,0.35573379,0.53749327
2.42000000,0.14560912,0.90513280,-0.12011193,-0.68083642,0.77354329,0.55410631,-0.40422881,-0.24564667,-0.89603498,0.23218192,-0.49934563,-0.57231069,0.35573379,0.53749327
2.44000000,0.14560912,0.90513280,-0.12011193,-0.68083642,0.77354329,0.55410631,-0.40422881,-0.24564667,-0.89603498,0.23218192,-0.49934563,-0.57231069,0.35573379,0.53749327
2.46000000,0.14560912,0.90513280,-0.12011193,-0.68083642,0.77354329,0.55410631,-0.40422881,-0.24564667,-0.89603498,0.23218192,-0.49934563,-0.57231069,0.35573379,0.53749327
2.48000000,0.14560912,0.90513280,-0.12011193,-0.68083642,0.77354329,0.55410631,-0.40422881,-0.24564667,-0.89603498,0.23218192,-0.49934563,-0.57231069,0.35573379,0.53749327
2.50000000,0.14560912,0.90513280,-0.12011193,-0.68083642,0.77354329,0.55410631,-0.40422881,-0.24564667,-0.89603498,0.23218192,-0.49934563,-0.57231069,0.35573379,0.53749327
2.52000000,0.14560912,0.90513280,-0.12011193,-0.68083642,0.77354329,0.55410631,-0.40422881,-0.24564667,-0.89603498,0.23218192,-0.49934563,-0.57231069,0.35573379,0.53749327
2.54000000,0.14560912,0.90513280,-0.12011193,-0.68083642,0.77354329,0.55410631,-0.40422881,-0.24564667,-0.89603498,0.23218192,-0.49934563,-0.57231069,0.35573379,0.53749327
2.56000000,0.14560912,0.90513280,-0.12011193,-0.68083642,0.77354329,0.55410631,-0.40422881,-0.24564667,-0.89603498,0.23218192,-0.49934563,-0.57231069,0.35573379,0.53749327
2.58000000,0.14560912,0.90513280,-0.12011193,-0.68083642,0.77354329,0.55410631,-0.40422881,-0.24564667,-0.89603498,0.23218192,-0.49934563,-0.57231069,0.35573379,0.53749327
2.60000000,0.14560912,0.90513280,-0.12011193,-0.68083642,0.77354329,0.55410631,-0.40422881,-0.24564667,-0.89603498,0.23218192,-0.49934563,-0.57231069,0.35573379,0.53749327
2.62000000,0.14560912,0.90513280,-0.12011193,-0.68083642,0.77354329,0.55410631,-0.40422881,-0.24564667,-0.89603498,0.23218192,-0.49934563,-0.57231069,0.35573379,0.53749327
2.64000000,0.14560912,0.90513280,-0.12011193,-0.68083642,0.77354329,0.55410631,-0.40422881,-0.24564667,-0.89603498,0.23218192,-0.49934563,-0.57231069,0.35573379,0.53749327
2.66000000,0.14560912,0.90513280,-0.12011193,-0.68083642,0.77354329,0.55410631,-0.40422881,-0.24564667,-0.89603498,0.23218192,-0.49934563,-0.57231069,0.35573379,0.53749327
2.68000000,0.14560912,0.90513280,-0.12011193,-0.68083642,0.77354329,0.55410631,-0.40422881,-0.24564667,-0.89603498,0.23218192,-0.49934563,-0.57231069,0.35573379,0.53749327
2.70000000,0.14560912,0.90513280,-0.12011193,-0.68083642,0.77354329,0.55410631,-0.40422881,-0.24564667,-0.89603498,0.23218192,-0.49934563,-0.57231069,0.35573379,0.53749327
2.72000000,0.14560912,0.90513280,-0.12011193,-0.68083642,0.77354329,0.55410631,-0.40422881,-0.24564667,-0.89603498,0.23218192,-0.49934563,-0.57231069,0.35573379,0.53749327
2.74000000,0.14560912,0.90513280,-0.12011193,-0.68083642,0.77354329,0.55410631,-0.40422881,-0.24564667,-0.89603498,0.23218192,-0.49934563,-0.57231069,0.35573379,0.53749327
2.76000000,0.14560912,0.90513280,-0.12011193,-0.68083642,0.77354329,0.55410631,-0.40422881,-0.24564667,-0.89603498,0.23218192,-0.49934563,-0.57231069,0.35573379,0.53749327
2.78000000,0.14560912,0.90513280,-0.12011193,-0.68083642,0.77354329,0.55410631,-0.40422881,-0.24564667,-0.89603498,0.23218192,-0.49934563,-0.57231069,0.35573379,0.53749327
2.80000000,0.14560912,0.90513280,-0.12011193,-0.68083642,0.77354329,0.55410631,-0.40422881,-0.24564667,-0.89603498,0.23218192,-0.49934563,-0.57231069,0.35573379,0.53749327
2.82000000,0.14560912,0.90513280,-0.12011193,-0.68083642,0.77354329,0.55410631,-0.40422881,-0.24564667,-0.89603498,0.23218192,-0.49934563,-0.57231069,0.35573379,0.53749327
2.84000000,0.14560912,0.90513280,-0.12011193,-0.68083642,0.77354329,0.55410631,-0.40422881,-0.24564667,-0.89603498,0.23218192,-0.49934563,-0.57231069,0.35573379,0.53749327
2.86000000,0.14560912,0.90513280,-0.12011193,-0.68083642,0.77354329,0.55410631,-0.40422881,-0.24564667,-0.89603498,0.23218192,-0.49934563,-0.57231069,0.35573379,0.53749327
2.88000000,0.14560912,0.90513280,-0.12011193,-0.68083642,0.77354329,0.55410631,-0.40422881,-0.24564667,-0.89603498,0.23218192,-0.49934563,-0.57231069,0.35573379,0.53749327
2.90000000,0.14560912,0.90513280,-0.12011193,-0.68083642,0.77354329,0.55410631,-0.40422881,-0.24564667,-0.89603498,0.23218192,-0.49934563,-0.57231069,0.35573379,0.53749327
2.92000000,0.14560912,0.90513280,-0.12011193,-0.68083642,0.77354329,0.55410631,-0.40422881,-0.24564667,-0.89603498,0.23218192,-0.49934563,-0.57231069,0.35573379,0.53749327
2.94000000,0.14560912,0.90513280,-0.12011193,-0.68083642,0.77354329,0.55410631,-0.40422881,-0.24564667,-0.89603498,0.23218192,-0.49934563,-0.57231069,0.35573379,0.53749327
2.96000000,0.14560912,0.90513280,-0.12011193,-0.68083642,0.77354329,0.55410631,-0.40422881,-0.24564667,-0.89603498,0.23218192,-0.49934563,-0.57231069,0.35573379,0.53749327
2.98000000,0.14560912,0.90513280,-0.12011193,-0.68083642,0.77354329,0.55410631,-0.40422881,-0.24564667,-0.89603498,0.23218192,-0.49934563,-0.57231069,0.35573379,0.53749327
3.00000000,0.14560912,0.90513280,-0.12011193,-0.68083642,0.77354329,0.55410631,-0.40422881,-0.24564667,-0.89603498,0.23218192,-0.49934563,-0.57231069,0.35573379,0.53749327
3.02000000,0.14560912,0.90513280,-0.12011193,-0.68083642,0.77354329,0.55410631,-0.40422881,-0.24564667,-0.89603498,0.23218192,-0.49934563,-0.57231069,0.35573379,0.53749327
3.04000000,0.14560912,0.90513280,-0.12011193,-0.68083642,0.77354329,0.55410631,-0.40422881,-0.24564667,-0.89603498,0.23218192,-0.49934563,-0.57231069,0.35573379,0.53749327
3.06000000,0.14560912,0.90513280,-0.12011193,-0.68083642,0.77354329,0.55410631,-0.40422881,-0.24564667,-0.89603498,0.23218192,-0.49934563,-0.57231069,0.35573379,0.53749327
3.08000000,0.14560912,0.90513280,-0.12011193,-0.68083642,0.77354329,0.55410631,-0.40422881,-0.24564667,-0.89603498,0.23218192,-0.49934563,-0.57231069,0.35573379,0.53749327
3.10000000,0.14560912,0.90513280,-0.12011193,-0.68083642,0.77354329,0.55410631,-0.40422881,-0.24564667,-0.89603498,0.23218192,-0.49934563,-0.57231069,0.35573379,0.53749327
3.12000000,0.14560912,0.90513280,-0.12011193,-0.68083642,0.77354329,0.55410631,-0.40422881,-0.24564667,-0.89603498,0.23218192,-0.49934563,-0.57231069,0.35573379,0.53749327
3.14000000,0.14560912,0.90513280,-0.12011193,-0.68083642,0.77354329,0.55410631,-0.40422881,-0.24564667,-0.89603498,0.23218192,-0.49934563,-0.57231069,0.35573379,0.53749327
3.16000000,0.14560912,0.90513280,-0.12011193,-0.68083642,0.77354329,0.55410631,-0.40422881,-0.24564667,-0.89603498,0.23218192,-0.49934563,-0.57231069,0.35573379,0.53749327
3.18000000,0.14560912,0.90513280,-0.12011193,-0.68083642,0.77354329,0.55410631,-0.40422881,-0.24564667,-0.89603498,0.23218192,-0.49934563,-0.57231069,0.35573379,0.53749327
3.20000000,0.14560912,0.90513280,-0.12011193,-0.68083642,0.77354329,0.55410631,-0.40422881,-0.24564667,-0.89603498,0.23218192,-0.49934563,-0.57231069,0.35573379,0.53749327
3.22000000,0.14560912,0.90513280,-0.12011193,-0.68083642,0.77354329,0.55410631,-0.40422881,-0.24564667,-0.89603498,0.23218192,-0.49934563,-0.57231069,0.35573379,0.53749327
3.24000000,0.14560912,0.90513280,-0.12011193,-0.68083642,0.77354329,0.55410631,-0.40422881,-0.24564667,-0.89603498,0.23218192,-0.49934563,-0.57231069,0.35573379,0.53749327
3.26000000,0.14560912,0.90513280,-0.12011193,-0.68083642,0.77354329,0.55410631,-0.40422881,-0.24564667,-0.89603498,0.23218192,-0.49934563,-0.57231069,0.35573379,0.53749327
3.28000000,0.14560912,0.90513280,-0.12011193,-0.68083642,0.77354329,0.55410631,-0.40422881,-0.24564667,-0.89603498,0.23218192,-0.49934563,-0.57231069,0.35573379,0.53749327
3.30000000,0.14560912,0.90513280,-0.12011193,-0.68083642,0.77354329,0.55410631,-0.40422881,-0.24564667,-0.89603498,0.23218192,-0.49934563,-0.57231069,0.35573379,0.53749327
3.32000000,0.14560912,0.90513280,-0.12011193,-0.68083642,0.77354329,0.55410631,-0.40422881,-0.24564667,-0.89603498,0.23218192,-0.49934563,-0.57231069,0.35573379,0.53749327
3.34000000,0.14560912,0.90513280,-0.12011193,-0.68083642,0.77354329,0.55410631,-0.40422881,-0.24564667,-0.89603498,0.23218192,-0.49934563,-0.57231069,0.35573379,0.53749327
3.36000000,0.14560912,0.90513280,-0.12011193,-0.68083642,0.77354329,0.55410631,-0.40422881,-0.24564667,-0.89603498,0.23218192,-0.49934563,-0.57231069,0.35573379,0.53749327
3.38000000,0.14560912,0.90513280,-0.12011193,-0.68083642,0.77354329,0.55410631,-0.40422881,-0.24564667,-0.89603498,0.23218192,-0.49934563,-0.57231069,0.35573379,0.53749327
3.40000000,0.14560912,0.90513280,-0.12011193,-0.68083642,0.77354329,0.55410631,-0.40422881,-0.24564667,-0.89603498,0.23218192,-0.49934563,-0.57231069,0.35573379,0.53749327
3.42000000,0.14560912,0.90513280,-0.12011193,-0.68083642,0.77354329,0.55410631,-0.40422881,-0.24564667,-0.89603498,0.23218192,-0.49934563,-0.57231069,0.35573379,0.53749327
3.44000000,0.14560912,0.90513280,-0.12011193,-0.68083642,0.77354329,0.55410631,-0.40422881,-0.24564667,-0.89603498,0.23218192,-0.49934563,-0.57231069,0.35573379,0.53749327
3.46000000,0.14560912,0.90513280,-0.12011193,-0.68083642,0.77354329,0.55410631,-0.40422881,-0.24564667,-0.89603498,0.23218192,-0.49934563,-0.57231069,0.35573379,0.53749327
3.48000000,0.14560912,0.90513280,-0.12011193,-0.68083642,0.77354329,0.55410631,-0.40422881,-0.24564667,-0.89603498,0.23218192,-0.49934563,-0.57231069,0.35573379,0.53749327
3.50000000,0.14560912,0.90513280,-0.12011193,-0.68083642,0.77354329,0.55410631,-0.40422881,-0.24564667,-0.89603498,0.23218192,-0.49934563,-0.57231069,0.35573379,0.53749327
3.52000000,0.14560912,0.90513280,-0.12011193,-0.68083642,0.77354329,0.55410631,-0.40422881,-0.24564667,-0.89603498,0.23218192,-0.49934563,-0.57231069,0.35573379,0.53749327
3.54000000,0.14560912,0.90513280,-0.12011193,-0.68083642,0.77354329,0.55410631,-0.40422881,-0.24564667,-0.89603498,0.23218192,-0.49934563,-0.57231069,0.35573379,0.53749327
3.56000000,0.14560912,0.90513280,-0.12011193,-0.68083642,0.77354329,0.55410631,-0.40422881,-0.24564667,-0.89603498,0.23218192,-0.49934563,-0.57231069,0.35573379,0.53749327
3.58000000,0.14560912,0.90513280,-0.12011193,-0.68083642,0.77354329,0.55410631,-0.40422881,-0.24564667,-0.89603498,0.23218192,-0.49934563,-0.57231069,0.35573379,0.53749327
3.60000000,0.14560912,0.90513280,-0.12011193,-0.68083642,0.77354329,0.55410631,-0.40422881,-0.24564667,-0.89603498,0.23218192,-0.49934563,-0.57231069,0.35573379,0.53749327
3.62000000,0.14560912,0.90513280,-0.12011193,-0.68083642,0.77354329,0.55410631,-0.40422881,-0.24564667,-0.89603498,0.23218192,-0.49934563,-0.57231069,0.35573379,0.53749327
3.64000000,0.14560912,0.90513280,-0.12011193,-0.68083642,0.77354329,0.55410631,-0.40422881,-0.24564667,-0.89603498,0.23218192,-0.49934563,-0.57231069,0.35573379,0.53749327
3.66000000,0.14560912,0.90513280,-0.12011193,-0.68083642,0.77354329,0.55410631,-0.40422881,-0.24564667,-0.89603498,0.23218192,-0.49934563,-0.57231069,0.35573379,0.53749327
3.68000000,0.14560912,0.90513280,-0.12011193,-0.68083642,0.77354329,0.55410631,-0.40422881,-0.24564667,-0.89603498,0.23218192,-0.49934563,-0.57231069,0.35573379,0.53749327
3.70000000,0.14560912,0.90513280,-0.12011193,-0.68083642,0.77354329,0.55410631,-0.40422881,-0.24564667,-0.89603498,0.23218192,-0.49934563,-0.57231069,0.35573379,0.53749327
3.72000000,0.14560912,0.90513280,-0.12011193,-0.68083642,0.77354329,0.55410631,-0.40422881,-0.24564667,-0.89603498,0.23218192,-0.49934563,-0.57231069,0.35573379,0.53749327
3.74000000,0.14560912,0.90513280,-0.12011193,-0.68083642,0.77354329,0.55410631,-0.40422881,-0.24564667,-0.89603498,0.23218192,-0.49934563,-0.57231069,0.35573379,0.53749327
3.76000000,0.14560912,0.90513280,-0.12011193,-0.68083642,0.77354329,0.55410631,-0.40422881,-0.24564667,-0.89603498,0.23218192,-0.49934563,-0.57231069,0.35573379,0.53749327
3.78000000,0.14560912,0.90513280,-0.12011193,-0.68083642,0.77354329,0.55410631,-0.40422881,-0.24564667,-0.89603498,0.23218192,-0.49934563,-0.57231069,0.35573379,0.53749327
3.80000000,0.14560912,0.90513280,-0.12011193,-0.68083642,0.77354329,0.55410631,-0.40422881,-0.24564667,-0.89603498,0.23218192,-0.49934563,-0.57231069,0.35573379,0.53749327
3.82000000,0.14560912,0.90513280,-0.12011193,-0.68083642,0.77354329,0.55410631,-0.40422881,-0.24564667,-0.89603498,0.23218192,-0.49934563,-0.57231069,0.35573379,0.53749327
3.84000000,0.14560912,0.90513280,-0.12011193,-0.68083642,0.77354329,0.55410631,-0.40422881,-0.24564667,-0.89603498,0.23218192,-0.49934563,-0.57231069,0.35573379,0.53749327
3.86000000,0.14560912,0.90513280,-0.12011193,-0.68083642,0.77354329,0.55410631,-0.40422881,-0.24564667,-0.89603498,0.23218192,-0.49934563,-0.57231069,0.35573379,0.53749327
3.88000000,0.14560912,0.90513280,-0.12011193,-0.68083642,0.77354329,0.55410631,-0.40422881,-0.24564667,-0.89603498,0.23218192,-0.49934563,-0.57231069,0.35573379,0.53749327
3.90000000,0.14560912,0.90513280,-0.12011193,-0.68083642,0.77354329,0.55410631,-0.40422881,-0.24564667,-0.89603498,0.23218192,-0.49934563,-0.57231069,0.35573379,0.53749327
3.92000000,0.14560912,0.90513280,-0.12011193,-0.68083642,0.77354329,0.55410631,-0.40422881,-0.24564667,-0.89603498,0.23218192,-0.49934563,-0.57231069,0.35573379,0.53749327
3.94000000,0.14560912,0.90513280,-0.12011193,-0.68083642,0.77354329,0.55410631,-0.40422881,-0.24564667,-0.89603498,0.23218192,-0.49934563,-0.57231069,0.35573379,0.53749327
3.96000000,0.14560912,0.90513280,-0.12011193,-0.68083642,0.77354329,0.55410631,-0.40422881,-0.24564667,-0.89603498,0.23218192,-0.49934563,-0.57231069,0.35573379,0.53749327
3.98000000,0.14560912,0.90513280,-0.12011193,-0.68083642,0.77354329,0.55410631,-0.40422881,-0.24564667,-0.89603498,0.23218192,-0.49934563,-0.57231069,0.35573379,0.53749327
4.00000000,0.14560912,0.90513280,-0.12011193,-0.68083642,0.77354329,0.55410631,-0.40422881,-0.24564667,-0.89603498,0.23218192,-0.49934563,-0.57231069,0.35573379,0.53749327
4.02000000,0.14560912,0.90513280,-0.12011193,-0.68083642,0.77354329,0.55410631,-0.40422881,-0.24564667,-0.89603498,0.23218192,-0.49934563,-0.57231069,0.35573379,0.53749327
4.04000000,0.14560912,0.90513280,-0.12011193,-0.68083642,0.77354329,0.55410631,-0.40422881,-0.24564667,-0.89603498,0.23218192,-0.49934563,-0.57231069,0.35573379,0.53749327
4.06000000,0.14560912,0.90513280,-0.12011193,-0.68083642,0.77354329,0.55410631,-0.40422881,-0.24564667,-0.89603498,0.23218192,-0.49934563,-0.57231069,0.35573379,0.53749327
4.08000000,0.14560912,0.90513280,-0.12011193,-0.68083642,0.77354329,0.55410631,-0.40422881,-0.24564667,-0.89603498,0.23218192,-0.49934563,-0.57231069,0.35573379,0.53749327
4.10000000,0.14560912,0.90513280,-0.12011193,-0.68083642,0.77354329,0.55410631,-0.40422881,-0.24564667,-0.89603498,0.23218192,-0.49934563,-0.57231069,0.35573379,0.53749327
4.12000000,0.14560912,0.90513280,-0.12011193,-0.68083642,0.77354329,0.55410631,-0.40422881,-0.24564667,-0.89603498,0.23218192,-0.49934563,-0.57231069,0.35573379,0.53749327
4.14000000,0.14560912,0.90513280,-0.12011193,-0.68083642,0.77354329,0.55410631,-0.40422881,-0.24564667,-0.89603498,0.23218192,-0.49934563,-0.57231069,0.35573379,0.53749327
4.16000000,0.14560912,0.90513280,-0.12011193,-0.68083642,0.77354329,0.55410631,-0.40422881,-0.24564667,-0.89603498,0.23218192,-0.49934563,-0.57231069,0.35573379,0.53749327
4.18000000,0.14560912,0.90513280,-0.12011193,-0.68083642,0.77354329,0.55410631,-0.40422881,-0.24564667,-0.89603498,0.23218192,-0.49934563,-0.57231069,0.35573379,0.53749327
4.20000000,0.14560912,0.90513280,-0.12011193,-0.68083642,0.77354329,0.55410631,-0.40422881,-0.24564667,-0.89603498,0.23218192,-0.49934563,-0.57231069,0.35573379,0.53749327
4.22000000,0.14560912,0.90513280,-0.12011193,-0.68083642,0.77354329,0.55410631,-0.40422881,-0.24564667,-0.89603498,0.23218192,-0.49934563,-0.57231069,0.35573379,0.53749327
4.24000000,0.14560912,0.90513280,-0.12011193,-0.68083642,0.77354329,0.55410631,-0.40422881,-0.24564667,-0.89603498,0.23218192,-0.49934563,-0.57231069,0.35573379,0.53749327
4.26000000,0.14560912,0.90513280,-0.12011193,-0.68083642,0.77354329,0.55410631,-0.40422881,-0.24564667,-0.89603498,0.23218192,-0.49934563,-0.57231069,0.35573379,0.53749327
4.28000000,0.14560912,0.90513280,-0.12011193,-0.68083642,0.77354329,0.55410631,-0.40422881,-0.24564667,-0.89603498,0.23218192,-0.49934563,-0.57231069,0.35573379,0.53749327
4.30000000,0.14560912,0.90513280,-0.12011193,-0.68083642,0.77354329,0.55410631,-0.40422881,-0.24564667,-0.89603498,0.23218192,-0.49934563,-0.57231069,0.35573379,0.53749327
4.32000000,0.14560912,0.90513280,-0.12011193,-0.68083642,0.77354329,0.55410631,-0.40422881,-0.24564667,-0.89603498,0.23218192,-0.49934563,-0.57231069,0.35573379,0.53749327
4.34000000,0.14560912,0.90513280,-0.12011193,-0.68083642,0.77354329,0.55410631,-0.40422881,-0.24564667,-0.89603498,0.23218192,-0.49934563,-0.57231069,0.35573379,0.53749327
4.36000000,0.14560912,0.90513280,-0.12011193,-0.68083642,0.77354329,0.55410631,-0.40422881,-0.24564667,-0.89603498,0.23218192,-0.49934563,-0.57231069,0.35573379,0.53749327
4.38000000,0.14560912,0.90513280,-0.12011193,-0.68083642,0.77354329,0.55410631,-0.40422881,-0.24564667,-0.89603498,0.23218192,-0.49934563,-0.57231069,0.35573379,0.53749327
4.40000000,0.14560912,0.90513280,-0.12011193,-0.68083642,0.77354329,0.55410631,-0.40422881,-0.24564667,-0.89603498,0.23218192,-0.49934563,-0.57231069,0.35573379,0.53749327
4.42000000,0.14560912,0.90513280,-0.12011193,-0.68083642,0.77354329,0.55410631,-0.40422881,-0.24564667,-0.89603498,0.23218192,-0.49934563,-0.57231069,0.35573379,0.53749327
4.44000000,0.14560912,0.90513280,-0.12011193,-0.68083642,0.77354329,0.55410631,-0.40422881,-0.24564667,-0.89603498,0.23218192,-0.49934563,-0.57231069,0.35573379,0.53749327
4.46000000,0.14560912,0.90513280,-0.12011193,-0.68083642,0.77354329,0.55410631,-0.40422881,-0.24564667,-0.89603498,0.23218192,-0.49934563,-0.57231069,0.35573379,0.53749327
4.48000000,0.14560912,0.90513280,-0.12011193,-0.68083642,0.77354329,0.55410631,-0.40422881,-0.24564667,-0.89603498,0.23218192,-0.49934563,-0.57231069,0.35573379,0.53749327
4.50000000,0.14560912,0.90513280,-0.12011193,-0.68083642,0.77354329,0.55410631,-0.40422881,-0.24564667,-0.89603498,0.23218192,-0.49934563,-0.57231069,0.35573379,0.53749327
4.52000000,0.14560912,0.90513280,-0.12011193,-0.68083642,0.77354329,0.55410631,-0.40422881,-0.24564667,-0.89603498,0.23218192,-0.49934563,-0.57231069,0.35573379,0.53749327
4.54000000,0.14560912,0.90513280,-0.12011193,-0.68083642,0.77354329,0.55410631,-0.40422881,-0.24564667,-0.89603498,0.23218192,-0.49934563,-0.57231069,0.35573379,0.53749327
4.56000000,0.14560912,0.90513280,-0.12011193,-0.68083642,0.77354329,0.55410631,-0.40422881,-0.24564667,-0.89603498,0.23218192,-0.49934563,-0.57231069,0.35573379,0.53749327
4.58000000,0.14560912,0.90513280,-0.12011193,-0.68083642,0.77354329,0.55410631,-0.40422881,-0.24564667,-0.89603498,0.23218192,-0.49934563,-0.57231069,0.35573379,0.53749327
4.60000000,0.14560912,0.90513280,-0.12011193,-0.68083642,0.77354329,0.55410631,-0.40422881,-0.24564667,-0.89603498,0.23218192,-0.49934563,-0.57231069,0.35573379,0.53749327
4.62000000,0.14560912,0.90513280,-0.12011193,-0.68083642,0.77354329,0.55410631,-0.40422881,-0.24564667,-0.89603498,0.23218192,-0.49934563,-0.57231069,0.35573379,0.53749327
4.64000000,0.14560912,0.90513280,-0.12011193,-0.68083642,0.77354329,0.55410631,-0.40422881,-0.24564667,-0.89603498,0.23218192,-0.49934563,-0.57231069,0.35573379,0.53749327
4.66000000,0.14560912,0.90513280,-0.12011193,-0.68083642,0.77354329,0.55410631,-0.40422881,-0.24564667,-0.89603498,0.23218192,-0.49934563,-0.57231069,0.35573379,0.53749327
4.68000000,0.14560912,0.90513280,-0.12011193,-0.68083642,0.77354329,0.55410631,-0.40422881,-0.24564667,-0.89603498,0.23218192,-0.49934563,-0.57231069,0.35573379,0.53749327
4.70000000,0.14560912,0.90513280,-0.12011193,-0.68083642,0.77354329,0.55410631,-0.40422881,-0.24564667,-0.89603498,0.23218192,-0.49934563,-0.57231069,0.35573379,0.53749327
4.72000000,0.14560912,0.90513280,-0.12011193,-0.68083642,0.77354329,0.55410631,-0.40422881,-0.24564667,-0.89603498,0.23218192,-0.49934563,-0.57231069,0.35573379,0.53749327
4.74000000,0.14560912,0.90513280,-0.12011193,-0.68083642,0.77354329,0.55410631,-0.40422881,-0.24564667,-0.89603498,0.23218192,-0.49934563,-0.57231069,0.35573379,0.53749327
4.76000000,0.14560912,0.90513280,-0.12011193,-0.68083642,0.77354329,0.55410631,-0.40422881,-0.24564667,-0.89603498,0.23218192,-0.49934563,-0.57231069,0.35573379,0.53749327
4.78000000,0.14560912,0.90513280,-0.12011193,-0.68083642,0.77354329,0.55410631,-0.40422881,-0.24564667,-0.89603498,0.23218192,-0.49934563,-0.57231069,0.35573379,0.53749327
4.80000000,0.14560912,0.90513280,-0.12011193,-0.68083642,0.77354329,0.55410631,-0.40422881,-0.24564667,-0.89603498,0.23218192,-0.49934563,-0.57231069,0.35573379,0.53749327
4.82000000,0.14560912,0.90513280,-0.12011193,-0.68083642,0.77354329,0.55410631,-0.40422881,-0.24564667,-0.89603498,0.23218192,-0.49934563,-0.57231069,0.35573379,0.53749327
4.84000000,0.14560912,0.90513280,-0.12011193,-0.68083642,0.77354329,0.55410631,-0.40422881,-0.24564667,-0.89603498,0.23218192,-0.49934563,-0.57231069,0.35573379,0.53749327
4.86000000,0.14560912,0.90513280,-0.12011193,-0.68083642,0.77354329,0.55410631,-0.40422881,-0.24564667,-0.89603498,0.23218192,-0.49934563,-0.57231069,0.35573379,0.53749327
4.88000000,0.14560912,0.90513280,-0.12011193,-0.68083642,0.77354329,0.55410631,-0.40422881,-0.24564667,-0.89603498,0.23218192,-0.49934563,-0.57231069,0.35573379,0.53749327
4.90000000,0.14560912,0.90513280,-0.12011193,-0.68083642,0.77354329,0.55410631,-0.40422881,-0.24564667,-0.89603498,0.23218192,-0.49934563,-0.57231069,0.35573379,0.53749327
4.92000000,0.14560912,0.90513280,-0.12011193,-0.68083642,0.77354329,0.55410631,-0.40422881,-0.24564667,-0.89603498,0.23218192,-0.49934563,-0.57231069,0.35573379,0.53749327
4.94000000,0.14560912,0.90513280,-0.12011193,-0.68083642,0.77354329,0.55410631,-0.40422881,-0.24564667,-0.89603498,0.23218192,-0.49934563,-0.57231069,0.35573379,0.53749327
4.96000000,0.14560912,0.90513280,-0.12011193,-0.68083642,0.77354329,0.55410631,-0.40422881,-0.24564667,-0.89603498,0.23218192,-0.49934563,-0.57231069,0.35573379,0.53749327
4.98000000,0.14560912,0.90513280,-0.12011193,-0.68083642,0.77354329,0.55410631,-0.40422881,-0.24564667,-0.89603498,0.23218192,-0.49934563,-0.57231069,0.35573379,0.53749327
5.00000000,0.14560912,0.90513280,-0.12011193,-0.68083642,0.77354329,0.55410631,-0.40422881,-0.24564667,-0.89603498,0.23218192,-0.49934563,-0.57231069,0.35573379,0.53749327
5.02000000,0.14560912,0.90513280,-0.12011193,-0.68083642,0.77354329,0.55410631,-0.40422881,-0.24564667,-0.89603498,0.23218192,-0.49934563,-0.57231069,0.35573379,0.53749327
5.04000000,0.14560912,0.90513280,-0.12011193,-0.68083642,0.77354329,0.55410631,-0.40422881,-0.24564667,-0.89603498,0.23218192,-0.49934563,-0.57231069,0.35573379,0.53749327
5.06000000,0.14560912,0.90513280,-0.12011193,-0.68083642,0.77354329,0.55410631,-0.40422881,-0.24564667,-0.89603498,0.23218192,-0.49934563,-0.57231069,0.35573379,0.53749327
5.08000000,0.14560912,0.90513280,-0.12011193,-0.68083642,0.77354329,0.55410631,-0.40422881,-0.24564667,-0.89603498,0.23218192,-0.49934563,-0.57231069,0.35573379,0.53749327
5.10000000,0.14560912,0.90513280,-0.12011193,-0.68083642,0.77354329,0.55410631,-0.40422881,-0.24564667,-0.89603498,0.23218192,-0.49934563,-0.57231069,0.35573379,0.53749327
5.12000000,0.14560912,0.90513280,-0.12011193,-0.68083642,0.77354329,0.55410631,-0.40422881,-0.24564667,-0.89603498,0.23218192,-0.49934563,-0.57231069,0.35573379,0.53749327
5.14000000,0.14560912,0.90513280,-0.12011193,-0.68083642,0.77354329,0.55410631,-0.40422881,-0.24564667,-0.89603498,0.23218192,-0.49934563,-0.57231069,0.35573379,0.53749327
5.16000000,0.14560912,0.90513280,-0.12011193,-0.68083642,0.77354329,0.55410631,-0.40422881,-0.24564667,-0.89603498,0.23218192,-0.49934563,-0.57231069,0.35573379,0.53749327
5.18000000,0.14560912,0.90513280,-0.12011193,-0.68083642,0.77354329,0.55410631,-0.40422881,-0.24564667,-0.89603498,0.23218192,-0.49934563,-0.57231069,0.35573379,0.53749327
5.20000000,0.14560912,0.90513280,-0.12011193,-0.68083642,0.77354329,0.55410631,-0.40422881,-0.24564667,-0.89603498,0.23218192,-0.49934563,-0.57231069,0.35573379,0.53749327
5.22000000,0.14560912,0.90513280,-0.12011193,-0.68083642,0.77354329,0.55410631,-0.40422881,-0.24564667,-0.89603498,0.23218192,-0.49934563,-0.57231069,0.35573379,0.53749327
5.24000000,0.14560912,0.90513280,-0.12011193,-0.68083642,0.77354329,0.55410631,-0.40422881,-0.24564667,-0.89603498,0.23218192,-0.49934563,-0.57231069,0.35573379,0.53749327
5.26000000,0.14560912,0.90513280,-0.12011193,-0.68083642,0.77354329,0.55410631,-0.40422881,-0.24564667,-0.89603498,0.23218192,-0.49934563,-0.57231069,0.35573379,0.53749327
5.28000000,0.14560912,0.90513280,-0.12011193,-0.68083642,0.77354329,0.55410631,-0.40422881,-0.24564667,-0.89603498,0.23218192,-0.49934563,-0.57231069,0.35573379,0.53749327
5.30000000,0.14560912,0.90513280,-0.12011193,-0.68083642,0.77354329,0.55410631,-0.40422881,-0.24564667,-0.89603498,0.23218192,-0.49934563,-0.57231069,0.35573379,0.53749327
5.32000000,0.14560912,0.90513280,-0.12011193,-0.68083642,0.77354329,0.55410631,-0.40422881,-0.24564667,-0.89603498,0.23218192,-0.49934563,-0.57231069,0.35573379,0.53749327
5.34000000,0.14560912,0.90513280,-0.12011193,-0.68083642,0.77354329,0.55410631,-0.40422881,-0.24564667,-0.89603498,0.23218192,-0.49934563,-0.57231069,0.35573379,0.53749327
5.36000000,0.14560912,0.90513280,-0.12011193,-0.68083642,0.77354329,0.55410631,-0.40422881,-0.24564667,-0.89603498,0.23218192,-0.49934563,-0.57231069,0.35573379,0.53749327
5.38000000,0.14560912,0.90513280,-0.12011193,-0.68083642,0.77354329,0.55410631,-0.40422881,-0.24564667,-0.89603498,0.23218192,-0.49934563,-0.57231069,0.35573379,0.53749327
5.40000000,0.14560912,0.90513280,-0.12011193,-0.68083642,0.77354329,0.55410631,-0.40422881,-0.24564667,-0.89603498,0.23218192,-0.49934563,-0.57231069,0.35573379,0.53749327
5.42000000,0.14560912,0.90513280,-0.12011193,-0.68083642,0.77354329,0.55410631,-0.40422881,-0.24564667,-0.89603498,0.23218192,-0.49934563,-0.57231069,0.35573379,0.53749327
5.44000000,0.14560912,0.90513280,-0.12011193,-0.68083642,0.77354329,0.55410631,-0.40422881,-0.24564667,-0.89603498,0.23218192,-0.49934563,-0.57231069,0.35573379,0.53749327
5.46000000,0.14560912,0.90513280,-0.12011193,-0.68083642,0.77354329,0.55410631,-0.40422881,-0.24564667,-0.89603498,0.23218192,-0.49934563,-0.57231069,0.35573379,0.53749327
5.48000000,0.14560912,0.90513280,-0.12011193,-0.68083642,0.77354329,0.55410631,-0.40422881,-0.24564667,-0.89603498,0.23218192,-0.49934563,-0.57231069,0.35573379,0.53749327
5.50000000,0.14560912,0.90513280,-0.12011193,-0.68083642,0.77354329,0.55410631,-0.40422881,-0.24564667,-0.89603498,0.23218192,-0.49934563,-0.57231069,0.35573379,0.53749327
5.52000000,0.14560912,0.90513280,-0.12011193,-0.68083642,0.77354329,0.55410631,-0.40422881,-0.24564667,-0.89603498,0.23218192,-0.49934563,-0.57231069,0.35573379,0.53749327
5.54000000,0.14560912,0.90513280,-0.12011193,-0.68083642,0.77354329,0.55410631,-0.40422881,-0.24564667,-0.89603498,0.23218192,-0.49934563,-0.57231069,0.35573379,0.53749327
5.56000000,0.14560912,0.90513280,-0.12011193,-0.68083642,0.77354329,0.55410631,-0.40422881,-0.24564667,-0.89603498,0.23218192,-0.49934563,-0.57231069,0.35573379,0.53749327
5.58000000,0.14560912,0.90513280,-0.12011193,-0.68083642,0.77354329,0.55410631,-0.40422881,-0.24564667,-0.89603498,0.23218192,-0.49934563,-0.57231069,0.35573379,0.53749327
5.60000000,0.14560912,0.90513280,-0.12011193,-0.68083642,0.77354329,0.55410631,-0.40422881,-0.24564667,-0.89603498,0.23218192,-0.49934563,-0.57231069,0.35573379,0.53749327
5.62000000,0.14560912,0.90513280,-0.12011193,-0.68083642,0.77354329,0.55410631,-0.40422881,-0.24564667,-0.89603498,0.23218192,-0.49934563,-0.57231069,0.35573379,0.53749327
5.64000000,0.14560912,0.90513280,-0.12011193,-0.68083642,0.77354329,0.55410631,-0.40422881,-0.24564667,-0.89603498,0.23218192,-0.49934563,-0.57231069,0.35573379,0.53749327
5.66000000,0.14560912,0.90513280,-0.12011193,-0.68083642,0.77354329,0.55410631,-0.40422881,-0.24564667,-0.89603498,0.23218192,-0.49934563,-0.57231069,0.35573379,0.53749327
5.68000000,0.14560912,0.90513280,-0.12011193,-0.68083642,0.77354329,0.55410631,-0.40422881,-0.24564667,-0.89603498,0.23218192,-0.49934563,-0.57231069,0.35573379,0.53749327
5.70000000,0.14560912,0.90513280,-0.12011193,-0.68083642,0.77354329,0.55410631,-0.40422881,-0.24564667,-0.89603498,0.23218192,-0.49934563,-0.57231069,0.35573379,0.53749327
5.72000000,0.14560912,0.90513280,-0.12011193,-0.68083642,0.77354329,0.55410631,-0.40422881,-0.24564667,-0.89603498,0.23218192,-0.49934563,-0.57231069,0.35573379,0.53749327
5.74000000,0.14560912,0.90513280,-0.12011193,-0.68083642,0.77354329,0.55410631,-0.40422881,-0.24564667,-0.89603498,0.23218192,-0.49934563,-0.57231069,0.35573379,0.53749327
5.76000000,0.14560912,0.90513280,-0.12011193,-0.68083642,0.77354329,0.55410631,-0.40422881,-0.24564667,-0.89603498,0.23218192,-0.49934563,-0.57231069,0.35573379,0.53749327
5.78000000,0.14560912,0.90513280,-0.12011193,-0.68083642,0.77354329,0.55410631,-0.40422881,-0.24564667,-0.89603498,0.23218192,-0.49934563,-0.57231069,0.35573379,0.53749327
5.80000000,0.14560912,0.90513280,-0.12011193,-0.68083642,0.77354329,0.55410631,-0.40422881,-0.24564667,-0.89603498,0.23218192,-0.49934563,-0.57231069,0.35573379,0.53749327
5.82000000,0.14560912,0.90513280,-0.12011193,-0.68083642,0.77354329,0.55410631,-0.40422881,-0.24564667,-0.89603498,0.23218192,-0.49934563,-0.57231069,0.35573379,0.53749327
5.84000000,0.14560912,0.90513280,-0.12011193,-0.68083642,0.77354329,0.55410631,-0.40422881,-0.24564667,-0.89603498,0.23218192,-0.49934563,-0.57231069,0.35573379,0.53749327
5.86000000,0.14560912,0.90513280,-0.12011193,-0.68083642,0.77354329,0.55410631,-0.40422881,-0.24564667,-0.89603498,0.23218192,-0.49934563,-0.57231069,0.35573379,0.53749327
5.88000000,0.14560912,0.90513280,-0.12011193,-0.68083642,0.77354329,0.55410631,-0.40422881,-0.24564667,-0.89603498,0.23218192,-0.49934563,-0.57231069,0.35573379,0.53749327
5.90000000,0.14560912,0.90513280,-0.12011193,-0.68083642,0.77354329,0.55410631,-0.40422881,-0.24564667,-0.89603498,0.23218192,-0.49934563,-0.57231069,0.35573379,0.53749327
5.92000000,0.14560912,0.90513280,-0.12011193,-0.68083642,0.77354329,0.55410631,-0.40422881,-0.24564667,-0.89603498,0.23218192,-0.49934563,-0.57231069,0.35573379,0.53749327
5.94000000,0.14560912,0.90513280,-0.12011193,-0.68083642,0.77354329,0.55410631,-0.40422881,-0.24564667,-0.89603498,0.23218192,-0.49934563,-0.57231069,0.35573379,0.53749327
5.96000000,0.14560912,0.90513280,-0.12011193,-0.68083642,0.77354329,0.55410631,-0.40422881,-0.24564667,-0.89603498,0.23218192,-0.49934563,-0.57231069,0.35573379,0.53749327
5.98000000,0.14560912,0.90513280,-0.12011193,-0.68083642,0.77354329,0.55410631,-0.40422881,-0.24564667,-0.89603498,0.23218192,-0.49934563,-0.57231069,0.35573379,0.53749327
6.00000000,0.14560912,0.90513280,-0.12011193,-0.68083642,0.77354329,0.55410631,-0.40422881,-0.24564667,-0.89603498,0.23218192,-0.49934563,-0.57231069,0.35573379,0.53749327
6.02000000,0.14560912,0.90513280,-0.12011193,-0.68083642,0.77354329,0.55410631,-0.40422881,-0.24564667,-0.89603498,0.23218192,-0.49934563,-0.57231069,0.35573379,0.53749327
6.04000000,0.14560912,0.90513280,-0.12011193,-0.68083642,0.77354329,0.55410631,-0.40422881,-0.24564667,-0.89603498,0.23218192,-0.49934563,-0.57231069,0.35573379,0.53749327
6.06000000,0.14560912,0.90513280,-0.12011193,-0.68083642,0.77354329,0.55410631,-0.40422881,-0.24564667,-0.89603498,0.23218192,-0.49934563,-0.57231069,0.35573379,0.53749327
6.08000000,0.14560912,0.90513280,-0.12011193,-0.68083642,0.77354329,0.55410631,-0.40422881,-0.24564667,-0.89603498,0.23218192,-0.49934563,-0.57231069,0.35573379,0.53749327
6.10000000,0.14560912,0.90513280,-0.12011193,-0.68083642,0.77354329,0.55410631,-0.40422881,-0.24564667,-0.89603498,0.23218192,-0.49934563,-0.57231069,0.35573379,0.53749327
6.12000000,0.14560912,0.90513280,-0.12011193,-0.68083642,0.77354329,0.55410631,-0.40422881,-0.24564667,-0.89603498,0.23218192,-0.49934563,-0.57231069,0.35573379,0.53749327
6.14000000,0.14560912,0.90513280,-0.12011193,-0.68083642,0.77354329,0.55410631,-0.40422881,-0.24564667,-0.89603498,0.23218192,-0.49934563,-0.57231069,0.35573379,0.53749327
6.16000000,0.14560912,0.90513280,-0.12011193,-0.68083642,0.77354329,0.55410631,-0.40422881,-0.24564667,-0.89603498,0.23218192,-0.49934563,-0.57231069,0.35573379,0.53749327
6.18000000,0.14560912,0.90513280,-0.12011193,-0.68083642,0.77354329,0.55410631,-0.40422881,-0.24564667,-0.89603498,0.23218192,-0.49934563,-0.57231069,0.35573379,0.53749327
6.20000000,0.14560912,0.90513280,-0.12011193,-0.68083642,0.77354329,0.55410631,-0.40422881,-0.24564667,-0.89603498,0.23218192,-0.49934563,-0.57231069,0.35573379,0.53749327
6.22000000,0.14560912,0.90513280,-0.12011193,-0.68083642,0.77354329,0.55410631,-0.40422881,-0.24564667,-0.89603498,0.23218192,-0.49934563,-0.57231069,0.35573379,0.53749327
6.24000000,0.14560912,0.90513280,-0.12011193,-0.68083642,0.77354329,0.55410631,-0.40422881,-0.24564667,-0.89603498,0.23218192,-0.49934563,-0.57231069,0.35573379,0.53749327
6.26000000,0.14560912,0.90513280,-0.12011193,-0.68083642,0.77354329,0.55410631,-0.40422881,-0.24564667,-0.89603498,0.23218192,-0.49934563,-0.57231069,0.35573379,0.53749327
6.28000000,0.14560912,0.90513280,-0.12011193,-0.68083642,0.77354329,0.55410631,-0.40422881,-0.24564667,-0.89603498,0.23218192,-0.49934563,-0.57231069,0.35573379,0.53749327
6.30000000,0.14560912,0.90513280,-0.12011193,-0.68083642,0.77354329,0.55410631,-0.40422881,-0.24564667,-0.89603498,0.23218192,-0.49934563,-0.57231069,0.35573379,0.53749327
6.32000000,0.14560912,0.90513280,-0.12011193,-0.68083642,0.77354329,0.55410631,-0.40422881,-0.24564667,-0.89603498,0.23218192,-0.49934563,-0.57231069,0.35573379,0.53749327
6.34000000,0.14560912,0.90513280,-0.12011193,-0.68083642,0.77354329,0.55410631,-0.40422881,-0.24564667,-0.89603498,0.23218192,-0.49934563,-0.57231069,0.35573379,0.53749327
6.36000000,0.14560912,0.90513280,-0.12011193,-0.68083642,0.77354329,0.55410631,-0.40422881,-0.24564667,-0.89603498,0.23218192,-0.49934563,-0.57231069,0.35573379,0.53749327
6.38000000,0.14560912,0.90513280,-0.12011193,-0.68083642,0.77354329,0.55410631,-0.40422881,-0.24564667,-0.89603498,0.23218192,-0.49934563,-0.57231069,0.35573379,0.53749327
6.40000000,0.14560912,0.90513280,-0.12011193,-0.68083642,0.77354329,0.55410631,-0.40422881,-0.24564667,-0.89603498,0.23218192,-0.49934563,-0.57231069,0.35573379,0.53749327
6.42000000,0.14560912,0.90513280,-0.12011193,-0.68083642,0.77354329,0.55410631,-0.40422881,-0.24564667,-0.89603498,0.23218192,-0.49934563,-0.57231069,0.35573379,0.53749327
6.44000000,0.14560912,0.90513280,-0.12011193,-0.68083642,0.77354329,0.55410631,-0.40422881,-0.24564667,-0.89603498,0.23218192,-0.49934563,-0.57231069,0.35573379,0.53749327
6.46000000,0.14560912,0.90513280,-0.12011193,-0.68083642,0.77354329,0.55410631,-0.40422881,-0.24564667,-0.89603498,0.23218192,-0.49934563,-0.57231069,0.35573379,0.53749327
6.48000000,0.14560912,0.90513280,-0.12011193,-0.68083642,0.77354329,0.55410631,-0.40422881,-0.24564667,-0.89603498,0.23218192,-0.49934563,-0.57231069,0.35573379,0.53749327
6.50000000,0.14560912,0.90513280,-0.12011193,-0.68083642,0.77354329,0.55410631,-0.40422881,-0.24564667,-0.89603498,0.23218192,-0.49934563,-0.57231069,0.35573379,0.53749327
6.52000000,0.14560912,0.90513280,-0.12011193,-0.68083642,0.77354329,0.55410631,-0.40422881,-0.24564667,-0.89603498,0.23218192,-0.49934563,-0.57231069,0.35573379,0.53749327
6.54000000,0.14560912,0.90513280,-0.12011193,-0.68083642,0.77354329,0.55410631,-0.40422881,-0.24564667,-0.89603498,0.23218192,-0.49934563,-0.57231069,0.35573379,0.53749327
6.56000000,0.14560912,0.90513280,-0.12011193,-0.68083642,0.77354329,0.55410631,-0.40422881,-0.24564667,-0.89603498,0.23218192,-0.49934563,-0.57231069,0.35573379,0.53749327
6.58000000,0.14560912,0.90513280,-0.12011193,-0.68083642,0.77354329,0.55410631,-0.40422881,-0.24564667,-0.89603498,0.23218192,-0.49934563,-0.57231069,0.35573379,0.53749327
6.60000000,0.14560912,0.90513280,-0.12011193,-0.68083642,0.77354329,0.55410631,-0.40422881,-0.24564667,-0.89603498,0.23218192,-0.49934563,-0.57231069,0.35573379,0.53749327
6.62000000,0.14560912,0.90513280,-0.12011193,-0.68083642,0.77354329,0.55410631,-0.40422881,-0.24564667,-0.89603498,0.23218192,-0.49934563,-0.57231069,0.35573379,0.53749327
6.64000000,0.14560912,0.90513280,-0.12011193,-0.68083642,0.77354329,0.55410631,-0.40422881,-0.24564667,-0.89603498,0.23218192,-0.49934563,-0.57231069,0.35573379,0.53749327
6.66000000,0.14560912,0.90513280,-0.12011193,-0.68083642,0.77354329,0.55410631,-0.40422881,-0.24564667,-0.89603498,0.23218192,-0.49934563,-0.57231069,0.35573379,0.53749327
6.68000000,0.14560912,0.90513280,-0.12011193,-0.68083642,0.77354329,0.55410631,-0.40422881,-0.24564667,-0.89603498,0.23218192,-0.49934563,-0.57231069,0.35573379,0.53749327
6.70000000,0.14560912,0.90513280,-0.12011193,-0.68083642,0.77354329,0.55410631,-0.40422881,-0.24564667,-0.89603498,0.23218192,-0.49934563,-0.57231069,0.35573379,0.53749327
6.72000000,0.14560912,0.90513280,-0.12011193,-0.68083642,0.77354329,0.55410631,-0.40422881,-0.24564667,-0.89603498,0.23218192,-0.49934563,-0.57231069,0.35573379,0.53749327
6.74000000,0.14560912,0.90513280,-0.12011193,-0.68083642,0.77354329,0.55410631,-0.40422881,-0.24564667,-0.89603498,0.23218192,-0.49934563,-0.57231069,0.35573379,0.53749327
6.76000000,0.14560912,0.90513280,-0.12011193,-0.68083642,0.77354329,0.55410631,-0.40422881,-0.24564667,-0.89603498,0.23218192,-0.49934563,-0.57231069,0.35573379,0.53749327
6.78000000,0.14560912,0.90513280,-0.12011193,-0.68083642,0.77354329,0.55410631,-0.40422881,-0.24564667,-0.89603498,0.23218192,-0.49934563,-0.57231069,0.35573379,0.53749327
6.80000000,0.14560912,0.90513280,-0.12011193,-0.68083642,0.77354329,0.55410631,-0.40422881,-0.24564667,-0.89603498,0.23218192,-0.49934563,-0.57231069,0.35573379,0.53749327
6.82000000,0.14560912,0.90513280,-0.12011193,-0.68083642,0.77354329,0.55410631,-0.40422881,-0.24564667,-0.89603498,0.23218192,-0.49934563,-0.57231069,0.35573379,0.53749327
6.84000000,0.14560912,0.90513280,-0.12011193,-0.68083642,0.77354329,0.55410631,-0.40422881,-0.24564667,-0.89603498,0.23218192,-0.49934563,-0.57231069,0.35573379,0.53749327
6.86000000,0.14560912,0.90513280,-0.12011193,-0.68083642,0.77354329,0.55410631,-0.40422881,-0.24564667,-0.89603498,0.23218192,-0.49934563,-0.57231069,0.35573379,0.53749327
6.88000000,0.14560912,0.90513280,-0.12011193,-0.68083642,0.77354329,0.55410631,-0.40422881,-0.24564667,-0.89603498,0.23218192,-0.49934563,-0.57231069,0.35573379,0.53749327
6.90000000,0.14560912,0.90513280,-0.12011193,-0.68083642,0.77354329,0.55410631,-0.40422881,-0.24564667,-0.89603498,0.23218192,-0.49934563,-0.57231069,0.35573379,0.53749327
6.92000000,0.14560912,0.90513280,-0.12011193,-0.68083642,0.77354329,0.55410631,-0.40422881,-0.24564667,-0.89603498,0.23218192,-0.49934563,-0.57231069,0.35573379,0.53749327
6.94000000,0.14560912,0.90513280,-0.12011193,-0.68083642,0.77354329,0.55410631,-0.40422881,-0.24564667,-0.89603498,0.23218192,-0.49934563,-0.57231069,0.35573379,0.53749327
6.96000000,0.14560912,0.90513280,-0.12011193,-0.68083642,0.77354329,0.55410631,-0.40422881,-0.24564667,-0.89603498,0.23218192,-0.49934563,-0.57231069,0.35573379,0.53749327
6.98000000,0.14560912,0.90513280,-0.12011193,-0.68083642,0.77354329,0.55410631,-0.40422881,-0.24564667,-0.89603498,0.23218192,-0.49934563,-0.57231069,0.35573379,0.53749327
7.00000000,0.14560912,0.90513280,-0.12011193,-0.68083642,0.77354329,0.55410631,-0.40422881,-0.24564667,-0.89603498,0.23218192,-0.49934563,-0.57231069,0.35573379,0.53749327
7.02000000,0.14560912,0.90513280,-0.12011193,-0.68083642,0.77354329,0.55410631,-0.40422881,-0.24564667,-0.89603498,0.23218192,-0.49934563,-0.57231069,0.35573379,0.53749327
7.04000000,0.14560912,0.90513280,-0.12011193,-0.68083642,0.77354329,0.55410631,-0.40422881,-0.24564667,-0.89603498,0.23218192,-0.49934563,-0.57231069,0.35573379,0.53749327
7.06000000,0.14560912,0.90513280,-0.12011193,-0.68083642,0.77354329,0.55410631,-0.40422881,-0.24564667,-0.89603498,0.23218192,-0.49934563,-0.57231069,0.35573379,0.53749327
7.08000000,0.14560912,0.90513280,-0.12011193,-0.68083642,0.77354329,0.55410631,-0.40422881,-0.24564667,-0.89603498,0.23218192,-0.49934563,-0.57231069,0.35573379,0.53749327
7.10000000,0.14560912,0.90513280,-0.12011193,-0.68083642,0.77354329,0.55410631,-0.40422881,-0.24564667,-0.89603498,0.23218192,-0.49934563,-0.57231069,0.35573379,0.53749327
7.12000000,0.14560912,0.90513280,-0.12011193,-0.68083642,0.77354329,0.55410631,-0.40422881,-0.24564667,-0.89603498,0.23218192,-0.49934563,-0.57231069,0.35573379,0.53749327
7.14000000,0.14560912,0.90513280,-0.12011193,-0.68083642,0.77354329,0.55410631,-0.40422881,-0.24564667,-0.89603498,0.23218192,-0.49934563,-0.57231069,0.35573379,0.53749327
7.16000000,0.14560912,0.90513280,-0.12011193,-0.68083642,0.77354329,0.55410631,-0.40422881,-0.24564667,-0.89603498,0.23218192,-0.49934563,-0.57231069,0.35573379,0.53749327
7.18000000,0.14560912,0.90513280,-0.12011193,-0.68083642,0.77354329,0.55410631,-0.40422881,-0.24564667,-0.89603498,0.23218192,-0.49934563,-0.57231069,0.35573379,0.53749327
7.20000000,0.14560912,0.90513280,-0.12011193,-0.68083642,0.77354329,0.55410631,-0.40422881,-0.24564667,-0.89603498,0.23218192,-0.49934563,-0.57231069,0.35573379,0.53749327
7.22000000,0.14560912,0.90513280,-0.12011193,-0.68083642,0.77354329,0.55410631,-0.40422881,-0.24564667,-0.89603498,0.23218192,-0.49934563,-0.57231069,0.35573379,0.53749327
7.24000000,0.14560912,0.90513280,-0.12011193,-0.68083642,0.77354329,0.55410631,-0.40422881,-0.24564667,-0.89603498,0.23218192,-0.49934563,-0.57231069,0.35573379,0.53749327
7.26000000,0.14560912,0.90513280,-0.12011193,-0.68083642,0.77354329,0.55410631,-0.40422881,-0.24564667,-0.89603498,0.23218192,-0.49934563,-0.57231069,0.35573379,0.53749327
7.28000000,0.14560912,0.90513280,-0.12011193,-0.68083642,0.77354329,0.55410631,-0.40422881,-0.24564667,-0.89603498,0.23218192,-0.49934563,-0.57231069,0.35573379,0.53749327
7.30000000,0.14560912,0.90513280,-0.12011193,-0.68083642,0.77354329,0.55410631,-0.40422881,-0.24564667,-0.89603498,0.23218192,-0.49934563,-0.57231069,0.35573379,0.53749327
7.32000000,0.14560912,0.90513280,-0.12011193,-0.68083642,0.77354329,0.55410631,-0.40422881,-0.24564667,-0.89603498,0.23218192,-0.49934563,-0.57231069,0.35573379,0.53749327
7.34000000,0.14560912,0.90513280,-0.12011193,-0.68083642,0.77354329,0.55410631,-0.40422881,-0.24564667,-0.89603498,0.23218192,-0.49934563,-0.57231069,0.35573379,0.53749327
7.36000000,0.14560912,0.90513280,-0.12011193,-0.68083642,0.77354329,0.55410631,-0.40422881,-0.24564667,-0.89603498,0.23218192,-0.49934563,-0.57231069,0.35573379,0.53749327
7.38000000,0.14560912,0.90513280,-0.12011193,-0.68083642,0.77354329,0.55410631,-0.40422881,-0.24564667,-0.89603498,0.23218192,-0.49934563,-0.57231069,0.35573379,0.53749327
7.40000000,0.14560912,0.90513280,-0.12011193,-0.68083642,0.77354329,0.55410631,-0.40422881,-0.24564667,-0.89603498,0.23218192,-0.49934563,-0.57231069,0.35573379,0.53749327
7.42000000,0.14560912,0.90513280,-0.12011193,-0.68083642,0.77354329,0.55410631,-0.40422881,-0.24564667,-0.89603498,0.23218192,-0.49934563,-0.57231069,0.35573379,0.53749327
7.44000000,0.14560912,0.90513280,-0.12011193,-0.68083642,0.77354329,0.55410631,-0.40422881,-0.24564667,-0.89603498,0.23218192,-0.49934563,-0.57231069,0.35573379,0.53749327
7.46000000,0.14560912,0.90513280,-0.12011193,-0.68083642,0.77354329,0.55410631,-0.40422881,-0.24564667,-0.89603498,0.23218192,-0.49934563,-0.57231069,0.35573379,0.53749327
7.48000000,0.14560912,0.90513280,-0.12011193,-0.68083642,0.77354329,0.55410631,-0.40422881,-0.24564667,-0.89603498,0.23218192,-0.49934563,-0.57231069,0.35573379,0.53749327
7.50000000,0.14560912,0.90513280,-0.12011193,-0.68083642,0.77354329,0.55410631,-0.40422881,-0.24564667,-0.89603498,0.23218192,-0.49934563,-0.57231069,0.35573379,0.53749327
7.52000000,0.14560912,0.90513280,-0.12011193,-0.68083642,0.77354329,0.55410631,-0.40422881,-0.24564667,-0.89603498,0.23218192,-0.49934563,-0.57231069,0.35573379,0.53749327
7.54000000,0.14560912,0.90513280,-0.12011193,-0.68083642,0.77354329,0.55410631,-0.40422881,-0.24564667,-0.89603498,0.23218192,-0.49934563,-0.57231069,0.35573379,0.53749327
7.56000000,0.14560912,0.90513280,-0.12011193,-0.68083642,0.77354329,0.55410631,-0.40422881,-0.24564667,-0.89603498,0.23218192,-0.49934563,-0.57231069,0.35573379,0.53749327
7.58000000,0.14560912,0.90513280,-0.12011193,-0.68083642,0.77354329,0.55410631,-0.40422881,-0.24564667,-0.89603498,0.23218192,-0.49934563,-0.57231069,0.35573379,0.53749327
7.60000000,0.14560912,0.90513280,-0.12011193,-0.68083642,0.77354329,0.55410631,-0.40422881,-0.24564667,-0.89603498,0.23218192,-0.49934563,-0.57231069,0.35573379,0.53749327
7.62000000,0.14560912,0.90513280,-0.12011193,-0.68083642,0.77354329,0.55410631,-0.40422881,-0.24564667,-0.89603498,0.23218192,-0.49934563,-0.57231069,0.35573379,0.53749327
7.64000000,0.14560912,0.90513280,-0.12011193,-0.68083642,0.77354329,0.55410631,-0.40422881,-0.24564667,-0.89603498,0.23218192,-0.49934563,-0.57231069,0.35573379,0.53749327
7.66000000,0.14560912,0.90513280,-0.12011193,-0.68083642,0.77354329,0.55410631,-0.40422881,-0.24564667,-0.89603498,0.23218192,-0.49934563,-0.57231069,0.35573379,0.53749327
7.68000000,0.14560912,0.90513280,-0.12011193,-0.68083642,0.77354329,0.55410631,-0.40422881,-0.24564667,-0.89603498,0.23218192,-0.49934563,-0.57231069,0.35573379,0.53749327
7.70000000,0.14560912,0.90513280,-0.12011193,-0.68083642,0.77354329,0.55410631,-0.40422881,-0.24564667,-0.89603498,0.23218192,-0.49934563,-0.57231069,0.35573379,0.53749327
7.72000000,0.14560912,0.90513280,-0.12011193,-0.68083642,0.77354329,0.55410631,-0.40422881,-0.24564667,-0.89603498,0.23218192,-0.49934563,-0.57231069,0.35573379,0.53749327
7.74000000,0.14560912,0.90513280,-0.12011193,-0.68083642,0.77354329,0.55410631,-0.40422881,-0.24564667,-0.89603498,0.23218192,-0.49934563,-0.57231069,0.35573379,0.53749327
7.76000000,0.14560912,0.90513280,-0.12011193,-0.68083642,0.77354329,0.55410631,-0.40422881,-0.24564667,-0.89603498,0.23218192,-0.49934563,-0.57231069,0.35573379,0.53749327
7.78000000,0.14560912,0.90513280,-0.12011193,-0.68083642,0.77354329,0.55410631,-0.40422881,-0.24564667,-0.89603498,0.23218192,-0.49934563,-0.57231069,0.35573379,0.53749327
7.80000000,0.14560912,0.90513280,-0.12011193,-0.68083642,0.77354329,0.55410631,-0.40422881,-0.24564667,-0.89603498,0.23218192,-0.49934563,-0.57231069,0.35573379,0.53749327
7.82000000,0.14560912,0.90513280,-0.12011193,-0.68083642,0.77354329,0.55410631,-0.40422881,-0.24564667,-0.89603498,0.23218192,-0.49934563,-0.57231069,0.35573379,0.53749327
7.84000000,0.14560912,0.90513280,-0.12011193,-0.68083642,0.77354329,0.55410631,-0.40422881,-0.24564667,-0.89603498,0.23218192,-0.49934563,-0.57231069,0.35573379,0.53749327
7.86000000,0.14560912,0.90513280,-0.12011193,-0.68083642,0.77354329,0.55410631,-0.40422881,-0.24564667,-0.89603498,0.23218192,-0.49934563,-0.57231069,0.35573379,0.53749327
7.88000000,0.14560912,0.90513280,-0.12011193,-0.68083642,0.77354329,0.55410631,-0.40422881,-0.24564667,-0.89603498,0.23218192,-0.49934563,-0.57231069,0.35573379,0.53749327
7.90000000,0.14560912,0.90513280,-0.12011193,-0.68083642,0.77354329,0.55410631,-0.40422881,-0.24564667,-0.89603498,0.23218192,-0.49934563,-0.57231069,0.35573379,0.53749327
7.92000000,0.14560912,0.90513280,-0.12011193,-0.68083642,0.77354329,0.55410631,-0.40422881,-0.24564667,-0.89603498,0.23218192,-0.49934563,-0.57231069,0.35573379,0.53749327
7.94000000,0.14560912,0.90513280,-0.12011193,-0.68083642,0.77354329,0.55410631,-0.40422881,-0.24564667,-0.89603498,0.23218192,-0.49934563,-0.57231069,0.35573379,0.53749327
7.96000000,0.14560912,0.90513280,-0.12011193,-0.68083642,0.77354329,0.55410631,-0.40422881,-0.24564667,-0.89603498,0.23218192,-0.49934563,-0.57231069,0.35573379,0.53749327
7.98000000,0.14560912,0.90513280,-0.12011193,-0.68083642,0.77354329,0.55410631,-0.40422881,-0.24564667,-0.89603498,0.23218192,-0.49934563,-0.57231069,0.35573379,0.53749327
8.00000000,0.14560912,0.90513280,-0.12011193,-0.68083642,0.77354329,0.55410631,-0.40422881,-0.24564667,-0.89603498,0.23218192,-0.49934563,-0.57231069,0.35573379,0.53749327
8.02000000,0.14560912,0.90513280,-0.12011193,-0.68083642,0.77354329,0.55410631,-0.40422881,-0.24564667,-0.89603498,0.23218192,-0.49934563,-0.57231069,0.35573379,0.53749327
8.04000000,0.14560912,0.90513280,-0.12011193,-0.68083642,0.77354329,0.55410631,-0.40422881,-0.24564667,-0.89603498,0.23218192,-0.49934563,-0.57231069,0.35573379,0.53749327
8.06000000,0.14560912,0.90513280,-0.12011193,-0.68083642,0.77354329,0.55410631,-0.40422881,-0.24564667,-0.89603498,0.23218192,-0.49934563,-0.57231069,0.35573379,0.53749327
8.08000000,0.14560912,0.90513280,-0.12011193,-0.68083642,0.77354329,0.55410631,-0.40422881,-0.24564667,-0.89603498,0.23218192,-0.49934563,-0.57231069,0.35573379,0.53749327
8.10000000,0.14560912,0.90513280,-0.12011193,-0.68083642,0.77354329,0.55410631,-0.40422881,-0.24564667,-0.89603498,0.23218192,-0.49934563,-0.57231069,0.35573379,0.53749327
8.12000000,0.14560912,0.90513280,-0.12011193,-0.68083642,0.77354329,0.55410631,-0.40422881,-0.24564667,-0.89603498,0.23218192,-0.49934563,-0.57231069,0.35573379,0.53749327
8.14000000,0.14560912,0.90513280,-0.12011193,-0.68083642,0.77354329,0.55410631,-0.40422881,-0.24564667,-0.89603498,0.23218192,-0.49934563,-0.57231069,0.35573379,0.53749327
8.16000000,0.14560912,0.90513280,-0.12011193,-0.68083642,0.77354329,0.55410631,-0.40422881,-0.24564667,-0.89603498,0.23218192,-0.49934563,-0.57231069,0.35573379,0.53749327
8.18000000,0.14560912,0.90513280,-0.12011193,-0.68083642,0.77354329,0.55410631,-0.40422881,-0.24564667,-0.89603498,0.23218192,-0.49934563,-0.57231069,0.35573379,0.53749327
8.20000000,0.14560912,0.90513280,-0.12011193,-0.68083642,0.77354329,0.55410631,-0.40422881,-0.24564667,-0.89603498,0.23218192,-0.49934563,-0.57231069,0.35573379,0.53749327
8.22000000,0.14560912,0.90513280,-0.12011193,-0.68083642,0.77354329,0.55410631,-0.40422881,-0.24564667,-0.89603498,0.23218192,-0.49934563,-0.57231069,0.35573379,0.53749327
8.24000000,0.14560912,0.90513280,-0.12011193,-0.68083642,0.77354329,0.55410631,-0.40422881,-0.24564667,-0.89603498,0.23218192,-0.49934563,-0.57231069,0.35573379,0.53749327
8.26000000,0.14560912,0.90513280,-0.12011193,-0.68083642,0.77354329,0.55410631,-0.40422881,-0.24564667,-0.89603498,0.23218192,-0.49934563,-0.57231069,0.35573379,0.53749327
8.28000000,0.14560912,0.90513280,-0.12011193,-0.68083642,0.77354329,0.55410631,-0.40422881,-0.24564667,-0.89603498,0.23218192,-0.49934563,-0.57231069,0.35573379,0.53749327
8.30000000,0.14560912,0.90513280,-0.12011193,-0.68083642,0.77354329,0.55410631,-0.40422881,-0.24564667,-0.89603498,0.23218192,-0.49934563,-0.57231069,0.35573379,0.53749327
8.32000000,0.14560912,0.90513280,-0.12011193,-0.68083642,0.77354329,0.55410631,-0.40422881,-0.24564667,-0.89603498,0.23218192,-0.49934563,-0.57231069,0.35573379,0.53749327
8.34000000,0.14560912,0.90513280,-0.12011193,-0.68083642,0.77354329,0.55410631,-0.40422881,-0.24564667,-0.89603498,0.23218192,-0.49934563,-0.57231069,0.35573379,0.53749327
8.36000000,0.14560912,0.90513280,-0.12011193,-0.68083642,0.77354329,0.55410631,-0.40422881,-0.24564667,-0.89603498,0.23218192,-0.49934563,-0.57231069,0.35573379,0.53749327
8.38000000,0.14560912,0.90513280,-0.12011193,-0.68083642,0.77354329,0.55410631,-0.40422881,-0.24564667,-0.89603498,0.23218192,-0.49934563,-0.57231069,0.35573379,0.53749327
8.40000000,0.14560912,0.90513280,-0.12011193,-0.68083642,0.77354329,0.55410631,-0.40422881,-0.24564667,-0.89603498,0.23218192,-0.49934563,-0.57231069,0.35573379,0.53749327
8.42000000,0.14560912,0.90513280,-0.12011193,-0.68083642,0.77354329,0.55410631,-0.40422881,-0.24564667,-0.89603498,0.23218192,-0.49934563,-0.57231069,0.35573379,0.53749327
8.44000000,0.14560912,0.90513280,-0.12011193,-0.68083642,0.77354329,0.55410631,-0.40422881,-0.24564667,-0.89603498,0.23218192,-0.49934563,-0.57231069,0.35573379,0.53749327
8.46000000,0.14560912,0.90513280,-0.12011193,-0.68083642,0.77354329,0.55410631,-0.40422881,-0.24564667,-0.89603498,0.23218192,-0.49934563,-0.57231069,0.35573379,0.53749327
8.48000000,0.14560912,0.90513280,-0.12011193,-0.68083642,0.77354329,0.55410631,-0.40422881,-0.24564667,-0.89603498,0.23218192,-0.49934563,-0.57231069,0.35573379,0.53749327
8.50000000,0.14560912,0.90513280,-0.12011193,-0.68083642,0.77354329,0.55410631,-0.40422881,-0.24564667,-0.89603498,0.23218192,-0.49934563,-0.57231069,0.35573379,0.53749327
8.52000000,0.14560912,0.90513280,-0.12011193,-0.68083642,0.77354329,0.55410631,-0.40422881,-0.24564667,-0.89603498,0.23218192,-0.49934563,-0.57231069,0.35573379,0.53749327
8.54000000,0.14560912,0.90513280,-0.12011193,-0.68083642,0.77354329,0.55410631,-0.40422881,-0.24564667,-0.89603498,0.23218192,-0.49934563,-0.57231069,0.35573379,0.53749327
8.56000000,0.14560912,0.90513280,-0.12011193,-0.68083642,0.77354329,0.55410631,-0.40422881,-0.24564667,-0.89603498,0.23218192,-0.49934563,-0.57231069,0.35573379,0.53749327
8.58000000,0.14560912,0.90513280,-0.12011193,-0.68083642,0.77354329,0.55410631,-0.40422881,-0.24564667,-0.89603498,0.23218192,-0.49934563,-0.57231069,0.35573379,0.53749327
8.60000000,0.14560912,0.90513280,-0.12011193,-0.68083642,0.77354329,0.55410631,-0.40422881,-0.24564667,-0.89603498,0.23218192,-0.49934563,-0.57231069,0.35573379,0.53749327
8.62000000,0.14560912,0.90513280,-0.12011193,-0.68083642,0.77354329,0.55410631,-0.40422881,-0.24564667,-0.89603498,0.23218192,-0.49934563,-0.57231069,0.35573379,0.53749327
8.64000000,0.14560912,0.90513280,-0.12011193,-0.68083642,0.77354329,0.55410631,-0.40422881,-0.24564667,-0.89603498,0.23218192,-0.49934563,-0.57231069,0.35573379,0.53749327
8.66000000,0.14560912,0.90513280,-0.12011193,-0.68083642,0.77354329,0.55410631,-0.40422881,-0.24564667,-0.89603498,0.23218192,-0.49934563,-0.57231069,0.35573379,0.53749327
8.68000000,0.14560912,0.90513280,-0.12011193,-0.68083642,0.77354329,0.55410631,-0.40422881,-0.24564667,-0.89603498,0.23218192,-0.49934563,-0.57231069,0.35573379,0.53749327
8.70000000,0.14560912,0.90513280,-0.12011193,-0.68083642,0.77354329,0.55410631,-0.40422881,-0.24564667,-0.89603498,0.23218192,-0.49934563,-0.57231069,0.35573379,0.53749327
8.72000000,0.14560912,0.90513280,-0.12011193,-0.68083642,0.77354329,0.55410631,-0.40422881,-0.24564667,-0.89603498,0.23218192,-0.49934563,-0.57231069,0.35573379,0.53749327
8.74000000,0.14560912,0.90513280,-0.12011193,-0.68083642,0.77354329,0.55410631,-0.40422881,-0.24564667,-0.89603498,0.23218192,-0.49934563,-0.57231069,0.35573379,0.53749327
8.76000000,0.14560912,0.90513280,-0.12011193,-0.68083642,0.77354329,0.55410631,-0.40422881,-0.24564667,-0.89603498,0.23218192,-0.49934563,-0.57231069,0.35573379,0.53749327
8.78000000,0.14560912,0.90513280,-0.12011193,-0.68083642,0.77354329,0.55410631,-0.40422881,-0.24564667,-0.89603498,0.23218192,-0.49934563,-0.57231069,0.35573379,0.53749327
8.80000000,0.14560912,0.90513280,-0.12011193,-0.68083642,0.77354329,0.55410631,-0.40422881,-0.24564667,-0.89603498,0.23218192,-0.49934563,-0.57231069,0.35573379,0.53749327
8.82000000,0.14560912,0.90513280,-0.12011193,-0.68083642,0.77354329,0.55410631,-0.40422881,-0.24564667,-0.89603498,0.23218192,-0.49934563,-0.57231069,0.35573379,0.53749327
8.84000000,0.14560912,0.90513280,-0.12011193,-0.68083642,0.77354329,0.55410631,-0.40422881,-0.24564667,-0.89603498,0.23218192,-0.49934563,-0.57231069,0.35573379,0.53749327
8.86000000,0.14560912,0.90513280,-0.12011193,-0.68083642,0.77354329,0.55410631,-0.40422881,-0.24564667,-0.89603498,0.23218192,-0.49934563,-0.57231069,0.35573379,0.53749327
8.88000000,0.14560912,0.90513280,-0.12011193,-0.68083642,0.77354329,0.55410631,-0.40422881,-0.24564667,-0.89603498,0.23218192,-0.49934563,-0.57231069,0.35573379,0.53749327
8.90000000,0.14560912,0.90513280,-0.12011193,-0.68083642,0.77354329,0.55410631,-0.40422881,-0.24564667,-0.89603498,0.23218192,-0.49934563,-0.57231069,0.35573379,0.53749327
8.92000000,0.14560912,0.90513280,-0.12011193,-0.68083642,0.77354329,0.55410631,-0.40422881,-0.24564667,-0.89603498,0.23218192,-0.49934563,-0.57231069,0.35573379,0.53749327
8.94000000,0.14560912,0.90513280,-0.12011193,-0.68083642,0.77354329,0.55410631,-0.40422881,-0.24564667,-0.89603498,0.23218192,-0.49934563,-0.57231069,0.35573379,0.53749327
8.96000000,0.14560912,0.90513280,-0.12011193,-0.68083642,0.77354329,0.55410631,-0.40422881,-0.24564667,-0.89603498,0.23218192,-0.49934563,-0.57231069,0.35573379,0.53749327
8.98000000,0.14560912,0.90513280,-0.12011193,-0.68083642,0.77354329,0.55410631,-0.40422881,-0.24564667,-0.89603498,0.23218192,-0.49934563,-0.57231069,0.35573379,0.53749327
9.00000000,0.14560912,0.90513280,-0.12011193,-0.68083642,0.77354329,0.55410631,-0.40422881,-0.24564667,-0.89603498,0.23218192,-0.49934563,-0.57231069,0.35573379,0.53749327
9.02000000,0.14560912,0.90513280,-0.12011193,-0.68083642,0.77354329,0.55410631,-0.40422881,-0.24564667,-0.89603498,0.23218192,-0.49934563,-0.57231069,0.35573379,0.53749327
9.04000000,0.14560912,0.90513280,-0.12011193,-0.68083642,0.77354329,0.55410631,-0.40422881,-0.24564667,-0.89603498,0.23218192,-0.49934563,-0.57231069,0.35573379,0.53749327
9.06000000,0.14560912,0.90513280,-0.12011193,-0.68083642,0.77354329,0.55410631,-0.40422881,-0.24564667,-0.89603498,0.23218192,-0.49934563,-0.57231069,0.35573379,0.53749327
9.08000000,0.14560912,0.90513280,-0.12011193,-0.68083642,0.77354329,0.55410631,-0.40422881,-0.24564667,-0.89603498,0.23218192,-0.49934563,-0.57231069,0.35573379,0.53749327
9.10000000,0.14560912,0.90513280,-0.12011193,-0.68083642,0.77354329,0.55410631,-0.40422881,-0.24564667,-0.89603498,0.23218192,-0.49934563,-0.57231069,0.35573379,0.53749327
9.12000000,0.14560912,0.90513280,-0.12011193,-0.68083642,0.77354329,0.55410631,-0.40422881,-0.24564667,-0.89603498,0.23218192,-0.49934563,-0.57231069,0.35573379,0.53749327
9.14000000,0.14560912,0.90513280,-0.12011193,-0.68083642,0.77354329,0.55410631,-0.40422881,-0.24564667,-0.89603498,0.23218192,-0.49934563,-0.57231069,0.35573379,0.53749327
9.16000000,0.14560912,0.90513280,-0.12011193,-0.68083642,0.77354329,0.55410631,-0.40422881,-0.24564667,-0.89603498,0.23218192,-0.49934563,-0.57231069,0.35573379,0.53749327
9.18000000,0.14560912,0.90513280,-0.12011193,-0.68083642,0.77354329,0.55410631,-0.40422881,-0.24564667,-0.89603498,0.23218192,-0.49934563,-0.57231069,0.35573379,0.53749327
9.20000000,0.14560912,0.90513280,-0.12011193,-0.68083642,0.77354329,0.55410631,-0.40422881,-0.24564667,-0.89603498,0.23218192,-0.49934563,-0.57231069,0.35573379,0.53749327
9.22000000,0.14560912,0.90513280,-0.12011193,-0.68083642,0.77354329,0.55410631,-0.40422881,-0.24564667,-0.89603498,0.23218192,-0.49934563,-0.57231069,0.35573379,0.53749327
9.24000000,0.14560912,0.90513280,-0.12011193,-0.68083642,0.77354329,0.55410631,-0.40422881,-0.24564667,-0.89603498,0.23218192,-0.49934563,-0.57231069,0.35573379,0.53749327
9.26000000,0.14560912,0.90513280,-0.12011193,-0.68083642,0.77354329,0.55410631,-0.40422881,-0.24564667,-0.89603498,0.23218192,-0.49934563,-0.57231069,0.35573379,0.53749327
9.28000000,0.14560912,0.90513280,-0.12011193,-0.68083642,0.77354329,0.55410631,-0.40422881,-0.24564667,-0.89603498,0.23218192,-0.49934563,-0.57231069,0.35573379,0.53749327
9.30000000,0.14560912,0.90513280,-0.12011193,-0.68083642,0.77354329,0.55410631,-0.40422881,-0.24564667,-0.89603498,0.23218192,-0.49934563,-0.57231069,0.35573379,0.53749327
9.32000000,0.14560912,0.90513280,-0.12011193,-0.68083642,0.77354329,0.55410631,-0.40422881,-0.24564667,-0.89603498,0.23218192,-0.49934563,-0.57231069,0.35573379,0.53749327
9.34000000,0.14560912,0.90513280,-0.12011193,-0.68083642,0.77354329,0.55410631,-0.40422881,-0.24564667,-0.89603498,0.23218192,-0.49934563,-0.57231069,0.35573379,0.53749327
9.36000000,0.14560912,0.90513280,-0.12011193,-0.68083642,0.77354329,0.55410631,-0.40422881,-0.24564667,-0.89603498,0.23218192,-0.49934563,-0.57231069,0.35573379,0.53749327
9.38000000,0.14560912,0.90513280,-0.12011193,-0.68083642,0.77354329,0.55410631,-0.40422881,-0.24564667,-0.89603498,0.23218192,-0.49934563,-0.57231069,0.35573379,0.53749327
9.40000000,0.14560912,0.90513280,-0.12011193,-0.68083642,0.77354329,0.55410631,-0.40422881,-0.24564667,-0.89603498,0.23218192,-0.49934563,-0.57231069,0.35573379,0.53749327
9.42000000,0.14560912,0.90513280,-0.12011193,-0.68083642,0.77354329,0.55410631,-0.40422881,-0.24564667,-0.89603498,0.23218192,-0.49934563,-0.57231069,0.35573379,0.53749327
9.44000000,0.14560912,0.90513280,-0.12011193,-0.68083642,0.77354329,0.55410631,-0.40422881,-0.24564667,-0.89603498,0.23218192,-0.49934563,-0.57231069,0.35573379,0.53749327
9.46000000,0.14560912,0.90513280,-0.12011193,-0.68083642,0.77354329,0.55410631,-0.40422881,-0.24564667,-0.89603498,0.23218192,-0.49934563,-0.57231069,0.35573379,0.53749327
9.48000000,0.14560912,0.90513280,-0.12011193,-0.68083642,0.77354329,0.55410631,-0.40422881,-0.24564667,-0.89603498,0.23218192,-0.49934563,-0.57231069,0.35573379,0.53749327
9.50000000,0.14560912,0.90513280,-0.12011193,-0.68083642,0.77354329,0.55410631,-0.40422881,-0.24564667,-0.89603498,0.23218192,-0.49934563,-0.57231069,0.35573379,0.53749327
9.52000000,0.14560912,0.90513280,-0.12011193,-0.68083642,0.77354329,0.55410631,-0.40422881,-0.24564667,-0.89603498,0.23218192,-0.49934563,-0.57231069,0.35573379,0.53749327
9.54000000,0.14560912,0.90513280,-0.12011193,-0.68083642,0.77354329,0.55410631,-0.40422881,-0.24564667,-0.89603498,0.23218192,-0.49934563,-0.57231069,0.35573379,0.53749327
9.56000000,0.14560912,0.90513280,-0.12011193,-0.68083642,0.77354329,0.55410631,-0.40422881,-0.24564667,-0.89603498,0.23218192,-0.49934563,-0.57231069,0.35573379,0.53749327
9.58000000,0.14560912,0.90513280,-0.12011193,-0.68083642,0.77354329,0.55410631,-0.40422881,-0.24564667,-0.89603498,0.23218192,-0.49934563,-0.57231069,0.35573379,0.53749327
9.60000000,0.14560912,0.90513280,-0.12011193,-0.68083642,0.77354329,0.55410631,-0.40422881,-0.24564667,-0.89603498,0.23218192,-0.49934563,-0.57231069,0.35573379,0.53749327
9.62000000,0.14560912,0.90513280,-0.12011193,-0.68083642,0.77354329,0.55410631,-0.40422881,-0.24564667,-0.89603498,0.23218192,-0.49934563,-0.57231069,0.35573379,0.53749327
9.64000000,0.14560912,0.90513280,-0.12011193,-0.68083642,0.77354329,0.55410631,-0.40422881,-0.24564667,-0.89603498,0.23218192,-0.49934563,-0.57231069,0.35573379,0.53749327
9.66000000,0.14560912,0.90513280,-0.12011193,-0.68083642,0.77354329,0.55410631,-0.40422881,-0.24564667,-0.89603498,0.23218192,-0.49934563,-0.57231069,0.35573379,0.53749327
9.68000000,0.14560912,0.90513280,-0.12011193,-0.68083642,0.77354329,0.55410631,-0.40422881,-0.24564667,-0.89603498,0.23218192,-0.49934563,-0.57231069,0.35573379,0.53749327
9.70000000,0.14560912,0.90513280,-0.12011193,-0.68083642,0.77354329,0.55410631,-0.40422881,-0.24564667,-0.89603498,0.23218192,-0.49934563,-0.57231069,0.35573379,0.53749327
9.72000000,0.14560912,0.90513280,-0.12011193,-0.68083642,0.77354329,0.55410631,-0.40422881,-0.24564667,-0.89603498,0.23218192,-0.49934563,-0.57231069,0.35573379,0.53749327
9.74000000,0.14560912,0.90513280,-0.12011193,-0.68083642,0.77354329,0.55410631,-0.40422881,-0.24564667,-0.89603498,0.23218192,-0.49934563,-0.57231069,0.35573379,0.53749327
9.76000000,0.14560912,0.90513280,-0.12011193,-0.68083642,0.77354329,0.55410631,-0.40422881,-0.24564667,-0.89603498,0.23218192,-0.49934563,-0.57231069,0.35573379,0.53749327
9.78000000,0.14560912,0.90513280,-0.12011193,-0.68083642,0.77354329,0.55410631,-0.40422881,-0.24564667,-0.89603498,0.23218192,-0.49934563,-0.57231069,0.35573379,0.53749327
9.80000000,0.14560912,0.90513280,-0.12011193,-0.68083642,0.77354329,0.55410631,-0.40422881,-0.24564667,-0.89603498,0.23218192,-0.49934563,-0.57231069,0.35573379,0.53749327
9.82000000,0.14560912,0.90513280,-0.12011193,-0.68083642,0.77354329,0.55410631,-0.40422881,-0.24564667,-0.89603498,0.23218192,-0.49934563,-0.57231069,0.35573379,0.53749327
9.84000000,0.14560912,0.90513280,-0.12011193,-0.68083642,0.77354329,0.55410631,-0.40422881,-0.24564667,-0.89603498,0.23218192,-0.49934563,-0.57231069,0.35573379,0.53749327
9.86000000,0.14560912,0.90513280,-0.12011193,-0.68083642,0.77354329,0.55410631,-0.40422881,-0.24564667,-0.89603498,0.23218192,-0.49934563,-0.57231069,0.35573379,0.53749327
9.88000000,0.14560912,0.90513280,-0.12011193,-0.68083642,0.77354329,0.55410631,-0.40422881,-0.24564667,-0.89603498,0.23218192,-0.49934563,-0.57231069,0.35573379,0.53749327
9.90000000,0.14560912,0.90513280,-0.12011193,-0.68083642,0.77354329,0.55410631,-0.40422881,-0.24564667,-0.89603498,0.23218192,-0.49934563,-0.57231069,0.35573379,0.53749327
9.92000000,0.14560912,0.90513280,-0.12011193,-0.68083642,0.77354329,0.55410631,-0.40422881,-0.24564667,-0.89603498,0.23218192,-0.49934563,-0.57231069,0.35573379,0.53749327
9.94000000,0.14560912,0.90513280,-0.12011193,-0.68083642,0.77354329,0.55410631,-0.40422881,-0.24564667,-0.89603498,0.23218192,-0.49934563,-0.57231069,0.35573379,0.53749327
9.96000000,0.14560912,0.90513280,-0.12011193,-0.68083642,0.77354329,0.55410631,-0.40422881,-0.24564667,-0.89603498,0.23218192,-0.49934563,-0.57231069,0.35573379,0.53749327
9.98000000,0.14560912,0.90513280,-0.12011193,-0.68083642,0.77354329,0.55410631,-0.40422881,-0.24564667,-0.89603498,0.23218192,-0.49934563,-0.57231069,0.35573379,0.53749327
10.00000000,0.14560912,0.90513280,-0.12011193,-0.68083642,0.77354329,0.55410631,-0.40422881,-0.24564667,-0.89603498,0.23218192,-0.49934563,-0.57231069,0.35573379,0.53749327
10.02000000,0.14560912,0.90513280,-0.12011193,-0.68083642,0.77354329,0.55410631,-0.40422881,-0.24564667,-0.89603498,0.23218192,-0.49934563,-0.57231069,0.35573379,0.53749327
10.04000000,0.14560912,0.90513280,-0.12011193,-0.68083642,0.77354329,0.55410631,-0.40422881,-0.24564667,-0.89603498,0.23218192,-0.49934563,-0.57231069,0.35573379,0.53749327
10.06000000,0.14560912,0.90513280,-0.12011193,-0.68083642,0.77354329,0.55410631,-0.40422881,-0.24564667,-0.89603498,0.23218192,-0.49934563,-0.57231069,0.35573379,0.53749327
10.08000000,0.14560912,0.90513280,-0.12011193,-0.68083642,0.77354329,0.55410631,-0.40422881,-0.24564667,-0.89603498,0.23218192,-0.49934563,-0.57231069,0.35573379,0.53749327
10.10000000,0.14560912,0.90513280,-0.12011193,-0.68083642,0.77354329,0.55410631,-0.40422881,-0.24564667,-0.89603498,0.23218192,-0.49934563,-0.57231069,0.35573379,0.53749327
10.12000000,0.14560912,0.90513280,-0.12011193,-0.68083642,0.77354329,0.55410631,-0.40422881,-0.24564667,-0.89603498,0.23218192,-0.49934563,-0.57231069,0.35573379,0.53749327
10.14000000,0.14560912,0.90513280,-0.12011193,-0.68083642,0.77354329,0.55410631,-0.40422881,-0.24564667,-0.89603498,0.23218192,-0.49934563,-0.57231069,0.35573379,0.53749327
10.16000000,0.14560912,0.90513280,-0.12011193,-0.68083642,0.77354329,0.55410631,-0.40422881,-0.24564667,-0.89603498,0.23218192,-0.49934563,-0.57231069,0.35573379,0.53749327
10.18000000,0.14560912,0.90513280,-0.12011193,-0.68083642,0.77354329,0.55410631,-0.40422881,-0.24564667,-0.89603498,0.23218192,-0.49934563,-0.57231069,0.35573379,0.53749327
10.20000000,0.14560912,0.90513280,-0.12011193,-0.68083642,0.77354329,0.55410631,-0.40422881,-0.24564667,-0.89603498,0.23218192,-0.49934563,-0.57231069,0.35573379,0.53749327
10.22000000,0.14560912,0.90513280,-0.12011193,-0.68083642,0.77354329,0.55410631,-0.40422881,-0.24564667,-0.89603498,0.23218192,-0.49934563,-0.57231069,0.35573379,0.53749327
10.24000000,0.14560912,0.90513280,-0.12011193,-0.68083642,0.77354329,0.55410631,-0.40422881,-0.24564667,-0.89603498,0.23218192,-0.49934563,-0.57231069,0.35573379,0.53749327
10.26000000,0.14560912,0.90513280,-0.12011193,-0.68083642,0.77354329,0.55410631,-0.40422881,-0.24564667,-0.89603498,0.23218192,-0.49934563,-0.57231069,0.35573379,0.53749327
10.28000000,0.14560912,0.90513280,-0.12011193,-0.68083642,0.77354329,0.55410631,-0.40422881,-0.24564667,-0.89603498,0.23218192,-0.49934563,-0.57231069,0.35573379,0.53749327
10.30000000,0.14560912,0.90513280,-0.12011193,-0.68083642,0.77354329,0.55410631,-0.40422881,-0.24564667,-0.89603498,0.23218192,-0.49934563,-0.57231069,0.35573379,0.53749327
10.32000000,0.14560912,0.90513280,-0.12011193,-0.68083642,0.77354329,0.55410631,-0.40422881,-0.24564667,-0.89603498,0.23218192,-0.49934563,-0.57231069,0.35573379,0.53749327
10.34000000,0.14560912,0.90513280,-0.12011193,-0.68083642,0.77354329,0.55410631,-0.40422881,-0.24564667,-0.89603498,0.23218192,-0.49934563,-0.57231069,0.35573379,0.53749327
10.36000000,0.14560912,0.90513280,-0.12011193,-0.68083642,0.77354329,0.55410631,-0.40422881,-0.24564667,-0.89603498,0.23218192,-0.49934563,-0.57231069,0.35573379,0.53749327
10.38000000,0.14560912,0.90513280,-0.12011193,-0.68083642,0.77354329,0.55410631,-0.40422881,-0.24564667,-0.89603498,0.23218192,-0.49934563,-0.57231069,0.35573379,0.53749327
10.40000000,0.14560912,0.90513280,-0.12011193,-0.68083642,0.77354329,0.55410631,-0.40422881,-0.24564667,-0.89603498,0.23218192,-0.49934563,-0.57231069,0.35573379,0.53749327
10.42000000,0.14560912,0.90513280,-0.12011193,-0.68083642,0.77354329,0.55410631,-0.40422881,-0.24564667,-0.89603498,0.23218192,-0.49934563,-0.57231069,0.35573379,0.53749327
10.44000000,0.14560912,0.90513280,-0.12011193,-0.68083642,0.77354329,0.55410631,-0.40422881,-0.24564667,-0.89603498,0.23218192,-0.49934563,-0.57231069,0.35573379,0.53749327
10.46000000,0.14560912,0.90513280,-0.12011193,-0.68083642,0.77354329,0.55410631,-0.40422881,-0.24564667,-0.89603498,0.23218192,-0.49934563,-0.57231069,0.35573379,0.53749327
10.48000000,0.14560912,0.90513280,-0.12011193,-0.68083642,0.77354329,0.55410631,-0.40422881,-0.24564667,-0.89603498,0.23218192,-0.49934563,-0.57231069,0.35573379,0.53749327
10.50000000,0.14560912,0.90513280,-0.12011193,-0.68083642,0.77354329,0.55410631,-0.40422881,-0.24564667,-0.89603498,0.23218192,-0.49934563,-0.57231069,0.35573379,0.53749327
10.52000000,0.14560912,0.90513280,-0.12011193,-0.68083642,0.77354329,0.55410631,-0.40422881,-0.24564667,-0.89603498,0.23218192,-0.49934563,-0.57231069,0.35573379,0.53749327
10.54000000,0.14560912,0.90513280,-0.12011193,-0.68083642,0.77354329,0.55410631,-0.40422881,-0.24564667,-0.89603498,0.23218192,-0.49934563,-0.57231069,0.35573379,0.53749327
10.56000000,0.14560912,0.90513280,-0.12011193,-0.68083642,0.77354329,0.55410631,-0.40422881,-0.24564667,-0.89603498,0.23218192,-0.49934563,-0.57231069,0.35573379,0.53749327
10.58000000,0.14560912,0.90513280,-0.12011193,-0.68083642,0.77354329,0.55410631,-0.40422881,-0.24564667,-0.89603498,0.23218192,-0.49934563,-0.57231069,0.35573379,0.53749327
10.60000000,0.14560912,0.90513280,-0.12011193,-0.68083642,0.77354329,0.55410631,-0.40422881,-0.24564667,-0.89603498,0.23218192,-0.49934563,-0.57231069,0.35573379,0.53749327
10.62000000,0.14560912,0.90513280,-0.12011193,-0.68083642,0.77354329,0.55410631,-0.40422881,-0.24564667,-0.89603498,0.23218192,-0.49934563,-0.57231069,0.35573379,0.53749327
10.64000000,0.14560912,0.90513280,-0.12011193,-0.68083642,0.77354329,0.55410631,-0.40422881,-0.24564667,-0.89603498,0.23218192,-0.49934563,-0.57231069,0.35573379,0.53749327
10.66000000,0.14560912,0.90513280,-0.12011193,-0.68083642,0.77354329,0.55410631,-0.40422881,-0.24564667,-0.89603498,0.23218192,-0.49934563,-0.57231069,0.35573379,0.53749327
10.68000000,0.14560912,0.90513280,-0.12011193,-0.68083642,0.77354329,0.55410631,-0.40422881,-0.24564667,-0.89603498,0.23218192,-0.49934563,-0.57231069,0.35573379,0.53749327
10.70000000,0.14560912,0.90513280,-0.12011193,-0.68083642,0.77354329,0.55410631,-0.40422881,-0.24564667,-0.89603498,0.23218192,-0.49934563,-0.57231069,0.35573379,0.53749327
10.72000000,0.14560912,0.90513280,-0.12011193,-0.68083642,0.77354329,0.55410631,-0.40422881,-0.24564667,-0.89603498,0.23218192,-0.49934563,-0.57231069,0.35573379,0.53749327
10.74000000,0.14560912,0.90513280,-0.12011193,-0.68083642,0.77354329,0.55410631,-0.40422881,-0.24564667,-0.89603498,0.23218192,-0.49934563,-0.57231069,0.35573379,0.53749327
10.76000000,0.14560912,0.90513280,-0.12011193,-0.68083642,0.77354329,0.55410631,-0.40422881,-0.24564667,-0.89603498,0.23218192,-0.49934563,-0.57231069,0.35573379,0.53749327
10.78000000,0.14560912,0.90513280,-0.12011193,-0.68083642,0.77354329,0.55410631,-0.40422881,-0.24564667,-0.89603498,0.23218192,-0.49934563,-0.57231069,0.35573379,0.53749327
10.80000000,0.14560912,0.90513280,-0.12011193,-0.68083642,0.77354329,0.55410631,-0.40422881,-0.24564667,-0.89603498,0.23218192,-0.49934563,-0.57231069,0.35573379,0.53749327
10.82000000,0.14560912,0.90513280,-0.12011193,-0.68083642,0.77354329,0.55410631,-0.40422881,-0.24564667,-0.89603498,0.23218192,-0.49934563,-0.57231069,0.35573379,0.53749327
10.84000000,0.14560912,0.90513280,-0.12011193,-0.68083642,0.77354329,0.55410631,-0.40422881,-0.24564667,-0.89603498,0.23218192,-0.49934563,-0.57231069,0.35573379,0.53749327
10.86000000,0.14560912,0.90513280,-0.12011193,-0.68083642,0.77354329,0.55410631,-0.40422881,-0.24564667,-0.89603498,0.23218192,-0.49934563,-0.57231069,0.35573379,0.53749327
10.88000000,0.14560912,0.90513280,-0.12011193,-0.68083642,0.77354329,0.55410631,-0.40422881,-0.24564667,-0.89603498,0.23218192,-0.49934563,-0.57231069,0.35573379,0.53749327
10.90000000,0.14560912,0.90513280,-0.12011193,-0.68083642,0.77354329,0.55410631,-0.40422881,-0.24564667,-0.89603498,0.23218192,-0.49934563,-0.57231069,0.35573379,0.53749327
10.92000000,0.14560912,0.90513280,-0.12011193,-0.68083642,0.77354329,0.55410631,-0.40422881,-0.24564667,-0.89603498,0.23218192,-0.49934563,-0.57231069,0.35573379,0.53749327
10.94000000,0.14560912,0.90513280,-0.12011193,-0.68083642,0.77354329,0.55410631,-0.40422881,-0.24564667,-0.89603498,0.23218192,-0.49934563,-0.57231069,0.35573379,0.53749327
10.96000000,0.14560912,0.90513280,-0.12011193,-0.68083642,0.77354329,0.55410631,-0.40422881,-0.24564667,-0.89603498,0.23218192,-0.49934563,-0.57231069,0.35573379,0.53749327
10.98000000,0.14560912,0.90513280,-0.12011193,-0.68083642,0.77354329,0.55410631,-0.40422881,-0.24564667,-0.89603498,0.23218192,-0.49934563,-0.57231069,0.35573379,0.53749327
11.00000000,0.14560912,0.90513280,-0.12011193,-0.68083642,0.77354329,0.55410631,-0.40422881,-0.24564667,-0.89603498,0.23218192,-0.49934563,-0.57231069,0.35573379,0.53749327
11.02000000,0.14560912,0.90513280,-0.12011193,-0.68083642,0.77354329,0.55410631,-0.40422881,-0.24564667,-0.89603498,0.23218192,-0.49934563,-0.57231069,0.35573379,0.53749327
11.04000000,0.14560912,0.90513280,-0.12011193,-0.68083642,0.77354329,0.55410631,-0.40422881,-0.24564667,-0.89603498,0.23218192,-0.49934563,-0.57231069,0.35573379,0.53749327
11.06000000,0.14560912,0.90513280,-0.12011193,-0.68083642,0.77354329,0.55410631,-0.40422881,-0.24564667,-0.89603498,0.23218192,-0.49934563,-0.57231069,0.35573379,0.53749327
11.08000000,0.14560912,0.90513280,-0.12011193,-0.68083642,0.77354329,0.55410631,-0.40422881,-0.24564667,-0.89603498,0.23218192,-0.49934563,-0.57231069,0.35573379,0.53749327
11.10000000,0.14560912,0.90513280,-0.12011193,-0.68083642,0.77354329,0.55410631,-0.40422881,-0.24564667,-0.89603498,0.23218192,-0.49934563,-0.57231069,0.35573379,0.53749327
11.12000000,0.14560912,0.90513280,-0.12011193,-0.68083642,0.77354329,0.55410631,-0.40422881,-0.24564667,-0.89603498,0.23218192,-0.49934563,-0.57231069,0.35573379,0.53749327
11.14000000,0.14560912,0.90513280,-0.12011193,-0.68083642,0.77354329,0.55410631,-0.40422881,-0.24564667,-0.89603498,0.23218192,-0.49934563,-0.57231069,0.35573379,0.53749327
11.16000000,0.14560912,0.90513280,-0.12011193,-0.68083642,0.77354329,0.55410631,-0.40422881,-0.24564667,-0.89603498,0.23218192,-0.49934563,-0.57231069,0.35573379,0.53749327
11.18000000,0.14560912,0.90513280,-0.12011193,-0.68083642,0.77354329,0.55410631,-0.40422881,-0.24564667,-0.89603498,0.23218192,-0.49934563,-0.57231069,0.35573379,0.53749327
11.20000000,0.14560912,0.90513280,-0.12011193,-0.68083642,0.77354329,0.55410631,-0.40422881,-0.24564667,-0.89603498,0.23218192,-0.49934563,-0.57231069,0.35573379,0.53749327
11.22000000,0.14560912,0.90513280,-0.12011193,-0.68083642,0.77354329,0.55410631,-0.40422881,-0.24564667,-0.89603498,0.23218192,-0.49934563,-0.57231069,0.35573379,0.53749327
11.24000000,0.14560912,0.90513280,-0.12011193,-0.68083642,0.77354329,0.55410631,-0.40422881,-0.24564667,-0.89603498,0.23218192,-0.49934563,-0.57231069,0.35573379,0.53749327
11.26000000,0.14560912,0.90513280,-0.12011193,-0.68083642,0.77354329,0.55410631,-0.40422881,-0.24564667,-0.89603498,0.23218192,-0.49934563,-0.57231069,0.35573379,0.53749327
11.28000000,0.14560912,0.90513280,-0.12011193,-0.68083642,0.77354329,0.55410631,-0.40422881,-0.24564667,-0.89603498,0.23218192,-0.49934563,-0.57231069,0.35573379,0.53749327
11.30000000,0.14560912,0.90513280,-0.12011193,-0.68083642,0.77354329,0.55410631,-0.40422881,-0.24564667,-0.89603498,0.23218192,-0.49934563,-0.57231069,0.35573379,0.53749327
11.32000000,0.14560912,0.90513280,-0.12011193,-0.68083642,0.77354329,0.55410631,-0.40422881,-0.24564667,-0.89603498,0.23218192,-0.49934563,-0.57231069,0.35573379,0.53749327
11.34000000,0.14560912,0.90513280,-0.12011193,-0.68083642,0.77354329,0.55410631,-0.40422881,-0.24564667,-0.89603498,0.23218192,-0.49934563,-0.57231069,0.35573379,0.53749327
11.36000000,0.14560912,0.90513280,-0.12011193,-0.68083642,0.77354329,0.55410631,-0.40422881,-0.24564667,-0.89603498,0.23218192,-0.49934563,-0.57231069,0.35573379,0.53749327
11.38000000,0.14560912,0.90513280,-0.12011193,-0.68083642,0.77354329,0.55410631,-0.40422881,-0.24564667,-0.89603498,0.23218192,-0.49934563,-0.57231069,0.35573379,0.53749327
11.40000000,0.14560912,0.90513280,-0.12011193,-0.68083642,0.77354329,0.55410631,-0.40422881,-0.24564667,-0.89603498,0.23218192,-0.49934563,-0.57231069,0.35573379,0.53749327
11.42000000,0.14560912,0.90513280,-0.12011193,-0.68083642,0.77354329,0.55410631,-0.40422881,-0.24564667,-0.89603498,0.23218192,-0.49934563,-0.57231069,0.35573379,0.53749327
11.44000000,0.14560912,0.90513280,-0.12011193,-0.68083642,0.77354329,0.55410631,-0.40422881,-0.24564667,-0.89603498,0.23218192,-0.49934563,-0.57231069,0.35573379,0.53749327
11.46000000,0.14560912,0.90513280,-0.12011193,-0.68083642,0.77354329,0.55410631,-0.40422881,-0.24564667,-0.89603498,0.23218192,-0.49934563,-0.57231069,0.35573379,0.53749327
11.48000000,0.14560912,0.90513280,-0.12011193,-0.68083642,0.77354329,0.55410631,-0.40422881,-0.24564667,-0.89603498,0.23218192,-0.49934563,-0.57231069,0.35573379,0.53749327
11.50000000,0.14560912,0.90513280,-0.12011193,-0.68083642,0.77354329,0.55410631,-0.40422881,-0.24564667,-0.89603498,0.23218192,-0.49934563,-0.57231069,0.35573379,0.53749327
11.52000000,0.14560912,0.90513280,-0.12011193,-0.68083642,0.77354329,0.55410631,-0.40422881,-0.24564667,-0.89603498,0.23218192,-0.49934563,-0.57231069,0.35573379,0.53749327
11.54000000,0.14560912,0.90513280,-0.12011193,-0.68083642,0.77354329,0.55410631,-0.40422881,-0.24564667,-0.89603498,0.23218192,-0.49934563,-0.57231069,0.35573379,0.53749327
11.56000000,0.14560912,0.90513280,-0.12011193,-0.68083642,0.77354329,0.55410631,-0.40422881,-0.24564667,-0.89603498,0.23218192,-0.49934563,-0.57231069,0.35573379,0.53749327
