gracetata/LocomotionHEC/legged_lab/Reference Data/ArmHack/StandPerturb/TestData/ArmOnly/poses/synthesized/synthesized_arm_pose_01_seed20260714_hold20s_50hz.csv
time_s,left_shoulder_pitch_joint,left_shoulder_roll_joint,left_shoulder_yaw_joint,left_elbow_joint,left_wrist_roll_joint,left_wrist_pitch_joint,left_wrist_yaw_joint,right_shoulder_pitch_joint,right_shoulder_roll_joint,right_shoulder_yaw_joint,right_elbow_joint,right_wrist_roll_joint,right_wrist_pitch_joint,right_wrist_yaw_joint
0.00000000,-0.34488541,0.76838958,-0.36848763,-0.22734424,0.69565446,0.30600785,-0.45442463,0.27848299,-0.77838009,0.22941790,-0.47526225,-0.84818573,0.40058927,-0.04662855
0.02000000,-0.34488541,0.76838958,-0.36848763,-0.22734424,0.69565446,0.30600785,-0.45442463,0.27848299,-0.77838009,0.22941790,-0.47526225,-0.84818573,0.40058927,-0.04662855
0.04000000,-0.34488541,0.76838958,-0.36848763,-0.22734424,0.69565446,0.30600785,-0.45442463,0.27848299,-0.77838009,0.22941790,-0.47526225,-0.84818573,0.40058927,-0.04662855
0.06000000,-0.34488541,0.76838958,-0.36848763,-0.22734424,0.69565446,0.30600785,-0.45442463,0.27848299,-0.77838009,0.22941790,-0.47526225,-0.84818573,0.40058927,-0.04662855
0.08000000,-0.34488541,0.76838958,-0.36848763,-0.22734424,0.69565446,0.30600785,-0.45442463,0.27848299,-0.77838009,0.22941790,-0.47526225,-0.84818573,0.40058927,-0.04662855
0.10000000,-0.34488541,0.76838958,-0.36848763,-0.22734424,0.69565446,0.30600785,-0.45442463,0.27848299,-0.77838009,0.22941790,-0.47526225,-0.84818573,0.40058927,-0.04662855
0.12000000,-0.34488541,0.76838958,-0.36848763,-0.22734424,0.69565446,0.30600785,-0.45442463,0.27848299,-0.77838009,0.22941790,-0.47526225,-0.84818573,0.40058927,-0.04662855
0.14000000,-0.34488541,0.76838958,-0.36848763,-0.22734424,0.69565446,0.30600785,-0.45442463,0.27848299,-0.77838009,0.22941790,-0.47526225,-0.84818573,0.40058927,-0.04662855
0.16000000,-0.34488541,0.76838958,-0.36848763,-0.22734424,0.69565446,0.30600785,-0.45442463,0.27848299,-0.77838009,0.22941790,-0.47526225,-0.84818573,0.40058927,-0.04662855
0.18000000,-0.34488541,0.76838958,-0.36848763,-0.22734424,0.69565446,0.30600785,-0.45442463,0.27848299,-0.77838009,0.22941790,-0.47526225,-0.84818573,0.40058927,-0.04662855
0.20000000,-0.34488541,0.76838958,-0.36848763,-0.22734424,0.69565446,0.30600785,-0.45442463,0.27848299,-0.77838009,0.22941790,-0.47526225,-0.84818573,0.40058927,-0.04662855
0.22000000,-0.34488541,0.76838958,-0.36848763,-0.22734424,0.69565446,0.30600785,-0.45442463,0.27848299,-0.77838009,0.22941790,-0.47526225,-0.84818573,0.40058927,-0.04662855
0.24000000,-0.34488541,0.76838958,-0.36848763,-0.22734424,0.69565446,0.30600785,-0.45442463,0.27848299,-0.77838009,0.22941790,-0.47526225,-0.84818573,0.40058927,-0.04662855
0.26000000,-0.34488541,0.76838958,-0.36848763,-0.22734424,0.69565446,0.30600785,-0.45442463,0.27848299,-0.77838009,0.22941790,-0.47526225,-0.84818573,0.40058927,-0.04662855
0.28000000,-0.34488541,0.76838958,-0.36848763,-0.22734424,0.69565446,0.30600785,-0.45442463,0.27848299,-0.77838009,0.22941790,-0.47526225,-0.84818573,0.40058927,-0.04662855
0.30000000,-0.34488541,0.76838958,-0.36848763,-0.22734424,0.69565446,0.30600785,-0.45442463,0.27848299,-0.77838009,0.22941790,-0.47526225,-0.84818573,0.40058927,-0.04662855
0.32000000,-0.34488541,0.76838958,-0.36848763,-0.22734424,0.69565446,0.30600785,-0.45442463,0.27848299,-0.77838009,0.22941790,-0.47526225,-0.84818573,0.40058927,-0.04662855
0.34000000,-0.34488541,0.76838958,-0.36848763,-0.22734424,0.69565446,0.30600785,-0.45442463,0.27848299,-0.77838009,0.22941790,-0.47526225,-0.84818573,0.40058927,-0.04662855
0.36000000,-0.34488541,0.76838958,-0.36848763,-0.22734424,0.69565446,0.30600785,-0.45442463,0.27848299,-0.77838009,0.22941790,-0.47526225,-0.84818573,0.40058927,-0.04662855
0.38000000,-0.34488541,0.76838958,-0.36848763,-0.22734424,0.69565446,0.30600785,-0.45442463,0.27848299,-0.77838009,0.22941790,-0.47526225,-0.84818573,0.40058927,-0.04662855
0.40000000,-0.34488541,0.76838958,-0.36848763,-0.22734424,0.69565446,0.30600785,-0.45442463,0.27848299,-0.77838009,0.22941790,-0.47526225,-0.84818573,0.40058927,-0.04662855
0.42000000,-0.34488541,0.76838958,-0.36848763,-0.22734424,0.69565446,0.30600785,-0.45442463,0.27848299,-0.77838009,0.22941790,-0.47526225,-0.84818573,0.40058927,-0.04662855
0.44000000,-0.34488541,0.76838958,-0.36848763,-0.22734424,0.69565446,0.30600785,-0.45442463,0.27848299,-0.77838009,0.22941790,-0.47526225,-0.84818573,0.40058927,-0.04662855
0.46000000,-0.34488541,0.76838958,-0.36848763,-0.22734424,0.69565446,0.30600785,-0.45442463,0.27848299,-0.77838009,0.22941790,-0.47526225,-0.84818573,0.40058927,-0.04662855
0.48000000,-0.34488541,0.76838958,-0.36848763,-0.22734424,0.69565446,0.30600785,-0.45442463,0.27848299,-0.77838009,0.22941790,-0.47526225,-0.84818573,0.40058927,-0.04662855
0.50000000,-0.34488541,0.76838958,-0.36848763,-0.22734424,0.69565446,0.30600785,-0.45442463,0.27848299,-0.77838009,0.22941790,-0.47526225,-0.84818573,0.40058927,-0.04662855
0.52000000,-0.34488541,0.76838958,-0.36848763,-0.22734424,0.69565446,0.30600785,-0.45442463,0.27848299,-0.77838009,0.22941790,-0.47526225,-0.84818573,0.40058927,-0.04662855
0.54000000,-0.34488541,0.76838958,-0.36848763,-0.22734424,0.69565446,0.30600785,-0.45442463,0.27848299,-0.77838009,0.22941790,-0.47526225,-0.84818573,0.40058927,-0.04662855
0.56000000,-0.34488541,0.76838958,-0.36848763,-0.22734424,0.69565446,0.30600785,-0.45442463,0.27848299,-0.77838009,0.22941790,-0.47526225,-0.84818573,0.40058927,-0.04662855
0.58000000,-0.34488541,0.76838958,-0.36848763,-0.22734424,0.69565446,0.30600785,-0.45442463,0.27848299,-0.77838009,0.22941790,-0.47526225,-0.84818573,0.40058927,-0.04662855
0.60000000,-0.34488541,0.76838958,-0.36848763,-0.22734424,0.69565446,0.30600785,-0.45442463,0.27848299,-0.77838009,0.22941790,-0.47526225,-0.84818573,0.40058927,-0.04662855
0.62000000,-0.34488541,0.76838958,-0.36848763,-0.22734424,0.69565446,0.30600785,-0.45442463,0.27848299,-0.77838009,0.22941790,-0.47526225,-0.84818573,0.40058927,-0.04662855
0.64000000,-0.34488541,0.76838958,-0.36848763,-0.22734424,0.69565446,0.30600785,-0.45442463,0.27848299,-0.77838009,0.22941790,-0.47526225,-0.84818573,0.40058927,-0.04662855
0.66000000,-0.34488541,0.76838958,-0.36848763,-0.22734424,0.69565446,0.30600785,-0.45442463,0.27848299,-0.77838009,0.22941790,-0.47526225,-0.84818573,0.40058927,-0.04662855
0.68000000,-0.34488541,0.76838958,-0.36848763,-0.22734424,0.69565446,0.30600785,-0.45442463,0.27848299,-0.77838009,0.22941790,-0.47526225,-0.84818573,0.40058927,-0.04662855
0.70000000,-0.34488541,0.76838958,-0.36848763,-0.22734424,0.69565446,0.30600785,-0.45442463,0.27848299,-0.77838009,0.22941790,-0.47526225,-0.84818573,0.40058927,-0.04662855
0.72000000,-0.34488541,0.76838958,-0.36848763,-0.22734424,0.69565446,0.30600785,-0.45442463,0.27848299,-0.77838009,0.22941790,-0.47526225,-0.84818573,0.40058927,-0.04662855
0.74000000,-0.34488541,0.76838958,-0.36848763,-0.22734424,0.69565446,0.30600785,-0.45442463,0.27848299,-0.77838009,0.22941790,-0.47526225,-0.84818573,0.40058927,-0.04662855
0.76000000,-0.34488541,0.76838958,-0.36848763,-0.22734424,0.69565446,0.30600785,-0.45442463,0.27848299,-0.77838009,0.22941790,-0.47526225,-0.84818573,0.40058927,-0.04662855
0.78000000,-0.34488541,0.76838958,-0.36848763,-0.22734424,0.69565446,0.30600785,-0.45442463,0.27848299,-0.77838009,0.22941790,-0.47526225,-0.84818573,0.40058927,-0.04662855
0.80000000,-0.34488541,0.76838958,-0.36848763,-0.22734424,0.69565446,0.30600785,-0.45442463,0.27848299,-0.77838009,0.22941790,-0.47526225,-0.84818573,0.40058927,-0.04662855
0.82000000,-0.34488541,0.76838958,-0.36848763,-0.22734424,0.69565446,0.30600785,-0.45442463,0.27848299,-0.77838009,0.22941790,-0.47526225,-0.84818573,0.40058927,-0.04662855
0.84000000,-0.34488541,0.76838958,-0.36848763,-0.22734424,0.69565446,0.30600785,-0.45442463,0.27848299,-0.77838009,0.22941790,-0.47526225,-0.84818573,0.40058927,-0.04662855
0.86000000,-0.34488541,0.76838958,-0.36848763,-0.22734424,0.69565446,0.30600785,-0.45442463,0.27848299,-0.77838009,0.22941790,-0.47526225,-0.84818573,0.40058927,-0.04662855
0.88000000,-0.34488541,0.76838958,-0.36848763,-0.22734424,0.69565446,0.30600785,-0.45442463,0.27848299,-0.77838009,0.22941790,-0.47526225,-0.84818573,0.40058927,-0.04662855
0.90000000,-0.34488541,0.76838958,-0.36848763,-0.22734424,0.69565446,0.30600785,-0.45442463,0.27848299,-0.77838009,0.22941790,-0.47526225,-0.84818573,0.40058927,-0.04662855
0.92000000,-0.34488541,0.76838958,-0.36848763,-0.22734424,0.69565446,0.30600785,-0.45442463,0.27848299,-0.77838009,0.22941790,-0.47526225,-0.84818573,0.40058927,-0.04662855
0.94000000,-0.34488541,0.76838958,-0.36848763,-0.22734424,0.69565446,0.30600785,-0.45442463,0.27848299,-0.77838009,0.22941790,-0.47526225,-0.84818573,0.40058927,-0.04662855
0.96000000,-0.34488541,0.76838958,-0.36848763,-0.22734424,0.69565446,0.30600785,-0.45442463,0.27848299,-0.77838009,0.22941790,-0.47526225,-0.84818573,0.40058927,-0.04662855
0.98000000,-0.34488541,0.76838958,-0.36848763,-0.22734424,0.69565446,0.30600785,-0.45442463,0.27848299,-0.77838009,0.22941790,-0.47526225,-0.84818573,0.40058927,-0.04662855
1.00000000,-0.34488541,0.76838958,-0.36848763,-0.22734424,0.69565446,0.30600785,-0.45442463,0.27848299,-0.77838009,0.22941790,-0.47526225,-0.84818573,0.40058927,-0.04662855
1.02000000,-0.34488541,0.76838958,-0.36848763,-0.22734424,0.69565446,0.30600785,-0.45442463,0.27848299,-0.77838009,0.22941790,-0.47526225,-0.84818573,0.40058927,-0.04662855
1.04000000,-0.34488541,0.76838958,-0.36848763,-0.22734424,0.69565446,0.30600785,-0.45442463,0.27848299,-0.77838009,0.22941790,-0.47526225,-0.84818573,0.40058927,-0.04662855
1.06000000,-0.34488541,0.76838958,-0.36848763,-0.22734424,0.69565446,0.30600785,-0.45442463,0.27848299,-0.77838009,0.22941790,-0.47526225,-0.84818573,0.40058927,-0.04662855
1.08000000,-0.34488541,0.76838958,-0.36848763,-0.22734424,0.69565446,0.30600785,-0.45442463,0.27848299,-0.77838009,0.22941790,-0.47526225,-0.84818573,0.40058927,-0.04662855
1.10000000,-0.34488541,0.76838958,-0.36848763,-0.22734424,0.69565446,0.30600785,-0.45442463,0.27848299,-0.77838009,0.22941790,-0.47526225,-0.84818573,0.40058927,-0.04662855
1.12000000,-0.34488541,0.76838958,-0.36848763,-0.22734424,0.69565446,0.30600785,-0.45442463,0.27848299,-0.77838009,0.22941790,-0.47526225,-0.84818573,0.40058927,-0.04662855
1.14000000,-0.34488541,0.76838958,-0.36848763,-0.22734424,0.69565446,0.30600785,-0.45442463,0.27848299,-0.77838009,0.22941790,-0.47526225,-0.84818573,0.40058927,-0.04662855
1.16000000,-0.34488541,0.76838958,-0.36848763,-0.22734424,0.69565446,0.30600785,-0.45442463,0.27848299,-0.77838009,0.22941790,-0.47526225,-0.84818573,0.40058927,-0.04662855
1.18000000,-0.34488541,0.76838958,-0.36848763,-0.22734424,0.69565446,0.30600785,-0.45442463,0.27848299,-0.77838009,0.22941790,-0.47526225,-0.84818573,0.40058927,-0.04662855
1.20000000,-0.34488541,0.76838958,-0.36848763,-0.22734424,0.69565446,0.30600785,-0.45442463,0.27848299,-0.77838009,0.22941790,-0.47526225,-0.84818573,0.40058927,-0.04662855
1.22000000,-0.34488541,0.76838958,-0.36848763,-0.22734424,0.69565446,0.30600785,-0.45442463,0.27848299,-0.77838009,0.22941790,-0.47526225,-0.84818573,0.40058927,-0.04662855
1.24000000,-0.34488541,0.76838958,-0.36848763,-0.22734424,0.69565446,0.30600785,-0.45442463,0.27848299,-0.77838009,0.22941790,-0.47526225,-0.84818573,0.40058927,-0.04662855
1.26000000,-0.34488541,0.76838958,-0.36848763,-0.22734424,0.69565446,0.30600785,-0.45442463,0.27848299,-0.77838009,0.22941790,-0.47526225,-0.84818573,0.40058927,-0.04662855
1.28000000,-0.34488541,0.76838958,-0.36848763,-0.22734424,0.69565446,0.30600785,-0.45442463,0.27848299,-0.77838009,0.22941790,-0.47526225,-0.84818573,0.40058927,-0.04662855
1.30000000,-0.34488541,0.76838958,-0.36848763,-0.22734424,0.69565446,0.30600785,-0.45442463,0.27848299,-0.77838009,0.22941790,-0.47526225,-0.84818573,0.40058927,-0.04662855
1.32000000,-0.34488541,0.76838958,-0.36848763,-0.22734424,0.69565446,0.30600785,-0.45442463,0.27848299,-0.77838009,0.22941790,-0.47526225,-0.84818573,0.40058927,-0.04662855
1.34000000,-0.34488541,0.76838958,-0.36848763,-0.22734424,0.69565446,0.30600785,-0.45442463,0.27848299,-0.77838009,0.22941790,-0.47526225,-0.84818573,0.40058927,-0.04662855
1.36000000,-0.34488541,0.76838958,-0.36848763,-0.22734424,0.69565446,0.30600785,-0.45442463,0.27848299,-0.77838009,0.22941790,-0.47526225,-0.84818573,0.40058927,-0.04662855
1.38000000,-0.34488541,0.76838958,-0.36848763,-0.22734424,0.69565446,0.30600785,-0.45442463,0.27848299,-0.77838009,0.22941790,-0.47526225,-0.84818573,0.40058927,-0.04662855
1.40000000,-0.34488541,0.76838958,-0.36848763,-0.22734424,0.69565446,0.30600785,-0.45442463,0.27848299,-0.77838009,0.22941790,-0.47526225,-0.84818573,0.40058927,-0.04662855
1.42000000,-0.34488541,0.76838958,-0.36848763,-0.22734424,0.69565446,0.30600785,-0.45442463,0.27848299,-0.77838009,0.22941790,-0.47526225,-0.84818573,0.40058927,-0.04662855
1.44000000,-0.34488541,0.76838958,-0.36848763,-0.22734424,0.69565446,0.30600785,-0.45442463,0.27848299,-0.77838009,0.22941790,-0.47526225,-0.84818573,0.40058927,-0.04662855
1.46000000,-0.34488541,0.76838958,-0.36848763,-0.22734424,0.69565446,0.30600785,-0.45442463,0.27848299,-0.77838009,0.22941790,-0.47526225,-0.84818573,0.40058927,-0.04662855
1.48000000,-0.34488541,0.76838958,-0.36848763,-0.22734424,0.69565446,0.30600785,-0.45442463,0.27848299,-0.77838009,0.22941790,-0.47526225,-0.84818573,0.40058927,-0.04662855
1.50000000,-0.34488541,0.76838958,-0.36848763,-0.22734424,0.69565446,0.30600785,-0.45442463,0.27848299,-0.77838009,0.22941790,-0.47526225,-0.84818573,0.40058927,-0.04662855
1.52000000,-0.34488541,0.76838958,-0.36848763,-0.22734424,0.69565446,0.30600785,-0.45442463,0.27848299,-0.77838009,0.22941790,-0.47526225,-0.84818573,0.40058927,-0.04662855
1.54000000,-0.34488541,0.76838958,-0.36848763,-0.22734424,0.69565446,0.30600785,-0.45442463,0.27848299,-0.77838009,0.22941790,-0.47526225,-0.84818573,0.40058927,-0.04662855
1.56000000,-0.34488541,0.76838958,-0.36848763,-0.22734424,0.69565446,0.30600785,-0.45442463,0.27848299,-0.77838009,0.22941790,-0.47526225,-0.84818573,0.40058927,-0.04662855
1.58000000,-0.34488541,0.76838958,-0.36848763,-0.22734424,0.69565446,0.30600785,-0.45442463,0.27848299,-0.77838009,0.22941790,-0.47526225,-0.84818573,0.40058927,-0.04662855
1.60000000,-0.34488541,0.76838958,-0.36848763,-0.22734424,0.69565446,0.30600785,-0.45442463,0.27848299,-0.77838009,0.22941790,-0.47526225,-0.84818573,0.40058927,-0.04662855
1.62000000,-0.34488541,0.76838958,-0.36848763,-0.22734424,0.69565446,0.30600785,-0.45442463,0.27848299,-0.77838009,0.22941790,-0.47526225,-0.84818573,0.40058927,-0.04662855
1.64000000,-0.34488541,0.76838958,-0.36848763,-0.22734424,0.69565446,0.30600785,-0.45442463,0.27848299,-0.77838009,0.22941790,-0.47526225,-0.84818573,0.40058927,-0.04662855
1.66000000,-0.34488541,0.76838958,-0.36848763,-0.22734424,0.69565446,0.30600785,-0.45442463,0.27848299,-0.77838009,0.22941790,-0.47526225,-0.84818573,0.40058927,-0.04662855
1.68000000,-0.34488541,0.76838958,-0.36848763,-0.22734424,0.69565446,0.30600785,-0.45442463,0.27848299,-0.77838009,0.22941790,-0.47526225,-0.84818573,0.40058927,-0.04662855
1.70000000,-0.34488541,0.76838958,-0.36848763,-0.22734424,0.69565446,0.30600785,-0.45442463,0.27848299,-0.77838009,0.22941790,-0.47526225,-0.84818573,0.40058927,-0.04662855
1.72000000,-0.34488541,0.76838958,-0.36848763,-0.22734424,0.69565446,0.30600785,-0.45442463,0.27848299,-0.77838009,0.22941790,-0.47526225,-0.84818573,0.40058927,-0.04662855
1.74000000,-0.34488541,0.76838958,-0.36848763,-0.22734424,0.69565446,0.30600785,-0.45442463,0.27848299,-0.77838009,0.22941790,-0.47526225,-0.84818573,0.40058927,-0.04662855
1.76000000,-0.34488541,0.76838958,-0.36848763,-0.22734424,0.69565446,0.30600785,-0.45442463,0.27848299,-0.77838009,0.22941790,-0.47526225,-0.84818573,0.40058927,-0.04662855
1.78000000,-0.34488541,0.76838958,-0.36848763,-0.22734424,0.69565446,0.30600785,-0.45442463,0.27848299,-0.77838009,0.22941790,-0.47526225,-0.84818573,0.40058927,-0.04662855
1.80000000,-0.34488541,0.76838958,-0.36848763,-0.22734424,0.69565446,0.30600785,-0.45442463,0.27848299,-0.77838009,0.22941790,-0.47526225,-0.84818573,0.40058927,-0.04662855
1.82000000,-0.34488541,0.76838958,-0.36848763,-0.22734424,0.69565446,0.30600785,-0.45442463,0.27848299,-0.77838009,0.22941790,-0.47526225,-0.84818573,0.40058927,-0.04662855
1.84000000,-0.34488541,0.76838958,-0.36848763,-0.22734424,0.69565446,0.30600785,-0.45442463,0.27848299,-0.77838009,0.22941790,-0.47526225,-0.84818573,0.40058927,-0.04662855
1.86000000,-0.34488541,0.76838958,-0.36848763,-0.22734424,0.69565446,0.30600785,-0.45442463,0.27848299,-0.77838009,0.22941790,-0.47526225,-0.84818573,0.40058927,-0.04662855
1.88000000,-0.34488541,0.76838958,-0.36848763,-0.22734424,0.69565446,0.30600785,-0.45442463,0.27848299,-0.77838009,0.22941790,-0.47526225,-0.84818573,0.40058927,-0.04662855
1.90000000,-0.34488541,0.76838958,-0.36848763,-0.22734424,0.69565446,0.30600785,-0.45442463,0.27848299,-0.77838009,0.22941790,-0.47526225,-0.84818573,0.40058927,-0.04662855
1.92000000,-0.34488541,0.76838958,-0.36848763,-0.22734424,0.69565446,0.30600785,-0.45442463,0.27848299,-0.77838009,0.22941790,-0.47526225,-0.84818573,0.40058927,-0.04662855
1.94000000,-0.34488541,0.76838958,-0.36848763,-0.22734424,0.69565446,0.30600785,-0.45442463,0.27848299,-0.77838009,0.22941790,-0.47526225,-0.84818573,0.40058927,-0.04662855
1.96000000,-0.34488541,0.76838958,-0.36848763,-0.22734424,0.69565446,0.30600785,-0.45442463,0.27848299,-0.77838009,0.22941790,-0.47526225,-0.84818573,0.40058927,-0.04662855
1.98000000,-0.34488541,0.76838958,-0.36848763,-0.22734424,0.69565446,0.30600785,-0.45442463,0.27848299,-0.77838009,0.22941790,-0.47526225,-0.84818573,0.40058927,-0.04662855
2.00000000,-0.34488541,0.76838958,-0.36848763,-0.22734424,0.69565446,0.30600785,-0.45442463,0.27848299,-0.77838009,0.22941790,-0.47526225,-0.84818573,0.40058927,-0.04662855
2.02000000,-0.34488541,0.76838958,-0.36848763,-0.22734424,0.69565446,0.30600785,-0.45442463,0.27848299,-0.77838009,0.22941790,-0.47526225,-0.84818573,0.40058927,-0.04662855
2.04000000,-0.34488541,0.76838958,-0.36848763,-0.22734424,0.69565446,0.30600785,-0.45442463,0.27848299,-0.77838009,0.22941790,-0.47526225,-0.84818573,0.40058927,-0.04662855
2.06000000,-0.34488541,0.76838958,-0.36848763,-0.22734424,0.69565446,0.30600785,-0.45442463,0.27848299,-0.77838009,0.22941790,-0.47526225,-0.84818573,0.40058927,-0.04662855
2.08000000,-0.34488541,0.76838958,-0.36848763,-0.22734424,0.69565446,0.30600785,-0.45442463,0.27848299,-0.77838009,0.22941790,-0.47526225,-0.84818573,0.40058927,-0.04662855
2.10000000,-0.34488541,0.76838958,-0.36848763,-0.22734424,0.69565446,0.30600785,-0.45442463,0.27848299,-0.77838009,0.22941790,-0.47526225,-0.84818573,0.40058927,-0.04662855
2.12000000,-0.34488541,0.76838958,-0.36848763,-0.22734424,0.69565446,0.30600785,-0.45442463,0.27848299,-0.77838009,0.22941790,-0.47526225,-0.84818573,0.40058927,-0.04662855
2.14000000,-0.34488541,0.76838958,-0.36848763,-0.22734424,0.69565446,0.30600785,-0.45442463,0.27848299,-0.77838009,0.22941790,-0.47526225,-0.84818573,0.40058927,-0.04662855
2.16000000,-0.34488541,0.76838958,-0.36848763,-0.22734424,0.69565446,0.30600785,-0.45442463,0.27848299,-0.77838009,0.22941790,-0.47526225,-0.84818573,0.40058927,-0.04662855
2.18000000,-0.34488541,0.76838958,-0.36848763,-0.22734424,0.69565446,0.30600785,-0.45442463,0.27848299,-0.77838009,0.22941790,-0.47526225,-0.84818573,0.40058927,-0.04662855
2.20000000,-0.34488541,0.76838958,-0.36848763,-0.22734424,0.69565446,0.30600785,-0.45442463,0.27848299,-0.77838009,0.22941790,-0.47526225,-0.84818573,0.40058927,-0.04662855
2.22000000,-0.34488541,0.76838958,-0.36848763,-0.22734424,0.69565446,0.30600785,-0.45442463,0.27848299,-0.77838009,0.22941790,-0.47526225,-0.84818573,0.40058927,-0.04662855
2.24000000,-0.34488541,0.76838958,-0.36848763,-0.22734424,0.69565446,0.30600785,-0.45442463,0.27848299,-0.77838009,0.22941790,-0.47526225,-0.84818573,0.40058927,-0.04662855
2.26000000,-0.34488541,0.76838958,-0.36848763,-0.22734424,0.69565446,0.30600785,-0.45442463,0.27848299,-0.77838009,0.22941790,-0.47526225,-0.84818573,0.40058927,-0.04662855
2.28000000,-0.34488541,0.76838958,-0.36848763,-0.22734424,0.69565446,0.30600785,-0.45442463,0.27848299,-0.77838009,0.22941790,-0.47526225,-0.84818573,0.40058927,-0.04662855
2.30000000,-0.34488541,0.76838958,-0.36848763,-0.22734424,0.69565446,0.30600785,-0.45442463,0.27848299,-0.77838009,0.22941790,-0.47526225,-0.84818573,0.40058927,-0.04662855
2.32000000,-0.34488541,0.76838958,-0.36848763,-0.22734424,0.69565446,0.30600785,-0.45442463,0.27848299,-0.77838009,0.22941790,-0.47526225,-0.84818573,0.40058927,-0.04662855
2.34000000,-0.34488541,0.76838958,-0.36848763,-0.22734424,0.69565446,0.30600785,-0.45442463,0.27848299,-0.77838009,0.22941790,-0.47526225,-0.84818573,0.40058927,-0.04662855
2.36000000,-0.34488541,0.76838958,-0.36848763,-0.22734424,0.69565446,0.30600785,-0.45442463,0.27848299,-0.77838009,0.22941790,-0.47526225,-0.84818573,0.40058927,-0.04662855
2.38000000,-0.34488541,0.76838958,-0.36848763,-0.22734424,0.69565446,0.30600785,-0.45442463,0.27848299,-0.77838009,0.22941790,-0.47526225,-0.84818573,0.40058927,-0.04662855
2.40000000,-0.34488541,0.76838958,-0.36848763,-0.22734424,0.69565446,0.30600785,-0.45442463,0.27848299,-0.77838009,0.22941790,-0.47526225,-0.84818573,0.40058927,-0.04662855
2.42000000,-0.34488541,0.76838958,-0.36848763,-0.22734424,0.69565446,0.30600785,-0.45442463,0.27848299,-0.77838009,0.22941790,-0.47526225,-0.84818573,0.40058927,-0.04662855
2.44000000,-0.34488541,0.76838958,-0.36848763,-0.22734424,0.69565446,0.30600785,-0.45442463,0.27848299,-0.77838009,0.22941790,-0.47526225,-0.84818573,0.40058927,-0.04662855
2.46000000,-0.34488541,0.76838958,-0.36848763,-0.22734424,0.69565446,0.30600785,-0.45442463,0.27848299,-0.77838009,0.22941790,-0.47526225,-0.84818573,0.40058927,-0.04662855
2.48000000,-0.34488541,0.76838958,-0.36848763,-0.22734424,0.69565446,0.30600785,-0.45442463,0.27848299,-0.77838009,0.22941790,-0.47526225,-0.84818573,0.40058927,-0.04662855
2.50000000,-0.34488541,0.76838958,-0.36848763,-0.22734424,0.69565446,0.30600785,-0.45442463,0.27848299,-0.77838009,0.22941790,-0.47526225,-0.84818573,0.40058927,-0.04662855
2.52000000,-0.34488541,0.76838958,-0.36848763,-0.22734424,0.69565446,0.30600785,-0.45442463,0.27848299,-0.77838009,0.22941790,-0.47526225,-0.84818573,0.40058927,-0.04662855
2.54000000,-0.34488541,0.76838958,-0.36848763,-0.22734424,0.69565446,0.30600785,-0.45442463,0.27848299,-0.77838009,0.22941790,-0.47526225,-0.84818573,0.40058927,-0.04662855
2.56000000,-0.34488541,0.76838958,-0.36848763,-0.22734424,0.69565446,0.30600785,-0.45442463,0.27848299,-0.77838009,0.22941790,-0.47526225,-0.84818573,0.40058927,-0.04662855
2.58000000,-0.34488541,0.76838958,-0.36848763,-0.22734424,0.69565446,0.30600785,-0.45442463,0.27848299,-0.77838009,0.22941790,-0.47526225,-0.84818573,0.40058927,-0.04662855
2.60000000,-0.34488541,0.76838958,-0.36848763,-0.22734424,0.69565446,0.30600785,-0.45442463,0.27848299,-0.77838009,0.22941790,-0.47526225,-0.84818573,0.40058927,-0.04662855
2.62000000,-0.34488541,0.76838958,-0.36848763,-0.22734424,0.69565446,0.30600785,-0.45442463,0.27848299,-0.77838009,0.22941790,-0.47526225,-0.84818573,0.40058927,-0.04662855
2.64000000,-0.34488541,0.76838958,-0.36848763,-0.22734424,0.69565446,0.30600785,-0.45442463,0.27848299,-0.77838009,0.22941790,-0.47526225,-0.84818573,0.40058927,-0.04662855
2.66000000,-0.34488541,0.76838958,-0.36848763,-0.22734424,0.69565446,0.30600785,-0.45442463,0.27848299,-0.77838009,0.22941790,-0.47526225,-0.84818573,0.40058927,-0.04662855
2.68000000,-0.34488541,0.76838958,-0.36848763,-0.22734424,0.69565446,0.30600785,-0.45442463,0.27848299,-0.77838009,0.22941790,-0.47526225,-0.84818573,0.40058927,-0.04662855
2.70000000,-0.34488541,0.76838958,-0.36848763,-0.22734424,0.69565446,0.30600785,-0.45442463,0.27848299,-0.77838009,0.22941790,-0.47526225,-0.84818573,0.40058927,-0.04662855
2.72000000,-0.34488541,0.76838958,-0.36848763,-0.22734424,0.69565446,0.30600785,-0.45442463,0.27848299,-0.77838009,0.22941790,-0.47526225,-0.84818573,0.40058927,-0.04662855
2.74000000,-0.34488541,0.76838958,-0.36848763,-0.22734424,0.69565446,0.30600785,-0.45442463,0.27848299,-0.77838009,0.22941790,-0.47526225,-0.84818573,0.40058927,-0.04662855
2.76000000,-0.34488541,0.76838958,-0.36848763,-0.22734424,0.69565446,0.30600785,-0.45442463,0.27848299,-0.77838009,0.22941790,-0.47526225,-0.84818573,0.40058927,-0.04662855
2.78000000,-0.34488541,0.76838958,-0.36848763,-0.22734424,0.69565446,0.30600785,-0.45442463,0.27848299,-0.77838009,0.22941790,-0.47526225,-0.84818573,0.40058927,-0.04662855
2.80000000,-0.34488541,0.76838958,-0.36848763,-0.22734424,0.69565446,0.30600785,-0.45442463,0.27848299,-0.77838009,0.22941790,-0.47526225,-0.84818573,0.40058927,-0.04662855
2.82000000,-0.34488541,0.76838958,-0.36848763,-0.22734424,0.69565446,0.30600785,-0.45442463,0.27848299,-0.77838009,0.22941790,-0.47526225,-0.84818573,0.40058927,-0.04662855
2.84000000,-0.34488541,0.76838958,-0.36848763,-0.22734424,0.69565446,0.30600785,-0.45442463,0.27848299,-0.77838009,0.22941790,-0.47526225,-0.84818573,0.40058927,-0.04662855
2.86000000,-0.34488541,0.76838958,-0.36848763,-0.22734424,0.69565446,0.30600785,-0.45442463,0.27848299,-0.77838009,0.22941790,-0.47526225,-0.84818573,0.40058927,-0.04662855
2.88000000,-0.34488541,0.76838958,-0.36848763,-0.22734424,0.69565446,0.30600785,-0.45442463,0.27848299,-0.77838009,0.22941790,-0.47526225,-0.84818573,0.40058927,-0.04662855
2.90000000,-0.34488541,0.76838958,-0.36848763,-0.22734424,0.69565446,0.30600785,-0.45442463,0.27848299,-0.77838009,0.22941790,-0.47526225,-0.84818573,0.40058927,-0.04662855
2.92000000,-0.34488541,0.76838958,-0.36848763,-0.22734424,0.69565446,0.30600785,-0.45442463,0.27848299,-0.77838009,0.22941790,-0.47526225,-0.84818573,0.40058927,-0.04662855
2.94000000,-0.34488541,0.76838958,-0.36848763,-0.22734424,0.69565446,0.30600785,-0.45442463,0.27848299,-0.77838009,0.22941790,-0.47526225,-0.84818573,0.40058927,-0.04662855
2.96000000,-0.34488541,0.76838958,-0.36848763,-0.22734424,0.69565446,0.30600785,-0.45442463,0.27848299,-0.77838009,0.22941790,-0.47526225,-0.84818573,0.40058927,-0.04662855
2.98000000,-0.34488541,0.76838958,-0.36848763,-0.22734424,0.69565446,0.30600785,-0.45442463,0.27848299,-0.77838009,0.22941790,-0.47526225,-0.84818573,0.40058927,-0.04662855
3.00000000,-0.34488541,0.76838958,-0.36848763,-0.22734424,0.69565446,0.30600785,-0.45442463,0.27848299,-0.77838009,0.22941790,-0.47526225,-0.84818573,0.40058927,-0.04662855
3.02000000,-0.34488541,0.76838958,-0.36848763,-0.22734424,0.69565446,0.30600785,-0.45442463,0.27848299,-0.77838009,0.22941790,-0.47526225,-0.84818573,0.40058927,-0.04662855
3.04000000,-0.34488541,0.76838958,-0.36848763,-0.22734424,0.69565446,0.30600785,-0.45442463,0.27848299,-0.77838009,0.22941790,-0.47526225,-0.84818573,0.40058927,-0.04662855
3.06000000,-0.34488541,0.76838958,-0.36848763,-0.22734424,0.69565446,0.30600785,-0.45442463,0.27848299,-0.77838009,0.22941790,-0.47526225,-0.84818573,0.40058927,-0.04662855
3.08000000,-0.34488541,0.76838958,-0.36848763,-0.22734424,0.69565446,0.30600785,-0.45442463,0.27848299,-0.77838009,0.22941790,-0.47526225,-0.84818573,0.40058927,-0.04662855
3.10000000,-0.34488541,0.76838958,-0.36848763,-0.22734424,0.69565446,0.30600785,-0.45442463,0.27848299,-0.77838009,0.22941790,-0.47526225,-0.84818573,0.40058927,-0.04662855
3.12000000,-0.34488541,0.76838958,-0.36848763,-0.22734424,0.69565446,0.30600785,-0.45442463,0.27848299,-0.77838009,0.22941790,-0.47526225,-0.84818573,0.40058927,-0.04662855
3.14000000,-0.34488541,0.76838958,-0.36848763,-0.22734424,0.69565446,0.30600785,-0.45442463,0.27848299,-0.77838009,0.22941790,-0.47526225,-0.84818573,0.40058927,-0.04662855
3.16000000,-0.34488541,0.76838958,-0.36848763,-0.22734424,0.69565446,0.30600785,-0.45442463,0.27848299,-0.77838009,0.22941790,-0.47526225,-0.84818573,0.40058927,-0.04662855
3.18000000,-0.34488541,0.76838958,-0.36848763,-0.22734424,0.69565446,0.30600785,-0.45442463,0.27848299,-0.77838009,0.22941790,-0.47526225,-0.84818573,0.40058927,-0.04662855
3.20000000,-0.34488541,0.76838958,-0.36848763,-0.22734424,0.69565446,0.30600785,-0.45442463,0.27848299,-0.77838009,0.22941790,-0.47526225,-0.84818573,0.40058927,-0.04662855
3.22000000,-0.34488541,0.76838958,-0.36848763,-0.22734424,0.69565446,0.30600785,-0.45442463,0.27848299,-0.77838009,0.22941790,-0.47526225,-0.84818573,0.40058927,-0.04662855
3.24000000,-0.34488541,0.76838958,-0.36848763,-0.22734424,0.69565446,0.30600785,-0.45442463,0.27848299,-0.77838009,0.22941790,-0.47526225,-0.84818573,0.40058927,-0.04662855
3.26000000,-0.34488541,0.76838958,-0.36848763,-0.22734424,0.69565446,0.30600785,-0.45442463,0.27848299,-0.77838009,0.22941790,-0.47526225,-0.84818573,0.40058927,-0.04662855
3.28000000,-0.34488541,0.76838958,-0.36848763,-0.22734424,0.69565446,0.30600785,-0.45442463,0.27848299,-0.77838009,0.22941790,-0.47526225,-0.84818573,0.40058927,-0.04662855
3.30000000,-0.34488541,0.76838958,-0.36848763,-0.22734424,0.69565446,0.30600785,-0.45442463,0.27848299,-0.77838009,0.22941790,-0.47526225,-0.84818573,0.40058927,-0.04662855
3.32000000,-0.34488541,0.76838958,-0.36848763,-0.22734424,0.69565446,0.30600785,-0.45442463,0.27848299,-0.77838009,0.22941790,-0.47526225,-0.84818573,0.40058927,-0.04662855
3.34000000,-0.34488541,0.76838958,-0.36848763,-0.22734424,0.69565446,0.30600785,-0.45442463,0.27848299,-0.77838009,0.22941790,-0.47526225,-0.84818573,0.40058927,-0.04662855
3.36000000,-0.34488541,0.76838958,-0.36848763,-0.22734424,0.69565446,0.30600785,-0.45442463,0.27848299,-0.77838009,0.22941790,-0.47526225,-0.84818573,0.40058927,-0.04662855
3.38000000,-0.34488541,0.76838958,-0.36848763,-0.22734424,0.69565446,0.30600785,-0.45442463,0.27848299,-0.77838009,0.22941790,-0.47526225,-0.84818573,0.40058927,-0.04662855
3.40000000,-0.34488541,0.76838958,-0.36848763,-0.22734424,0.69565446,0.30600785,-0.45442463,0.27848299,-0.77838009,0.22941790,-0.47526225,-0.84818573,0.40058927,-0.04662855
3.42000000,-0.34488541,0.76838958,-0.36848763,-0.22734424,0.69565446,0.30600785,-0.45442463,0.27848299,-0.77838009,0.22941790,-0.47526225,-0.84818573,0.40058927,-0.04662855
3.44000000,-0.34488541,0.76838958,-0.36848763,-0.22734424,0.69565446,0.30600785,-0.45442463,0.27848299,-0.77838009,0.22941790,-0.47526225,-0.84818573,0.40058927,-0.04662855
3.46000000,-0.34488541,0.76838958,-0.36848763,-0.22734424,0.69565446,0.30600785,-0.45442463,0.27848299,-0.77838009,0.22941790,-0.47526225,-0.84818573,0.40058927,-0.04662855
3.48000000,-0.34488541,0.76838958,-0.36848763,-0.22734424,0.69565446,0.30600785,-0.45442463,0.27848299,-0.77838009,0.22941790,-0.47526225,-0.84818573,0.40058927,-0.04662855
3.50000000,-0.34488541,0.76838958,-0.36848763,-0.22734424,0.69565446,0.30600785,-0.45442463,0.27848299,-0.77838009,0.22941790,-0.47526225,-0.84818573,0.40058927,-0.04662855
3.52000000,-0.34488541,0.76838958,-0.36848763,-0.22734424,0.69565446,0.30600785,-0.45442463,0.27848299,-0.77838009,0.22941790,-0.47526225,-0.84818573,0.40058927,-0.04662855
3.54000000,-0.34488541,0.76838958,-0.36848763,-0.22734424,0.69565446,0.30600785,-0.45442463,0.27848299,-0.77838009,0.22941790,-0.47526225,-0.84818573,0.40058927,-0.04662855
3.56000000,-0.34488541,0.76838958,-0.36848763,-0.22734424,0.69565446,0.30600785,-0.45442463,0.27848299,-0.77838009,0.22941790,-0.47526225,-0.84818573,0.40058927,-0.04662855
3.58000000,-0.34488541,0.76838958,-0.36848763,-0.22734424,0.69565446,0.30600785,-0.45442463,0.27848299,-0.77838009,0.22941790,-0.47526225,-0.84818573,0.40058927,-0.04662855
3.60000000,-0.34488541,0.76838958,-0.36848763,-0.22734424,0.69565446,0.30600785,-0.45442463,0.27848299,-0.77838009,0.22941790,-0.47526225,-0.84818573,0.40058927,-0.04662855
3.62000000,-0.34488541,0.76838958,-0.36848763,-0.22734424,0.69565446,0.30600785,-0.45442463,0.27848299,-0.77838009,0.22941790,-0.47526225,-0.84818573,0.40058927,-0.04662855
3.64000000,-0.34488541,0.76838958,-0.36848763,-0.22734424,0.69565446,0.30600785,-0.45442463,0.27848299,-0.77838009,0.22941790,-0.47526225,-0.84818573,0.40058927,-0.04662855
3.66000000,-0.34488541,0.76838958,-0.36848763,-0.22734424,0.69565446,0.30600785,-0.45442463,0.27848299,-0.77838009,0.22941790,-0.47526225,-0.84818573,0.40058927,-0.04662855
3.68000000,-0.34488541,0.76838958,-0.36848763,-0.22734424,0.69565446,0.30600785,-0.45442463,0.27848299,-0.77838009,0.22941790,-0.47526225,-0.84818573,0.40058927,-0.04662855
3.70000000,-0.34488541,0.76838958,-0.36848763,-0.22734424,0.69565446,0.30600785,-0.45442463,0.27848299,-0.77838009,0.22941790,-0.47526225,-0.84818573,0.40058927,-0.04662855
3.72000000,-0.34488541,0.76838958,-0.36848763,-0.22734424,0.69565446,0.30600785,-0.45442463,0.27848299,-0.77838009,0.22941790,-0.47526225,-0.84818573,0.40058927,-0.04662855
3.74000000,-0.34488541,0.76838958,-0.36848763,-0.22734424,0.69565446,0.30600785,-0.45442463,0.27848299,-0.77838009,0.22941790,-0.47526225,-0.84818573,0.40058927,-0.04662855
3.76000000,-0.34488541,0.76838958,-0.36848763,-0.22734424,0.69565446,0.30600785,-0.45442463,0.27848299,-0.77838009,0.22941790,-0.47526225,-0.84818573,0.40058927,-0.04662855
3.78000000,-0.34488541,0.76838958,-0.36848763,-0.22734424,0.69565446,0.30600785,-0.45442463,0.27848299,-0.77838009,0.22941790,-0.47526225,-0.84818573,0.40058927,-0.04662855
3.80000000,-0.34488541,0.76838958,-0.36848763,-0.22734424,0.69565446,0.30600785,-0.45442463,0.27848299,-0.77838009,0.22941790,-0.47526225,-0.84818573,0.40058927,-0.04662855
3.82000000,-0.34488541,0.76838958,-0.36848763,-0.22734424,0.69565446,0.30600785,-0.45442463,0.27848299,-0.77838009,0.22941790,-0.47526225,-0.84818573,0.40058927,-0.04662855
3.84000000,-0.34488541,0.76838958,-0.36848763,-0.22734424,0.69565446,0.30600785,-0.45442463,0.27848299,-0.77838009,0.22941790,-0.47526225,-0.84818573,0.40058927,-0.04662855
3.86000000,-0.34488541,0.76838958,-0.36848763,-0.22734424,0.69565446,0.30600785,-0.45442463,0.27848299,-0.77838009,0.22941790,-0.47526225,-0.84818573,0.40058927,-0.04662855
3.88000000,-0.34488541,0.76838958,-0.36848763,-0.22734424,0.69565446,0.30600785,-0.45442463,0.27848299,-0.77838009,0.22941790,-0.47526225,-0.84818573,0.40058927,-0.04662855
3.90000000,-0.34488541,0.76838958,-0.36848763,-0.22734424,0.69565446,0.30600785,-0.45442463,0.27848299,-0.77838009,0.22941790,-0.47526225,-0.84818573,0.40058927,-0.04662855
3.92000000,-0.34488541,0.76838958,-0.36848763,-0.22734424,0.69565446,0.30600785,-0.45442463,0.27848299,-0.77838009,0.22941790,-0.47526225,-0.84818573,0.40058927,-0.04662855
3.94000000,-0.34488541,0.76838958,-0.36848763,-0.22734424,0.69565446,0.30600785,-0.45442463,0.27848299,-0.77838009,0.22941790,-0.47526225,-0.84818573,0.40058927,-0.04662855
3.96000000,-0.34488541,0.76838958,-0.36848763,-0.22734424,0.69565446,0.30600785,-0.45442463,0.27848299,-0.77838009,0.22941790,-0.47526225,-0.84818573,0.40058927,-0.04662855
3.98000000,-0.34488541,0.76838958,-0.36848763,-0.22734424,0.69565446,0.30600785,-0.45442463,0.27848299,-0.77838009,0.22941790,-0.47526225,-0.84818573,0.40058927,-0.04662855
4.00000000,-0.34488541,0.76838958,-0.36848763,-0.22734424,0.69565446,0.30600785,-0.45442463,0.27848299,-0.77838009,0.22941790,-0.47526225,-0.84818573,0.40058927,-0.04662855
4.02000000,-0.34488541,0.76838958,-0.36848763,-0.22734424,0.69565446,0.30600785,-0.45442463,0.27848299,-0.77838009,0.22941790,-0.47526225,-0.84818573,0.40058927,-0.04662855
4.04000000,-0.34488541,0.76838958,-0.36848763,-0.22734424,0.69565446,0.30600785,-0.45442463,0.27848299,-0.77838009,0.22941790,-0.47526225,-0.84818573,0.40058927,-0.04662855
4.06000000,-0.34488541,0.76838958,-0.36848763,-0.22734424,0.69565446,0.30600785,-0.45442463,0.27848299,-0.77838009,0.22941790,-0.47526225,-0.84818573,0.40058927,-0.04662855
4.08000000,-0.34488541,0.76838958,-0.36848763,-0.22734424,0.69565446,0.30600785,-0.45442463,0.27848299,-0.77838009,0.22941790,-0.47526225,-0.84818573,0.40058927,-0.04662855
4.10000000,-0.34488541,0.76838958,-0.36848763,-0.22734424,0.69565446,0.30600785,-0.45442463,0.27848299,-0.77838009,0.22941790,-0.47526225,-0.84818573,0.40058927,-0.04662855
4.12000000,-0.34488541,0.76838958,-0.36848763,-0.22734424,0.69565446,0.30600785,-0.45442463,0.27848299,-0.77838009,0.22941790,-0.47526225,-0.84818573,0.40058927,-0.04662855
4.14000000,-0.34488541,0.76838958,-0.36848763,-0.22734424,0.69565446,0.30600785,-0.45442463,0.27848299,-0.77838009,0.22941790,-0.47526225,-0.84818573,0.40058927,-0.04662855
4.16000000,-0.34488541,0.76838958,-0.36848763,-0.22734424,0.69565446,0.30600785,-0.45442463,0.27848299,-0.77838009,0.22941790,-0.47526225,-0.84818573,0.40058927,-0.04662855
4.18000000,-0.34488541,0.76838958,-0.36848763,-0.22734424,0.69565446,0.30600785,-0.45442463,0.27848299,-0.77838009,0.22941790,-0.47526225,-0.84818573,0.40058927,-0.04662855
4.20000000,-0.34488541,0.76838958,-0.36848763,-0.22734424,0.69565446,0.30600785,-0.45442463,0.27848299,-0.77838009,0.22941790,-0.47526225,-0.84818573,0.40058927,-0.04662855
4.22000000,-0.34488541,0.76838958,-0.36848763,-0.22734424,0.69565446,0.30600785,-0.45442463,0.27848299,-0.77838009,0.22941790,-0.47526225,-0.84818573,0.40058927,-0.04662855
4.24000000,-0.34488541,0.76838958,-0.36848763,-0.22734424,0.69565446,0.30600785,-0.45442463,0.27848299,-0.77838009,0.22941790,-0.47526225,-0.84818573,0.40058927,-0.04662855
4.26000000,-0.34488541,0.76838958,-0.36848763,-0.22734424,0.69565446,0.30600785,-0.45442463,0.27848299,-0.77838009,0.22941790,-0.47526225,-0.84818573,0.40058927,-0.04662855
4.28000000,-0.34488541,0.76838958,-0.36848763,-0.22734424,0.69565446,0.30600785,-0.45442463,0.27848299,-0.77838009,0.22941790,-0.47526225,-0.84818573,0.40058927,-0.04662855
4.30000000,-0.34488541,0.76838958,-0.36848763,-0.22734424,0.69565446,0.30600785,-0.45442463,0.27848299,-0.77838009,0.22941790,-0.47526225,-0.84818573,0.40058927,-0.04662855
4.32000000,-0.34488541,0.76838958,-0.36848763,-0.22734424,0.69565446,0.30600785,-0.45442463,0.27848299,-0.77838009,0.22941790,-0.47526225,-0.84818573,0.40058927,-0.04662855
4.34000000,-0.34488541,0.76838958,-0.36848763,-0.22734424,0.69565446,0.30600785,-0.45442463,0.27848299,-0.77838009,0.22941790,-0.47526225,-0.84818573,0.40058927,-0.04662855
4.36000000,-0.34488541,0.76838958,-0.36848763,-0.22734424,0.69565446,0.30600785,-0.45442463,0.27848299,-0.77838009,0.22941790,-0.47526225,-0.84818573,0.40058927,-0.04662855
4.38000000,-0.34488541,0.76838958,-0.36848763,-0.22734424,0.69565446,0.30600785,-0.45442463,0.27848299,-0.77838009,0.22941790,-0.47526225,-0.84818573,0.40058927,-0.04662855
4.40000000,-0.34488541,0.76838958,-0.36848763,-0.22734424,0.69565446,0.30600785,-0.45442463,0.27848299,-0.77838009,0.22941790,-0.47526225,-0.84818573,0.40058927,-0.04662855
4.42000000,-0.34488541,0.76838958,-0.36848763,-0.22734424,0.69565446,0.30600785,-0.45442463,0.27848299,-0.77838009,0.22941790,-0.47526225,-0.84818573,0.40058927,-0.04662855
4.44000000,-0.34488541,0.76838958,-0.36848763,-0.22734424,0.69565446,0.30600785,-0.45442463,0.27848299,-0.77838009,0.22941790,-0.47526225,-0.84818573,0.40058927,-0.04662855
4.46000000,-0.34488541,0.76838958,-0.36848763,-0.22734424,0.69565446,0.30600785,-0.45442463,0.27848299,-0.77838009,0.22941790,-0.47526225,-0.84818573,0.40058927,-0.04662855
4.48000000,-0.34488541,0.76838958,-0.36848763,-0.22734424,0.69565446,0.30600785,-0.45442463,0.27848299,-0.77838009,0.22941790,-0.47526225,-0.84818573,0.40058927,-0.04662855
4.50000000,-0.34488541,0.76838958,-0.36848763,-0.22734424,0.69565446,0.30600785,-0.45442463,0.27848299,-0.77838009,0.22941790,-0.47526225,-0.84818573,0.40058927,-0.04662855
4.52000000,-0.34488541,0.76838958,-0.36848763,-0.22734424,0.69565446,0.30600785,-0.45442463,0.27848299,-0.77838009,0.22941790,-0.47526225,-0.84818573,0.40058927,-0.04662855
4.54000000,-0.34488541,0.76838958,-0.36848763,-0.22734424,0.69565446,0.30600785,-0.45442463,0.27848299,-0.77838009,0.22941790,-0.47526225,-0.84818573,0.40058927,-0.04662855
4.56000000,-0.34488541,0.76838958,-0.36848763,-0.22734424,0.69565446,0.30600785,-0.45442463,0.27848299,-0.77838009,0.22941790,-0.47526225,-0.84818573,0.40058927,-0.04662855
4.58000000,-0.34488541,0.76838958,-0.36848763,-0.22734424,0.69565446,0.30600785,-0.45442463,0.27848299,-0.77838009,0.22941790,-0.47526225,-0.84818573,0.40058927,-0.04662855
4.60000000,-0.34488541,0.76838958,-0.36848763,-0.22734424,0.69565446,0.30600785,-0.45442463,0.27848299,-0.77838009,0.22941790,-0.47526225,-0.84818573,0.40058927,-0.04662855
4.62000000,-0.34488541,0.76838958,-0.36848763,-0.22734424,0.69565446,0.30600785,-0.45442463,0.27848299,-0.77838009,0.22941790,-0.47526225,-0.84818573,0.40058927,-0.04662855
4.64000000,-0.34488541,0.76838958,-0.36848763,-0.22734424,0.69565446,0.30600785,-0.45442463,0.27848299,-0.77838009,0.22941790,-0.47526225,-0.84818573,0.40058927,-0.04662855
4.66000000,-0.34488541,0.76838958,-0.36848763,-0.22734424,0.69565446,0.30600785,-0.45442463,0.27848299,-0.77838009,0.22941790,-0.47526225,-0.84818573,0.40058927,-0.04662855
4.68000000,-0.34488541,0.76838958,-0.36848763,-0.22734424,0.69565446,0.30600785,-0.45442463,0.27848299,-0.77838009,0.22941790,-0.47526225,-0.84818573,0.40058927,-0.04662855
4.70000000,-0.34488541,0.76838958,-0.36848763,-0.22734424,0.69565446,0.30600785,-0.45442463,0.27848299,-0.77838009,0.22941790,-0.47526225,-0.84818573,0.40058927,-0.04662855
4.72000000,-0.34488541,0.76838958,-0.36848763,-0.22734424,0.69565446,0.30600785,-0.45442463,0.27848299,-0.77838009,0.22941790,-0.47526225,-0.84818573,0.40058927,-0.04662855
4.74000000,-0.34488541,0.76838958,-0.36848763,-0.22734424,0.69565446,0.30600785,-0.45442463,0.27848299,-0.77838009,0.22941790,-0.47526225,-0.84818573,0.40058927,-0.04662855
4.76000000,-0.34488541,0.76838958,-0.36848763,-0.22734424,0.69565446,0.30600785,-0.45442463,0.27848299,-0.77838009,0.22941790,-0.47526225,-0.84818573,0.40058927,-0.04662855
4.78000000,-0.34488541,0.76838958,-0.36848763,-0.22734424,0.69565446,0.30600785,-0.45442463,0.27848299,-0.77838009,0.22941790,-0.47526225,-0.84818573,0.40058927,-0.04662855
4.80000000,-0.34488541,0.76838958,-0.36848763,-0.22734424,0.69565446,0.30600785,-0.45442463,0.27848299,-0.77838009,0.22941790,-0.47526225,-0.84818573,0.40058927,-0.04662855
4.82000000,-0.34488541,0.76838958,-0.36848763,-0.22734424,0.69565446,0.30600785,-0.45442463,0.27848299,-0.77838009,0.22941790,-0.47526225,-0.84818573,0.40058927,-0.04662855
4.84000000,-0.34488541,0.76838958,-0.36848763,-0.22734424,0.69565446,0.30600785,-0.45442463,0.27848299,-0.77838009,0.22941790,-0.47526225,-0.84818573,0.40058927,-0.04662855
4.86000000,-0.34488541,0.76838958,-0.36848763,-0.22734424,0.69565446,0.30600785,-0.45442463,0.27848299,-0.77838009,0.22941790,-0.47526225,-0.84818573,0.40058927,-0.04662855
4.88000000,-0.34488541,0.76838958,-0.36848763,-0.22734424,0.69565446,0.30600785,-0.45442463,0.27848299,-0.77838009,0.22941790,-0.47526225,-0.84818573,0.40058927,-0.04662855
4.90000000,-0.34488541,0.76838958,-0.36848763,-0.22734424,0.69565446,0.30600785,-0.45442463,0.27848299,-0.77838009,0.22941790,-0.47526225,-0.84818573,0.40058927,-0.04662855
4.92000000,-0.34488541,0.76838958,-0.36848763,-0.22734424,0.69565446,0.30600785,-0.45442463,0.27848299,-0.77838009,0.22941790,-0.47526225,-0.84818573,0.40058927,-0.04662855
4.94000000,-0.34488541,0.76838958,-0.36848763,-0.22734424,0.69565446,0.30600785,-0.45442463,0.27848299,-0.77838009,0.22941790,-0.47526225,-0.84818573,0.40058927,-0.04662855
4.96000000,-0.34488541,0.76838958,-0.36848763,-0.22734424,0.69565446,0.30600785,-0.45442463,0.27848299,-0.77838009,0.22941790,-0.47526225,-0.84818573,0.40058927,-0.04662855
4.98000000,-0.34488541,0.76838958,-0.36848763,-0.22734424,0.69565446,0.30600785,-0.45442463,0.27848299,-0.77838009,0.22941790,-0.47526225,-0.84818573,0.40058927,-0.04662855
5.00000000,-0.34488541,0.76838958,-0.36848763,-0.22734424,0.69565446,0.30600785,-0.45442463,0.27848299,-0.77838009,0.22941790,-0.47526225,-0.84818573,0.40058927,-0.04662855
5.02000000,-0.34488541,0.76838958,-0.36848763,-0.22734424,0.69565446,0.30600785,-0.45442463,0.27848299,-0.77838009,0.22941790,-0.47526225,-0.84818573,0.40058927,-0.04662855
5.04000000,-0.34488541,0.76838958,-0.36848763,-0.22734424,0.69565446,0.30600785,-0.45442463,0.27848299,-0.77838009,0.22941790,-0.47526225,-0.84818573,0.40058927,-0.04662855
5.06000000,-0.34488541,0.76838958,-0.36848763,-0.22734424,0.69565446,0.30600785,-0.45442463,0.27848299,-0.77838009,0.22941790,-0.47526225,-0.84818573,0.40058927,-0.04662855
5.08000000,-0.34488541,0.76838958,-0.36848763,-0.22734424,0.69565446,0.30600785,-0.45442463,0.27848299,-0.77838009,0.22941790,-0.47526225,-0.84818573,0.40058927,-0.04662855
5.10000000,-0.34488541,0.76838958,-0.36848763,-0.22734424,0.69565446,0.30600785,-0.45442463,0.27848299,-0.77838009,0.22941790,-0.47526225,-0.84818573,0.40058927,-0.04662855
5.12000000,-0.34488541,0.76838958,-0.36848763,-0.22734424,0.69565446,0.30600785,-0.45442463,0.27848299,-0.77838009,0.22941790,-0.47526225,-0.84818573,0.40058927,-0.04662855
5.14000000,-0.34488541,0.76838958,-0.36848763,-0.22734424,0.69565446,0.30600785,-0.45442463,0.27848299,-0.77838009,0.22941790,-0.47526225,-0.84818573,0.40058927,-0.04662855
5.16000000,-0.34488541,0.76838958,-0.36848763,-0.22734424,0.69565446,0.30600785,-0.45442463,0.27848299,-0.77838009,0.22941790,-0.47526225,-0.84818573,0.40058927,-0.04662855
5.18000000,-0.34488541,0.76838958,-0.36848763,-0.22734424,0.69565446,0.30600785,-0.45442463,0.27848299,-0.77838009,0.22941790,-0.47526225,-0.84818573,0.40058927,-0.04662855
5.20000000,-0.34488541,0.76838958,-0.36848763,-0.22734424,0.69565446,0.30600785,-0.45442463,0.27848299,-0.77838009,0.22941790,-0.47526225,-0.84818573,0.40058927,-0.04662855
5.22000000,-0.34488541,0.76838958,-0.36848763,-0.22734424,0.69565446,0.30600785,-0.45442463,0.27848299,-0.77838009,0.22941790,-0.47526225,-0.84818573,0.40058927,-0.04662855
5.24000000,-0.34488541,0.76838958,-0.36848763,-0.22734424,0.69565446,0.30600785,-0.45442463,0.27848299,-0.77838009,0.22941790,-0.47526225,-0.84818573,0.40058927,-0.04662855
5.26000000,-0.34488541,0.76838958,-0.36848763,-0.22734424,0.69565446,0.30600785,-0.45442463,0.27848299,-0.77838009,0.22941790,-0.47526225,-0.84818573,0.40058927,-0.04662855
5.28000000,-0.34488541,0.76838958,-0.36848763,-0.22734424,0.69565446,0.30600785,-0.45442463,0.27848299,-0.77838009,0.22941790,-0.47526225,-0.84818573,0.40058927,-0.04662855
5.30000000,-0.34488541,0.76838958,-0.36848763,-0.22734424,0.69565446,0.30600785,-0.45442463,0.27848299,-0.77838009,0.22941790,-0.47526225,-0.84818573,0.40058927,-0.04662855
5.32000000,-0.34488541,0.76838958,-0.36848763,-0.22734424,0.69565446,0.30600785,-0.45442463,0.27848299,-0.77838009,0.22941790,-0.47526225,-0.84818573,0.40058927,-0.04662855
5.34000000,-0.34488541,0.76838958,-0.36848763,-0.22734424,0.69565446,0.30600785,-0.45442463,0.27848299,-0.77838009,0.22941790,-0.47526225,-0.84818573,0.40058927,-0.04662855
5.36000000,-0.34488541,0.76838958,-0.36848763,-0.22734424,0.69565446,0.30600785,-0.45442463,0.27848299,-0.77838009,0.22941790,-0.47526225,-0.84818573,0.40058927,-0.04662855
5.38000000,-0.34488541,0.76838958,-0.36848763,-0.22734424,0.69565446,0.30600785,-0.45442463,0.27848299,-0.77838009,0.22941790,-0.47526225,-0.84818573,0.40058927,-0.04662855
5.40000000,-0.34488541,0.76838958,-0.36848763,-0.22734424,0.69565446,0.30600785,-0.45442463,0.27848299,-0.77838009,0.22941790,-0.47526225,-0.84818573,0.40058927,-0.04662855
5.42000000,-0.34488541,0.76838958,-0.36848763,-0.22734424,0.69565446,0.30600785,-0.45442463,0.27848299,-0.77838009,0.22941790,-0.47526225,-0.84818573,0.40058927,-0.04662855
5.44000000,-0.34488541,0.76838958,-0.36848763,-0.22734424,0.69565446,0.30600785,-0.45442463,0.27848299,-0.77838009,0.22941790,-0.47526225,-0.84818573,0.40058927,-0.04662855
5.46000000,-0.34488541,0.76838958,-0.36848763,-0.22734424,0.69565446,0.30600785,-0.45442463,0.27848299,-0.77838009,0.22941790,-0.47526225,-0.84818573,0.40058927,-0.04662855
5.48000000,-0.34488541,0.76838958,-0.36848763,-0.22734424,0.69565446,0.30600785,-0.45442463,0.27848299,-0.77838009,0.22941790,-0.47526225,-0.84818573,0.40058927,-0.04662855
5.50000000,-0.34488541,0.76838958,-0.36848763,-0.22734424,0.69565446,0.30600785,-0.45442463,0.27848299,-0.77838009,0.22941790,-0.47526225,-0.84818573,0.40058927,-0.04662855
5.52000000,-0.34488541,0.76838958,-0.36848763,-0.22734424,0.69565446,0.30600785,-0.45442463,0.27848299,-0.77838009,0.22941790,-0.47526225,-0.84818573,0.40058927,-0.04662855
5.54000000,-0.34488541,0.76838958,-0.36848763,-0.22734424,0.69565446,0.30600785,-0.45442463,0.27848299,-0.77838009,0.22941790,-0.47526225,-0.84818573,0.40058927,-0.04662855
5.56000000,-0.34488541,0.76838958,-0.36848763,-0.22734424,0.69565446,0.30600785,-0.45442463,0.27848299,-0.77838009,0.22941790,-0.47526225,-0.84818573,0.40058927,-0.04662855
5.58000000,-0.34488541,0.76838958,-0.36848763,-0.22734424,0.69565446,0.30600785,-0.45442463,0.27848299,-0.77838009,0.22941790,-0.47526225,-0.84818573,0.40058927,-0.04662855
5.60000000,-0.34488541,0.76838958,-0.36848763,-0.22734424,0.69565446,0.30600785,-0.45442463,0.27848299,-0.77838009,0.22941790,-0.47526225,-0.84818573,0.40058927,-0.04662855
5.62000000,-0.34488541,0.76838958,-0.36848763,-0.22734424,0.69565446,0.30600785,-0.45442463,0.27848299,-0.77838009,0.22941790,-0.47526225,-0.84818573,0.40058927,-0.04662855
5.64000000,-0.34488541,0.76838958,-0.36848763,-0.22734424,0.69565446,0.30600785,-0.45442463,0.27848299,-0.77838009,0.22941790,-0.47526225,-0.84818573,0.40058927,-0.04662855
5.66000000,-0.34488541,0.76838958,-0.36848763,-0.22734424,0.69565446,0.30600785,-0.45442463,0.27848299,-0.77838009,0.22941790,-0.47526225,-0.84818573,0.40058927,-0.04662855
5.68000000,-0.34488541,0.76838958,-0.36848763,-0.22734424,0.69565446,0.30600785,-0.45442463,0.27848299,-0.77838009,0.22941790,-0.47526225,-0.84818573,0.40058927,-0.04662855
5.70000000,-0.34488541,0.76838958,-0.36848763,-0.22734424,0.69565446,0.30600785,-0.45442463,0.27848299,-0.77838009,0.22941790,-0.47526225,-0.84818573,0.40058927,-0.04662855
5.72000000,-0.34488541,0.76838958,-0.36848763,-0.22734424,0.69565446,0.30600785,-0.45442463,0.27848299,-0.77838009,0.22941790,-0.47526225,-0.84818573,0.40058927,-0.04662855
5.74000000,-0.34488541,0.76838958,-0.36848763,-0.22734424,0.69565446,0.30600785,-0.45442463,0.27848299,-0.77838009,0.22941790,-0.47526225,-0.84818573,0.40058927,-0.04662855
5.76000000,-0.34488541,0.76838958,-0.36848763,-0.22734424,0.69565446,0.30600785,-0.45442463,0.27848299,-0.77838009,0.22941790,-0.47526225,-0.84818573,0.40058927,-0.04662855
5.78000000,-0.34488541,0.76838958,-0.36848763,-0.22734424,0.69565446,0.30600785,-0.45442463,0.27848299,-0.77838009,0.22941790,-0.47526225,-0.84818573,0.40058927,-0.04662855
5.80000000,-0.34488541,0.76838958,-0.36848763,-0.22734424,0.69565446,0.30600785,-0.45442463,0.27848299,-0.77838009,0.22941790,-0.47526225,-0.84818573,0.40058927,-0.04662855
5.82000000,-0.34488541,0.76838958,-0.36848763,-0.22734424,0.69565446,0.30600785,-0.45442463,0.27848299,-0.77838009,0.22941790,-0.47526225,-0.84818573,0.40058927,-0.04662855
5.84000000,-0.34488541,0.76838958,-0.36848763,-0.22734424,0.69565446,0.30600785,-0.45442463,0.27848299,-0.77838009,0.22941790,-0.47526225,-0.84818573,0.40058927,-0.04662855
5.86000000,-0.34488541,0.76838958,-0.36848763,-0.22734424,0.69565446,0.30600785,-0.45442463,0.27848299,-0.77838009,0.22941790,-0.47526225,-0.84818573,0.40058927,-0.04662855
5.88000000,-0.34488541,0.76838958,-0.36848763,-0.22734424,0.69565446,0.30600785,-0.45442463,0.27848299,-0.77838009,0.22941790,-0.47526225,-0.84818573,0.40058927,-0.04662855
5.90000000,-0.34488541,0.76838958,-0.36848763,-0.22734424,0.69565446,0.30600785,-0.45442463,0.27848299,-0.77838009,0.22941790,-0.47526225,-0.84818573,0.40058927,-0.04662855
5.92000000,-0.34488541,0.76838958,-0.36848763,-0.22734424,0.69565446,0.30600785,-0.45442463,0.27848299,-0.77838009,0.22941790,-0.47526225,-0.84818573,0.40058927,-0.04662855
5.94000000,-0.34488541,0.76838958,-0.36848763,-0.22734424,0.69565446,0.30600785,-0.45442463,0.27848299,-0.77838009,0.22941790,-0.47526225,-0.84818573,0.40058927,-0.04662855
5.96000000,-0.34488541,0.76838958,-0.36848763,-0.22734424,0.69565446,0.30600785,-0.45442463,0.27848299,-0.77838009,0.22941790,-0.47526225,-0.84818573,0.40058927,-0.04662855
5.98000000,-0.34488541,0.76838958,-0.36848763,-0.22734424,0.69565446,0.30600785,-0.45442463,0.27848299,-0.77838009,0.22941790,-0.47526225,-0.84818573,0.40058927,-0.04662855
6.00000000,-0.34488541,0.76838958,-0.36848763,-0.22734424,0.69565446,0.30600785,-0.45442463,0.27848299,-0.77838009,0.22941790,-0.47526225,-0.84818573,0.40058927,-0.04662855
6.02000000,-0.34488541,0.76838958,-0.36848763,-0.22734424,0.69565446,0.30600785,-0.45442463,0.27848299,-0.77838009,0.22941790,-0.47526225,-0.84818573,0.40058927,-0.04662855
6.04000000,-0.34488541,0.76838958,-0.36848763,-0.22734424,0.69565446,0.30600785,-0.45442463,0.27848299,-0.77838009,0.22941790,-0.47526225,-0.84818573,0.40058927,-0.04662855
6.06000000,-0.34488541,0.76838958,-0.36848763,-0.22734424,0.69565446,0.30600785,-0.45442463,0.27848299,-0.77838009,0.22941790,-0.47526225,-0.84818573,0.40058927,-0.04662855
6.08000000,-0.34488541,0.76838958,-0.36848763,-0.22734424,0.69565446,0.30600785,-0.45442463,0.27848299,-0.77838009,0.22941790,-0.47526225,-0.84818573,0.40058927,-0.04662855
6.10000000,-0.34488541,0.76838958,-0.36848763,-0.22734424,0.69565446,0.30600785,-0.45442463,0.27848299,-0.77838009,0.22941790,-0.47526225,-0.84818573,0.40058927,-0.04662855
6.12000000,-0.34488541,0.76838958,-0.36848763,-0.22734424,0.69565446,0.30600785,-0.45442463,0.27848299,-0.77838009,0.22941790,-0.47526225,-0.84818573,0.40058927,-0.04662855
6.14000000,-0.34488541,0.76838958,-0.36848763,-0.22734424,0.69565446,0.30600785,-0.45442463,0.27848299,-0.77838009,0.22941790,-0.47526225,-0.84818573,0.40058927,-0.04662855
6.16000000,-0.34488541,0.76838958,-0.36848763,-0.22734424,0.69565446,0.30600785,-0.45442463,0.27848299,-0.77838009,0.22941790,-0.47526225,-0.84818573,0.40058927,-0.04662855
6.18000000,-0.34488541,0.76838958,-0.36848763,-0.22734424,0.69565446,0.30600785,-0.45442463,0.27848299,-0.77838009,0.22941790,-0.47526225,-0.84818573,0.40058927,-0.04662855
6.20000000,-0.34488541,0.76838958,-0.36848763,-0.22734424,0.69565446,0.30600785,-0.45442463,0.27848299,-0.77838009,0.22941790,-0.47526225,-0.84818573,0.40058927,-0.04662855
6.22000000,-0.34488541,0.76838958,-0.36848763,-0.22734424,0.69565446,0.30600785,-0.45442463,0.27848299,-0.77838009,0.22941790,-0.47526225,-0.84818573,0.40058927,-0.04662855
6.24000000,-0.34488541,0.76838958,-0.36848763,-0.22734424,0.69565446,0.30600785,-0.45442463,0.27848299,-0.77838009,0.22941790,-0.47526225,-0.84818573,0.40058927,-0.04662855
6.26000000,-0.34488541,0.76838958,-0.36848763,-0.22734424,0.69565446,0.30600785,-0.45442463,0.27848299,-0.77838009,0.22941790,-0.47526225,-0.84818573,0.40058927,-0.04662855
6.28000000,-0.34488541,0.76838958,-0.36848763,-0.22734424,0.69565446,0.30600785,-0.45442463,0.27848299,-0.77838009,0.22941790,-0.47526225,-0.84818573,0.40058927,-0.04662855
6.30000000,-0.34488541,0.76838958,-0.36848763,-0.22734424,0.69565446,0.30600785,-0.45442463,0.27848299,-0.77838009,0.22941790,-0.47526225,-0.84818573,0.40058927,-0.04662855
6.32000000,-0.34488541,0.76838958,-0.36848763,-0.22734424,0.69565446,0.30600785,-0.45442463,0.27848299,-0.77838009,0.22941790,-0.47526225,-0.84818573,0.40058927,-0.04662855
6.34000000,-0.34488541,0.76838958,-0.36848763,-0.22734424,0.69565446,0.30600785,-0.45442463,0.27848299,-0.77838009,0.22941790,-0.47526225,-0.84818573,0.40058927,-0.04662855
6.36000000,-0.34488541,0.76838958,-0.36848763,-0.22734424,0.69565446,0.30600785,-0.45442463,0.27848299,-0.77838009,0.22941790,-0.47526225,-0.84818573,0.40058927,-0.04662855
6.38000000,-0.34488541,0.76838958,-0.36848763,-0.22734424,0.69565446,0.30600785,-0.45442463,0.27848299,-0.77838009,0.22941790,-0.47526225,-0.84818573,0.40058927,-0.04662855
6.40000000,-0.34488541,0.76838958,-0.36848763,-0.22734424,0.69565446,0.30600785,-0.45442463,0.27848299,-0.77838009,0.22941790,-0.47526225,-0.84818573,0.40058927,-0.04662855
6.42000000,-0.34488541,0.76838958,-0.36848763,-0.22734424,0.69565446,0.30600785,-0.45442463,0.27848299,-0.77838009,0.22941790,-0.47526225,-0.84818573,0.40058927,-0.04662855
6.44000000,-0.34488541,0.76838958,-0.36848763,-0.22734424,0.69565446,0.30600785,-0.45442463,0.27848299,-0.77838009,0.22941790,-0.47526225,-0.84818573,0.40058927,-0.04662855
6.46000000,-0.34488541,0.76838958,-0.36848763,-0.22734424,0.69565446,0.30600785,-0.45442463,0.27848299,-0.77838009,0.22941790,-0.47526225,-0.84818573,0.40058927,-0.04662855
6.48000000,-0.34488541,0.76838958,-0.36848763,-0.22734424,0.69565446,0.30600785,-0.45442463,0.27848299,-0.77838009,0.22941790,-0.47526225,-0.84818573,0.40058927,-0.04662855
6.50000000,-0.34488541,0.76838958,-0.36848763,-0.22734424,0.69565446,0.30600785,-0.45442463,0.27848299,-0.77838009,0.22941790,-0.47526225,-0.84818573,0.40058927,-0.04662855
6.52000000,-0.34488541,0.76838958,-0.36848763,-0.22734424,0.69565446,0.30600785,-0.45442463,0.27848299,-0.77838009,0.22941790,-0.47526225,-0.84818573,0.40058927,-0.04662855
6.54000000,-0.34488541,0.76838958,-0.36848763,-0.22734424,0.69565446,0.30600785,-0.45442463,0.27848299,-0.77838009,0.22941790,-0.47526225,-0.84818573,0.40058927,-0.04662855
6.56000000,-0.34488541,0.76838958,-0.36848763,-0.22734424,0.69565446,0.30600785,-0.45442463,0.27848299,-0.77838009,0.22941790,-0.47526225,-0.84818573,0.40058927,-0.04662855
6.58000000,-0.34488541,0.76838958,-0.36848763,-0.22734424,0.69565446,0.30600785,-0.45442463,0.27848299,-0.77838009,0.22941790,-0.47526225,-0.84818573,0.40058927,-0.04662855
6.60000000,-0.34488541,0.76838958,-0.36848763,-0.22734424,0.69565446,0.30600785,-0.45442463,0.27848299,-0.77838009,0.22941790,-0.47526225,-0.84818573,0.40058927,-0.04662855
6.62000000,-0.34488541,0.76838958,-0.36848763,-0.22734424,0.69565446,0.30600785,-0.45442463,0.27848299,-0.77838009,0.22941790,-0.47526225,-0.84818573,0.40058927,-0.04662855
6.64000000,-0.34488541,0.76838958,-0.36848763,-0.22734424,0.69565446,0.30600785,-0.45442463,0.27848299,-0.77838009,0.22941790,-0.47526225,-0.84818573,0.40058927,-0.04662855
6.66000000,-0.34488541,0.76838958,-0.36848763,-0.22734424,0.69565446,0.30600785,-0.45442463,0.27848299,-0.77838009,0.22941790,-0.47526225,-0.84818573,0.40058927,-0.04662855
6.68000000,-0.34488541,0.76838958,-0.36848763,-0.22734424,0.69565446,0.30600785,-0.45442463,0.27848299,-0.77838009,0.22941790,-0.47526225,-0.84818573,0.40058927,-0.04662855
6.70000000,-0.34488541,0.76838958,-0.36848763,-0.22734424,0.69565446,0.30600785,-0.45442463,0.27848299,-0.77838009,0.22941790,-0.47526225,-0.84818573,0.40058927,-0.04662855
6.72000000,-0.34488541,0.76838958,-0.36848763,-0.22734424,0.69565446,0.30600785,-0.45442463,0.27848299,-0.77838009,0.22941790,-0.47526225,-0.84818573,0.40058927,-0.04662855
6.74000000,-0.34488541,0.76838958,-0.36848763,-0.22734424,0.69565446,0.30600785,-0.45442463,0.27848299,-0.77838009,0.22941790,-0.47526225,-0.84818573,0.40058927,-0.04662855
6.76000000,-0.34488541,0.76838958,-0.36848763,-0.22734424,0.69565446,0.30600785,-0.45442463,0.27848299,-0.77838009,0.22941790,-0.47526225,-0.84818573,0.40058927,-0.04662855
6.78000000,-0.34488541,0.76838958,-0.36848763,-0.22734424,0.69565446,0.30600785,-0.45442463,0.27848299,-0.77838009,0.22941790,-0.47526225,-0.84818573,0.40058927,-0.04662855
6.80000000,-0.34488541,0.76838958,-0.36848763,-0.22734424,0.69565446,0.30600785,-0.45442463,0.27848299,-0.77838009,0.22941790,-0.47526225,-0.84818573,0.40058927,-0.04662855
6.82000000,-0.34488541,0.76838958,-0.36848763,-0.22734424,0.69565446,0.30600785,-0.45442463,0.27848299,-0.77838009,0.22941790,-0.47526225,-0.84818573,0.40058927,-0.04662855
6.84000000,-0.34488541,0.76838958,-0.36848763,-0.22734424,0.69565446,0.30600785,-0.45442463,0.27848299,-0.77838009,0.22941790,-0.47526225,-0.84818573,0.40058927,-0.04662855
6.86000000,-0.34488541,0.76838958,-0.36848763,-0.22734424,0.69565446,0.30600785,-0.45442463,0.27848299,-0.77838009,0.22941790,-0.47526225,-0.84818573,0.40058927,-0.04662855
6.88000000,-0.34488541,0.76838958,-0.36848763,-0.22734424,0.69565446,0.30600785,-0.45442463,0.27848299,-0.77838009,0.22941790,-0.47526225,-0.84818573,0.40058927,-0.04662855
6.90000000,-0.34488541,0.76838958,-0.36848763,-0.22734424,0.69565446,0.30600785,-0.45442463,0.27848299,-0.77838009,0.22941790,-0.47526225,-0.84818573,0.40058927,-0.04662855
6.92000000,-0.34488541,0.76838958,-0.36848763,-0.22734424,0.69565446,0.30600785,-0.45442463,0.27848299,-0.77838009,0.22941790,-0.47526225,-0.84818573,0.40058927,-0.04662855
6.94000000,-0.34488541,0.76838958,-0.36848763,-0.22734424,0.69565446,0.30600785,-0.45442463,0.27848299,-0.77838009,0.22941790,-0.47526225,-0.84818573,0.40058927,-0.04662855
6.96000000,-0.34488541,0.76838958,-0.36848763,-0.22734424,0.69565446,0.30600785,-0.45442463,0.27848299,-0.77838009,0.22941790,-0.47526225,-0.84818573,0.40058927,-0.04662855
6.98000000,-0.34488541,0.76838958,-0.36848763,-0.22734424,0.69565446,0.30600785,-0.45442463,0.27848299,-0.77838009,0.22941790,-0.47526225,-0.84818573,0.40058927,-0.04662855
7.00000000,-0.34488541,0.76838958,-0.36848763,-0.22734424,0.69565446,0.30600785,-0.45442463,0.27848299,-0.77838009,0.22941790,-0.47526225,-0.84818573,0.40058927,-0.04662855
7.02000000,-0.34488541,0.76838958,-0.36848763,-0.22734424,0.69565446,0.30600785,-0.45442463,0.27848299,-0.77838009,0.22941790,-0.47526225,-0.84818573,0.40058927,-0.04662855
7.04000000,-0.34488541,0.76838958,-0.36848763,-0.22734424,0.69565446,0.30600785,-0.45442463,0.27848299,-0.77838009,0.22941790,-0.47526225,-0.84818573,0.40058927,-0.04662855
7.06000000,-0.34488541,0.76838958,-0.36848763,-0.22734424,0.69565446,0.30600785,-0.45442463,0.27848299,-0.77838009,0.22941790,-0.47526225,-0.84818573,0.40058927,-0.04662855
7.08000000,-0.34488541,0.76838958,-0.36848763,-0.22734424,0.69565446,0.30600785,-0.45442463,0.27848299,-0.77838009,0.22941790,-0.47526225,-0.84818573,0.40058927,-0.04662855
7.10000000,-0.34488541,0.76838958,-0.36848763,-0.22734424,0.69565446,0.30600785,-0.45442463,0.27848299,-0.77838009,0.22941790,-0.47526225,-0.84818573,0.40058927,-0.04662855
7.12000000,-0.34488541,0.76838958,-0.36848763,-0.22734424,0.69565446,0.30600785,-0.45442463,0.27848299,-0.77838009,0.22941790,-0.47526225,-0.84818573,0.40058927,-0.04662855
7.14000000,-0.34488541,0.76838958,-0.36848763,-0.22734424,0.69565446,0.30600785,-0.45442463,0.27848299,-0.77838009,0.22941790,-0.47526225,-0.84818573,0.40058927,-0.04662855
7.16000000,-0.34488541,0.76838958,-0.36848763,-0.22734424,0.69565446,0.30600785,-0.45442463,0.27848299,-0.77838009,0.22941790,-0.47526225,-0.84818573,0.40058927,-0.04662855
7.18000000,-0.34488541,0.76838958,-0.36848763,-0.22734424,0.69565446,0.30600785,-0.45442463,0.27848299,-0.77838009,0.22941790,-0.47526225,-0.84818573,0.40058927,-0.04662855
7.20000000,-0.34488541,0.76838958,-0.36848763,-0.22734424,0.69565446,0.30600785,-0.45442463,0.27848299,-0.77838009,0.22941790,-0.47526225,-0.84818573,0.40058927,-0.04662855
7.22000000,-0.34488541,0.76838958,-0.36848763,-0.22734424,0.69565446,0.30600785,-0.45442463,0.27848299,-0.77838009,0.22941790,-0.47526225,-0.84818573,0.40058927,-0.04662855
7.24000000,-0.34488541,0.76838958,-0.36848763,-0.22734424,0.69565446,0.30600785,-0.45442463,0.27848299,-0.77838009,0.22941790,-0.47526225,-0.84818573,0.40058927,-0.04662855
7.26000000,-0.34488541,0.76838958,-0.36848763,-0.22734424,0.69565446,0.30600785,-0.45442463,0.27848299,-0.77838009,0.22941790,-0.47526225,-0.84818573,0.40058927,-0.04662855
7.28000000,-0.34488541,0.76838958,-0.36848763,-0.22734424,0.69565446,0.30600785,-0.45442463,0.27848299,-0.77838009,0.22941790,-0.47526225,-0.84818573,0.40058927,-0.04662855
7.30000000,-0.34488541,0.76838958,-0.36848763,-0.22734424,0.69565446,0.30600785,-0.45442463,0.27848299,-0.77838009,0.22941790,-0.47526225,-0.84818573,0.40058927,-0.04662855
7.32000000,-0.34488541,0.76838958,-0.36848763,-0.22734424,0.69565446,0.30600785,-0.45442463,0.27848299,-0.77838009,0.22941790,-0.47526225,-0.84818573,0.40058927,-0.04662855
7.34000000,-0.34488541,0.76838958,-0.36848763,-0.22734424,0.69565446,0.30600785,-0.45442463,0.27848299,-0.77838009,0.22941790,-0.47526225,-0.84818573,0.40058927,-0.04662855
7.36000000,-0.34488541,0.76838958,-0.36848763,-0.22734424,0.69565446,0.30600785,-0.45442463,0.27848299,-0.77838009,0.22941790,-0.47526225,-0.84818573,0.40058927,-0.04662855
7.38000000,-0.34488541,0.76838958,-0.36848763,-0.22734424,0.69565446,0.30600785,-0.45442463,0.27848299,-0.77838009,0.22941790,-0.47526225,-0.84818573,0.40058927,-0.04662855
7.40000000,-0.34488541,0.76838958,-0.36848763,-0.22734424,0.69565446,0.30600785,-0.45442463,0.27848299,-0.77838009,0.22941790,-0.47526225,-0.84818573,0.40058927,-0.04662855
7.42000000,-0.34488541,0.76838958,-0.36848763,-0.22734424,0.69565446,0.30600785,-0.45442463,0.27848299,-0.77838009,0.22941790,-0.47526225,-0.84818573,0.40058927,-0.04662855
7.44000000,-0.34488541,0.76838958,-0.36848763,-0.22734424,0.69565446,0.30600785,-0.45442463,0.27848299,-0.77838009,0.22941790,-0.47526225,-0.84818573,0.40058927,-0.04662855
7.46000000,-0.34488541,0.76838958,-0.36848763,-0.22734424,0.69565446,0.30600785,-0.45442463,0.27848299,-0.77838009,0.22941790,-0.47526225,-0.84818573,0.40058927,-0.04662855
7.48000000,-0.34488541,0.76838958,-0.36848763,-0.22734424,0.69565446,0.30600785,-0.45442463,0.27848299,-0.77838009,0.22941790,-0.47526225,-0.84818573,0.40058927,-0.04662855
7.50000000,-0.34488541,0.76838958,-0.36848763,-0.22734424,0.69565446,0.30600785,-0.45442463,0.27848299,-0.77838009,0.22941790,-0.47526225,-0.84818573,0.40058927,-0.04662855
7.52000000,-0.34488541,0.76838958,-0.36848763,-0.22734424,0.69565446,0.30600785,-0.45442463,0.27848299,-0.77838009,0.22941790,-0.47526225,-0.84818573,0.40058927,-0.04662855
7.54000000,-0.34488541,0.76838958,-0.36848763,-0.22734424,0.69565446,0.30600785,-0.45442463,0.27848299,-0.77838009,0.22941790,-0.47526225,-0.84818573,0.40058927,-0.04662855
7.56000000,-0.34488541,0.76838958,-0.36848763,-0.22734424,0.69565446,0.30600785,-0.45442463,0.27848299,-0.77838009,0.22941790,-0.47526225,-0.84818573,0.40058927,-0.04662855
7.58000000,-0.34488541,0.76838958,-0.36848763,-0.22734424,0.69565446,0.30600785,-0.45442463,0.27848299,-0.77838009,0.22941790,-0.47526225,-0.84818573,0.40058927,-0.04662855
7.60000000,-0.34488541,0.76838958,-0.36848763,-0.22734424,0.69565446,0.30600785,-0.45442463,0.27848299,-0.77838009,0.22941790,-0.47526225,-0.84818573,0.40058927,-0.04662855
7.62000000,-0.34488541,0.76838958,-0.36848763,-0.22734424,0.69565446,0.30600785,-0.45442463,0.27848299,-0.77838009,0.22941790,-0.47526225,-0.84818573,0.40058927,-0.04662855
7.64000000,-0.34488541,0.76838958,-0.36848763,-0.22734424,0.69565446,0.30600785,-0.45442463,0.27848299,-0.77838009,0.22941790,-0.47526225,-0.84818573,0.40058927,-0.04662855
7.66000000,-0.34488541,0.76838958,-0.36848763,-0.22734424,0.69565446,0.30600785,-0.45442463,0.27848299,-0.77838009,0.22941790,-0.47526225,-0.84818573,0.40058927,-0.04662855
7.68000000,-0.34488541,0.76838958,-0.36848763,-0.22734424,0.69565446,0.30600785,-0.45442463,0.27848299,-0.77838009,0.22941790,-0.47526225,-0.84818573,0.40058927,-0.04662855
7.70000000,-0.34488541,0.76838958,-0.36848763,-0.22734424,0.69565446,0.30600785,-0.45442463,0.27848299,-0.77838009,0.22941790,-0.47526225,-0.84818573,0.40058927,-0.04662855
7.72000000,-0.34488541,0.76838958,-0.36848763,-0.22734424,0.69565446,0.30600785,-0.45442463,0.27848299,-0.77838009,0.22941790,-0.47526225,-0.84818573,0.40058927,-0.04662855
7.74000000,-0.34488541,0.76838958,-0.36848763,-0.22734424,0.69565446,0.30600785,-0.45442463,0.27848299,-0.77838009,0.22941790,-0.47526225,-0.84818573,0.40058927,-0.04662855
7.76000000,-0.34488541,0.76838958,-0.36848763,-0.22734424,0.69565446,0.30600785,-0.45442463,0.27848299,-0.77838009,0.22941790,-0.47526225,-0.84818573,0.40058927,-0.04662855
7.78000000,-0.34488541,0.76838958,-0.36848763,-0.22734424,0.69565446,0.30600785,-0.45442463,0.27848299,-0.77838009,0.22941790,-0.47526225,-0.84818573,0.40058927,-0.04662855
7.80000000,-0.34488541,0.76838958,-0.36848763,-0.22734424,0.69565446,0.30600785,-0.45442463,0.27848299,-0.77838009,0.22941790,-0.47526225,-0.84818573,0.40058927,-0.04662855
7.82000000,-0.34488541,0.76838958,-0.36848763,-0.22734424,0.69565446,0.30600785,-0.45442463,0.27848299,-0.77838009,0.22941790,-0.47526225,-0.84818573,0.40058927,-0.04662855
7.84000000,-0.34488541,0.76838958,-0.36848763,-0.22734424,0.69565446,0.30600785,-0.45442463,0.27848299,-0.77838009,0.22941790,-0.47526225,-0.84818573,0.40058927,-0.04662855
7.86000000,-0.34488541,0.76838958,-0.36848763,-0.22734424,0.69565446,0.30600785,-0.45442463,0.27848299,-0.77838009,0.22941790,-0.47526225,-0.84818573,0.40058927,-0.04662855
7.88000000,-0.34488541,0.76838958,-0.36848763,-0.22734424,0.69565446,0.30600785,-0.45442463,0.27848299,-0.77838009,0.22941790,-0.47526225,-0.84818573,0.40058927,-0.04662855
7.90000000,-0.34488541,0.76838958,-0.36848763,-0.22734424,0.69565446,0.30600785,-0.45442463,0.27848299,-0.77838009,0.22941790,-0.47526225,-0.84818573,0.40058927,-0.04662855
7.92000000,-0.34488541,0.76838958,-0.36848763,-0.22734424,0.69565446,0.30600785,-0.45442463,0.27848299,-0.77838009,0.22941790,-0.47526225,-0.84818573,0.40058927,-0.04662855
7.94000000,-0.34488541,0.76838958,-0.36848763,-0.22734424,0.69565446,0.30600785,-0.45442463,0.27848299,-0.77838009,0.22941790,-0.47526225,-0.84818573,0.40058927,-0.04662855
7.96000000,-0.34488541,0.76838958,-0.36848763,-0.22734424,0.69565446,0.30600785,-0.45442463,0.27848299,-0.77838009,0.22941790,-0.47526225,-0.84818573,0.40058927,-0.04662855
7.98000000,-0.34488541,0.76838958,-0.36848763,-0.22734424,0.69565446,0.30600785,-0.45442463,0.27848299,-0.77838009,0.22941790,-0.47526225,-0.84818573,0.40058927,-0.04662855
8.00000000,-0.34488541,0.76838958,-0.36848763,-0.22734424,0.69565446,0.30600785,-0.45442463,0.27848299,-0.77838009,0.22941790,-0.47526225,-0.84818573,0.40058927,-0.04662855
8.02000000,-0.34488541,0.76838958,-0.36848763,-0.22734424,0.69565446,0.30600785,-0.45442463,0.27848299,-0.77838009,0.22941790,-0.47526225,-0.84818573,0.40058927,-0.04662855
8.04000000,-0.34488541,0.76838958,-0.36848763,-0.22734424,0.69565446,0.30600785,-0.45442463,0.27848299,-0.77838009,0.22941790,-0.47526225,-0.84818573,0.40058927,-0.04662855
8.06000000,-0.34488541,0.76838958,-0.36848763,-0.22734424,0.69565446,0.30600785,-0.45442463,0.27848299,-0.77838009,0.22941790,-0.47526225,-0.84818573,0.40058927,-0.04662855
8.08000000,-0.34488541,0.76838958,-0.36848763,-0.22734424,0.69565446,0.30600785,-0.45442463,0.27848299,-0.77838009,0.22941790,-0.47526225,-0.84818573,0.40058927,-0.04662855
8.10000000,-0.34488541,0.76838958,-0.36848763,-0.22734424,0.69565446,0.30600785,-0.45442463,0.27848299,-0.77838009,0.22941790,-0.47526225,-0.84818573,0.40058927,-0.04662855
8.12000000,-0.34488541,0.76838958,-0.36848763,-0.22734424,0.69565446,0.30600785,-0.45442463,0.27848299,-0.77838009,0.22941790,-0.47526225,-0.84818573,0.40058927,-0.04662855
8.14000000,-0.34488541,0.76838958,-0.36848763,-0.22734424,0.69565446,0.30600785,-0.45442463,0.27848299,-0.77838009,0.22941790,-0.47526225,-0.84818573,0.40058927,-0.04662855
8.16000000,-0.34488541,0.76838958,-0.36848763,-0.22734424,0.69565446,0.30600785,-0.45442463,0.27848299,-0.77838009,0.22941790,-0.47526225,-0.84818573,0.40058927,-0.04662855
8.18000000,-0.34488541,0.76838958,-0.36848763,-0.22734424,0.69565446,0.30600785,-0.45442463,0.27848299,-0.77838009,0.22941790,-0.47526225,-0.84818573,0.40058927,-0.04662855
8.20000000,-0.34488541,0.76838958,-0.36848763,-0.22734424,0.69565446,0.30600785,-0.45442463,0.27848299,-0.77838009,0.22941790,-0.47526225,-0.84818573,0.40058927,-0.04662855
8.22000000,-0.34488541,0.76838958,-0.36848763,-0.22734424,0.69565446,0.30600785,-0.45442463,0.27848299,-0.77838009,0.22941790,-0.47526225,-0.84818573,0.40058927,-0.04662855
8.24000000,-0.34488541,0.76838958,-0.36848763,-0.22734424,0.69565446,0.30600785,-0.45442463,0.27848299,-0.77838009,0.22941790,-0.47526225,-0.84818573,0.40058927,-0.04662855
8.26000000,-0.34488541,0.76838958,-0.36848763,-0.22734424,0.69565446,0.30600785,-0.45442463,0.27848299,-0.77838009,0.22941790,-0.47526225,-0.84818573,0.40058927,-0.04662855
8.28000000,-0.34488541,0.76838958,-0.36848763,-0.22734424,0.69565446,0.30600785,-0.45442463,0.27848299,-0.77838009,0.22941790,-0.47526225,-0.84818573,0.40058927,-0.04662855
8.30000000,-0.34488541,0.76838958,-0.36848763,-0.22734424,0.69565446,0.30600785,-0.45442463,0.27848299,-0.77838009,0.22941790,-0.47526225,-0.84818573,0.40058927,-0.04662855
8.32000000,-0.34488541,0.76838958,-0.36848763,-0.22734424,0.69565446,0.30600785,-0.45442463,0.27848299,-0.77838009,0.22941790,-0.47526225,-0.84818573,0.40058927,-0.04662855
8.34000000,-0.34488541,0.76838958,-0.36848763,-0.22734424,0.69565446,0.30600785,-0.45442463,0.27848299,-0.77838009,0.22941790,-0.47526225,-0.84818573,0.40058927,-0.04662855
8.36000000,-0.34488541,0.76838958,-0.36848763,-0.22734424,0.69565446,0.30600785,-0.45442463,0.27848299,-0.77838009,0.22941790,-0.47526225,-0.84818573,0.40058927,-0.04662855
8.38000000,-0.34488541,0.76838958,-0.36848763,-0.22734424,0.69565446,0.30600785,-0.45442463,0.27848299,-0.77838009,0.22941790,-0.47526225,-0.84818573,0.40058927,-0.04662855
8.40000000,-0.34488541,0.76838958,-0.36848763,-0.22734424,0.69565446,0.30600785,-0.45442463,0.27848299,-0.77838009,0.22941790,-0.47526225,-0.84818573,0.40058927,-0.04662855
8.42000000,-0.34488541,0.76838958,-0.36848763,-0.22734424,0.69565446,0.30600785,-0.45442463,0.27848299,-0.77838009,0.22941790,-0.47526225,-0.84818573,0.40058927,-0.04662855
8.44000000,-0.34488541,0.76838958,-0.36848763,-0.22734424,0.69565446,0.30600785,-0.45442463,0.27848299,-0.77838009,0.22941790,-0.47526225,-0.84818573,0.40058927,-0.04662855
8.46000000,-0.34488541,0.76838958,-0.36848763,-0.22734424,0.69565446,0.30600785,-0.45442463,0.27848299,-0.77838009,0.22941790,-0.47526225,-0.84818573,0.40058927,-0.04662855
8.48000000,-0.34488541,0.76838958,-0.36848763,-0.22734424,0.69565446,0.30600785,-0.45442463,0.27848299,-0.77838009,0.22941790,-0.47526225,-0.84818573,0.40058927,-0.04662855
8.50000000,-0.34488541,0.76838958,-0.36848763,-0.22734424,0.69565446,0.30600785,-0.45442463,0.27848299,-0.77838009,0.22941790,-0.47526225,-0.84818573,0.40058927,-0.04662855
8.52000000,-0.34488541,0.76838958,-0.36848763,-0.22734424,0.69565446,0.30600785,-0.45442463,0.27848299,-0.77838009,0.22941790,-0.47526225,-0.84818573,0.40058927,-0.04662855
8.54000000,-0.34488541,0.76838958,-0.36848763,-0.22734424,0.69565446,0.30600785,-0.45442463,0.27848299,-0.77838009,0.22941790,-0.47526225,-0.84818573,0.40058927,-0.04662855
8.56000000,-0.34488541,0.76838958,-0.36848763,-0.22734424,0.69565446,0.30600785,-0.45442463,0.27848299,-0.77838009,0.22941790,-0.47526225,-0.84818573,0.40058927,-0.04662855
8.58000000,-0.34488541,0.76838958,-0.36848763,-0.22734424,0.69565446,0.30600785,-0.45442463,0.27848299,-0.77838009,0.22941790,-0.47526225,-0.84818573,0.40058927,-0.04662855
8.60000000,-0.34488541,0.76838958,-0.36848763,-0.22734424,0.69565446,0.30600785,-0.45442463,0.27848299,-0.77838009,0.22941790,-0.47526225,-0.84818573,0.40058927,-0.04662855
8.62000000,-0.34488541,0.76838958,-0.36848763,-0.22734424,0.69565446,0.30600785,-0.45442463,0.27848299,-0.77838009,0.22941790,-0.47526225,-0.84818573,0.40058927,-0.04662855
8.64000000,-0.34488541,0.76838958,-0.36848763,-0.22734424,0.69565446,0.30600785,-0.45442463,0.27848299,-0.77838009,0.22941790,-0.47526225,-0.84818573,0.40058927,-0.04662855
8.66000000,-0.34488541,0.76838958,-0.36848763,-0.22734424,0.69565446,0.30600785,-0.45442463,0.27848299,-0.77838009,0.22941790,-0.47526225,-0.84818573,0.40058927,-0.04662855
8.68000000,-0.34488541,0.76838958,-0.36848763,-0.22734424,0.69565446,0.30600785,-0.45442463,0.27848299,-0.77838009,0.22941790,-0.47526225,-0.84818573,0.40058927,-0.04662855
8.70000000,-0.34488541,0.76838958,-0.36848763,-0.22734424,0.69565446,0.30600785,-0.45442463,0.27848299,-0.77838009,0.22941790,-0.47526225,-0.84818573,0.40058927,-0.04662855
8.72000000,-0.34488541,0.76838958,-0.36848763,-0.22734424,0.69565446,0.30600785,-0.45442463,0.27848299,-0.77838009,0.22941790,-0.47526225,-0.84818573,0.40058927,-0.04662855
8.74000000,-0.34488541,0.76838958,-0.36848763,-0.22734424,0.69565446,0.30600785,-0.45442463,0.27848299,-0.77838009,0.22941790,-0.47526225,-0.84818573,0.40058927,-0.04662855
8.76000000,-0.34488541,0.76838958,-0.36848763,-0.22734424,0.69565446,0.30600785,-0.45442463,0.27848299,-0.77838009,0.22941790,-0.47526225,-0.84818573,0.40058927,-0.04662855
8.78000000,-0.34488541,0.76838958,-0.36848763,-0.22734424,0.69565446,0.30600785,-0.45442463,0.27848299,-0.77838009,0.22941790,-0.47526225,-0.84818573,0.40058927,-0.04662855
8.80000000,-0.34488541,0.76838958,-0.36848763,-0.22734424,0.69565446,0.30600785,-0.45442463,0.27848299,-0.77838009,0.22941790,-0.47526225,-0.84818573,0.40058927,-0.04662855
8.82000000,-0.34488541,0.76838958,-0.36848763,-0.22734424,0.69565446,0.30600785,-0.45442463,0.27848299,-0.77838009,0.22941790,-0.47526225,-0.84818573,0.40058927,-0.04662855
8.84000000,-0.34488541,0.76838958,-0.36848763,-0.22734424,0.69565446,0.30600785,-0.45442463,0.27848299,-0.77838009,0.22941790,-0.47526225,-0.84818573,0.40058927,-0.04662855
8.86000000,-0.34488541,0.76838958,-0.36848763,-0.22734424,0.69565446,0.30600785,-0.45442463,0.27848299,-0.77838009,0.22941790,-0.47526225,-0.84818573,0.40058927,-0.04662855
8.88000000,-0.34488541,0.76838958,-0.36848763,-0.22734424,0.69565446,0.30600785,-0.45442463,0.27848299,-0.77838009,0.22941790,-0.47526225,-0.84818573,0.40058927,-0.04662855
8.90000000,-0.34488541,0.76838958,-0.36848763,-0.22734424,0.69565446,0.30600785,-0.45442463,0.27848299,-0.77838009,0.22941790,-0.47526225,-0.84818573,0.40058927,-0.04662855
8.92000000,-0.34488541,0.76838958,-0.36848763,-0.22734424,0.69565446,0.30600785,-0.45442463,0.27848299,-0.77838009,0.22941790,-0.47526225,-0.84818573,0.40058927,-0.04662855
8.94000000,-0.34488541,0.76838958,-0.36848763,-0.22734424,0.69565446,0.30600785,-0.45442463,0.27848299,-0.77838009,0.22941790,-0.47526225,-0.84818573,0.40058927,-0.04662855
8.96000000,-0.34488541,0.76838958,-0.36848763,-0.22734424,0.69565446,0.30600785,-0.45442463,0.27848299,-0.77838009,0.22941790,-0.47526225,-0.84818573,0.40058927,-0.04662855
8.98000000,-0.34488541,0.76838958,-0.36848763,-0.22734424,0.69565446,0.30600785,-0.45442463,0.27848299,-0.77838009,0.22941790,-0.47526225,-0.84818573,0.40058927,-0.04662855
9.00000000,-0.34488541,0.76838958,-0.36848763,-0.22734424,0.69565446,0.30600785,-0.45442463,0.27848299,-0.77838009,0.22941790,-0.47526225,-0.84818573,0.40058927,-0.04662855
9.02000000,-0.34488541,0.76838958,-0.36848763,-0.22734424,0.69565446,0.30600785,-0.45442463,0.27848299,-0.77838009,0.22941790,-0.47526225,-0.84818573,0.40058927,-0.04662855
9.04000000,-0.34488541,0.76838958,-0.36848763,-0.22734424,0.69565446,0.30600785,-0.45442463,0.27848299,-0.77838009,0.22941790,-0.47526225,-0.84818573,0.40058927,-0.04662855
9.06000000,-0.34488541,0.76838958,-0.36848763,-0.22734424,0.69565446,0.30600785,-0.45442463,0.27848299,-0.77838009,0.22941790,-0.47526225,-0.84818573,0.40058927,-0.04662855
9.08000000,-0.34488541,0.76838958,-0.36848763,-0.22734424,0.69565446,0.30600785,-0.45442463,0.27848299,-0.77838009,0.22941790,-0.47526225,-0.84818573,0.40058927,-0.04662855
9.10000000,-0.34488541,0.76838958,-0.36848763,-0.22734424,0.69565446,0.30600785,-0.45442463,0.27848299,-0.77838009,0.22941790,-0.47526225,-0.84818573,0.40058927,-0.04662855
9.12000000,-0.34488541,0.76838958,-0.36848763,-0.22734424,0.69565446,0.30600785,-0.45442463,0.27848299,-0.77838009,0.22941790,-0.47526225,-0.84818573,0.40058927,-0.04662855
9.14000000,-0.34488541,0.76838958,-0.36848763,-0.22734424,0.69565446,0.30600785,-0.45442463,0.27848299,-0.77838009,0.22941790,-0.47526225,-0.84818573,0.40058927,-0.04662855
9.16000000,-0.34488541,0.76838958,-0.36848763,-0.22734424,0.69565446,0.30600785,-0.45442463,0.27848299,-0.77838009,0.22941790,-0.47526225,-0.84818573,0.40058927,-0.04662855
9.18000000,-0.34488541,0.76838958,-0.36848763,-0.22734424,0.69565446,0.30600785,-0.45442463,0.27848299,-0.77838009,0.22941790,-0.47526225,-0.84818573,0.40058927,-0.04662855
9.20000000,-0.34488541,0.76838958,-0.36848763,-0.22734424,0.69565446,0.30600785,-0.45442463,0.27848299,-0.77838009,0.22941790,-0.47526225,-0.84818573,0.40058927,-0.04662855
9.22000000,-0.34488541,0.76838958,-0.36848763,-0.22734424,0.69565446,0.30600785,-0.45442463,0.27848299,-0.77838009,0.22941790,-0.47526225,-0.84818573,0.40058927,-0.04662855
9.24000000,-0.34488541,0.76838958,-0.36848763,-0.22734424,0.69565446,0.30600785,-0.45442463,0.27848299,-0.77838009,0.22941790,-0.47526225,-0.84818573,0.40058927,-0.04662855
9.26000000,-0.34488541,0.76838958,-0.36848763,-0.22734424,0.69565446,0.30600785,-0.45442463,0.27848299,-0.77838009,0.22941790,-0.47526225,-0.84818573,0.40058927,-0.04662855
9.28000000,-0.34488541,0.76838958,-0.36848763,-0.22734424,0.69565446,0.30600785,-0.45442463,0.27848299,-0.77838009,0.22941790,-0.47526225,-0.84818573,0.40058927,-0.04662855
9.30000000,-0.34488541,0.76838958,-0.36848763,-0.22734424,0.69565446,0.30600785,-0.45442463,0.27848299,-0.77838009,0.22941790,-0.47526225,-0.84818573,0.40058927,-0.04662855
9.32000000,-0.34488541,0.76838958,-0.36848763,-0.22734424,0.69565446,0.30600785,-0.45442463,0.27848299,-0.77838009,0.22941790,-0.47526225,-0.84818573,0.40058927,-0.04662855
9.34000000,-0.34488541,0.76838958,-0.36848763,-0.22734424,0.69565446,0.30600785,-0.45442463,0.27848299,-0.77838009,0.22941790,-0.47526225,-0.84818573,0.40058927,-0.04662855
9.36000000,-0.34488541,0.76838958,-0.36848763,-0.22734424,0.69565446,0.30600785,-0.45442463,0.27848299,-0.77838009,0.22941790,-0.47526225,-0.84818573,0.40058927,-0.04662855
9.38000000,-0.34488541,0.76838958,-0.36848763,-0.22734424,0.69565446,0.30600785,-0.45442463,0.27848299,-0.77838009,0.22941790,-0.47526225,-0.84818573,0.40058927,-0.04662855
9.40000000,-0.34488541,0.76838958,-0.36848763,-0.22734424,0.69565446,0.30600785,-0.45442463,0.27848299,-0.77838009,0.22941790,-0.47526225,-0.84818573,0.40058927,-0.04662855
9.42000000,-0.34488541,0.76838958,-0.36848763,-0.22734424,0.69565446,0.30600785,-0.45442463,0.27848299,-0.77838009,0.22941790,-0.47526225,-0.84818573,0.40058927,-0.04662855
9.44000000,-0.34488541,0.76838958,-0.36848763,-0.22734424,0.69565446,0.30600785,-0.45442463,0.27848299,-0.77838009,0.22941790,-0.47526225,-0.84818573,0.40058927,-0.04662855
9.46000000,-0.34488541,0.76838958,-0.36848763,-0.22734424,0.69565446,0.30600785,-0.45442463,0.27848299,-0.77838009,0.22941790,-0.47526225,-0.84818573,0.40058927,-0.04662855
9.48000000,-0.34488541,0.76838958,-0.36848763,-0.22734424,0.69565446,0.30600785,-0.45442463,0.27848299,-0.77838009,0.22941790,-0.47526225,-0.84818573,0.40058927,-0.04662855
9.50000000,-0.34488541,0.76838958,-0.36848763,-0.22734424,0.69565446,0.30600785,-0.45442463,0.27848299,-0.77838009,0.22941790,-0.47526225,-0.84818573,0.40058927,-0.04662855
9.52000000,-0.34488541,0.76838958,-0.36848763,-0.22734424,0.69565446,0.30600785,-0.45442463,0.27848299,-0.77838009,0.22941790,-0.47526225,-0.84818573,0.40058927,-0.04662855
9.54000000,-0.34488541,0.76838958,-0.36848763,-0.22734424,0.69565446,0.30600785,-0.45442463,0.27848299,-0.77838009,0.22941790,-0.47526225,-0.84818573,0.40058927,-0.04662855
9.56000000,-0.34488541,0.76838958,-0.36848763,-0.22734424,0.69565446,0.30600785,-0.45442463,0.27848299,-0.77838009,0.22941790,-0.47526225,-0.84818573,0.40058927,-0.04662855
9.58000000,-0.34488541,0.76838958,-0.36848763,-0.22734424,0.69565446,0.30600785,-0.45442463,0.27848299,-0.77838009,0.22941790,-0.47526225,-0.84818573,0.40058927,-0.04662855
9.60000000,-0.34488541,0.76838958,-0.36848763,-0.22734424,0.69565446,0.30600785,-0.45442463,0.27848299,-0.77838009,0.22941790,-0.47526225,-0.84818573,0.40058927,-0.04662855
9.62000000,-0.34488541,0.76838958,-0.36848763,-0.22734424,0.69565446,0.30600785,-0.45442463,0.27848299,-0.77838009,0.22941790,-0.47526225,-0.84818573,0.40058927,-0.04662855
9.64000000,-0.34488541,0.76838958,-0.36848763,-0.22734424,0.69565446,0.30600785,-0.45442463,0.27848299,-0.77838009,0.22941790,-0.47526225,-0.84818573,0.40058927,-0.04662855
9.66000000,-0.34488541,0.76838958,-0.36848763,-0.22734424,0.69565446,0.30600785,-0.45442463,0.27848299,-0.77838009,0.22941790,-0.47526225,-0.84818573,0.40058927,-0.04662855
9.68000000,-0.34488541,0.76838958,-0.36848763,-0.22734424,0.69565446,0.30600785,-0.45442463,0.27848299,-0.77838009,0.22941790,-0.47526225,-0.84818573,0.40058927,-0.04662855
9.70000000,-0.34488541,0.76838958,-0.36848763,-0.22734424,0.69565446,0.30600785,-0.45442463,0.27848299,-0.77838009,0.22941790,-0.47526225,-0.84818573,0.40058927,-0.04662855
9.72000000,-0.34488541,0.76838958,-0.36848763,-0.22734424,0.69565446,0.30600785,-0.45442463,0.27848299,-0.77838009,0.22941790,-0.47526225,-0.84818573,0.40058927,-0.04662855
9.74000000,-0.34488541,0.76838958,-0.36848763,-0.22734424,0.69565446,0.30600785,-0.45442463,0.27848299,-0.77838009,0.22941790,-0.47526225,-0.84818573,0.40058927,-0.04662855
9.76000000,-0.34488541,0.76838958,-0.36848763,-0.22734424,0.69565446,0.30600785,-0.45442463,0.27848299,-0.77838009,0.22941790,-0.47526225,-0.84818573,0.40058927,-0.04662855
9.78000000,-0.34488541,0.76838958,-0.36848763,-0.22734424,0.69565446,0.30600785,-0.45442463,0.27848299,-0.77838009,0.22941790,-0.47526225,-0.84818573,0.40058927,-0.04662855
9.80000000,-0.34488541,0.76838958,-0.36848763,-0.22734424,0.69565446,0.30600785,-0.45442463,0.27848299,-0.77838009,0.22941790,-0.47526225,-0.84818573,0.40058927,-0.04662855
9.82000000,-0.34488541,0.76838958,-0.36848763,-0.22734424,0.69565446,0.30600785,-0.45442463,0.27848299,-0.77838009,0.22941790,-0.47526225,-0.84818573,0.40058927,-0.04662855
9.84000000,-0.34488541,0.76838958,-0.36848763,-0.22734424,0.69565446,0.30600785,-0.45442463,0.27848299,-0.77838009,0.22941790,-0.47526225,-0.84818573,0.40058927,-0.04662855
9.86000000,-0.34488541,0.76838958,-0.36848763,-0.22734424,0.69565446,0.30600785,-0.45442463,0.27848299,-0.77838009,0.22941790,-0.47526225,-0.84818573,0.40058927,-0.04662855
9.88000000,-0.34488541,0.76838958,-0.36848763,-0.22734424,0.69565446,0.30600785,-0.45442463,0.27848299,-0.77838009,0.22941790,-0.47526225,-0.84818573,0.40058927,-0.04662855
9.90000000,-0.34488541,0.76838958,-0.36848763,-0.22734424,0.69565446,0.30600785,-0.45442463,0.27848299,-0.77838009,0.22941790,-0.47526225,-0.84818573,0.40058927,-0.04662855
9.92000000,-0.34488541,0.76838958,-0.36848763,-0.22734424,0.69565446,0.30600785,-0.45442463,0.27848299,-0.77838009,0.22941790,-0.47526225,-0.84818573,0.40058927,-0.04662855
9.94000000,-0.34488541,0.76838958,-0.36848763,-0.22734424,0.69565446,0.30600785,-0.45442463,0.27848299,-0.77838009,0.22941790,-0.47526225,-0.84818573,0.40058927,-0.04662855
9.96000000,-0.34488541,0.76838958,-0.36848763,-0.22734424,0.69565446,0.30600785,-0.45442463,0.27848299,-0.77838009,0.22941790,-0.47526225,-0.84818573,0.40058927,-0.04662855
9.98000000,-0.34488541,0.76838958,-0.36848763,-0.22734424,0.69565446,0.30600785,-0.45442463,0.27848299,-0.77838009,0.22941790,-0.47526225,-0.84818573,0.40058927,-0.04662855
10.00000000,-0.34488541,0.76838958,-0.36848763,-0.22734424,0.69565446,0.30600785,-0.45442463,0.27848299,-0.77838009,0.22941790,-0.47526225,-0.84818573,0.40058927,-0.04662855
10.02000000,-0.34488541,0.76838958,-0.36848763,-0.22734424,0.69565446,0.30600785,-0.45442463,0.27848299,-0.77838009,0.22941790,-0.47526225,-0.84818573,0.40058927,-0.04662855
10.04000000,-0.34488541,0.76838958,-0.36848763,-0.22734424,0.69565446,0.30600785,-0.45442463,0.27848299,-0.77838009,0.22941790,-0.47526225,-0.84818573,0.40058927,-0.04662855
10.06000000,-0.34488541,0.76838958,-0.36848763,-0.22734424,0.69565446,0.30600785,-0.45442463,0.27848299,-0.77838009,0.22941790,-0.47526225,-0.84818573,0.40058927,-0.04662855
10.08000000,-0.34488541,0.76838958,-0.36848763,-0.22734424,0.69565446,0.30600785,-0.45442463,0.27848299,-0.77838009,0.22941790,-0.47526225,-0.84818573,0.40058927,-0.04662855
10.10000000,-0.34488541,0.76838958,-0.36848763,-0.22734424,0.69565446,0.30600785,-0.45442463,0.27848299,-0.77838009,0.22941790,-0.47526225,-0.84818573,0.40058927,-0.04662855
10.12000000,-0.34488541,0.76838958,-0.36848763,-0.22734424,0.69565446,0.30600785,-0.45442463,0.27848299,-0.77838009,0.22941790,-0.47526225,-0.84818573,0.40058927,-0.04662855
10.14000000,-0.34488541,0.76838958,-0.36848763,-0.22734424,0.69565446,0.30600785,-0.45442463,0.27848299,-0.77838009,0.22941790,-0.47526225,-0.84818573,0.40058927,-0.04662855
10.16000000,-0.34488541,0.76838958,-0.36848763,-0.22734424,0.69565446,0.30600785,-0.45442463,0.27848299,-0.77838009,0.22941790,-0.47526225,-0.84818573,0.40058927,-0.04662855
10.18000000,-0.34488541,0.76838958,-0.36848763,-0.22734424,0.69565446,0.30600785,-0.45442463,0.27848299,-0.77838009,0.22941790,-0.47526225,-0.84818573,0.40058927,-0.04662855
10.20000000,-0.34488541,0.76838958,-0.36848763,-0.22734424,0.69565446,0.30600785,-0.45442463,0.27848299,-0.77838009,0.22941790,-0.47526225,-0.84818573,0.40058927,-0.04662855
10.22000000,-0.34488541,0.76838958,-0.36848763,-0.22734424,0.69565446,0.30600785,-0.45442463,0.27848299,-0.77838009,0.22941790,-0.47526225,-0.84818573,0.40058927,-0.04662855
10.24000000,-0.34488541,0.76838958,-0.36848763,-0.22734424,0.69565446,0.30600785,-0.45442463,0.27848299,-0.77838009,0.22941790,-0.47526225,-0.84818573,0.40058927,-0.04662855
10.26000000,-0.34488541,0.76838958,-0.36848763,-0.22734424,0.69565446,0.30600785,-0.45442463,0.27848299,-0.77838009,0.22941790,-0.47526225,-0.84818573,0.40058927,-0.04662855
10.28000000,-0.34488541,0.76838958,-0.36848763,-0.22734424,0.69565446,0.30600785,-0.45442463,0.27848299,-0.77838009,0.22941790,-0.47526225,-0.84818573,0.40058927,-0.04662855
10.30000000,-0.34488541,0.76838958,-0.36848763,-0.22734424,0.69565446,0.30600785,-0.45442463,0.27848299,-0.77838009,0.22941790,-0.47526225,-0.84818573,0.40058927,-0.04662855
10.32000000,-0.34488541,0.76838958,-0.36848763,-0.22734424,0.69565446,0.30600785,-0.45442463,0.27848299,-0.77838009,0.22941790,-0.47526225,-0.84818573,0.40058927,-0.04662855
10.34000000,-0.34488541,0.76838958,-0.36848763,-0.22734424,0.69565446,0.30600785,-0.45442463,0.27848299,-0.77838009,0.22941790,-0.47526225,-0.84818573,0.40058927,-0.04662855
10.36000000,-0.34488541,0.76838958,-0.36848763,-0.22734424,0.69565446,0.30600785,-0.45442463,0.27848299,-0.77838009,0.22941790,-0.47526225,-0.84818573,0.40058927,-0.04662855
10.38000000,-0.34488541,0.76838958,-0.36848763,-0.22734424,0.69565446,0.30600785,-0.45442463,0.27848299,-0.77838009,0.22941790,-0.47526225,-0.84818573,0.40058927,-0.04662855
10.40000000,-0.34488541,0.76838958,-0.36848763,-0.22734424,0.69565446,0.30600785,-0.45442463,0.27848299,-0.77838009,0.22941790,-0.47526225,-0.84818573,0.40058927,-0.04662855
10.42000000,-0.34488541,0.76838958,-0.36848763,-0.22734424,0.69565446,0.30600785,-0.45442463,0.27848299,-0.77838009,0.22941790,-0.47526225,-0.84818573,0.40058927,-0.04662855
10.44000000,-0.34488541,0.76838958,-0.36848763,-0.22734424,0.69565446,0.30600785,-0.45442463,0.27848299,-0.77838009,0.22941790,-0.47526225,-0.84818573,0.40058927,-0.04662855
10.46000000,-0.34488541,0.76838958,-0.36848763,-0.22734424,0.69565446,0.30600785,-0.45442463,0.27848299,-0.77838009,0.22941790,-0.47526225,-0.84818573,0.40058927,-0.04662855
10.48000000,-0.34488541,0.76838958,-0.36848763,-0.22734424,0.69565446,0.30600785,-0.45442463,0.27848299,-0.77838009,0.22941790,-0.47526225,-0.84818573,0.40058927,-0.04662855
10.50000000,-0.34488541,0.76838958,-0.36848763,-0.22734424,0.69565446,0.30600785,-0.45442463,0.27848299,-0.77838009,0.22941790,-0.47526225,-0.84818573,0.40058927,-0.04662855
10.52000000,-0.34488541,0.76838958,-0.36848763,-0.22734424,0.69565446,0.30600785,-0.45442463,0.27848299,-0.77838009,0.22941790,-0.47526225,-0.84818573,0.40058927,-0.04662855
10.54000000,-0.34488541,0.76838958,-0.36848763,-0.22734424,0.69565446,0.30600785,-0.45442463,0.27848299,-0.77838009,0.22941790,-0.47526225,-0.84818573,0.40058927,-0.04662855
10.56000000,-0.34488541,0.76838958,-0.36848763,-0.22734424,0.69565446,0.30600785,-0.45442463,0.27848299,-0.77838009,0.22941790,-0.47526225,-0.84818573,0.40058927,-0.04662855
10.58000000,-0.34488541,0.76838958,-0.36848763,-0.22734424,0.69565446,0.30600785,-0.45442463,0.27848299,-0.77838009,0.22941790,-0.47526225,-0.84818573,0.40058927,-0.04662855
10.60000000,-0.34488541,0.76838958,-0.36848763,-0.22734424,0.69565446,0.30600785,-0.45442463,0.27848299,-0.77838009,0.22941790,-0.47526225,-0.84818573,0.40058927,-0.04662855
10.62000000,-0.34488541,0.76838958,-0.36848763,-0.22734424,0.69565446,0.30600785,-0.45442463,0.27848299,-0.77838009,0.22941790,-0.47526225,-0.84818573,0.40058927,-0.04662855
10.64000000,-0.34488541,0.76838958,-0.36848763,-0.22734424,0.69565446,0.30600785,-0.45442463,0.27848299,-0.77838009,0.22941790,-0.47526225,-0.84818573,0.40058927,-0.04662855
10.66000000,-0.34488541,0.76838958,-0.36848763,-0.22734424,0.69565446,0.30600785,-0.45442463,0.27848299,-0.77838009,0.22941790,-0.47526225,-0.84818573,0.40058927,-0.04662855
10.68000000,-0.34488541,0.76838958,-0.36848763,-0.22734424,0.69565446,0.30600785,-0.45442463,0.27848299,-0.77838009,0.22941790,-0.47526225,-0.84818573,0.40058927,-0.04662855
10.70000000,-0.34488541,0.76838958,-0.36848763,-0.22734424,0.69565446,0.30600785,-0.45442463,0.27848299,-0.77838009,0.22941790,-0.47526225,-0.84818573,0.40058927,-0.04662855
10.72000000,-0.34488541,0.76838958,-0.36848763,-0.22734424,0.69565446,0.30600785,-0.45442463,0.27848299,-0.77838009,0.22941790,-0.47526225,-0.84818573,0.40058927,-0.04662855
10.74000000,-0.34488541,0.76838958,-0.36848763,-0.22734424,0.69565446,0.30600785,-0.45442463,0.27848299,-0.77838009,0.22941790,-0.47526225,-0.84818573,0.40058927,-0.04662855
10.76000000,-0.34488541,0.76838958,-0.36848763,-0.22734424,0.69565446,0.30600785,-0.45442463,0.27848299,-0.77838009,0.22941790,-0.47526225,-0.84818573,0.40058927,-0.04662855
10.78000000,-0.34488541,0.76838958,-0.36848763,-0.22734424,0.69565446,0.30600785,-0.45442463,0.27848299,-0.77838009,0.22941790,-0.47526225,-0.84818573,0.40058927,-0.04662855
10.80000000,-0.34488541,0.76838958,-0.36848763,-0.22734424,0.69565446,0.30600785,-0.45442463,0.27848299,-0.77838009,0.22941790,-0.47526225,-0.84818573,0.40058927,-0.04662855
10.82000000,-0.34488541,0.76838958,-0.36848763,-0.22734424,0.69565446,0.30600785,-0.45442463,0.27848299,-0.77838009,0.22941790,-0.47526225,-0.84818573,0.40058927,-0.04662855
10.84000000,-0.34488541,0.76838958,-0.36848763,-0.22734424,0.69565446,0.30600785,-0.45442463,0.27848299,-0.77838009,0.22941790,-0.47526225,-0.84818573,0.40058927,-0.04662855
10.86000000,-0.34488541,0.76838958,-0.36848763,-0.22734424,0.69565446,0.30600785,-0.45442463,0.27848299,-0.77838009,0.22941790,-0.47526225,-0.84818573,0.40058927,-0.04662855
10.88000000,-0.34488541,0.76838958,-0.36848763,-0.22734424,0.69565446,0.30600785,-0.45442463,0.27848299,-0.77838009,0.22941790,-0.47526225,-0.84818573,0.40058927,-0.04662855
10.90000000,-0.34488541,0.76838958,-0.36848763,-0.22734424,0.69565446,0.30600785,-0.45442463,0.27848299,-0.77838009,0.22941790,-0.47526225,-0.84818573,0.40058927,-0.04662855
10.92000000,-0.34488541,0.76838958,-0.36848763,-0.22734424,0.69565446,0.30600785,-0.45442463,0.27848299,-0.77838009,0.22941790,-0.47526225,-0.84818573,0.40058927,-0.04662855
10.94000000,-0.34488541,0.76838958,-0.36848763,-0.22734424,0.69565446,0.30600785,-0.45442463,0.27848299,-0.77838009,0.22941790,-0.47526225,-0.84818573,0.40058927,-0.04662855
10.96000000,-0.34488541,0.76838958,-0.36848763,-0.22734424,0.69565446,0.30600785,-0.45442463,0.27848299,-0.77838009,0.22941790,-0.47526225,-0.84818573,0.40058927,-0.04662855
10.98000000,-0.34488541,0.76838958,-0.36848763,-0.22734424,0.69565446,0.30600785,-0.45442463,0.27848299,-0.77838009,0.22941790,-0.47526225,-0.84818573,0.40058927,-0.04662855
11.00000000,-0.34488541,0.76838958,-0.36848763,-0.22734424,0.69565446,0.30600785,-0.45442463,0.27848299,-0.77838009,0.22941790,-0.47526225,-0.84818573,0.40058927,-0.04662855
11.02000000,-0.34488541,0.76838958,-0.36848763,-0.22734424,0.69565446,0.30600785,-0.45442463,0.27848299,-0.77838009,0.22941790,-0.47526225,-0.84818573,0.40058927,-0.04662855
11.04000000,-0.34488541,0.76838958,-0.36848763,-0.22734424,0.69565446,0.30600785,-0.45442463,0.27848299,-0.77838009,0.22941790,-0.47526225,-0.84818573,0.40058927,-0.04662855
11.06000000,-0.34488541,0.76838958,-0.36848763,-0.22734424,0.69565446,0.30600785,-0.45442463,0.27848299,-0.77838009,0.22941790,-0.47526225,-0.84818573,0.40058927,-0.04662855
11.08000000,-0.34488541,0.76838958,-0.36848763,-0.22734424,0.69565446,0.30600785,-0.45442463,0.27848299,-0.77838009,0.22941790,-0.47526225,-0.84818573,0.40058927,-0.04662855
11.10000000,-0.34488541,0.76838958,-0.36848763,-0.22734424,0.69565446,0.30600785,-0.45442463,0.27848299,-0.77838009,0.22941790,-0.47526225,-0.84818573,0.40058927,-0.04662855
11.12000000,-0.34488541,0.76838958,-0.36848763,-0.22734424,0.69565446,0.30600785,-0.45442463,0.27848299,-0.77838009,0.22941790,-0.47526225,-0.84818573,0.40058927,-0.04662855
11.14000000,-0.34488541,0.76838958,-0.36848763,-0.22734424,0.69565446,0.30600785,-0.45442463,0.27848299,-0.77838009,0.22941790,-0.47526225,-0.84818573,0.40058927,-0.04662855
11.16000000,-0.34488541,0.76838958,-0.36848763,-0.22734424,0.69565446,0.30600785,-0.45442463,0.27848299,-0.77838009,0.22941790,-0.47526225,-0.84818573,0.40058927,-0.04662855
11.18000000,-0.34488541,0.76838958,-0.36848763,-0.22734424,0.69565446,0.30600785,-0.45442463,0.27848299,-0.77838009,0.22941790,-0.47526225,-0.84818573,0.40058927,-0.04662855
11.20000000,-0.34488541,0.76838958,-0.36848763,-0.22734424,0.69565446,0.30600785,-0.45442463,0.27848299,-0.77838009,0.22941790,-0.47526225,-0.84818573,0.40058927,-0.04662855
11.22000000,-0.34488541,0.76838958,-0.36848763,-0.22734424,0.69565446,0.30600785,-0.45442463,0.27848299,-0.77838009,0.22941790,-0.47526225,-0.84818573,0.40058927,-0.04662855
11.24000000,-0.34488541,0.76838958,-0.36848763,-0.22734424,0.69565446,0.30600785,-0.45442463,0.27848299,-0.77838009,0.22941790,-0.47526225,-0.84818573,0.40058927,-0.04662855
11.26000000,-0.34488541,0.76838958,-0.36848763,-0.22734424,0.69565446,0.30600785,-0.45442463,0.27848299,-0.77838009,0.22941790,-0.47526225,-0.84818573,0.40058927,-0.04662855
11.28000000,-0.34488541,0.76838958,-0.36848763,-0.22734424,0.69565446,0.30600785,-0.45442463,0.27848299,-0.77838009,0.22941790,-0.47526225,-0.84818573,0.40058927,-0.04662855
11.30000000,-0.34488541,0.76838958,-0.36848763,-0.22734424,0.69565446,0.30600785,-0.45442463,0.27848299,-0.77838009,0.22941790,-0.47526225,-0.84818573,0.40058927,-0.04662855
11.32000000,-0.34488541,0.76838958,-0.36848763,-0.22734424,0.69565446,0.30600785,-0.45442463,0.27848299,-0.77838009,0.22941790,-0.47526225,-0.84818573,0.40058927,-0.04662855
11.34000000,-0.34488541,0.76838958,-0.36848763,-0.22734424,0.69565446,0.30600785,-0.45442463,0.27848299,-0.77838009,0.22941790,-0.47526225,-0.84818573,0.40058927,-0.04662855
11.36000000,-0.34488541,0.76838958,-0.36848763,-0.22734424,0.69565446,0.30600785,-0.45442463,0.27848299,-0.77838009,0.22941790,-0.47526225,-0.84818573,0.40058927,-0.04662855
11.38000000,-0.34488541,0.76838958,-0.36848763,-0.22734424,0.69565446,0.30600785,-0.45442463,0.27848299,-0.77838009,0.22941790,-0.47526225,-0.84818573,0.40058927,-0.04662855
11.40000000,-0.34488541,0.76838958,-0.36848763,-0.22734424,0.69565446,0.30600785,-0.45442463,0.27848299,-0.77838009,0.22941790,-0.47526225,-0.84818573,0.40058927,-0.04662855
11.42000000,-0.34488541,0.76838958,-0.36848763,-0.22734424,0.69565446,0.30600785,-0.45442463,0.27848299,-0.77838009,0.22941790,-0.47526225,-0.84818573,0.40058927,-0.04662855
11.44000000,-0.34488541,0.76838958,-0.36848763,-0.22734424,0.69565446,0.30600785,-0.45442463,0.27848299,-0.77838009,0.22941790,-0.47526225,-0.84818573,0.40058927,-0.04662855
11.46000000,-0.34488541,0.76838958,-0.36848763,-0.22734424,0.69565446,0.30600785,-0.45442463,0.27848299,-0.77838009,0.22941790,-0.47526225,-0.84818573,0.40058927,-0.04662855
11.48000000,-0.34488541,0.76838958,-0.36848763,-0.22734424,0.69565446,0.30600785,-0.45442463,0.27848299,-0.77838009,0.22941790,-0.47526225,-0.84818573,0.40058927,-0.04662855
