gracetata/LocomotionHEC/legged_lab/Reference Data/ArmHack/StandPerturb/TestData/ArmOnly/sequences/randomized_trajectories_arm_only_sequence_seed20260715_50hz.csv
time_s,left_shoulder_pitch_joint,left_shoulder_roll_joint,left_shoulder_yaw_joint,left_elbow_joint,left_wrist_roll_joint,left_wrist_pitch_joint,left_wrist_yaw_joint,right_shoulder_pitch_joint,right_shoulder_roll_joint,right_shoulder_yaw_joint,right_elbow_joint,right_wrist_roll_joint,right_wrist_pitch_joint,right_wrist_yaw_joint
0.00000000,-0.16367175,0.90304919,-0.23711575,-0.52873176,0.58839470,0.28955773,-0.50392943,0.14771040,-0.77214312,0.15672542,-0.30066494,-0.85215312,0.26649489,0.00400113
0.02000000,-0.16367147,0.90304911,-0.23711575,-0.52873172,0.58839487,0.28955780,-0.50392908,0.14771003,-0.77214307,0.15672534,-0.30066449,-0.85215311,0.26649459,0.00400127
0.04000000,-0.16366952,0.90304855,-0.23711571,-0.52873149,0.58839601,0.28955829,-0.50392665,0.14770745,-0.77214275,0.15672484,-0.30066141,-0.85215304,0.26649249,0.00400224
0.06000000,-0.16366426,0.90304706,-0.23711562,-0.52873085,0.58839910,0.28955960,-0.50392009,0.14770049,-0.77214188,0.15672348,-0.30065312,-0.85215286,0.26648683,0.00400484
0.08000000,-0.16365411,0.90304417,-0.23711545,-0.52872963,0.58840506,0.28956215,-0.50390743,0.14768705,-0.77214020,0.15672085,-0.30063709,-0.85215252,0.26647591,0.00400985
0.10000000,-0.16363750,0.90303945,-0.23711517,-0.52872762,0.58841480,0.28956631,-0.50388672,0.14766508,-0.77213744,0.15671655,-0.30061087,-0.85215196,0.26645804,0.00401806
0.12000000,-0.16361293,0.90303246,-0.23711475,-0.52872466,0.58842923,0.28957247,-0.50385607,0.14763256,-0.77213337,0.15671019,-0.30057208,-0.85215112,0.26643161,0.00403021
0.14000000,-0.16357892,0.90302279,-0.23711417,-0.52872055,0.58844920,0.28958099,-0.50381365,0.14758754,-0.77212773,0.15670138,-0.30051838,-0.85214997,0.26639501,0.00404702
0.16000000,-0.16353403,0.90301003,-0.23711341,-0.52871513,0.58847555,0.28959224,-0.50375766,0.14752812,-0.77212028,0.15668975,-0.30044751,-0.85214845,0.26634671,0.00406921
0.18000000,-0.16347686,0.90299377,-0.23711244,-0.52870823,0.58850911,0.28960656,-0.50368635,0.14745246,-0.77211080,0.15667495,-0.30035725,-0.85214651,0.26628521,0.00409747
0.20000000,-0.16340605,0.90297363,-0.23711123,-0.52869969,0.58855068,0.28962431,-0.50359804,0.14735875,-0.77209906,0.15665661,-0.30024546,-0.85214410,0.26620903,0.00413247
0.22000000,-0.16332028,0.90294924,-0.23710978,-0.52868934,0.58860102,0.28964580,-0.50349106,0.14724523,-0.77208484,0.15663440,-0.30011006,-0.85214119,0.26611675,0.00417486
0.24000000,-0.16321827,0.90292024,-0.23710804,-0.52867702,0.58866091,0.28967136,-0.50336383,0.14711022,-0.77206792,0.15660798,-0.29994900,-0.85213773,0.26600700,0.00422528
0.26000000,-0.16309876,0.90288625,-0.23710601,-0.52866260,0.58873106,0.28970131,-0.50321477,0.14695205,-0.77204810,0.15657704,-0.29976033,-0.85213368,0.26587842,0.00428435
0.28000000,-0.16296055,0.90284695,-0.23710366,-0.52864592,0.58881220,0.28973594,-0.50304238,0.14676912,-0.77202518,0.15654125,-0.29954213,-0.85212899,0.26572972,0.00435267
0.30000000,-0.16280246,0.90280199,-0.23710097,-0.52862684,0.58890501,0.28977556,-0.50284520,0.14655989,-0.77199897,0.15650031,-0.29929254,-0.85212363,0.26555963,0.00443081
0.32000000,-0.16262335,0.90275106,-0.23709793,-0.52860522,0.58901015,0.28982044,-0.50262180,0.14632283,-0.77196927,0.15645392,-0.29900977,-0.85211755,0.26536693,0.00451934
0.34000000,-0.16242212,0.90269384,-0.23709451,-0.52858093,0.58912828,0.28987087,-0.50237082,0.14605650,-0.77193589,0.15640181,-0.29869207,-0.85211072,0.26515042,0.00461881
0.36000000,-0.16219770,0.90263002,-0.23709069,-0.52855385,0.58926003,0.28992710,-0.50209090,0.14575947,-0.77189868,0.15634370,-0.29833776,-0.85210311,0.26490897,0.00472973
0.38000000,-0.16194905,0.90255931,-0.23708647,-0.52852384,0.58940599,0.28998941,-0.50178078,0.14543039,-0.77185745,0.15627931,-0.29794521,-0.85209467,0.26464146,0.00485263
0.40000000,-0.16167519,0.90248144,-0.23708181,-0.52849079,0.58956676,0.29005804,-0.50143920,0.14506793,-0.77181203,0.15620839,-0.29751284,-0.85208538,0.26434681,0.00498800
0.42000000,-0.16137514,0.90239611,-0.23707671,-0.52845457,0.58974290,0.29013322,-0.50106496,0.14467081,-0.77176227,0.15613069,-0.29703914,-0.85207520,0.26402399,0.00513631
0.44000000,-0.16104798,0.90230308,-0.23707115,-0.52841509,0.58993495,0.29021521,-0.50065691,0.14423781,-0.77170802,0.15604597,-0.29652263,-0.85206410,0.26367201,0.00529802
0.46000000,-0.16069282,0.90220208,-0.23706511,-0.52837222,0.59014345,0.29030420,-0.50021392,0.14376774,-0.77164912,0.15595399,-0.29596191,-0.85205205,0.26328989,0.00547357
0.48000000,-0.16030878,0.90209288,-0.23705858,-0.52832587,0.59036889,0.29040044,-0.49973493,0.14325947,-0.77158544,0.15585454,-0.29535561,-0.85203902,0.26287671,0.00566339
0.50000000,-0.15989505,0.90197523,-0.23705155,-0.52827593,0.59061177,0.29050411,-0.49921890,0.14271189,-0.77151683,0.15574740,-0.29470242,-0.85202499,0.26243158,0.00586789
0.52000000,-0.15945082,0.90184890,-0.23704400,-0.52822232,0.59087254,0.29061543,-0.49866483,0.14212395,-0.77144316,0.15563237,-0.29400109,-0.85200992,0.26195364,0.00608747
0.54000000,-0.15897534,0.90171369,-0.23703591,-0.52816493,0.59115167,0.29073458,-0.49807178,0.14149464,-0.77136432,0.15550923,-0.29325042,-0.85199379,0.26144207,0.00632249
0.56000000,-0.15846787,0.90156939,-0.23702729,-0.52810368,0.59144957,0.29086174,-0.49743883,0.14082299,-0.77128016,0.15537782,-0.29244924,-0.85197657,0.26089609,0.00657332
0.58000000,-0.15792771,0.90141578,-0.23701811,-0.52803849,0.59176667,0.29099710,-0.49676511,0.14010809,-0.77119059,0.15523794,-0.29159646,-0.85195824,0.26031494,0.00684031
0.60000000,-0.15735420,0.90125270,-0.23700836,-0.52796927,0.59210334,0.29114081,-0.49604979,0.13934904,-0.77109548,0.15508942,-0.29069103,-0.85193879,0.25969791,0.00712379
0.62000000,-0.15674670,0.90107994,-0.23699803,-0.52789595,0.59245996,0.29129304,-0.49529208,0.13854500,-0.77099474,0.15493211,-0.28973193,-0.85191818,0.25904430,0.00742407
0.64000000,-0.15610461,0.90089735,-0.23698711,-0.52781845,0.59283690,0.29145395,-0.49449122,0.13769518,-0.77088826,0.15476583,-0.28871821,-0.85189639,0.25835348,0.00774144
0.66000000,-0.15542734,0.90070476,-0.23697560,-0.52773671,0.59323448,0.29162366,-0.49364649,0.13679881,-0.77077595,0.15459044,-0.28764896,-0.85187341,0.25762482,0.00807621
0.68000000,-0.15471436,0.90050202,-0.23696348,-0.52765066,0.59365303,0.29180232,-0.49275721,0.13585517,-0.77065772,0.15440581,-0.28652333,-0.85184923,0.25685773,0.00842862
0.70000000,-0.15396515,0.90028897,-0.23695074,-0.52756023,0.59409284,0.29199006,-0.49182275,0.13486358,-0.77053347,0.15421179,-0.28534051,-0.85182381,0.25605166,0.00879894
0.72000000,-0.15317922,0.90006548,-0.23693738,-0.52746538,0.59455421,0.29218701,-0.49084249,0.13382339,-0.77040314,0.15400827,-0.28409971,-0.85179714,0.25520609,0.00918741
0.74000000,-0.15235612,0.89983141,-0.23692339,-0.52736603,0.59503740,0.29239326,-0.48981587,0.13273401,-0.77026665,0.15379512,-0.28280024,-0.85176922,0.25432053,0.00959426
0.76000000,-0.15149543,0.89958666,-0.23690876,-0.52726215,0.59554266,0.29260894,-0.48874236,0.13159487,-0.77012392,0.15357224,-0.28144141,-0.85174002,0.25339452,0.01001968
0.78000000,-0.15059674,0.89933111,-0.23689348,-0.52715369,0.59607022,0.29283414,-0.48762146,0.13040544,-0.76997489,0.15333951,-0.28002259,-0.85170953,0.25242762,0.01046389
0.80000000,-0.14965968,0.89906464,-0.23687755,-0.52704059,0.59662031,0.29306895,-0.48645271,0.12916524,-0.76981950,0.15309685,-0.27854320,-0.85167774,0.25141946,0.01092706
0.82000000,-0.14868392,0.89878717,-0.23686097,-0.52692282,0.59719312,0.29331346,-0.48523568,0.12787380,-0.76965769,0.15284417,-0.27700270,-0.85164464,0.25036965,0.01140936
0.84000000,-0.14766914,0.89849860,-0.23684372,-0.52680035,0.59778883,0.29356775,-0.48396998,0.12653072,-0.76948941,0.15258138,-0.27540060,-0.85161021,0.24927785,0.01191095
0.86000000,-0.14661505,0.89819885,-0.23682580,-0.52667312,0.59840763,0.29383189,-0.48265525,0.12513562,-0.76931461,0.15230841,-0.27373644,-0.85157445,0.24814376,0.01243197
0.88000000,-0.14552139,0.89788785,-0.23680721,-0.52654113,0.59904965,0.29410595,-0.48129116,0.12368814,-0.76913325,0.15202520,-0.27200981,-0.85153734,0.24696711,0.01297255
0.90000000,-0.14438792,0.89756553,-0.23678794,-0.52640432,0.59971503,0.29438998,-0.47987744,0.12218799,-0.76894528,0.15173168,-0.27022034,-0.85149889,0.24574763,0.01353280
0.92000000,-0.14321445,0.89723184,-0.23676799,-0.52626269,0.60040390,0.29468403,-0.47841381,0.12063488,-0.76875069,0.15142779,-0.26836771,-0.85145908,0.24448510,0.01411283
0.94000000,-0.14200079,0.89688672,-0.23674736,-0.52611621,0.60111637,0.29498816,-0.47690006,0.11902859,-0.76854943,0.15111351,-0.26645162,-0.85141790,0.24317934,0.01471272
0.96000000,-0.14074679,0.89653012,-0.23672604,-0.52596486,0.60185251,0.29530240,-0.47533599,0.11736889,-0.76834147,0.15078877,-0.26447185,-0.85137536,0.24183017,0.01533255
0.98000000,-0.13945231,0.89616201,-0.23670403,-0.52580863,0.60261242,0.29562677,-0.47372143,0.11565563,-0.76812681,0.15045355,-0.26242817,-0.85133144,0.24043745,0.01597239
1.00000000,-0.13811725,0.89578237,-0.23668134,-0.52564750,0.60339615,0.29596132,-0.47205626,0.11388866,-0.76790542,0.15010782,-0.26032043,-0.85128615,0.23900108,0.01663229
1.02000000,-0.13674153,0.89539116,-0.23665795,-0.52548146,0.60420375,0.29630606,-0.47034038,0.11206788,-0.76767728,0.14975157,-0.25814850,-0.85123947,0.23752096,0.01731228
1.04000000,-0.13532510,0.89498838,-0.23663387,-0.52531050,0.60503525,0.29666099,-0.46857372,0.11019321,-0.76744240,0.14938477,-0.25591228,-0.85119142,0.23599703,0.01801240
1.06000000,-0.13386792,0.89457401,-0.23660910,-0.52513463,0.60589067,0.29702614,-0.46675623,0.10826462,-0.76720075,0.14900742,-0.25361174,-0.85114198,0.23442927,0.01873266
1.08000000,-0.13236999,0.89414805,-0.23658364,-0.52495384,0.60677001,0.29740150,-0.46488792,0.10628208,-0.76695235,0.14861951,-0.25124686,-0.85109116,0.23281766,0.01947306
1.10000000,-0.13083132,0.89371050,-0.23655748,-0.52476813,0.60767327,0.29778707,-0.46296879,0.10424562,-0.76669719,0.14822106,-0.24881766,-0.85103896,0.23116222,0.02023360
1.12000000,-0.12925194,0.89326138,-0.23653063,-0.52457751,0.60860042,0.29818284,-0.46099890,0.10215530,-0.76643528,0.14781206,-0.24632421,-0.85098538,0.22946299,0.02101426
1.14000000,-0.12763193,0.89280071,-0.23650309,-0.52438199,0.60955142,0.29858879,-0.45897832,0.10001120,-0.76616664,0.14739254,-0.24376659,-0.85093042,0.22772004,0.02181500
1.16000000,-0.12597137,0.89232850,-0.23647487,-0.52418157,0.61052624,0.29900491,-0.45690716,0.09781341,-0.76589127,0.14696252,-0.24114495,-0.85087408,0.22593345,0.02263579
1.18000000,-0.12427035,0.89184479,-0.23644595,-0.52397626,0.61152480,0.29943116,-0.45478555,0.09556210,-0.76560919,0.14652203,-0.23845945,-0.85081637,0.22410335,0.02347657
1.20000000,-0.12252902,0.89134961,-0.23641635,-0.52376610,0.61254703,0.29986751,-0.45261364,0.09325742,-0.76532042,0.14607109,-0.23571030,-0.85075730,0.22222986,0.02433729
1.22000000,-0.12074751,0.89084302,-0.23638606,-0.52355108,0.61359284,0.30031393,-0.45039164,0.09089957,-0.76502499,0.14560975,-0.23289772,-0.85069686,0.22031316,0.02521785
1.24000000,-0.11892600,0.89032504,-0.23635510,-0.52333124,0.61466213,0.30077037,-0.44811974,0.08848878,-0.76472293,0.14513806,-0.23002199,-0.85063506,0.21835342,0.02611819
1.26000000,-0.11706469,0.88979575,-0.23632346,-0.52310659,0.61575480,0.30123679,-0.44579819,0.08602529,-0.76441427,0.14465605,-0.22708341,-0.85057191,0.21635085,0.02703821
1.28000000,-0.11516377,0.88925519,-0.23629114,-0.52287716,0.61687070,0.30171314,-0.44342725,0.08350941,-0.76409904,0.14416379,-0.22408231,-0.85050742,0.21430567,0.02797780
1.30000000,-0.11322349,0.88870344,-0.23625816,-0.52264298,0.61800972,0.30219934,-0.44100720,0.08094141,-0.76377728,0.14366133,-0.22101906,-0.85044159,0.21221814,0.02893685
1.32000000,-0.11124409,0.88814057,-0.23622451,-0.52240408,0.61917170,0.30269535,-0.43853838,0.07832165,-0.76344904,0.14314875,-0.21789406,-0.85037444,0.21008853,0.02991523
1.34000000,-0.10922585,0.88756665,-0.23619020,-0.52216049,0.62035649,0.30320109,-0.43602110,0.07565049,-0.76311436,0.14262610,-0.21470774,-0.85030597,0.20791713,0.03091282
1.36000000,-0.10716906,0.88698177,-0.23615524,-0.52191225,0.62156390,0.30371650,-0.43345574,0.07292829,-0.76277328,0.14209348,-0.21146055,-0.85023619,0.20570425,0.03192945
1.38000000,-0.10507402,0.88638601,-0.23611962,-0.52165939,0.62279377,0.30424148,-0.43084268,0.07015548,-0.76242586,0.14155095,-0.20815298,-0.85016511,0.20345022,0.03296499
1.40000000,-0.10294107,0.88577948,-0.23608336,-0.52140196,0.62404589,0.30477597,-0.42818233,0.06733249,-0.76207215,0.14099860,-0.20478556,-0.85009275,0.20115540,0.03401928
1.42000000,-0.10077055,0.88516225,-0.23604647,-0.52113999,0.62532007,0.30531987,-0.42547512,0.06445977,-0.76171221,0.14043652,-0.20135882,-0.85001911,0.19882016,0.03509213
1.44000000,-0.09856282,0.88453445,-0.23600894,-0.52087353,0.62661608,0.30587310,-0.42272150,0.06153781,-0.76134611,0.13986481,-0.19787334,-0.84994421,0.19644489,0.03618337
1.46000000,-0.09631827,0.88389618,-0.23597078,-0.52060263,0.62793372,0.30643555,-0.41992196,0.05856712,-0.76097389,0.13928356,-0.19432972,-0.84986806,0.19403000,0.03729281
1.48000000,-0.09403729,0.88324755,-0.23593200,-0.52032733,0.62927274,0.30700713,-0.41707698,0.05554821,-0.76059564,0.13869288,-0.19072860,-0.84979068,0.19157592,0.03842026
1.50000000,-0.09172031,0.88258868,-0.23589262,-0.52004769,0.63063290,0.30758773,-0.41418709,0.05248165,-0.76021141,0.13809287,-0.18707063,-0.84971207,0.18908310,0.03956551
1.52000000,-0.08936774,0.88191969,-0.23585262,-0.51976375,0.63201394,0.30817725,-0.41125283,0.04936800,-0.75982129,0.13748365,-0.18335648,-0.84963226,0.18655200,0.04072834
1.54000000,-0.08698005,0.88124071,-0.23581203,-0.51947557,0.63341560,0.30877557,-0.40827475,0.04620785,-0.75942533,0.13686533,-0.17958688,-0.84955125,0.18398311,0.04190853
1.56000000,-0.08455769,0.88055188,-0.23577086,-0.51918321,0.63483762,0.30938258,-0.40525343,0.04300183,-0.75902364,0.13623804,-0.17576256,-0.84946907,0.18137692,0.04310586
1.58000000,-0.08210115,0.87985332,-0.23572910,-0.51888672,0.63627970,0.30999816,-0.40218948,0.03975057,-0.75861627,0.13560189,-0.17188426,-0.84938573,0.17873396,0.04432009
1.60000000,-0.07961093,0.87914519,-0.23568676,-0.51858616,0.63774156,0.31062217,-0.39908351,0.03645471,-0.75820331,0.13495702,-0.16795278,-0.84930124,0.17605475,0.04555097
1.62000000,-0.07708752,0.87842762,-0.23564387,-0.51828160,0.63922289,0.31125450,-0.39593616,0.03311495,-0.75778486,0.13430356,-0.16396891,-0.84921563,0.17333984,0.04679825
1.64000000,-0.07453146,0.87770076,-0.23560042,-0.51797310,0.64072340,0.31189501,-0.39274808,0.02973196,-0.75736098,0.13364164,-0.15993350,-0.84912892,0.17058980,0.04806166
1.66000000,-0.07194328,0.87696477,-0.23555642,-0.51766073,0.64224275,0.31254357,-0.38951995,0.02630648,-0.75693179,0.13297141,-0.15584738,-0.84904111,0.16780521,0.04934095
1.68000000,-0.06932355,0.87621981,-0.23551188,-0.51734454,0.64378064,0.31320004,-0.38625245,0.02283922,-0.75649736,0.13229300,-0.15171144,-0.84895223,0.16498667,0.05063585
1.70000000,-0.06667282,0.87546603,-0.23546682,-0.51702462,0.64533671,0.31386428,-0.38294629,0.01933094,-0.75605779,0.13160657,-0.14752656,-0.84886230,0.16213477,0.05194606
1.72000000,-0.06399167,0.87470361,-0.23542125,-0.51670102,0.64691065,0.31453613,-0.37960220,0.01578241,-0.75561317,0.13091226,-0.14329367,-0.84877134,0.15925016,0.05327130
1.74000000,-0.06128071,0.87393271,-0.23537516,-0.51637382,0.64850208,0.31521546,-0.37622092,0.01219441,-0.75516361,0.13021023,-0.13901370,-0.84867937,0.15633346,0.05461128
1.76000000,-0.05854053,0.87315349,-0.23532858,-0.51604310,0.65011067,0.31590211,-0.37280320,0.00856775,-0.75470921,0.12950063,-0.13468761,-0.84858640,0.15338534,0.05596571
1.78000000,-0.05577176,0.87236615,-0.23528151,-0.51570893,0.65173604,0.31659593,-0.36934981,0.00490323,-0.75425006,0.12878363,-0.13031637,-0.84849247,0.15040644,0.05733426
1.80000000,-0.05297502,0.87157085,-0.23523397,-0.51537138,0.65337784,0.31729675,-0.36586154,0.00120171,-0.75378628,0.12805939,-0.12590098,-0.84839758,0.14739746,0.05871664
1.82000000,-0.05015095,0.87076779,-0.23518596,-0.51503054,0.65503567,0.31800442,-0.36233919,-0.00253598,-0.75331796,0.12732807,-0.12144245,-0.84830177,0.14435908,0.06011253
1.84000000,-0.04730022,0.86995714,-0.23513750,-0.51468647,0.65670915,0.31871877,-0.35878358,-0.00630896,-0.75284523,0.12658984,-0.11694182,-0.84820506,0.14129201,0.06152160
1.86000000,-0.04442348,0.86913909,-0.23508860,-0.51433927,0.65839791,0.31943964,-0.35519553,-0.01011637,-0.75236818,0.12584488,-0.11240013,-0.84810746,0.13819696,0.06294352
1.88000000,-0.04152141,0.86831384,-0.23503926,-0.51398901,0.66010153,0.32016686,-0.35157589,-0.01395729,-0.75188693,0.12509336,-0.10781845,-0.84800901,0.13507465,0.06437796
1.90000000,-0.03859470,0.86748159,-0.23498951,-0.51363577,0.66181962,0.32090025,-0.34792551,-0.01783084,-0.75140159,0.12433546,-0.10319786,-0.84790971,0.13192583,0.06582459
1.92000000,-0.03564404,0.86664252,-0.23493935,-0.51327965,0.66355177,0.32163965,-0.34424526,-0.02173608,-0.75091228,0.12357136,-0.09853946,-0.84780961,0.12875125,0.06728305
1.94000000,-0.03267014,0.86579684,-0.23488880,-0.51292071,0.66529756,0.32238486,-0.34053602,-0.02567209,-0.75041912,0.12280123,-0.09384437,-0.84770871,0.12555165,0.06875300
1.96000000,-0.02967370,0.86494476,-0.23483786,-0.51255906,0.66705658,0.32313573,-0.33679868,-0.02963791,-0.74992222,0.12202528,-0.08911371,-0.84760706,0.12232782,0.07023409
1.98000000,-0.02665547,0.86408648,-0.23478655,-0.51219478,0.66882840,0.32389206,-0.33303415,-0.03363259,-0.74942171,0.12124368,-0.08434863,-0.84750466,0.11908054,0.07172595
2.00000000,-0.02361616,0.86322220,-0.23473488,-0.51182796,0.67061259,0.32465366,-0.32924333,-0.03765516,-0.74891770,0.12045662,-0.07955028,-0.84740155,0.11581058,0.07322823
2.02000000,-0.02055652,0.86235215,-0.23468287,-0.51145868,0.67240871,0.32542036,-0.32542716,-0.04170463,-0.74841032,0.11966429,-0.07471983,-0.84729774,0.11251874,0.07474056
2.04000000,-0.01747730,0.86147653,-0.23463053,-0.51108704,0.67421633,0.32619197,-0.32158657,-0.04578002,-0.74789969,0.11886690,-0.06985848,-0.84719328,0.10920585,0.07626256
2.06000000,-0.01437926,0.86059555,-0.23457786,-0.51071312,0.67603499,0.32696830,-0.31772249,-0.04988032,-0.74738594,0.11806463,-0.06496740,-0.84708817,0.10587270,0.07779387
2.08000000,-0.01126316,0.85970944,-0.23452489,-0.51033703,0.67786426,0.32774915,-0.31383590,-0.05400453,-0.74686920,0.11725768,-0.06004781,-0.84698245,0.10252012,0.07933411
2.10000000,-0.00812977,0.85881841,-0.23447162,-0.50995885,0.67970368,0.32853433,-0.30992774,-0.05815161,-0.74634959,0.11644626,-0.05510094,-0.84687615,0.09914894,0.08088289
2.12000000,-0.00497987,0.85792269,-0.23441808,-0.50957868,0.68155278,0.32932365,-0.30599900,-0.06232054,-0.74582724,0.11563056,-0.05012800,-0.84676929,0.09576000,0.08243983
2.14000000,-0.00181426,0.85702250,-0.23436426,-0.50919661,0.68341112,0.33011691,-0.30205064,-0.06651028,-0.74530229,0.11481079,-0.04513024,-0.84666189,0.09235415,0.08400454
2.16000000,0.00136629,0.85611806,-0.23431020,-0.50881274,0.68527822,0.33091391,-0.29808366,-0.07071978,-0.74477486,0.11398716,-0.04010890,-0.84655398,0.08893223,0.08557663
2.18000000,0.00456098,0.85520960,-0.23425589,-0.50842716,0.68715362,0.33171445,-0.29409905,-0.07494799,-0.74424508,0.11315986,-0.03506525,-0.84644560,0.08549510,0.08715571
2.20000000,0.00776899,0.85429735,-0.23420135,-0.50803997,0.68903685,0.33251833,-0.29009781,-0.07919384,-0.74371310,0.11232912,-0.03000055,-0.84633676,0.08204363,0.08874137
2.22000000,0.01098953,0.85338154,-0.23414661,-0.50765128,0.69092742,0.33332535,-0.28608096,-0.08345627,-0.74317904,0.11149513,-0.02491609,-0.84622750,0.07857869,0.09033323
2.24000000,0.01422178,0.85246240,-0.23409166,-0.50726117,0.69282487,0.33413531,-0.28204949,-0.08773420,-0.74264303,0.11065810,-0.01981313,-0.84611784,0.07510115,0.09193088
2.26000000,0.01746492,0.85154016,-0.23403653,-0.50686974,0.69472872,0.33494799,-0.27800444,-0.09202654,-0.74210522,0.10981826,-0.01469298,-0.84600782,0.07161189,0.09353390
2.28000000,0.02071813,0.85061506,-0.23398123,-0.50647710,0.69663848,0.33576320,-0.27394683,-0.09633221,-0.74156574,0.10897581,-0.00955692,-0.84589745,0.06811179,0.09514191
2.30000000,0.02398059,0.84968733,-0.23392577,-0.50608334,0.69855366,0.33658073,-0.26987769,-0.10065012,-0.74102473,0.10813096,-0.00440627,-0.84578676,0.06460175,0.09675449
2.32000000,0.02725146,0.84875721,-0.23387016,-0.50568857,0.70047379,0.33740036,-0.26579805,-0.10497917,-0.74048232,0.10728393,0.00075766,-0.84567580,0.06108265,0.09837123
2.34000000,0.03052992,0.84782492,-0.23381443,-0.50529288,0.70239837,0.33822190,-0.26170895,-0.10931826,-0.73993865,0.10643494,0.00593358,-0.84556457,0.05755539,0.09999171
2.36000000,0.03381513,0.84689072,-0.23375858,-0.50489637,0.70432691,0.33904513,-0.25761144,-0.11366628,-0.73939387,0.10558421,0.01112014,-0.84545311,0.05402087,0.10161554
2.38000000,0.03710625,0.84595484,-0.23370264,-0.50449916,0.70625892,0.33986983,-0.25350655,-0.11802212,-0.73884810,0.10473194,0.01631604,-0.84534146,0.05047999,0.10324228
2.40000000,0.04040244,0.84501752,-0.23364660,-0.50410133,0.70819391,0.34069581,-0.24939533,-0.12238468,-0.73830149,0.10387836,0.02151995,-0.84522963,0.04693365,0.10487153
2.42000000,0.04370286,0.84407900,-0.23359050,-0.50370299,0.71013137,0.34152285,-0.24527884,-0.12675283,-0.73775418,0.10302368,0.02673053,-0.84511766,0.04338277,0.10650287
2.44000000,0.04700666,0.84313951,-0.23353434,-0.50330424,0.71207083,0.34235073,-0.24115813,-0.13112546,-0.73720631,0.10216813,0.03194645,-0.84500557,0.03982824,0.10813589
2.46000000,0.05031301,0.84219930,-0.23347813,-0.50290519,0.71401178,0.34317926,-0.23703425,-0.13550145,-0.73665802,0.10131192,0.03716638,-0.84489340,0.03627098,0.10977016
2.48000000,0.05362104,0.84125861,-0.23342189,-0.50250593,0.71595372,0.34400820,-0.23290826,-0.13987968,-0.73610945,0.10045527,0.04238899,-0.84478117,0.03271190,0.11140526
2.50000000,0.05692993,0.84031767,-0.23336565,-0.50210657,0.71789616,0.34483736,-0.22878122,-0.14425904,-0.73556074,0.09959840,0.04761294,-0.84466891,0.02915191,0.11304079
2.52000000,0.06023881,0.83937674,-0.23330940,-0.50170721,0.71983860,0.34566652,-0.22465417,-0.14863839,-0.73501203,0.09874153,0.05283688,-0.84455666,0.02559191,0.11467631
2.54000000,0.06354685,0.83843605,-0.23325316,-0.50130795,0.72178054,0.34649547,-0.22052818,-0.15301663,-0.73446346,0.09788488,0.05805949,-0.84444443,0.02203283,0.11631142
2.56000000,0.06685319,0.83749584,-0.23319696,-0.50090890,0.72372149,0.34732399,-0.21640430,-0.15739262,-0.73391516,0.09702867,0.06327943,-0.84433225,0.01847557,0.11794569
2.58000000,0.07015700,0.83655635,-0.23314079,-0.50051015,0.72566094,0.34815188,-0.21228359,-0.16176525,-0.73336729,0.09617312,0.06849535,-0.84422017,0.01492105,0.11957870
2.60000000,0.07345741,0.83561783,-0.23308469,-0.50011181,0.72759841,0.34897892,-0.20816710,-0.16613340,-0.73281999,0.09531844,0.07370593,-0.84410820,0.01137016,0.12121004
2.62000000,0.07675360,0.83468050,-0.23302865,-0.49971398,0.72953340,0.34980489,-0.20405589,-0.17049596,-0.73227338,0.09446486,0.07890983,-0.84399637,0.00782383,0.12283929
2.64000000,0.08004472,0.83374462,-0.23297271,-0.49931676,0.73146541,0.35062960,-0.19995100,-0.17485180,-0.73172761,0.09361259,0.08410573,-0.84388471,0.00428295,0.12446604
2.66000000,0.08332993,0.83281042,-0.23291686,-0.49892026,0.73339395,0.35145283,-0.19585348,-0.17919982,-0.73118283,0.09276185,0.08929230,-0.84377326,0.00074843,0.12608986
2.68000000,0.08660839,0.83187814,-0.23286113,-0.49852457,0.73531853,0.35227436,-0.19176438,-0.18353890,-0.73063916,0.09191286,0.09446821,-0.84366203,-0.00277883,0.12771035
2.70000000,0.08987927,0.83094802,-0.23280552,-0.49812980,0.73723866,0.35309400,-0.18768474,-0.18786795,-0.73009675,0.09106584,0.09963215,-0.84355106,-0.00629793,0.12932708
2.72000000,0.09314172,0.83002029,-0.23275006,-0.49773604,0.73915384,0.35391152,-0.18361560,-0.19218586,-0.72955574,0.09022099,0.10478280,-0.84344038,-0.00980798,0.13093966
2.74000000,0.09639494,0.82909518,-0.23269476,-0.49734340,0.74106360,0.35472673,-0.17955799,-0.19649154,-0.72901626,0.08937854,0.10991885,-0.84333001,-0.01330807,0.13254767
2.76000000,0.09963808,0.82817295,-0.23263963,-0.49695197,0.74296745,0.35553942,-0.17551294,-0.20078388,-0.72847845,0.08853870,0.11503901,-0.84321998,-0.01679733,0.13415070
2.78000000,0.10287033,0.82725381,-0.23258468,-0.49656186,0.74486490,0.35634937,-0.17148148,-0.20506181,-0.72794244,0.08770167,0.12014196,-0.84311033,-0.02027487,0.13574834
2.80000000,0.10609086,0.82633800,-0.23252994,-0.49617316,0.74675547,0.35715639,-0.16746462,-0.20932423,-0.72740838,0.08686768,0.12522643,-0.84300107,-0.02373982,0.13734020
2.82000000,0.10929888,0.82542575,-0.23247540,-0.49578598,0.74863870,0.35796028,-0.16346338,-0.21357009,-0.72687640,0.08603693,0.13029113,-0.84289223,-0.02719129,0.13892587
2.84000000,0.11249356,0.82451729,-0.23242109,-0.49540040,0.75051410,0.35876082,-0.15947877,-0.21779830,-0.72634662,0.08520964,0.13533478,-0.84278385,-0.03062841,0.14050494
2.86000000,0.11567411,0.82361285,-0.23236703,-0.49501653,0.75238120,0.35955782,-0.15551179,-0.22200780,-0.72581919,0.08438600,0.14035611,-0.84267594,-0.03405033,0.14207704
2.88000000,0.11883973,0.82271266,-0.23231321,-0.49463446,0.75423954,0.36035108,-0.15156344,-0.22619754,-0.72529424,0.08356623,0.14535387,-0.84256854,-0.03745618,0.14364175
2.90000000,0.12198962,0.82181694,-0.23225967,-0.49425429,0.75608864,0.36114040,-0.14763469,-0.23036647,-0.72477189,0.08275054,0.15032681,-0.84246168,-0.04084512,0.14519869
2.92000000,0.12512301,0.82092591,-0.23220640,-0.49387611,0.75792806,0.36192558,-0.14372653,-0.23451355,-0.72425228,0.08193912,0.15527369,-0.84235537,-0.04421630,0.14674747
2.94000000,0.12823911,0.82003980,-0.23215343,-0.49350001,0.75975733,0.36270643,-0.13983994,-0.23863775,-0.72373554,0.08113217,0.16019328,-0.84224966,-0.04756888,0.14828770
2.96000000,0.13133715,0.81915882,-0.23210076,-0.49312610,0.76157599,0.36348275,-0.13597587,-0.24273806,-0.72322179,0.08032990,0.16508435,-0.84214455,-0.05090203,0.14981901
2.98000000,0.13441637,0.81828320,-0.23204842,-0.49275446,0.76338361,0.36425436,-0.13213527,-0.24681345,-0.72271116,0.07953251,0.16994571,-0.84204008,-0.05421493,0.15134102
3.00000000,0.13747601,0.81741314,-0.23199641,-0.49238518,0.76517973,0.36502106,-0.12831910,-0.25086292,-0.72220378,0.07874018,0.17477616,-0.84193628,-0.05750676,0.15285334
3.02000000,0.14051532,0.81654887,-0.23194474,-0.49201836,0.76696392,0.36578267,-0.12452828,-0.25488549,-0.72169977,0.07795312,0.17957450,-0.84183317,-0.06077672,0.15435562
3.04000000,0.14353356,0.81569059,-0.23189343,-0.49165407,0.76873574,0.36653900,-0.12076375,-0.25888017,-0.72119926,0.07717152,0.18433959,-0.84173077,-0.06402401,0.15584749
3.06000000,0.14652999,0.81483850,-0.23184249,-0.49129242,0.77049476,0.36728986,-0.11702641,-0.26284599,-0.72070236,0.07639556,0.18907025,-0.84162911,-0.06724784,0.15732857
3.08000000,0.14950390,0.81399283,-0.23179194,-0.49093349,0.77224055,0.36803508,-0.11331717,-0.26678200,-0.72020920,0.07562544,0.19376534,-0.84152822,-0.07044743,0.15879852
3.10000000,0.15245456,0.81315376,-0.23174178,-0.49057737,0.77397270,0.36877447,-0.10963692,-0.27068724,-0.71971989,0.07486134,0.19842374,-0.84142812,-0.07362202,0.16025698
3.12000000,0.15538127,0.81232150,-0.23169203,-0.49022413,0.77569079,0.36950787,-0.10598654,-0.27456078,-0.71923455,0.07410344,0.20304432,-0.84132882,-0.07677084,0.16170361
3.14000000,0.15828334,0.81149626,-0.23164269,-0.48987387,0.77739441,0.37023508,-0.10236690,-0.27840171,-0.71875330,0.07335192,0.20762600,-0.84123037,-0.07989314,0.16313805
3.16000000,0.16116008,0.81067821,-0.23159379,-0.48952667,0.77908317,0.37095595,-0.09877885,-0.28220912,-0.71827625,0.07260696,0.21216769,-0.84113277,-0.08298819,0.16455997
3.18000000,0.16401081,0.80986756,-0.23154533,-0.48918260,0.78075665,0.37167031,-0.09522324,-0.28598210,-0.71780351,0.07186873,0.21666833,-0.84103605,-0.08605527,0.16596904
3.20000000,0.16683487,0.80906449,-0.23149732,-0.48884176,0.78241448,0.37237798,-0.09170089,-0.28971979,-0.71733520,0.07113741,0.22112685,-0.84094024,-0.08909364,0.16736493
3.22000000,0.16963161,0.80826920,-0.23144978,-0.48850421,0.78405628,0.37307880,-0.08821262,-0.29342131,-0.71687142,0.07041317,0.22554224,-0.84084536,-0.09210263,0.16874731
3.24000000,0.17240039,0.80748185,-0.23140271,-0.48817004,0.78568165,0.37377261,-0.08475924,-0.29708582,-0.71641227,0.06969617,0.22991348,-0.84075143,-0.09508152,0.17011587
3.26000000,0.17514056,0.80670264,-0.23135613,-0.48783931,0.78729024,0.37445926,-0.08134151,-0.30071249,-0.71595787,0.06898657,0.23423957,-0.84065846,-0.09802965,0.17147029
3.28000000,0.17785153,0.80593174,-0.23131005,-0.48751212,0.78888167,0.37513859,-0.07796023,-0.30430049,-0.71550831,0.06828454,0.23851955,-0.84056649,-0.10094635,0.17281027
3.30000000,0.18053267,0.80516931,-0.23126447,-0.48718852,0.79045561,0.37581045,-0.07461614,-0.30784902,-0.71506369,0.06759023,0.24275244,-0.84047553,-0.10383096,0.17413552
3.32000000,0.18318340,0.80441554,-0.23121941,-0.48686860,0.79201168,0.37647468,-0.07130998,-0.31135730,-0.71462412,0.06690380,0.24693731,-0.84038560,-0.10668285,0.17544573
3.34000000,0.18580314,0.80367057,-0.23117487,-0.48655241,0.79354957,0.37713115,-0.06804249,-0.31482455,-0.71418969,0.06622539,0.25107326,-0.84029672,-0.10950140,0.17674062
3.36000000,0.18839131,0.80293459,-0.23113087,-0.48624004,0.79506892,0.37777971,-0.06481435,-0.31825004,-0.71376049,0.06555515,0.25515937,-0.84020891,-0.11228599,0.17801991
3.38000000,0.19094737,0.80220773,-0.23108742,-0.48593154,0.79656943,0.37842023,-0.06162627,-0.32163302,-0.71333662,0.06489324,0.25919479,-0.84012220,-0.11503603,0.17928333
3.40000000,0.19347078,0.80149016,-0.23104453,-0.48562698,0.79805076,0.37905256,-0.05847892,-0.32497279,-0.71291817,0.06423978,0.26317865,-0.84003659,-0.11775093,0.18053060
3.42000000,0.19596101,0.80078202,-0.23100219,-0.48532642,0.79951262,0.37967657,-0.05537295,-0.32826864,-0.71250521,0.06359491,0.26711014,-0.83995210,-0.12043014,0.18176148
3.44000000,0.19841755,0.80008347,-0.23096043,-0.48502993,0.80095470,0.38029215,-0.05230900,-0.33151991,-0.71209784,0.06295876,0.27098843,-0.83986876,-0.12307311,0.18297571
3.46000000,0.20083991,0.79939463,-0.23091926,-0.48473757,0.80237671,0.38089915,-0.04928769,-0.33472593,-0.71169614,0.06233147,0.27481276,-0.83978658,-0.12567930,0.18417304
3.48000000,0.20322760,0.79871566,-0.23087867,-0.48444939,0.80377838,0.38149747,-0.04630961,-0.33788608,-0.71130019,0.06171315,0.27858236,-0.83970557,-0.12824819,0.18535323
3.50000000,0.20558016,0.79804667,-0.23083867,-0.48416545,0.80515942,0.38208699,-0.04337534,-0.34099973,-0.71091007,0.06110393,0.28229650,-0.83962576,-0.13077929,0.18651607
3.52000000,0.20789715,0.79738780,-0.23079929,-0.48388581,0.80651958,0.38266760,-0.04048545,-0.34406629,-0.71052584,0.06050392,0.28595447,-0.83954715,-0.13327211,0.18766131
3.54000000,0.21017812,0.79673917,-0.23076051,-0.48361051,0.80785860,0.38323918,-0.03764048,-0.34708520,-0.71014759,0.05991324,0.28955560,-0.83946977,-0.13572619,0.18878876
3.56000000,0.21242268,0.79610089,-0.23072236,-0.48333961,0.80917623,0.38380163,-0.03484093,-0.35005589,-0.70977537,0.05933199,0.29309921,-0.83939362,-0.13814107,0.18989820
3.58000000,0.21463040,0.79547309,-0.23068482,-0.48307315,0.81047225,0.38435486,-0.03208732,-0.35297785,-0.70940927,0.05876028,0.29658469,-0.83931872,-0.14051634,0.19098945
3.60000000,0.21680092,0.79485587,-0.23064793,-0.48281118,0.81174643,0.38489876,-0.02938010,-0.35585057,-0.70904933,0.05819820,0.30001143,-0.83924508,-0.14285158,0.19206230
3.62000000,0.21893388,0.79424933,-0.23061167,-0.48255375,0.81299855,0.38543324,-0.02671975,-0.35867356,-0.70869562,0.05764585,0.30337886,-0.83917272,-0.14514641,0.19311658
3.64000000,0.22102891,0.79365358,-0.23057605,-0.48230089,0.81422842,0.38595823,-0.02410669,-0.36144637,-0.70834820,0.05710332,0.30668643,-0.83910164,-0.14740043,0.19415212
3.66000000,0.22308571,0.79306870,-0.23054109,-0.48205265,0.81543583,0.38647363,-0.02154133,-0.36416856,-0.70800712,0.05657069,0.30993362,-0.83903186,-0.14961331,0.19516876
3.68000000,0.22510395,0.79249478,-0.23050678,-0.48180906,0.81662062,0.38697938,-0.01902406,-0.36683973,-0.70767244,0.05604805,0.31311994,-0.83896339,-0.15178472,0.19616634
3.70000000,0.22708334,0.79193191,-0.23047313,-0.48157016,0.81778260,0.38747538,-0.01655523,-0.36945949,-0.70734419,0.05553547,0.31624494,-0.83889624,-0.15391433,0.19714472
3.72000000,0.22902363,0.79138016,-0.23044015,-0.48133598,0.81892162,0.38796159,-0.01413519,-0.37202748,-0.70702244,0.05503301,0.31930819,-0.83883041,-0.15600186,0.19810377
3.74000000,0.23092454,0.79083960,-0.23040783,-0.48110655,0.82003752,0.38843793,-0.01176425,-0.37454337,-0.70670721,0.05454075,0.32230928,-0.83876592,-0.15804703,0.19904336
3.76000000,0.23278586,0.79031031,-0.23037619,-0.48088190,0.82113019,0.38890435,-0.00944269,-0.37700685,-0.70639855,0.05405874,0.32524786,-0.83870277,-0.16004960,0.19996338
3.78000000,0.23460737,0.78979233,-0.23034523,-0.48066206,0.82219948,0.38936080,-0.00717080,-0.37941765,-0.70609649,0.05358704,0.32812359,-0.83864097,-0.16200935,0.20086372
3.80000000,0.23638887,0.78928573,-0.23031494,-0.48044704,0.82324529,0.38980722,-0.00494879,-0.38177549,-0.70580106,0.05312570,0.33093617,-0.83858053,-0.16392605,0.20174429
3.82000000,0.23813021,0.78879056,-0.23028534,-0.48023687,0.82426752,0.39024357,-0.00277689,-0.38408018,-0.70551229,0.05267477,0.33368533,-0.83852146,-0.16579953,0.20260500
3.84000000,0.23983122,0.78830685,-0.23025643,-0.48003157,0.82526608,0.39066982,-0.00065528,-0.38633149,-0.70523021,0.05223427,0.33637083,-0.83846375,-0.16762964,0.20344578
3.86000000,0.24149179,0.78783464,-0.23022820,-0.47983115,0.82624089,0.39108594,0.00141589,-0.38852927,-0.70495484,0.05180425,0.33899247,-0.83840741,-0.16941622,0.20426657
3.88000000,0.24311180,0.78737396,-0.23020066,-0.47963563,0.82719190,0.39149189,0.00343646,-0.39067338,-0.70468620,0.05138474,0.34155008,-0.83835245,-0.17115917,0.20506731
3.90000000,0.24469117,0.78692485,-0.23017381,-0.47944501,0.82811905,0.39188766,0.00540636,-0.39276370,-0.70442429,0.05097574,0.34404354,-0.83829887,-0.17285840,0.20584797
3.92000000,0.24622984,0.78648730,-0.23014765,-0.47925930,0.82902231,0.39227322,0.00732549,-0.39480016,-0.70416913,0.05057729,0.34647274,-0.83824667,-0.17451384,0.20660851
3.94000000,0.24772778,0.78606134,-0.23012219,-0.47907851,0.82990165,0.39264859,0.00919380,-0.39678269,-0.70392073,0.05018938,0.34883762,-0.83819585,-0.17612545,0.20734891
3.96000000,0.24918496,0.78564697,-0.23009742,-0.47890264,0.83075707,0.39301373,0.01101129,-0.39871129,-0.70367908,0.04981203,0.35113816,-0.83814641,-0.17769322,0.20806917
3.98000000,0.25060139,0.78524418,-0.23007334,-0.47873168,0.83158857,0.39336867,0.01277795,-0.40058596,-0.70344420,0.04944523,0.35337437,-0.83809835,-0.17921714,0.20876929
4.00000000,0.25197711,0.78485298,-0.23004995,-0.47856564,0.83239617,0.39371341,0.01449383,-0.40240674,-0.70321606,0.04908898,0.35554630,-0.83805168,-0.18069726,0.20944929
4.02000000,0.25331217,0.78447333,-0.23002726,-0.47840451,0.83317990,0.39404795,0.01615900,-0.40417371,-0.70299467,0.04874325,0.35765405,-0.83800639,-0.18213364,0.21010918
4.04000000,0.25460664,0.78410523,-0.23000525,-0.47824828,0.83393981,0.39437233,0.01777355,-0.40588697,-0.70278000,0.04840803,0.35969772,-0.83796247,-0.18352635,0.21074902
4.06000000,0.25586065,0.78374863,-0.22998393,-0.47809693,0.83467595,0.39468657,0.01933763,-0.40754666,-0.70257205,0.04808329,0.36167750,-0.83791993,-0.18487552,0.21136885
4.08000000,0.25707431,0.78340351,-0.22996330,-0.47795044,0.83538842,0.39499069,0.02085138,-0.40915296,-0.70237079,0.04776900,0.36359358,-0.83787875,-0.18618129,0.21196875
4.10000000,0.25824778,0.78306981,-0.22994335,-0.47780881,0.83607729,0.39528475,0.02231501,-0.41070607,-0.70217620,0.04746512,0.36544621,-0.83783894,-0.18744381,0.21254877
4.12000000,0.25938124,0.78274750,-0.22992409,-0.47767201,0.83674267,0.39556878,0.02372873,-0.41220622,-0.70198823,0.04717160,0.36723568,-0.83780049,-0.18866329,0.21310902
4.14000000,0.26047490,0.78243650,-0.22990549,-0.47754001,0.83738469,0.39584283,0.02509281,-0.41365369,-0.70180687,0.04688839,0.36896231,-0.83776338,-0.18983995,0.21364960
4.16000000,0.26152899,0.78213675,-0.22988757,-0.47741279,0.83800349,0.39610697,0.02640754,-0.41504880,-0.70163207,0.04661542,0.37062648,-0.83772762,-0.19097404,0.21417062
4.18000000,0.26254378,0.78184818,-0.22987032,-0.47729031,0.83859920,0.39636126,0.02767324,-0.41639188,-0.70146379,0.04635263,0.37222858,-0.83769319,-0.19206583,0.21467221
4.20000000,0.26351954,0.78157071,-0.22985374,-0.47717255,0.83917201,0.39660578,0.02889028,-0.41768331,-0.70130198,0.04609995,0.37376908,-0.83766009,-0.19311564,0.21515451
4.22000000,0.26445659,0.78130424,-0.22983781,-0.47705945,0.83972210,0.39684059,0.03005903,-0.41892352,-0.70114659,0.04585729,0.37524846,-0.83762830,-0.19412381,0.21561768
4.24000000,0.26535528,0.78104868,-0.22982253,-0.47695098,0.84024966,0.39706579,0.03117993,-0.42011295,-0.70099756,0.04562456,0.37666728,-0.83759781,-0.19509070,0.21606189
4.26000000,0.26621598,0.78080393,-0.22980790,-0.47684710,0.84075492,0.39728147,0.03225344,-0.42125209,-0.70085483,0.04540168,0.37802612,-0.83756861,-0.19601671,0.21648732
4.28000000,0.26703908,0.78056987,-0.22979391,-0.47674776,0.84123811,0.39748772,0.03328006,-0.42234147,-0.70071833,0.04518853,0.37932559,-0.83754068,-0.19690227,0.21689416
4.30000000,0.26782500,0.78034638,-0.22978055,-0.47665291,0.84169948,0.39768466,0.03426032,-0.42338165,-0.70058800,0.04498500,0.38056638,-0.83751402,-0.19774784,0.21728263
4.32000000,0.26857421,0.78013333,-0.22976781,-0.47656248,0.84213929,0.39787241,0.03519478,-0.42437325,-0.70046376,0.04479099,0.38174921,-0.83748860,-0.19855391,0.21765295
4.34000000,0.26928719,0.77993058,-0.22975569,-0.47647643,0.84255784,0.39805107,0.03608406,-0.42531689,-0.70034553,0.04460635,0.38287484,-0.83746441,-0.19932100,0.21800537
4.36000000,0.26996446,0.77973799,-0.22974418,-0.47639469,0.84295542,0.39822078,0.03692879,-0.42621326,-0.70023322,0.04443097,0.38394408,-0.83744144,-0.20004966,0.21834013
4.38000000,0.27060656,0.77955540,-0.22973326,-0.47631719,0.84333236,0.39838168,0.03772965,-0.42706308,-0.70012674,0.04426469,0.38495780,-0.83741965,-0.20074049,0.21865751
4.40000000,0.27121406,0.77938265,-0.22972293,-0.47624387,0.84368898,0.39853391,0.03848736,-0.42786712,-0.70002600,0.04410737,0.38591690,-0.83739904,-0.20139409,0.21895778
4.42000000,0.27178757,0.77921956,-0.22971318,-0.47617465,0.84402565,0.39867763,0.03920268,-0.42862617,-0.69993089,0.04395886,0.38682234,-0.83737959,-0.20201113,0.21924126
4.44000000,0.27232773,0.77906596,-0.22970400,-0.47610946,0.84434275,0.39881298,0.03987640,-0.42934107,-0.69984132,0.04381898,0.38767512,-0.83736126,-0.20259227,0.21950825
4.46000000,0.27283520,0.77892165,-0.22969538,-0.47604821,0.84464065,0.39894015,0.04050934,-0.43001272,-0.69975716,0.04368756,0.38847629,-0.83734404,-0.20313826,0.21975908
4.48000000,0.27331068,0.77878644,-0.22968729,-0.47599082,0.84491978,0.39905930,0.04110240,-0.43064202,-0.69967831,0.04356443,0.38922697,-0.83732791,-0.20364982,0.21999411
4.50000000,0.27375490,0.77866012,-0.22967974,-0.47593720,0.84518055,0.39917061,0.04165646,-0.43122996,-0.69960465,0.04344940,0.38992830,-0.83731284,-0.20412776,0.22021368
4.52000000,0.27416864,0.77854247,-0.22967271,-0.47588727,0.84542343,0.39927429,0.04217250,-0.43177755,-0.69953604,0.04334226,0.39058148,-0.83729881,-0.20457289,0.22041818
4.54000000,0.27455267,0.77843326,-0.22966618,-0.47584092,0.84564887,0.39937052,0.04265149,-0.43228582,-0.69947235,0.04324281,0.39118778,-0.83728578,-0.20498607,0.22060800
4.56000000,0.27490784,0.77833227,-0.22966014,-0.47579805,0.84585737,0.39945952,0.04309447,-0.43275589,-0.69941346,0.04315083,0.39174851,-0.83727373,-0.20536819,0.22078356
4.58000000,0.27523500,0.77823923,-0.22965458,-0.47575857,0.84604942,0.39954150,0.04350253,-0.43318889,-0.69935920,0.04306611,0.39226501,-0.83726263,-0.20572018,0.22094526
4.60000000,0.27553504,0.77815391,-0.22964948,-0.47572235,0.84622556,0.39961669,0.04387677,-0.43358601,-0.69930945,0.04298841,0.39273872,-0.83725245,-0.20604300,0.22109357
4.62000000,0.27580891,0.77807603,-0.22964482,-0.47568930,0.84638633,0.39968532,0.04421835,-0.43394847,-0.69926403,0.04291749,0.39317108,-0.83724316,-0.20633764,0.22122894
4.64000000,0.27605755,0.77800533,-0.22964060,-0.47565929,0.84653229,0.39974762,0.04452847,-0.43427755,-0.69922280,0.04285310,0.39356363,-0.83723472,-0.20660516,0.22135184
4.66000000,0.27628197,0.77794151,-0.22963678,-0.47563220,0.84666404,0.39980386,0.04480838,-0.43457458,-0.69918558,0.04279499,0.39391794,-0.83722711,-0.20684661,0.22146277
4.68000000,0.27648321,0.77788429,-0.22963336,-0.47560792,0.84678217,0.39985429,0.04505937,-0.43484091,-0.69915221,0.04274287,0.39423564,-0.83722028,-0.20706311,0.22156223
4.70000000,0.27666232,0.77783335,-0.22963032,-0.47558630,0.84688731,0.39989917,0.04528277,-0.43507797,-0.69912251,0.04269649,0.39451841,-0.83721420,-0.20725582,0.22165076
4.72000000,0.27682041,0.77778840,-0.22962763,-0.47556722,0.84698012,0.39993878,0.04547995,-0.43528720,-0.69909630,0.04265555,0.39476800,-0.83720884,-0.20742590,0.22172891
4.74000000,0.27695862,0.77774910,-0.22962528,-0.47555054,0.84706125,0.39997342,0.04565234,-0.43547013,-0.69907338,0.04261976,0.39498621,-0.83720415,-0.20757460,0.22179722
4.76000000,0.27707813,0.77771511,-0.22962325,-0.47553611,0.84713141,0.40000336,0.04580139,-0.43562830,-0.69905356,0.04258881,0.39517488,-0.83720010,-0.20770318,0.22185629
4.78000000,0.27718014,0.77768610,-0.22962151,-0.47552380,0.84719129,0.40002893,0.04592863,-0.43576331,-0.69903664,0.04256240,0.39533593,-0.83719664,-0.20781293,0.22190671
4.80000000,0.27726591,0.77766171,-0.22962006,-0.47551345,0.84724164,0.40005042,0.04603560,-0.43587682,-0.69902242,0.04254019,0.39547134,-0.83719373,-0.20790521,0.22194911
4.82000000,0.27733671,0.77764158,-0.22961885,-0.47550490,0.84728321,0.40006816,0.04612392,-0.43597054,-0.69901068,0.04252185,0.39558313,-0.83719132,-0.20798139,0.22198411
4.84000000,0.27739388,0.77762532,-0.22961788,-0.47549800,0.84731677,0.40008249,0.04619522,-0.43604620,-0.69900120,0.04250705,0.39567338,-0.83718938,-0.20804290,0.22201236
4.86000000,0.27743877,0.77761256,-0.22961712,-0.47549259,0.84734312,0.40009374,0.04625122,-0.43610562,-0.69899375,0.04249542,0.39574426,-0.83718786,-0.20809120,0.22203455
4.88000000,0.27747279,0.77760288,-0.22961654,-0.47548848,0.84736309,0.40010226,0.04629364,-0.43615064,-0.69898811,0.04248661,0.39579796,-0.83718671,-0.20812779,0.22205137
4.90000000,0.27749736,0.77759590,-0.22961612,-0.47548551,0.84737751,0.40010842,0.04632429,-0.43618316,-0.69898404,0.04248025,0.39583675,-0.83718587,-0.20815423,0.22206351
4.92000000,0.27751396,0.77759117,-0.22961584,-0.47548351,0.84738726,0.40011258,0.04634500,-0.43620513,-0.69898128,0.04247595,0.39586296,-0.83718531,-0.20817209,0.22207172
4.94000000,0.27752412,0.77758829,-0.22961567,-0.47548229,0.84739322,0.40011512,0.04635766,-0.43621857,-0.69897960,0.04247332,0.39587899,-0.83718497,-0.20818302,0.22207674
4.96000000,0.27752937,0.77758679,-0.22961558,-0.47548165,0.84739631,0.40011644,0.04636422,-0.43622553,-0.69897873,0.04247196,0.39588729,-0.83718479,-0.20818867,0.22207934
4.98000000,0.27753132,0.77758624,-0.22961554,-0.47548142,0.84739745,0.40011693,0.04636665,-0.43622811,-0.69897840,0.04247145,0.39589037,-0.83718472,-0.20819077,0.22208030
5.00000000,0.27753161,0.77758616,-0.22961554,-0.47548138,0.84739762,0.40011700,0.04636700,-0.43622848,-0.69897836,0.04247138,0.39589081,-0.83718471,-0.20819107,0.22208044
5.02000000,0.27752850,0.77758879,-0.22961343,-0.47548548,0.84739606,0.40012023,0.04635733,-0.43622144,-0.69897914,0.04247323,0.39588222,-0.83718482,-0.20818508,0.22207779
5.04000000,0.27750718,0.77760692,-0.22959891,-0.47551367,0.84738537,0.40014246,0.04629078,-0.43617296,-0.69898449,0.04248592,0.39582314,-0.83718555,-0.20814382,0.22205958
5.06000000,0.27745041,0.77765516,-0.22956028,-0.47558872,0.84735689,0.40020164,0.04611365,-0.43604394,-0.69899875,0.04251971,0.39566586,-0.83718751,-0.20803403,0.22201111
5.08000000,0.27734207,0.77774723,-0.22948655,-0.47573193,0.84730256,0.40031457,0.04577563,-0.43579773,-0.69902596,0.04258420,0.39536573,-0.83719125,-0.20782449,0.22191862
5.10000000,0.27716711,0.77789592,-0.22936747,-0.47596321,0.84721481,0.40049694,0.04522972,-0.43540011,-0.69906990,0.04268834,0.39488103,-0.83719728,-0.20748610,0.22176924
5.12000000,0.27691151,0.77811314,-0.22919351,-0.47630110,0.84708662,0.40076338,0.04443221,-0.43481920,-0.69913409,0.04284048,0.39417291,-0.83720610,-0.20699174,0.22155102
5.14000000,0.27656227,0.77840994,-0.22895582,-0.47676277,0.84691146,0.40112742,0.04334251,-0.43402549,-0.69922179,0.04304837,0.39320537,-0.83721814,-0.20631626,0.22125285
5.16000000,0.27610739,0.77879652,-0.22864623,-0.47736409,0.84668333,0.40160159,0.04192321,-0.43299168,-0.69933603,0.04331913,0.39194517,-0.83723383,-0.20543647,0.22086448
5.18000000,0.27553584,0.77928224,-0.22825724,-0.47811964,0.84639668,0.40219736,0.04013988,-0.43169273,-0.69947957,0.04365934,0.39036175,-0.83725354,-0.20433103,0.22037651
5.20000000,0.27483755,0.77987568,-0.22778199,-0.47904272,0.84604646,0.40292525,0.03796111,-0.43010574,-0.69965494,0.04407498,0.38842721,-0.83727762,-0.20298045,0.21978033
5.22000000,0.27400338,0.78058459,-0.22721426,-0.48014544,0.84562809,0.40379478,0.03535834,-0.42820993,-0.69986443,0.04457151,0.38611622,-0.83730638,-0.20136706,0.21906813
5.24000000,0.27302508,0.78141600,-0.22654844,-0.48143868,0.84513744,0.40481455,0.03230589,-0.42598656,-0.70011012,0.04515383,0.38340594,-0.83734012,-0.19947491,0.21823288
5.26000000,0.27189530,0.78237613,-0.22577953,-0.48293217,0.84457082,0.40599221,0.02878079,-0.42341892,-0.70039385,0.04582632,0.38027600,-0.83737908,-0.19728979,0.21726831
5.28000000,0.27060755,0.78347052,-0.22490309,-0.48463448,0.84392497,0.40733455,0.02476278,-0.42049226,-0.70071725,0.04659284,0.37670841,-0.83742349,-0.19479912,0.21616886
5.30000000,0.26915617,0.78470396,-0.22391530,-0.48655311,0.84319705,0.40884746,0.02023422,-0.41719372,-0.70108175,0.04745676,0.37268750,-0.83747354,-0.19199197,0.21492971
5.32000000,0.26753632,0.78608058,-0.22281284,-0.48869443,0.84238464,0.41053597,0.01518001,-0.41351231,-0.70148856,0.04842096,0.36819986,-0.83752940,-0.18885898,0.21354672
5.34000000,0.26574395,0.78760382,-0.22159297,-0.49106381,0.84148570,0.41240431,0.00958752,-0.40943881,-0.70193869,0.04948784,0.36323428,-0.83759121,-0.18539233,0.21201644
5.36000000,0.26377579,0.78927644,-0.22025346,-0.49366558,0.84049860,0.41445590,0.00344653,-0.40496580,-0.70243297,0.05065936,0.35778169,-0.83765908,-0.18158567,0.21033608
5.38000000,0.26162931,0.79110061,-0.21879258,-0.49650307,0.83942207,0.41669337,-0.00325085,-0.40008751,-0.70297204,0.05193703,0.35183508,-0.83773310,-0.17743411,0.20850347
5.40000000,0.25930270,0.79307786,-0.21720912,-0.49957868,0.83825520,0.41911859,-0.01051026,-0.39479986,-0.70355634,0.05332192,0.34538945,-0.83781333,-0.17293418,0.20651707
5.42000000,0.25679487,0.79520913,-0.21550231,-0.50289385,0.83699744,0.42173273,-0.01833511,-0.38910035,-0.70418615,0.05481467,0.33844175,-0.83789981,-0.16808373,0.20437595
5.44000000,0.25410539,0.79749476,-0.21367188,-0.50644915,0.83564857,0.42453621,-0.02672674,-0.38298800,-0.70486158,0.05641555,0.33099082,-0.83799256,-0.16288196,0.20207974
5.46000000,0.25123450,0.79993456,-0.21171798,-0.51024425,0.83420872,0.42752879,-0.03568439,-0.37646337,-0.70558257,0.05812441,0.32303732,-0.83809156,-0.15732932,0.19962865
5.48000000,0.24818308,0.80252780,-0.20964121,-0.51427802,0.83267833,0.43070956,-0.04520536,-0.36952843,-0.70634890,0.05994074,0.31458364,-0.83819679,-0.15142749,0.19702342
5.50000000,0.24495259,0.80527320,-0.20744257,-0.51854849,0.83105813,0.43407698,-0.05528502,-0.36218654,-0.70716020,0.06186364,0.30563390,-0.83830819,-0.14517934,0.19426532
5.52000000,0.24154512,0.80816902,-0.20512348,-0.52305292,0.82934916,0.43762888,-0.06591690,-0.35444242,-0.70801595,0.06389190,0.29619384,-0.83842570,-0.13858888,0.19135611
5.54000000,0.23796330,0.81121300,-0.20268573,-0.52778783,0.82755276,0.44136253,-0.07709278,-0.34630207,-0.70891548,0.06602393,0.28627077,-0.83854922,-0.13166122,0.18829804
5.56000000,0.23421032,0.81440245,-0.20013148,-0.53274900,0.82567051,0.44527460,-0.08880272,-0.33777270,-0.70985800,0.06825785,0.27587350,-0.83867864,-0.12440249,0.18509384
5.58000000,0.23028987,0.81773421,-0.19746326,-0.53793155,0.82370427,0.44936123,-0.10103518,-0.32886275,-0.71084257,0.07059145,0.26501229,-0.83881383,-0.11681987,0.18174666
5.60000000,0.22620616,0.82120473,-0.19468393,-0.54332992,0.82165615,0.45361804,-0.11377704,-0.31958175,-0.71186815,0.07302223,0.25369878,-0.83895466,-0.10892149,0.17826010
5.62000000,0.22196387,0.82481001,-0.19179666,-0.54893793,0.81952850,0.45804015,-0.12701371,-0.30994034,-0.71293355,0.07554740,0.24194593,-0.83910095,-0.10071638,0.17463814
5.64000000,0.21756812,0.82854570,-0.18880496,-0.55474879,0.81732388,0.46262223,-0.14072918,-0.29995018,-0.71403749,0.07816392,0.22976796,-0.83925254,-0.09221448,0.17088516
5.66000000,0.21302448,0.83240708,-0.18571260,-0.56075515,0.81504509,0.46735846,-0.15490610,-0.28962390,-0.71517858,0.08086846,0.21718026,-0.83940923,-0.08342654,0.16700592
5.68000000,0.20833892,0.83638907,-0.18252365,-0.56694912,0.81269512,0.47224263,-0.16952584,-0.27897508,-0.71635530,0.08365749,0.20419938,-0.83957081,-0.07436410,0.16300551
5.70000000,0.20351779,0.84048628,-0.17924244,-0.57332231,0.81027716,0.47726812,-0.18456858,-0.26801816,-0.71756607,0.08652721,0.19084292,-0.83973706,-0.06503945,0.15888935
5.72000000,0.19856781,0.84469298,-0.17587353,-0.57986583,0.80779457,0.48242792,-0.20001336,-0.25676839,-0.71880920,0.08947362,0.17712949,-0.83990776,-0.05546559,0.15466319
5.74000000,0.19349603,0.84900320,-0.17242172,-0.58657035,0.80525090,0.48771469,-0.21583816,-0.24524183,-0.72008292,0.09249254,0.16307863,-0.84008266,-0.04565617,0.15033303
5.76000000,0.18830983,0.85341065,-0.16889204,-0.59342613,0.80264985,0.49312072,-0.23201997,-0.23345522,-0.72138538,0.09557956,0.14871079,-0.84026150,-0.03562544,0.14590519
5.78000000,0.18301688,0.85790883,-0.16528971,-0.60042303,0.79999525,0.49863802,-0.24853487,-0.22142599,-0.72271464,0.09873012,0.13404720,-0.84044403,-0.02538823,0.14138621
5.80000000,0.17762512,0.86249098,-0.16162013,-0.60755055,0.79729110,0.50425833,-0.26535807,-0.20917220,-0.72406872,0.10193950,0.11910986,-0.84062996,-0.01495992,0.13678286
5.82000000,0.17214274,0.86715014,-0.15788887,-0.61479787,0.79454149,0.50997311,-0.28246404,-0.19671245,-0.72544556,0.10520282,0.10392146,-0.84081902,-0.00435633,0.13210214
5.84000000,0.16657815,0.87187917,-0.15410166,-0.62215385,0.79175066,0.51577357,-0.29982650,-0.18406587,-0.72684304,0.10851508,0.08850532,-0.84101092,0.00640626,0.12735124
5.86000000,0.16093997,0.87667074,-0.15026437,-0.62960712,0.78892292,0.52165074,-0.31741855,-0.17125205,-0.72825900,0.11187113,0.07288531,-0.84120535,0.01731117,0.12253751
5.88000000,0.15523701,0.88151736,-0.14638299,-0.63714602,0.78606269,0.52759543,-0.33521275,-0.15829101,-0.72969123,0.11526575,0.05708583,-0.84140201,0.02834138,0.11766847
5.90000000,0.14947823,0.88641142,-0.14246362,-0.64475871,0.78317447,0.53359832,-0.35318112,-0.14520309,-0.73113748,0.11869360,0.04113170,-0.84160060,0.03947955,0.11275177
5.92000000,0.14367272,0.89134519,-0.13851245,-0.65243318,0.78026281,0.53964991,-0.37129529,-0.13200898,-0.73259547,0.12214926,0.02504812,-0.84180080,0.05070811,0.10779518
5.94000000,0.13782969,0.89631084,-0.13453574,-0.66015724,0.77733233,0.54574062,-0.38952652,-0.11872960,-0.73406288,0.12562725,0.00886059,-0.84200230,0.06200923,0.10280655
5.96000000,0.13195845,0.90130048,-0.13053982,-0.66791860,0.77438770,0.55186073,-0.40784580,-0.10538609,-0.73553738,0.12912203,-0.00740511,-0.84220477,0.07336492,0.09779383
5.98000000,0.12606835,0.90630614,-0.12653108,-0.67570488,0.77143361,0.55800050,-0.42622388,-0.09199974,-0.73701661,0.13262804,-0.02372303,-0.84240789,0.08475707,0.09276502
6.00000000,0.12016882,0.91131981,-0.12251592,-0.68350364,0.76847480,0.56415010,-0.44463142,-0.07859194,-0.73849820,0.13613967,-0.04006709,-0.84261133,0.09616748,0.08772816
6.02000000,0.11426929,0.91633348,-0.11850075,-0.69130239,0.76551598,0.57029970,-0.46303895,-0.06518415,-0.73997980,0.13965129,-0.05641116,-0.84281477,0.10757788,0.08269129
6.04000000,0.10837919,0.92133914,-0.11449201,-0.69908867,0.76256189,0.57643946,-0.48141704,-0.05179780,-0.74145903,0.14315730,-0.07272908,-0.84301789,0.11897003,0.07766248
6.06000000,0.10250795,0.92632878,-0.11049609,-0.70685004,0.75961726,0.58255958,-0.49973631,-0.03845429,-0.74293353,0.14665208,-0.08899478,-0.84322036,0.13032572,0.07264976
6.08000000,0.09666492,0.93129443,-0.10651938,-0.71457410,0.75668679,0.58865028,-0.51796754,-0.02517491,-0.74440094,0.15013008,-0.10518230,-0.84342186,0.14162684,0.06766113
6.10000000,0.09085941,0.93622820,-0.10256821,-0.72224856,0.75377512,0.59470188,-0.53608171,-0.01198080,-0.74585892,0.15358573,-0.12126589,-0.84362206,0.15285540,0.06270454
6.12000000,0.08510063,0.94112227,-0.09864884,-0.72986126,0.75088690,0.60070477,-0.55405008,0.00110712,-0.74730518,0.15701358,-0.13722002,-0.84382065,0.16399358,0.05778784
6.14000000,0.07939767,0.94596888,-0.09476746,-0.73740016,0.74802667,0.60664946,-0.57184428,0.01406817,-0.74873741,0.16040820,-0.15301950,-0.84401731,0.17502378,0.05291880
6.16000000,0.07375949,0.95076045,-0.09093017,-0.74485342,0.74519893,0.61252663,-0.58943633,0.02688198,-0.75015337,0.16376425,-0.16863950,-0.84421175,0.18592869,0.04810507
6.18000000,0.06819490,0.95548948,-0.08714296,-0.75220941,0.74240810,0.61832709,-0.60679879,0.03952856,-0.75155085,0.16707651,-0.18405565,-0.84440364,0.19669128,0.04335417
6.20000000,0.06271252,0.96014864,-0.08341170,-0.75945672,0.73965849,0.62404186,-0.62390476,0.05198831,-0.75292769,0.17033983,-0.19924404,-0.84459270,0.20729487,0.03867345
6.22000000,0.05732076,0.96473079,-0.07974212,-0.76658424,0.73695434,0.62966217,-0.64072796,0.06424210,-0.75428177,0.17354921,-0.21418138,-0.84477863,0.21772319,0.03407010
6.24000000,0.05202781,0.96922897,-0.07613979,-0.77358114,0.73429975,0.63517948,-0.65724286,0.07627133,-0.75561103,0.17669977,-0.22884497,-0.84496116,0.22796039,0.02955112
6.26000000,0.04684161,0.97363642,-0.07261011,-0.78043692,0.73169869,0.64058551,-0.67342467,0.08805794,-0.75691349,0.17978680,-0.24321282,-0.84514000,0.23799112,0.02512328
6.28000000,0.04176983,0.97794664,-0.06915831,-0.78714145,0.72915502,0.64587227,-0.68924947,0.09958451,-0.75818720,0.18280571,-0.25726367,-0.84531490,0.24780055,0.02079313
6.30000000,0.03681985,0.98215334,-0.06578939,-0.79368497,0.72667243,0.65103207,-0.70469425,0.11083427,-0.75943034,0.18575213,-0.27097710,-0.84548560,0.25737441,0.01656696
6.32000000,0.03199872,0.98625055,-0.06250818,-0.80005815,0.72425447,0.65605756,-0.71973699,0.12179120,-0.76064111,0.18862185,-0.28433356,-0.84565186,0.26669905,0.01245080
6.34000000,0.02731316,0.99023254,-0.05931923,-0.80625213,0.72190450,0.66094174,-0.73435673,0.13244002,-0.76181783,0.19141087,-0.29731444,-0.84581344,0.27576149,0.00845039
6.36000000,0.02276952,0.99409392,-0.05622687,-0.81225849,0.71962571,0.66567797,-0.74853365,0.14276629,-0.76295891,0.19411541,-0.30990214,-0.84597012,0.28454943,0.00457115
6.38000000,0.01837377,0.99782961,-0.05323517,-0.81806935,0.71742110,0.67026005,-0.76224912,0.15275645,-0.76406285,0.19673193,-0.32208012,-0.84612171,0.29305134,0.00081817
6.40000000,0.01413148,1.00143489,-0.05034790,-0.82367735,0.71529344,0.67468216,-0.77548579,0.16239786,-0.76512826,0.19925710,-0.33383297,-0.84626800,0.30125644,-0.00280379
6.42000000,0.01004777,1.00490541,-0.04756857,-0.82907572,0.71324532,0.67893897,-0.78822765,0.17167886,-0.76615383,0.20168788,-0.34514648,-0.84640883,0.30915483,-0.00629035
6.44000000,0.00612732,1.00823717,-0.04490035,-0.83425827,0.71127908,0.68302560,-0.80046011,0.18058881,-0.76713841,0.20402148,-0.35600769,-0.84654403,0.31673744,-0.00963753
6.46000000,0.00237434,1.01142662,-0.04234610,-0.83921945,0.70939683,0.68693767,-0.81217005,0.18911818,-0.76808093,0.20625540,-0.36640496,-0.84667345,0.32399617,-0.01284173
6.48000000,-0.00120748,1.01447060,-0.03990835,-0.84395435,0.70760043,0.69067131,-0.82334593,0.19725854,-0.76898046,0.20838743,-0.37632803,-0.84679696,0.33092384,-0.01589979
6.50000000,-0.00461495,1.01736642,-0.03758926,-0.84845879,0.70589146,0.69422322,-0.83397781,0.20500266,-0.76983621,0.21041569,-0.38576809,-0.84691447,0.33751429,-0.01880901
6.52000000,-0.00784544,1.02011182,-0.03539062,-0.85272925,0.70427126,0.69759064,-0.84405747,0.21234454,-0.77064751,0.21233859,-0.39471783,-0.84702587,0.34376244,-0.02156711
6.54000000,-0.01089686,1.02270506,-0.03331385,-0.85676302,0.70274087,0.70077141,-0.85357844,0.21927948,-0.77141384,0.21415492,-0.40317150,-0.84713110,0.34966427,-0.02417234
6.56000000,-0.01376775,1.02514486,-0.03135995,-0.86055813,0.70130102,0.70376399,-0.86253610,0.22580412,-0.77213483,0.21586378,-0.41112501,-0.84723010,0.35521691,-0.02662343
6.58000000,-0.01645723,1.02743049,-0.02952952,-0.86411342,0.69995216,0.70656747,-0.87092772,0.23191646,-0.77281026,0.21746466,-0.41857594,-0.84732285,0.36041868,-0.02891964
6.60000000,-0.01896506,1.02956176,-0.02782271,-0.86742860,0.69869439,0.70918160,-0.87875257,0.23761598,-0.77344007,0.21895742,-0.42552364,-0.84740933,0.36526913,-0.03106076
6.62000000,-0.02129166,1.03153901,-0.02623925,-0.87050420,0.69752752,0.71160683,-0.88601198,0.24290363,-0.77402437,0.22034230,-0.43196927,-0.84748956,0.36976907,-0.03304715
6.64000000,-0.02343815,1.03336318,-0.02477837,-0.87334169,0.69645099,0.71384430,-0.89270936,0.24778191,-0.77456344,0.22161997,-0.43791588,-0.84756358,0.37392062,-0.03487976
6.66000000,-0.02540631,1.03503580,-0.02343886,-0.87594346,0.69546389,0.71589588,-0.89885035,0.25225493,-0.77505772,0.22279149,-0.44336847,-0.84763146,0.37772728,-0.03656013
6.68000000,-0.02719867,1.03655904,-0.02221899,-0.87831284,0.69456495,0.71776423,-0.90444284,0.25632842,-0.77550785,0.22385838,-0.44833405,-0.84769326,0.38119393,-0.03809041
6.70000000,-0.02881853,1.03793566,-0.02111653,-0.88045417,0.69375254,0.71945274,-0.90949705,0.26000984,-0.77591466,0.22482257,-0.45282169,-0.84774912,0.38432692,-0.03947339
6.72000000,-0.03026991,1.03916910,-0.02012874,-0.88237279,0.69302462,0.72096564,-0.91402561,0.26330838,-0.77627915,0.22568649,-0.45684260,-0.84779918,0.38713407,-0.04071255
6.74000000,-0.03155766,1.04026349,-0.01925231,-0.88407511,0.69237877,0.72230798,-0.91804362,0.26623504,-0.77660256,0.22645301,-0.46041019,-0.84784358,0.38962474,-0.04181200
6.76000000,-0.03268744,1.04122362,-0.01848339,-0.88556859,0.69181215,0.72348565,-0.92156872,0.26880267,-0.77688629,0.22712550,-0.46354013,-0.84788254,0.39180987,-0.04277657
6.78000000,-0.03366574,1.04205503,-0.01781757,-0.88686183,0.69132150,0.72450542,-0.92462117,0.27102604,-0.77713198,0.22770782,-0.46625040,-0.84791628,0.39370201,-0.04361182
6.80000000,-0.03449991,1.04276394,-0.01724984,-0.88796455,0.69090313,0.72537495,-0.92722394,0.27292186,-0.77734147,0.22820435,-0.46856140,-0.84794505,0.39531541,-0.04432401
6.82000000,-0.03519820,1.04335738,-0.01677459,-0.88888764,0.69055292,0.72610284,-0.92940271,0.27450885,-0.77751684,0.22862000,-0.47049594,-0.84796913,0.39666598,-0.04492020
6.84000000,-0.03576975,1.04384310,-0.01638560,-0.88964318,0.69026627,0.72669861,-0.93118604,0.27580780,-0.77766038,0.22896020,-0.47207935,-0.84798884,0.39777142,-0.04540817
6.86000000,-0.03622463,1.04422968,-0.01607601,-0.89024450,0.69003813,0.72717278,-0.93260534,0.27684160,-0.77777461,0.22923097,-0.47333956,-0.84800452,0.39865122,-0.04579653
6.88000000,-0.03657387,1.04452648,-0.01583832,-0.89070618,0.68986297,0.72753682,-0.93369504,0.27763532,-0.77786232,0.22943885,-0.47430709,-0.84801657,0.39932669,-0.04609471
6.90000000,-0.03682947,1.04474370,-0.01566436,-0.89104406,0.68973478,0.72780326,-0.93449256,0.27821622,-0.77792651,0.22959099,-0.47501521,-0.84802538,0.39982105,-0.04631293
6.92000000,-0.03700443,1.04489239,-0.01554528,-0.89127535,0.68964703,0.72798563,-0.93503846,0.27861385,-0.77797045,0.22969513,-0.47549992,-0.84803141,0.40015945,-0.04646231
6.94000000,-0.03711277,1.04498446,-0.01547155,-0.89141856,0.68959270,0.72809856,-0.93537648,0.27886006,-0.77799766,0.22975962,-0.47580005,-0.84803515,0.40036898,-0.04655480
6.96000000,-0.03716954,1.04503270,-0.01543292,-0.89149360,0.68956422,0.72815773,-0.93555361,0.27898908,-0.77801192,0.22979341,-0.47595732,-0.84803711,0.40047878,-0.04660327
6.98000000,-0.03719086,1.04505083,-0.01541840,-0.89152180,0.68955353,0.72817997,-0.93562016,0.27903755,-0.77801727,0.22980610,-0.47601641,-0.84803784,0.40052003,-0.04662148
7.00000000,-0.03719396,1.04505346,-0.01541629,-0.89152589,0.68955197,0.72818320,-0.93562983,0.27904459,-0.77801805,0.22980795,-0.47602500,-0.84803795,0.40052603,-0.04662413
7.02000000,-0.03719376,1.04505329,-0.01541643,-0.89152563,0.68955207,0.72818299,-0.93562921,0.27904457,-0.77801805,0.22980796,-0.47602498,-0.84803795,0.40052602,-0.04662412
7.04000000,-0.03719238,1.04505210,-0.01541737,-0.89152378,0.68955277,0.72818154,-0.93562487,0.27904441,-0.77801802,0.22980800,-0.47602484,-0.84803793,0.40052599,-0.04662404
7.06000000,-0.03718864,1.04504890,-0.01541992,-0.89151880,0.68955465,0.72817762,-0.93561318,0.27904399,-0.77801796,0.22980812,-0.47602446,-0.84803787,0.40052592,-0.04662385
7.08000000,-0.03718142,1.04504272,-0.01542483,-0.89150918,0.68955829,0.72817007,-0.93559059,0.27904317,-0.77801784,0.22980835,-0.47602372,-0.84803776,0.40052578,-0.04662347
7.10000000,-0.03716961,1.04503262,-0.01543287,-0.89149346,0.68956423,0.72815771,-0.93555366,0.27904183,-0.77801765,0.22980873,-0.47602252,-0.84803758,0.40052556,-0.04662285
7.12000000,-0.03715214,1.04501766,-0.01544477,-0.89147018,0.68957303,0.72813942,-0.93549901,0.27903985,-0.77801736,0.22980929,-0.47602074,-0.84803732,0.40052522,-0.04662193
7.14000000,-0.03712795,1.04499696,-0.01546125,-0.89143796,0.68958521,0.72811411,-0.93542336,0.27903710,-0.77801696,0.22981006,-0.47601828,-0.84803695,0.40052475,-0.04662067
7.16000000,-0.03709602,1.04496963,-0.01548298,-0.89139544,0.68960128,0.72808069,-0.93532351,0.27903348,-0.77801644,0.22981109,-0.47601504,-0.84803647,0.40052414,-0.04661899
7.18000000,-0.03705537,1.04493483,-0.01551067,-0.89134129,0.68962175,0.72803814,-0.93519636,0.27902886,-0.77801577,0.22981239,-0.47601090,-0.84803586,0.40052335,-0.04661686
7.20000000,-0.03700501,1.04489173,-0.01554496,-0.89127422,0.68964710,0.72798544,-0.93503888,0.27902314,-0.77801494,0.22981400,-0.47600578,-0.84803510,0.40052238,-0.04661422
7.22000000,-0.03694402,1.04483952,-0.01558649,-0.89119298,0.68967781,0.72792161,-0.93484812,0.27901622,-0.77801394,0.22981595,-0.47599957,-0.84803418,0.40052120,-0.04661102
7.24000000,-0.03687148,1.04477742,-0.01563589,-0.89109635,0.68971433,0.72784568,-0.93462123,0.27900798,-0.77801274,0.22981828,-0.47599219,-0.84803309,0.40051980,-0.04660722
7.26000000,-0.03678649,1.04470468,-0.01569376,-0.89098316,0.68975712,0.72775674,-0.93435543,0.27899834,-0.77801135,0.22982100,-0.47598354,-0.84803181,0.40051816,-0.04660277
7.28000000,-0.03668820,1.04462055,-0.01576069,-0.89085224,0.68980661,0.72765387,-0.93404802,0.27898718,-0.77800973,0.22982414,-0.47597354,-0.84803033,0.40051627,-0.04659762
7.30000000,-0.03657578,1.04452432,-0.01583725,-0.89070249,0.68986321,0.72753620,-0.93369641,0.27897442,-0.77800788,0.22982774,-0.47596210,-0.84802863,0.40051410,-0.04659172
7.32000000,-0.03644841,1.04441529,-0.01592399,-0.89053284,0.68992734,0.72740290,-0.93329804,0.27895996,-0.77800578,0.22983182,-0.47594914,-0.84802671,0.40051164,-0.04658505
7.34000000,-0.03630530,1.04429280,-0.01602143,-0.89034223,0.68999939,0.72725312,-0.93285047,0.27894371,-0.77800343,0.22983640,-0.47593458,-0.84802455,0.40050888,-0.04657754
7.36000000,-0.03614571,1.04415619,-0.01613011,-0.89012965,0.69007974,0.72708609,-0.93235132,0.27892559,-0.77800080,0.22984151,-0.47591835,-0.84802215,0.40050580,-0.04656918
7.38000000,-0.03596889,1.04400484,-0.01625052,-0.88989413,0.69016876,0.72690103,-0.93179830,0.27890552,-0.77799789,0.22984717,-0.47590035,-0.84801948,0.40050238,-0.04655991
7.40000000,-0.03577413,1.04383813,-0.01638314,-0.88963473,0.69026681,0.72669720,-0.93118918,0.27888341,-0.77799469,0.22985341,-0.47588054,-0.84801655,0.40049863,-0.04654970
7.42000000,-0.03556076,1.04365549,-0.01652844,-0.88935052,0.69037424,0.72647388,-0.93052184,0.27885919,-0.77799118,0.22986024,-0.47585883,-0.84801333,0.40049451,-0.04653852
7.44000000,-0.03532810,1.04345634,-0.01668687,-0.88904063,0.69049138,0.72623038,-0.92979419,0.27883278,-0.77798735,0.22986769,-0.47583516,-0.84800982,0.40049002,-0.04652632
7.46000000,-0.03507553,1.04324015,-0.01685886,-0.88870421,0.69061854,0.72596604,-0.92900424,0.27880410,-0.77798320,0.22987578,-0.47580946,-0.84800602,0.40048514,-0.04651308
7.48000000,-0.03480242,1.04300638,-0.01704484,-0.88834045,0.69075604,0.72568021,-0.92815009,0.27877310,-0.77797870,0.22988452,-0.47578167,-0.84800190,0.40047987,-0.04649877
7.50000000,-0.03450820,1.04275454,-0.01724519,-0.88794856,0.69090417,0.72537228,-0.92722989,0.27873970,-0.77797386,0.22989394,-0.47575174,-0.84799746,0.40047420,-0.04648335
7.52000000,-0.03419229,1.04248413,-0.01746031,-0.88752778,0.69106322,0.72504165,-0.92624186,0.27870384,-0.77796866,0.22990406,-0.47571960,-0.84799270,0.40046810,-0.04646679
7.54000000,-0.03385416,1.04219470,-0.01769057,-0.88707740,0.69123346,0.72468776,-0.92518432,0.27866545,-0.77796310,0.22991488,-0.47568519,-0.84798760,0.40046157,-0.04644906
7.56000000,-0.03349328,1.04188580,-0.01793631,-0.88659672,0.69141515,0.72431006,-0.92405563,0.27862448,-0.77795716,0.22992644,-0.47564847,-0.84798216,0.40045461,-0.04643015
7.58000000,-0.03310915,1.04155700,-0.01819789,-0.88608507,0.69160855,0.72390803,-0.92285424,0.27858088,-0.77795084,0.22993874,-0.47560939,-0.84797637,0.40044720,-0.04641001
7.60000000,-0.03270131,1.04120789,-0.01847561,-0.88554184,0.69181388,0.72348118,-0.92157867,0.27853458,-0.77794413,0.22995180,-0.47556790,-0.84797023,0.40043933,-0.04638863
7.62000000,-0.03226929,1.04083810,-0.01876980,-0.88496640,0.69203139,0.72302903,-0.92022750,0.27848553,-0.77793702,0.22996563,-0.47552394,-0.84796371,0.40043099,-0.04636599
7.64000000,-0.03181267,1.04044725,-0.01908074,-0.88435820,0.69226129,0.72255113,-0.91879938,0.27843370,-0.77792951,0.22998025,-0.47547748,-0.84795683,0.40042218,-0.04634205
7.66000000,-0.03133104,1.04003499,-0.01940871,-0.88371669,0.69250377,0.72204705,-0.91729304,0.27837902,-0.77792159,0.22999567,-0.47542848,-0.84794957,0.40041288,-0.04631681
7.68000000,-0.03082401,1.03960099,-0.01975398,-0.88304134,0.69275905,0.72151640,-0.91570726,0.27832146,-0.77791324,0.23001190,-0.47537689,-0.84794193,0.40040310,-0.04629023
7.70000000,-0.03029121,1.03914493,-0.02011679,-0.88233168,0.69302729,0.72095877,-0.91404091,0.27826098,-0.77790448,0.23002896,-0.47532268,-0.84793389,0.40039282,-0.04626230
7.72000000,-0.02973231,1.03866653,-0.02049738,-0.88158724,0.69330868,0.72037382,-0.91229289,0.27819753,-0.77789528,0.23004686,-0.47526582,-0.84792547,0.40038203,-0.04623301
7.74000000,-0.02914697,1.03816550,-0.02089598,-0.88080759,0.69360338,0.71976121,-0.91046220,0.27813108,-0.77788565,0.23006560,-0.47520626,-0.84791665,0.40037074,-0.04620233
7.76000000,-0.02853490,1.03764159,-0.02131277,-0.87999233,0.69391154,0.71912061,-0.90854789,0.27806159,-0.77787558,0.23008520,-0.47514399,-0.84790742,0.40035892,-0.04617024
7.78000000,-0.02789580,1.03709454,-0.02174797,-0.87914108,0.69423330,0.71845174,-0.90654907,0.27798904,-0.77786507,0.23010566,-0.47507896,-0.84789779,0.40034659,-0.04613674
7.80000000,-0.02722943,1.03652415,-0.02220175,-0.87825349,0.69456880,0.71775431,-0.90446492,0.27791339,-0.77785410,0.23012699,-0.47501116,-0.84788774,0.40033373,-0.04610181
7.82000000,-0.02653552,1.03593019,-0.02267427,-0.87732924,0.69491816,0.71702807,-0.90229468,0.27783462,-0.77784269,0.23014921,-0.47494056,-0.84787728,0.40032034,-0.04606544
7.84000000,-0.02581387,1.03531248,-0.02316569,-0.87636802,0.69528149,0.71627279,-0.90003766,0.27775270,-0.77783081,0.23017232,-0.47486714,-0.84786640,0.40030642,-0.04602761
7.86000000,-0.02506426,1.03467084,-0.02367614,-0.87536958,0.69565889,0.71548825,-0.89769320,0.27766760,-0.77781848,0.23019632,-0.47479087,-0.84785510,0.40029195,-0.04598832
7.88000000,-0.02428652,1.03400511,-0.02420575,-0.87433365,0.69605047,0.71467426,-0.89526074,0.27757931,-0.77780568,0.23022122,-0.47471174,-0.84784338,0.40027694,-0.04594755
7.90000000,-0.02348047,1.03331516,-0.02475464,-0.87326002,0.69645629,0.71383065,-0.89273975,0.27748780,-0.77779242,0.23024703,-0.47462972,-0.84783123,0.40026139,-0.04590530
7.92000000,-0.02264597,1.03260085,-0.02532290,-0.87214849,0.69687643,0.71295726,-0.89012978,0.27739307,-0.77777869,0.23027375,-0.47454482,-0.84781865,0.40024528,-0.04586156
7.94000000,-0.02178288,1.03186208,-0.02591063,-0.87099890,0.69731097,0.71205395,-0.88743042,0.27729509,-0.77776449,0.23030138,-0.47445700,-0.84780564,0.40022863,-0.04581632
7.96000000,-0.02089111,1.03109876,-0.02651789,-0.86981109,0.69775995,0.71112062,-0.88464132,0.27719385,-0.77774982,0.23032993,-0.47436627,-0.84779219,0.40021142,-0.04576958
7.98000000,-0.01997056,1.03031079,-0.02714475,-0.86858494,0.69822342,0.71015717,-0.88176221,0.27708935,-0.77773467,0.23035941,-0.47427261,-0.84777832,0.40019365,-0.04572132
8.00000000,-0.01902114,1.02949812,-0.02779127,-0.86732036,0.69870142,0.70916351,-0.87879284,0.27698157,-0.77771905,0.23038981,-0.47417601,-0.84776400,0.40017533,-0.04567156
8.02000000,-0.01804282,1.02866071,-0.02845747,-0.86601726,0.69919397,0.70813959,-0.87573304,0.27687050,-0.77770295,0.23042113,-0.47407647,-0.84774926,0.40015645,-0.04562028
8.04000000,-0.01703553,1.02779851,-0.02914339,-0.86467560,0.69970111,0.70708537,-0.87258269,0.27675616,-0.77768638,0.23045338,-0.47397399,-0.84773407,0.40013701,-0.04556748
8.06000000,-0.01599928,1.02691151,-0.02984904,-0.86329534,0.70022283,0.70600083,-0.86934171,0.27663852,-0.77766933,0.23048656,-0.47386855,-0.84771845,0.40011702,-0.04551316
8.08000000,-0.01493404,1.02599969,-0.03057442,-0.86187648,0.70075915,0.70488594,-0.86601008,0.27651759,-0.77765180,0.23052067,-0.47376017,-0.84770239,0.40009646,-0.04545732
8.10000000,-0.01383982,1.02506309,-0.03131954,-0.86041903,0.70131005,0.70374074,-0.86258785,0.27639337,-0.77763380,0.23055570,-0.47364884,-0.84768590,0.40007534,-0.04539997
8.12000000,-0.01271667,1.02410170,-0.03208436,-0.85892303,0.70187552,0.70256525,-0.85907509,0.27626587,-0.77761532,0.23059166,-0.47353456,-0.84766897,0.40005367,-0.04534110
8.14000000,-0.01156462,1.02311558,-0.03286887,-0.85738854,0.70245554,0.70135951,-0.85547194,0.27613508,-0.77759637,0.23062855,-0.47341735,-0.84765160,0.40003144,-0.04528071
8.16000000,-0.01038372,1.02210478,-0.03367301,-0.85581563,0.70305009,0.70012358,-0.85177860,0.27600102,-0.77757694,0.23066636,-0.47329720,-0.84763380,0.40000865,-0.04521881
8.18000000,-0.00917406,1.02106935,-0.03449674,-0.85420441,0.70365911,0.69885755,-0.84799529,0.27586370,-0.77755704,0.23070509,-0.47317412,-0.84761557,0.39998530,-0.04515540
8.20000000,-0.00793573,1.02000938,-0.03534000,-0.85255499,0.70428257,0.69756151,-0.84412231,0.27572312,-0.77753666,0.23074474,-0.47304813,-0.84759690,0.39996141,-0.04509049
8.22000000,-0.00666883,1.01892495,-0.03620270,-0.85086753,0.70492042,0.69623558,-0.84015997,0.27557930,-0.77751582,0.23078530,-0.47291923,-0.84757780,0.39993696,-0.04502409
8.24000000,-0.00537348,1.01781618,-0.03708478,-0.84914217,0.70557258,0.69487986,-0.83610867,0.27543225,-0.77749450,0.23082678,-0.47278743,-0.84755827,0.39991196,-0.04495619
8.26000000,-0.00404983,1.01668317,-0.03798614,-0.84737911,0.70623900,0.69349452,-0.83196882,0.27528198,-0.77747273,0.23086916,-0.47265276,-0.84753832,0.39988642,-0.04488680
8.28000000,-0.00269801,1.01552606,-0.03890668,-0.84557854,0.70691960,0.69207971,-0.82774090,0.27512852,-0.77745048,0.23091244,-0.47251522,-0.84751794,0.39986033,-0.04481595
8.30000000,-0.00131820,1.01434498,-0.03984627,-0.84374068,0.70761429,0.69063560,-0.82342543,0.27497188,-0.77742778,0.23095662,-0.47237483,-0.84749714,0.39983370,-0.04474362
8.32000000,0.00008943,1.01314010,-0.04080481,-0.84186577,0.70832299,0.68916238,-0.81902296,0.27481208,-0.77740462,0.23100169,-0.47223161,-0.84747592,0.39980654,-0.04466984
8.34000000,0.00152468,1.01191157,-0.04178216,-0.83995407,0.70904559,0.68766024,-0.81453409,0.27464915,-0.77738101,0.23104764,-0.47208558,-0.84745429,0.39977884,-0.04459460
8.36000000,0.00298735,1.01065958,-0.04277818,-0.83800585,0.70978200,0.68612941,-0.80995948,0.27448310,-0.77735694,0.23109448,-0.47193676,-0.84743224,0.39975062,-0.04451794
8.38000000,0.00447721,1.00938430,-0.04379272,-0.83602141,0.71053210,0.68457012,-0.80529981,0.27431397,-0.77733243,0.23114218,-0.47178518,-0.84740978,0.39972187,-0.04443984
8.40000000,0.00599404,1.00808595,-0.04482562,-0.83400105,0.71129577,0.68298261,-0.80055581,0.27414178,-0.77730747,0.23119074,-0.47163085,-0.84738692,0.39969259,-0.04436033
8.42000000,0.00753759,1.00676473,-0.04587671,-0.83194510,0.71207290,0.68136713,-0.79572825,0.27396655,-0.77728208,0.23124016,-0.47147380,-0.84736365,0.39966281,-0.04427943
8.44000000,0.00910759,1.00542085,-0.04694582,-0.82985392,0.71286335,0.67972397,-0.79081793,0.27378832,-0.77725624,0.23129043,-0.47131406,-0.84733998,0.39963251,-0.04419713
8.46000000,0.01070378,1.00405457,-0.04803277,-0.82772785,0.71366698,0.67805340,-0.78582572,0.27360711,-0.77722998,0.23134154,-0.47115166,-0.84731592,0.39960171,-0.04411346
8.48000000,0.01232587,1.00266611,-0.04913735,-0.82556728,0.71448365,0.67635571,-0.78075249,0.27342297,-0.77720329,0.23139348,-0.47098662,-0.84729147,0.39957040,-0.04402844
8.50000000,0.01397357,1.00125573,-0.05025937,-0.82337260,0.71531322,0.67463123,-0.77559917,0.27323592,-0.77717618,0.23144623,-0.47081897,-0.84726663,0.39953861,-0.04394207
8.52000000,0.01564657,0.99982370,-0.05139861,-0.82114423,0.71615552,0.67288026,-0.77036672,0.27304599,-0.77714866,0.23149980,-0.47064875,-0.84724141,0.39950632,-0.04385438
8.54000000,0.01734456,0.99837028,-0.05255487,-0.81888258,0.71701040,0.67110315,-0.76505614,0.27285323,-0.77712072,0.23155416,-0.47047599,-0.84721581,0.39947356,-0.04376537
8.56000000,0.01906719,0.99689576,-0.05372792,-0.81658809,0.71787769,0.66930024,-0.75966846,0.27265768,-0.77709238,0.23160932,-0.47030072,-0.84718985,0.39944031,-0.04367508
8.58000000,0.02081413,0.99540044,-0.05491752,-0.81426123,0.71875722,0.66747189,-0.75420475,0.27245936,-0.77706364,0.23166525,-0.47012298,-0.84716351,0.39940660,-0.04358351
8.60000000,0.02258504,0.99388460,-0.05612343,-0.81190245,0.71964882,0.66561846,-0.74866611,0.27225832,-0.77703450,0.23172195,-0.46994280,-0.84713682,0.39937243,-0.04349068
8.62000000,0.02437953,0.99234857,-0.05734541,-0.80951225,0.72055229,0.66374034,-0.74305368,0.27205461,-0.77700497,0.23177941,-0.46976022,-0.84710976,0.39933780,-0.04339662
8.64000000,0.02619725,0.99079267,-0.05858321,-0.80709111,0.72146745,0.66183792,-0.73736862,0.27184825,-0.77697507,0.23183761,-0.46957528,-0.84708236,0.39930272,-0.04330134
8.66000000,0.02803780,0.98921721,-0.05983655,-0.80463956,0.72239411,0.65991160,-0.73161214,0.27163931,-0.77694478,0.23189654,-0.46938801,-0.84705462,0.39926720,-0.04320486
8.68000000,0.02990080,0.98762255,-0.06110518,-0.80215812,0.72333207,0.65796178,-0.72578546,0.27142782,-0.77691413,0.23195619,-0.46919846,-0.84702653,0.39923125,-0.04310721
8.70000000,0.03178584,0.98600902,-0.06238882,-0.79964731,0.72428113,0.65598890,-0.71988984,0.27121382,-0.77688312,0.23201655,-0.46900667,-0.84699812,0.39919487,-0.04300840
8.72000000,0.03369251,0.98437697,-0.06368718,-0.79710770,0.72524108,0.65399338,-0.71392658,0.27099737,-0.77685175,0.23207759,-0.46881267,-0.84696938,0.39915808,-0.04290846
8.74000000,0.03562038,0.98272677,-0.06499999,-0.79453984,0.72621170,0.65197566,-0.70789700,0.27077851,-0.77682003,0.23213932,-0.46861652,-0.84694032,0.39912087,-0.04280741
8.76000000,0.03756903,0.98105879,-0.06632694,-0.79194431,0.72719279,0.64993621,-0.70180243,0.27055730,-0.77678796,0.23220171,-0.46841826,-0.84691094,0.39908327,-0.04270526
8.78000000,0.03953802,0.97937341,-0.06766775,-0.78932170,0.72818411,0.64787546,-0.69564427,0.27033377,-0.77675557,0.23226475,-0.46821792,-0.84688126,0.39904527,-0.04260205
8.80000000,0.04152689,0.97767100,-0.06902209,-0.78667259,0.72918544,0.64579391,-0.68942391,0.27010799,-0.77672285,0.23232843,-0.46801557,-0.84685128,0.39900689,-0.04249780
8.82000000,0.04353519,0.97595196,-0.07038967,-0.78399760,0.73019656,0.64369202,-0.68314278,0.26988000,-0.77668980,0.23239274,-0.46781123,-0.84682100,0.39896814,-0.04239253
8.84000000,0.04556246,0.97421668,-0.07177016,-0.78129736,0.73121723,0.64157028,-0.67680232,0.26964986,-0.77665645,0.23245765,-0.46760497,-0.84679044,0.39892901,-0.04228627
8.86000000,0.04760823,0.97246557,-0.07316324,-0.77857247,0.73224721,0.63942918,-0.67040403,0.26941762,-0.77662279,0.23252315,-0.46739682,-0.84675961,0.39888954,-0.04217904
8.88000000,0.04967200,0.97069905,-0.07456859,-0.77582360,0.73328625,0.63726923,-0.66394940,0.26918334,-0.77658883,0.23258923,-0.46718684,-0.84672850,0.39884971,-0.04207086
8.90000000,0.05175331,0.96891752,-0.07598588,-0.77305138,0.73433412,0.63509094,-0.65743996,0.26894706,-0.77655459,0.23265586,-0.46697508,-0.84669712,0.39880955,-0.04196176
8.92000000,0.05385164,0.96712142,-0.07741476,-0.77025648,0.73539057,0.63289482,-0.65087725,0.26870885,-0.77652006,0.23272305,-0.46676159,-0.84666549,0.39876905,-0.04185178
8.94000000,0.05596650,0.96531117,-0.07885489,-0.76743956,0.73645533,0.63068141,-0.64426285,0.26846877,-0.77648527,0.23279076,-0.46654641,-0.84663361,0.39872824,-0.04174092
8.96000000,0.05809738,0.96348720,-0.08030594,-0.76460130,0.73752817,0.62845122,-0.63759834,0.26822686,-0.77645021,0.23285899,-0.46632961,-0.84660149,0.39868712,-0.04162923
8.98000000,0.06024377,0.96164996,-0.08176755,-0.76174239,0.73860880,0.62620481,-0.63088533,0.26798320,-0.77641489,0.23292771,-0.46611122,-0.84656913,0.39864570,-0.04151672
9.00000000,0.06240515,0.95979990,-0.08323936,-0.75886352,0.73969699,0.62394272,-0.62412546,0.26773784,-0.77637933,0.23299691,-0.46589131,-0.84653655,0.39860399,-0.04140342
9.02000000,0.06458098,0.95793746,-0.08472101,-0.75596539,0.74079245,0.62166549,-0.61732037,0.26749083,-0.77634353,0.23306658,-0.46566993,-0.84650375,0.39856200,-0.04128937
9.04000000,0.06677073,0.95606310,-0.08621215,-0.75304872,0.74189492,0.61937369,-0.61047173,0.26724224,-0.77630751,0.23313669,-0.46544714,-0.84647074,0.39851974,-0.04117459
9.06000000,0.06897387,0.95417728,-0.08771240,-0.75011421,0.74300414,0.61706788,-0.60358123,0.26699214,-0.77627126,0.23320723,-0.46522298,-0.84643753,0.39847723,-0.04105911
9.08000000,0.07118986,0.95228047,-0.08922140,-0.74716261,0.74411981,0.61474863,-0.59665056,0.26674057,-0.77623480,0.23327818,-0.46499751,-0.84640413,0.39843446,-0.04094296
9.10000000,0.07341813,0.95037314,-0.09073877,-0.74419462,0.74524168,0.61241652,-0.58968144,0.26648761,-0.77619813,0.23334953,-0.46477080,-0.84637054,0.39839146,-0.04082616
9.12000000,0.07565815,0.94845576,-0.09226413,-0.74121100,0.74636946,0.61007212,-0.58267561,0.26623332,-0.77616128,0.23342125,-0.46454289,-0.84633677,0.39834824,-0.04070874
9.14000000,0.07790935,0.94652881,-0.09379711,-0.73821249,0.74750286,0.60771601,-0.57563480,0.26597776,-0.77612424,0.23349333,-0.46431384,-0.84630283,0.39830479,-0.04059074
9.16000000,0.08017116,0.94459277,-0.09533731,-0.73519984,0.74864162,0.60534880,-0.56856079,0.26572099,-0.77608703,0.23356575,-0.46408371,-0.84626874,0.39826115,-0.04047218
9.18000000,0.08244303,0.94264813,-0.09688437,-0.73217379,0.74978543,0.60297106,-0.56145534,0.26546308,-0.77604965,0.23363849,-0.46385256,-0.84623449,0.39821730,-0.04035310
9.20000000,0.08472437,0.94069537,-0.09843787,-0.72913512,0.75093402,0.60058340,-0.55432024,0.26520410,-0.77601211,0.23371153,-0.46362045,-0.84620010,0.39817328,-0.04023351
9.22000000,0.08701463,0.93873499,-0.09999744,-0.72608459,0.75208709,0.59818642,-0.54715729,0.26494410,-0.77597443,0.23378486,-0.46338743,-0.84616558,0.39812908,-0.04011347
9.24000000,0.08931321,0.93676748,-0.10156269,-0.72302296,0.75324435,0.59578072,-0.53996829,0.26468316,-0.77593661,0.23385846,-0.46315356,-0.84613093,0.39808472,-0.03999298
9.26000000,0.09161953,0.93479334,-0.10313321,-0.71995102,0.75440551,0.59336692,-0.53275506,0.26442134,-0.77589866,0.23393230,-0.46291890,-0.84609616,0.39804022,-0.03987209
9.28000000,0.09393302,0.93281307,-0.10470860,-0.71686954,0.75557028,0.59094562,-0.52551944,0.26415871,-0.77586060,0.23400637,-0.46268352,-0.84606129,0.39799557,-0.03975082
9.30000000,0.09625309,0.93082717,-0.10628847,-0.71377930,0.75673836,0.58851744,-0.51826325,0.26389533,-0.77582243,0.23408066,-0.46244746,-0.84602631,0.39795080,-0.03962921
9.32000000,0.09857914,0.92883615,-0.10787242,-0.71068108,0.75790945,0.58608300,-0.51098834,0.26363127,-0.77578416,0.23415513,-0.46221080,-0.84599125,0.39790591,-0.03950729
9.34000000,0.10091058,0.92684051,-0.10946004,-0.70757569,0.75908326,0.58364291,-0.50369656,0.26336659,-0.77574580,0.23422978,-0.46197359,-0.84595610,0.39786092,-0.03938508
9.36000000,0.10324682,0.92484076,-0.11105093,-0.70446390,0.76025949,0.58119780,-0.49638977,0.26310138,-0.77570736,0.23430458,-0.46173589,-0.84592089,0.39781584,-0.03926262
9.38000000,0.10558727,0.92283742,-0.11264468,-0.70134651,0.76143783,0.57874828,-0.48906983,0.26283568,-0.77566885,0.23437952,-0.46149776,-0.84588561,0.39777067,-0.03913994
9.40000000,0.10793132,0.92083099,-0.11424089,-0.69822432,0.76261798,0.57629500,-0.48173862,0.26256958,-0.77563028,0.23445457,-0.46125926,-0.84585027,0.39772544,-0.03901707
9.42000000,0.11027838,0.91882198,-0.11583914,-0.69509812,0.76379965,0.57383856,-0.47439800,0.26230314,-0.77559167,0.23452972,-0.46102046,-0.84581489,0.39768014,-0.03889405
9.44000000,0.11262785,0.91681092,-0.11743904,-0.69196872,0.76498254,0.57137961,-0.46704985,0.26203642,-0.77555301,0.23460495,-0.46078142,-0.84577947,0.39763480,-0.03877089
9.46000000,0.11497912,0.91479830,-0.11904016,-0.68883691,0.76616633,0.56891877,-0.45969605,0.26176950,-0.77551433,0.23468023,-0.46054219,-0.84574403,0.39758943,-0.03864765
9.48000000,0.11733159,0.91278466,-0.12064210,-0.68570350,0.76735073,0.56645667,-0.45233849,0.26150244,-0.77547562,0.23475555,-0.46030283,-0.84570857,0.39754403,-0.03852434
9.50000000,0.11968467,0.91077050,-0.12224446,-0.68256928,0.76853543,0.56399393,-0.44497904,0.26123531,-0.77543690,0.23483089,-0.46006342,-0.84567310,0.39749862,-0.03840100
9.52000000,0.12203775,0.90875635,-0.12384681,-0.67943507,0.76972013,0.56153120,-0.43761960,0.26096818,-0.77539819,0.23490623,-0.45982401,-0.84563762,0.39745322,-0.03827765
9.54000000,0.12439023,0.90674270,-0.12544876,-0.67630165,0.77090453,0.55906909,-0.43026203,0.26070112,-0.77535948,0.23498155,-0.45958466,-0.84560216,0.39740782,-0.03815434
9.56000000,0.12674150,0.90473009,-0.12704988,-0.67316984,0.77208832,0.55660825,-0.42290823,0.26043420,-0.77532080,0.23505684,-0.45934543,-0.84556672,0.39736244,-0.03803110
9.58000000,0.12909097,0.90271902,-0.12864977,-0.67004044,0.77327120,0.55414930,-0.41556009,0.26016748,-0.77528214,0.23513206,-0.45910638,-0.84553130,0.39731710,-0.03790794
9.60000000,0.13143803,0.90071002,-0.13024803,-0.66691424,0.77445287,0.55169287,-0.40821947,0.25990104,-0.77524353,0.23520721,-0.45886758,-0.84549592,0.39727181,-0.03778492
9.62000000,0.13378208,0.89870359,-0.13184424,-0.66379205,0.77563303,0.54923958,-0.40088825,0.25963493,-0.77520496,0.23528226,-0.45862908,-0.84546058,0.39722658,-0.03766205
9.64000000,0.13612252,0.89670024,-0.13343799,-0.66067466,0.77681137,0.54679007,-0.39356832,0.25936924,-0.77516645,0.23535720,-0.45839096,-0.84542530,0.39718141,-0.03753937
9.66000000,0.13845877,0.89470050,-0.13502888,-0.65756287,0.77798759,0.54434496,-0.38626153,0.25910402,-0.77512801,0.23543200,-0.45815326,-0.84539009,0.39713633,-0.03741691
9.68000000,0.14079021,0.89270486,-0.13661650,-0.65445748,0.77916140,0.54190487,-0.37896975,0.25883935,-0.77508965,0.23550665,-0.45791604,-0.84535494,0.39709134,-0.03729470
9.70000000,0.14311626,0.89071384,-0.13820044,-0.65135926,0.78033249,0.53947042,-0.37169484,0.25857529,-0.77505138,0.23558112,-0.45767938,-0.84531988,0.39704645,-0.03717278
9.72000000,0.14543632,0.88872794,-0.13978032,-0.64826902,0.78150057,0.53704224,-0.36443865,0.25831191,-0.77501321,0.23565541,-0.45744333,-0.84528490,0.39700168,-0.03705117
9.74000000,0.14774981,0.88674767,-0.14135571,-0.64518754,0.78266534,0.53462094,-0.35720302,0.25804928,-0.77497515,0.23572948,-0.45720794,-0.84525003,0.39695703,-0.03692990
9.76000000,0.15005614,0.88477353,-0.14292623,-0.64211560,0.78382650,0.53220714,-0.34998980,0.25778746,-0.77493720,0.23580333,-0.45697328,-0.84521526,0.39691252,-0.03680901
9.78000000,0.15235472,0.88280602,-0.14449147,-0.63905397,0.78498377,0.52980144,-0.34280080,0.25752652,-0.77489938,0.23587692,-0.45673942,-0.84518061,0.39686817,-0.03668852
9.80000000,0.15464497,0.88084564,-0.14605104,-0.63600344,0.78613684,0.52740446,-0.33563784,0.25726652,-0.77486170,0.23595025,-0.45650639,-0.84514609,0.39682397,-0.03656848
9.82000000,0.15692632,0.87889288,-0.14760455,-0.63296477,0.78728542,0.52501681,-0.32850274,0.25700754,-0.77482416,0.23602329,-0.45627428,-0.84511170,0.39677994,-0.03644889
9.84000000,0.15919819,0.87694823,-0.14915160,-0.62993872,0.78842924,0.52263907,-0.32139729,0.25674963,-0.77478678,0.23609604,-0.45604313,-0.84507745,0.39673610,-0.03632981
9.86000000,0.16146000,0.87501220,-0.15069181,-0.62692607,0.78956799,0.52027185,-0.31432328,0.25649286,-0.77474957,0.23616845,-0.45581300,-0.84504336,0.39669246,-0.03621125
9.88000000,0.16371120,0.87308524,-0.15222479,-0.62392756,0.79070140,0.51791575,-0.30728248,0.25623730,-0.77471253,0.23624053,-0.45558395,-0.84500942,0.39664901,-0.03609325
9.90000000,0.16595122,0.87116786,-0.15375015,-0.62094394,0.79182917,0.51557135,-0.30027665,0.25598301,-0.77467568,0.23631225,-0.45535604,-0.84497565,0.39660579,-0.03597584
9.92000000,0.16817949,0.86926053,-0.15526752,-0.61797596,0.79295104,0.51323923,-0.29330753,0.25573005,-0.77463901,0.23638360,-0.45512933,-0.84494206,0.39656278,-0.03585904
9.94000000,0.17039547,0.86736372,-0.15677651,-0.61502435,0.79406672,0.51091998,-0.28637686,0.25547848,-0.77460255,0.23645455,-0.45490386,-0.84490866,0.39652002,-0.03574288
9.96000000,0.17259862,0.86547791,-0.15827677,-0.61208984,0.79517593,0.50861417,-0.27948635,0.25522838,-0.77456630,0.23652509,-0.45467970,-0.84487545,0.39647751,-0.03562740
9.98000000,0.17478837,0.86360355,-0.15976790,-0.60917317,0.79627840,0.50632237,-0.27263772,0.25497979,-0.77453028,0.23659520,-0.45445691,-0.84484244,0.39643525,-0.03551262
10.00000000,0.17696420,0.86174111,-0.16124956,-0.60627504,0.79737387,0.50404515,-0.26583263,0.25473278,-0.77449448,0.23666487,-0.45423553,-0.84480964,0.39639326,-0.03539857
10.02000000,0.17912558,0.85989105,-0.16272137,-0.60339617,0.79846205,0.50178305,-0.25907276,0.25448742,-0.77445892,0.23673407,-0.45401562,-0.84477706,0.39635155,-0.03528527
10.04000000,0.18127196,0.85805381,-0.16418297,-0.60053726,0.79954269,0.49953664,-0.25235975,0.25424375,-0.77442360,0.23680279,-0.45379724,-0.84474470,0.39631013,-0.03517277
10.06000000,0.18340285,0.85622984,-0.16563402,-0.59769900,0.80061552,0.49730646,-0.24569524,0.25400185,-0.77438854,0.23687102,-0.45358043,-0.84471258,0.39626901,-0.03506107
10.08000000,0.18551771,0.85441959,-0.16707416,-0.59488208,0.80168029,0.49509304,-0.23908083,0.25376177,-0.77435375,0.23693873,-0.45336526,-0.84468070,0.39622820,-0.03495022
10.10000000,0.18761604,0.85262349,-0.16850304,-0.59208718,0.80273673,0.49289693,-0.23251813,0.25352356,-0.77431922,0.23700592,-0.45315176,-0.84464907,0.39618770,-0.03484023
10.12000000,0.18969734,0.85084196,-0.16992033,-0.58931496,0.80378460,0.49071863,-0.22600868,0.25328728,-0.77428498,0.23707256,-0.45294000,-0.84461769,0.39614754,-0.03473113
10.14000000,0.19176112,0.84907543,-0.17132568,-0.58656609,0.80482365,0.48855869,-0.21955405,0.25305300,-0.77425102,0.23713864,-0.45273002,-0.84458658,0.39610771,-0.03462295
10.16000000,0.19380688,0.84732433,-0.17271876,-0.58384121,0.80585363,0.48641759,-0.21315576,0.25282076,-0.77421736,0.23720414,-0.45252188,-0.84455575,0.39606823,-0.03451572
10.18000000,0.19583415,0.84558905,-0.17409925,-0.58114096,0.80687429,0.48429585,-0.20681531,0.25259061,-0.77418401,0.23726905,-0.45231561,-0.84452519,0.39602911,-0.03440946
10.20000000,0.19784246,0.84387001,-0.17546683,-0.57846597,0.80788541,0.48219396,-0.20053418,0.25236263,-0.77415096,0.23733335,-0.45211128,-0.84449491,0.39599036,-0.03430419
10.22000000,0.19983133,0.84216760,-0.17682117,-0.57581686,0.80888674,0.48011240,-0.19431381,0.25213684,-0.77411824,0.23739703,-0.45190892,-0.84446493,0.39595198,-0.03419994
10.24000000,0.20180031,0.84048221,-0.17816197,-0.57319425,0.80987807,0.47805166,-0.18815565,0.25191332,-0.77408585,0.23746007,-0.45170859,-0.84443525,0.39591398,-0.03409673
10.26000000,0.20374896,0.83881423,-0.17948893,-0.57059872,0.81085915,0.47601220,-0.18206109,0.25169210,-0.77405378,0.23752246,-0.45151032,-0.84440587,0.39587637,-0.03399458
10.28000000,0.20567684,0.83716404,-0.18080173,-0.56803086,0.81182977,0.47399449,-0.17603150,0.25147325,-0.77402206,0.23758419,-0.45131417,-0.84437681,0.39583917,-0.03389353
10.30000000,0.20758351,0.83553199,-0.18210010,-0.56549125,0.81278972,0.47199897,-0.17006825,0.25125680,-0.77399069,0.23764524,-0.45112018,-0.84434807,0.39580238,-0.03379359
10.32000000,0.20946855,0.83391846,-0.18338374,-0.56298044,0.81373878,0.47002608,-0.16417263,0.25104280,-0.77395968,0.23770559,-0.45092838,-0.84431966,0.39576600,-0.03369478
10.34000000,0.21133154,0.83232379,-0.18465236,-0.56049900,0.81467674,0.46807627,-0.15834595,0.25083131,-0.77392903,0.23776524,-0.45073883,-0.84429157,0.39573005,-0.03359713
10.36000000,0.21317210,0.83074834,-0.18590571,-0.55804745,0.81560340,0.46614994,-0.15258946,0.25062236,-0.77389874,0.23782417,-0.45055157,-0.84426383,0.39569453,-0.03350065
10.38000000,0.21498982,0.82919243,-0.18714350,-0.55562631,0.81651856,0.46424752,-0.14690441,0.25041601,-0.77386884,0.23788237,-0.45036662,-0.84423643,0.39565945,-0.03340537
10.40000000,0.21678431,0.82765640,-0.18836548,-0.55323611,0.81742204,0.46236940,-0.14129197,0.25021230,-0.77383931,0.23793983,-0.45018404,-0.84420937,0.39562482,-0.03331131
10.42000000,0.21855521,0.82614057,-0.18957140,-0.55087734,0.81831363,0.46051597,-0.13575334,0.25001126,-0.77381017,0.23799653,-0.45000386,-0.84418268,0.39559065,-0.03321848
10.44000000,0.22030216,0.82464524,-0.19076100,-0.54855047,0.81919316,0.45868762,-0.13028963,0.24981294,-0.77378143,0.23805246,-0.44982612,-0.84415634,0.39555694,-0.03312691
10.46000000,0.22202479,0.82317073,-0.19193404,-0.54625598,0.82006045,0.45688471,-0.12490195,0.24961738,-0.77375309,0.23810762,-0.44965085,-0.84413038,0.39552369,-0.03303662
10.48000000,0.22372277,0.82171731,-0.19309030,-0.54399433,0.82091533,0.45510760,-0.11959137,0.24942462,-0.77372515,0.23816198,-0.44947809,-0.84410478,0.39549093,-0.03294761
10.50000000,0.22539577,0.82028527,-0.19422955,-0.54176596,0.82175764,0.45335664,-0.11435892,0.24923470,-0.77369763,0.23821555,-0.44930787,-0.84407956,0.39545864,-0.03285992
10.52000000,0.22704348,0.81887490,-0.19535157,-0.53957128,0.82258720,0.45163215,-0.10920560,0.24904765,-0.77367052,0.23826831,-0.44914023,-0.84405472,0.39542684,-0.03277355
10.54000000,0.22866557,0.81748644,-0.19645615,-0.53741071,0.82340388,0.44993447,-0.10413237,0.24886350,-0.77364383,0.23832024,-0.44897519,-0.84403027,0.39539554,-0.03268853
10.56000000,0.23026176,0.81612015,-0.19754309,-0.53528464,0.82420751,0.44826390,-0.09914015,0.24868230,-0.77361757,0.23837135,-0.44881278,-0.84400621,0.39536474,-0.03260486
10.58000000,0.23183176,0.81477628,-0.19861220,-0.53319346,0.82499795,0.44662073,-0.09422984,0.24850407,-0.77359173,0.23842162,-0.44865304,-0.84398254,0.39533444,-0.03252256
10.60000000,0.23337531,0.81345506,-0.19966330,-0.53113751,0.82577508,0.44500526,-0.08940228,0.24832884,-0.77356634,0.23847104,-0.44849600,-0.84395927,0.39530465,-0.03244166
10.62000000,0.23489213,0.81215670,-0.20069620,-0.52911715,0.82653876,0.44341774,-0.08465828,0.24815665,-0.77354138,0.23851960,-0.44834167,-0.84393641,0.39527538,-0.03236215
10.64000000,0.23638200,0.81088143,-0.20171074,-0.52713271,0.82728885,0.44185845,-0.07999861,0.24798751,-0.77351687,0.23856731,-0.44819008,-0.84391395,0.39524663,-0.03228405
10.66000000,0.23784466,0.80962943,-0.20270675,-0.52518449,0.82802526,0.44032762,-0.07542399,0.24782147,-0.77349280,0.23861414,-0.44804126,-0.84389190,0.39521840,-0.03220739
10.68000000,0.23927992,0.80840091,-0.20368410,-0.52327279,0.82874787,0.43882549,-0.07093513,0.24765853,-0.77346919,0.23866009,-0.44789523,-0.84387027,0.39519071,-0.03213215
10.70000000,0.24068754,0.80719602,-0.20464264,-0.52139788,0.82945656,0.43735226,-0.06653266,0.24749874,-0.77344603,0.23870516,-0.44775201,-0.84384905,0.39516354,-0.03205837
10.72000000,0.24206736,0.80601495,-0.20558224,-0.51956002,0.83015125,0.43590815,-0.06221718,0.24734210,-0.77342333,0.23874934,-0.44761162,-0.84382825,0.39513692,-0.03198604
10.74000000,0.24341917,0.80485784,-0.20650277,-0.51775945,0.83083185,0.43449334,-0.05798926,0.24718863,-0.77340108,0.23879262,-0.44747408,-0.84380787,0.39511083,-0.03191519
10.76000000,0.24474283,0.80372483,-0.20740413,-0.51599639,0.83149827,0.43310800,-0.05384942,0.24703837,-0.77337931,0.23883500,-0.44733941,-0.84378792,0.39508529,-0.03184580
10.78000000,0.24603818,0.80261606,-0.20828621,-0.51427103,0.83215044,0.43175229,-0.04979811,0.24689132,-0.77335799,0.23887648,-0.44720761,-0.84376839,0.39506029,-0.03177791
10.80000000,0.24730508,0.80153163,-0.20914892,-0.51258357,0.83278828,0.43042635,-0.04583578,0.24674750,-0.77333715,0.23891704,-0.44707871,-0.84374929,0.39503584,-0.03171150
10.82000000,0.24854341,0.80047166,-0.20999218,-0.51093415,0.83341174,0.42913031,-0.04196279,0.24660692,-0.77331677,0.23895669,-0.44695272,-0.84373062,0.39501194,-0.03164659
10.84000000,0.24975307,0.79943623,-0.21081591,-0.50932293,0.83402077,0.42786428,-0.03817949,0.24646959,-0.77329687,0.23899542,-0.44682964,-0.84371239,0.39498860,-0.03158318
10.86000000,0.25093396,0.79842543,-0.21162005,-0.50775002,0.83461531,0.42662836,-0.03448614,0.24633554,-0.77327744,0.23903323,-0.44670949,-0.84369459,0.39496581,-0.03152128
10.88000000,0.25208602,0.79743930,-0.21240455,-0.50621553,0.83519533,0.42542262,-0.03088300,0.24620475,-0.77325849,0.23907012,-0.44659228,-0.84367722,0.39494358,-0.03146089
10.90000000,0.25320917,0.79647792,-0.21316938,-0.50471953,0.83576081,0.42424712,-0.02737024,0.24607725,-0.77324001,0.23910608,-0.44647800,-0.84366029,0.39492190,-0.03140202
10.92000000,0.25430338,0.79554131,-0.21391449,-0.50326208,0.83631171,0.42310192,-0.02394801,0.24595303,-0.77322200,0.23914111,-0.44636667,-0.84364380,0.39490079,-0.03134467
10.94000000,0.25536862,0.79462950,-0.21463988,-0.50184322,0.83684802,0.42198704,-0.02061638,0.24583210,-0.77320448,0.23917522,-0.44625829,-0.84362774,0.39488023,-0.03128883
10.96000000,0.25640488,0.79374250,-0.21534553,-0.50046296,0.83736975,0.42090249,-0.01737540,0.24571446,-0.77318743,0.23920840,-0.44615286,-0.84361212,0.39486023,-0.03123451
10.98000000,0.25741216,0.79288030,-0.21603145,-0.49912130,0.83787688,0.41984827,-0.01422504,0.24560011,-0.77317086,0.23924065,-0.44605037,-0.84359693,0.39484080,-0.03118171
11.00000000,0.25839049,0.79204288,-0.21669765,-0.49781820,0.83836944,0.41882435,-0.01116524,0.24548905,-0.77315476,0.23927198,-0.44595083,-0.84358219,0.39482192,-0.03113043
11.02000000,0.25933990,0.79123022,-0.21734416,-0.49655362,0.83884744,0.41783070,-0.00819588,0.24538127,-0.77313914,0.23930237,-0.44585423,-0.84356787,0.39480360,-0.03108067
11.04000000,0.26026046,0.79044225,-0.21797103,-0.49532747,0.83931091,0.41686724,-0.00531676,0.24527677,-0.77312399,0.23933185,-0.44576057,-0.84355400,0.39478583,-0.03103241
11.06000000,0.26115223,0.78967892,-0.21857829,-0.49413966,0.83975989,0.41593391,-0.00252767,0.24517553,-0.77310932,0.23936040,-0.44566984,-0.84354055,0.39476862,-0.03098567
11.08000000,0.26201531,0.78894015,-0.21916601,-0.49299007,0.84019442,0.41503061,0.00017169,0.24507755,-0.77309512,0.23938804,-0.44558202,-0.84352754,0.39475197,-0.03094043
11.10000000,0.26284982,0.78822585,-0.21973428,-0.49187854,0.84061457,0.41415722,0.00278166,0.24498282,-0.77308139,0.23941475,-0.44549712,-0.84351496,0.39473586,-0.03089669
11.12000000,0.26365587,0.78753589,-0.22028316,-0.49080491,0.84102039,0.41331361,0.00530265,0.24489131,-0.77306813,0.23944056,-0.44541511,-0.84350281,0.39472031,-0.03085444
11.14000000,0.26443361,0.78687017,-0.22081278,-0.48976899,0.84141196,0.41249962,0.00773511,0.24480302,-0.77305533,0.23946546,-0.44533598,-0.84349109,0.39470530,-0.03081367
11.16000000,0.26518322,0.78622853,-0.22132323,-0.48877054,0.84178936,0.41171508,0.01007957,0.24471792,-0.77304300,0.23948947,-0.44525971,-0.84347979,0.39469083,-0.03077438
11.18000000,0.26590487,0.78561082,-0.22181465,-0.48780932,0.84215269,0.41095980,0.01233660,0.24463600,-0.77303112,0.23951257,-0.44518628,-0.84346891,0.39467691,-0.03073655
11.20000000,0.26659877,0.78501686,-0.22228717,-0.48688507,0.84250205,0.41023356,0.01450684,0.24455722,-0.77301971,0.23953479,-0.44511568,-0.84345845,0.39466352,-0.03070018
11.22000000,0.26726515,0.78444646,-0.22274095,-0.48599748,0.84283755,0.40953613,0.01659099,0.24448157,-0.77300874,0.23955612,-0.44504788,-0.84344841,0.39465066,-0.03066525
11.24000000,0.26790424,0.78389942,-0.22317614,-0.48514623,0.84315931,0.40886725,0.01858980,0.24440902,-0.77299823,0.23957659,-0.44498286,-0.84343877,0.39463832,-0.03063175
11.26000000,0.26851632,0.78337551,-0.22359294,-0.48433097,0.84346747,0.40822665,0.02050412,0.24433954,-0.77298816,0.23959618,-0.44492058,-0.84342954,0.39462651,-0.03059966
11.28000000,0.26910166,0.78287448,-0.22399153,-0.48355132,0.84376217,0.40761404,0.02233480,0.24427309,-0.77297853,0.23961493,-0.44486103,-0.84342072,0.39461522,-0.03056898
11.30000000,0.26966056,0.78239607,-0.22437212,-0.48280688,0.84404356,0.40702909,0.02408282,0.24420964,-0.77296933,0.23963282,-0.44480416,-0.84341230,0.39460443,-0.03053969
11.32000000,0.27019335,0.78194002,-0.22473494,-0.48209722,0.84431181,0.40647147,0.02574918,0.24414916,-0.77296057,0.23964988,-0.44474995,-0.84340426,0.39459415,-0.03051176
11.34000000,0.27070038,0.78150602,-0.22508020,-0.48142187,0.84456708,0.40594081,0.02733496,0.24409160,-0.77295222,0.23966611,-0.44469836,-0.84339662,0.39458436,-0.03048518
11.36000000,0.27118201,0.78109376,-0.22540817,-0.48078036,0.84480957,0.40543674,0.02884130,0.24403692,-0.77294430,0.23968153,-0.44464936,-0.84338936,0.39457507,-0.03045994
11.38000000,0.27163863,0.78070291,-0.22571912,-0.48017216,0.84503946,0.40495884,0.03026941,0.24398509,-0.77293679,0.23969615,-0.44460290,-0.84338248,0.39456626,-0.03043600
11.40000000,0.27207065,0.78033311,-0.22601330,-0.47959672,0.84525697,0.40450669,0.03162059,0.24393604,-0.77292968,0.23970999,-0.44455895,-0.84337596,0.39455792,-0.03041336
11.42000000,0.27247850,0.77998401,-0.22629103,-0.47905349,0.84546231,0.40407983,0.03289616,0.24388974,-0.77292297,0.23972305,-0.44451745,-0.84336982,0.39455005,-0.03039198
11.44000000,0.27286263,0.77965521,-0.22655260,-0.47854185,0.84565570,0.40367781,0.03409755,0.24384613,-0.77291665,0.23973534,-0.44447837,-0.84336403,0.39454264,-0.03037184
11.46000000,0.27322351,0.77934631,-0.22679835,-0.47806116,0.84583740,0.40330011,0.03522623,0.24380517,-0.77291071,0.23974690,-0.44444165,-0.84335859,0.39453567,-0.03035293
11.48000000,0.27356164,0.77905688,-0.22702861,-0.47761078,0.84600764,0.40294622,0.03628378,0.24376678,-0.77290515,0.23975773,-0.44440725,-0.84335349,0.39452915,-0.03033520
11.50000000,0.27387755,0.77878647,-0.22724373,-0.47719000,0.84616668,0.40261559,0.03727180,0.24373092,-0.77289995,0.23976784,-0.44437510,-0.84334873,0.39452305,-0.03031864
11.52000000,0.27417177,0.77853462,-0.22744408,-0.47679811,0.84631482,0.40230765,0.03819201,0.24369752,-0.77289511,0.23977726,-0.44434517,-0.84334429,0.39451737,-0.03030322
11.54000000,0.27444487,0.77830086,-0.22763005,-0.47643435,0.84645231,0.40202182,0.03904616,0.24366651,-0.77289061,0.23978600,-0.44431738,-0.84334017,0.39451210,-0.03028891
11.56000000,0.27469745,0.77808466,-0.22780205,-0.47609793,0.84657948,0.40175748,0.03983610,0.24363784,-0.77288646,0.23979409,-0.44429168,-0.84333637,0.39450723,-0.03027567
