gracetata/LocomotionHEC/legged_lab/Reference Data/ArmHack/StandPerturb/TestData/ArmOnly/sequences/randomized_poses_arm_only_sequence_50hz.csv
time_s,left_shoulder_pitch_joint,left_shoulder_roll_joint,left_shoulder_yaw_joint,left_elbow_joint,left_wrist_roll_joint,left_wrist_pitch_joint,left_wrist_yaw_joint,right_shoulder_pitch_joint,right_shoulder_roll_joint,right_shoulder_yaw_joint,right_elbow_joint,right_wrist_roll_joint,right_wrist_pitch_joint,right_wrist_yaw_joint
0.00000000,0.27656331,0.77648754,-0.22907263,-0.47361267,0.84751888,0.39980467,0.04567174,0.24342602,-0.77285576,0.23985383,-0.44410184,-0.84330824,0.39447122,-0.03017786
0.02000000,0.27656331,0.77648754,-0.22907263,-0.47361267,0.84751888,0.39980467,0.04567174,0.24342602,-0.77285576,0.23985383,-0.44410184,-0.84330824,0.39447122,-0.03017786
0.04000000,0.27656331,0.77648754,-0.22907263,-0.47361267,0.84751888,0.39980467,0.04567174,0.24342602,-0.77285576,0.23985383,-0.44410184,-0.84330824,0.39447122,-0.03017786
0.06000000,0.27656331,0.77648754,-0.22907263,-0.47361267,0.84751888,0.39980467,0.04567174,0.24342602,-0.77285576,0.23985383,-0.44410184,-0.84330824,0.39447122,-0.03017786
0.08000000,0.27656331,0.77648754,-0.22907263,-0.47361267,0.84751888,0.39980467,0.04567174,0.24342602,-0.77285576,0.23985383,-0.44410184,-0.84330824,0.39447122,-0.03017786
0.10000000,0.27656331,0.77648754,-0.22907263,-0.47361267,0.84751888,0.39980467,0.04567174,0.24342602,-0.77285576,0.23985383,-0.44410184,-0.84330824,0.39447122,-0.03017786
0.12000000,0.27656331,0.77648754,-0.22907263,-0.47361267,0.84751888,0.39980467,0.04567174,0.24342602,-0.77285576,0.23985383,-0.44410184,-0.84330824,0.39447122,-0.03017786
0.14000000,0.27656331,0.77648754,-0.22907263,-0.47361267,0.84751888,0.39980467,0.04567174,0.24342602,-0.77285576,0.23985383,-0.44410184,-0.84330824,0.39447122,-0.03017786
0.16000000,0.27656331,0.77648754,-0.22907263,-0.47361267,0.84751888,0.39980467,0.04567174,0.24342602,-0.77285576,0.23985383,-0.44410184,-0.84330824,0.39447122,-0.03017786
0.18000000,0.27656331,0.77648754,-0.22907263,-0.47361267,0.84751888,0.39980467,0.04567174,0.24342602,-0.77285576,0.23985383,-0.44410184,-0.84330824,0.39447122,-0.03017786
0.20000000,0.27656331,0.77648754,-0.22907263,-0.47361267,0.84751888,0.39980467,0.04567174,0.24342602,-0.77285576,0.23985383,-0.44410184,-0.84330824,0.39447122,-0.03017786
0.22000000,0.27656331,0.77648754,-0.22907263,-0.47361267,0.84751888,0.39980467,0.04567174,0.24342602,-0.77285576,0.23985383,-0.44410184,-0.84330824,0.39447122,-0.03017786
0.24000000,0.27656331,0.77648754,-0.22907263,-0.47361267,0.84751888,0.39980467,0.04567174,0.24342602,-0.77285576,0.23985383,-0.44410184,-0.84330824,0.39447122,-0.03017786
0.26000000,0.27656331,0.77648754,-0.22907263,-0.47361267,0.84751888,0.39980467,0.04567174,0.24342602,-0.77285576,0.23985383,-0.44410184,-0.84330824,0.39447122,-0.03017786
0.28000000,0.27656331,0.77648754,-0.22907263,-0.47361267,0.84751888,0.39980467,0.04567174,0.24342602,-0.77285576,0.23985383,-0.44410184,-0.84330824,0.39447122,-0.03017786
0.30000000,0.27656331,0.77648754,-0.22907263,-0.47361267,0.84751888,0.39980467,0.04567174,0.24342602,-0.77285576,0.23985383,-0.44410184,-0.84330824,0.39447122,-0.03017786
0.32000000,0.27656331,0.77648754,-0.22907263,-0.47361267,0.84751888,0.39980467,0.04567174,0.24342602,-0.77285576,0.23985383,-0.44410184,-0.84330824,0.39447122,-0.03017786
0.34000000,0.27656331,0.77648754,-0.22907263,-0.47361267,0.84751888,0.39980467,0.04567174,0.24342602,-0.77285576,0.23985383,-0.44410184,-0.84330824,0.39447122,-0.03017786
0.36000000,0.27656331,0.77648754,-0.22907263,-0.47361267,0.84751888,0.39980467,0.04567174,0.24342602,-0.77285576,0.23985383,-0.44410184,-0.84330824,0.39447122,-0.03017786
0.38000000,0.27656331,0.77648754,-0.22907263,-0.47361267,0.84751888,0.39980467,0.04567174,0.24342602,-0.77285576,0.23985383,-0.44410184,-0.84330824,0.39447122,-0.03017786
0.40000000,0.27656331,0.77648754,-0.22907263,-0.47361267,0.84751888,0.39980467,0.04567174,0.24342602,-0.77285576,0.23985383,-0.44410184,-0.84330824,0.39447122,-0.03017786
0.42000000,0.27656331,0.77648754,-0.22907263,-0.47361267,0.84751888,0.39980467,0.04567174,0.24342602,-0.77285576,0.23985383,-0.44410184,-0.84330824,0.39447122,-0.03017786
0.44000000,0.27656331,0.77648754,-0.22907263,-0.47361267,0.84751888,0.39980467,0.04567174,0.24342602,-0.77285576,0.23985383,-0.44410184,-0.84330824,0.39447122,-0.03017786
0.46000000,0.27656331,0.77648754,-0.22907263,-0.47361267,0.84751888,0.39980467,0.04567174,0.24342602,-0.77285576,0.23985383,-0.44410184,-0.84330824,0.39447122,-0.03017786
0.48000000,0.27656331,0.77648754,-0.22907263,-0.47361267,0.84751888,0.39980467,0.04567174,0.24342602,-0.77285576,0.23985383,-0.44410184,-0.84330824,0.39447122,-0.03017786
0.50000000,0.27656331,0.77648754,-0.22907263,-0.47361267,0.84751888,0.39980467,0.04567174,0.24342602,-0.77285576,0.23985383,-0.44410184,-0.84330824,0.39447122,-0.03017786
0.52000000,0.27656331,0.77648754,-0.22907263,-0.47361267,0.84751888,0.39980467,0.04567174,0.24342602,-0.77285576,0.23985383,-0.44410184,-0.84330824,0.39447122,-0.03017786
0.54000000,0.27656331,0.77648754,-0.22907263,-0.47361267,0.84751888,0.39980467,0.04567174,0.24342602,-0.77285576,0.23985383,-0.44410184,-0.84330824,0.39447122,-0.03017786
0.56000000,0.27656331,0.77648754,-0.22907263,-0.47361267,0.84751888,0.39980467,0.04567174,0.24342602,-0.77285576,0.23985383,-0.44410184,-0.84330824,0.39447122,-0.03017786
0.58000000,0.27656331,0.77648754,-0.22907263,-0.47361267,0.84751888,0.39980467,0.04567174,0.24342602,-0.77285576,0.23985383,-0.44410184,-0.84330824,0.39447122,-0.03017786
0.60000000,0.27656331,0.77648754,-0.22907263,-0.47361267,0.84751888,0.39980467,0.04567174,0.24342602,-0.77285576,0.23985383,-0.44410184,-0.84330824,0.39447122,-0.03017786
0.62000000,0.27656331,0.77648754,-0.22907263,-0.47361267,0.84751888,0.39980467,0.04567174,0.24342602,-0.77285576,0.23985383,-0.44410184,-0.84330824,0.39447122,-0.03017786
0.64000000,0.27656331,0.77648754,-0.22907263,-0.47361267,0.84751888,0.39980467,0.04567174,0.24342602,-0.77285576,0.23985383,-0.44410184,-0.84330824,0.39447122,-0.03017786
0.66000000,0.27656331,0.77648754,-0.22907263,-0.47361267,0.84751888,0.39980467,0.04567174,0.24342602,-0.77285576,0.23985383,-0.44410184,-0.84330824,0.39447122,-0.03017786
0.68000000,0.27656331,0.77648754,-0.22907263,-0.47361267,0.84751888,0.39980467,0.04567174,0.24342602,-0.77285576,0.23985383,-0.44410184,-0.84330824,0.39447122,-0.03017786
0.70000000,0.27656331,0.77648754,-0.22907263,-0.47361267,0.84751888,0.39980467,0.04567174,0.24342602,-0.77285576,0.23985383,-0.44410184,-0.84330824,0.39447122,-0.03017786
0.72000000,0.27656331,0.77648754,-0.22907263,-0.47361267,0.84751888,0.39980467,0.04567174,0.24342602,-0.77285576,0.23985383,-0.44410184,-0.84330824,0.39447122,-0.03017786
0.74000000,0.27656331,0.77648754,-0.22907263,-0.47361267,0.84751888,0.39980467,0.04567174,0.24342602,-0.77285576,0.23985383,-0.44410184,-0.84330824,0.39447122,-0.03017786
0.76000000,0.27656331,0.77648754,-0.22907263,-0.47361267,0.84751888,0.39980467,0.04567174,0.24342602,-0.77285576,0.23985383,-0.44410184,-0.84330824,0.39447122,-0.03017786
0.78000000,0.27656331,0.77648754,-0.22907263,-0.47361267,0.84751888,0.39980467,0.04567174,0.24342602,-0.77285576,0.23985383,-0.44410184,-0.84330824,0.39447122,-0.03017786
0.80000000,0.27656331,0.77648754,-0.22907263,-0.47361267,0.84751888,0.39980467,0.04567174,0.24342602,-0.77285576,0.23985383,-0.44410184,-0.84330824,0.39447122,-0.03017786
0.82000000,0.27656331,0.77648754,-0.22907263,-0.47361267,0.84751888,0.39980467,0.04567174,0.24342602,-0.77285576,0.23985383,-0.44410184,-0.84330824,0.39447122,-0.03017786
0.84000000,0.27656331,0.77648754,-0.22907263,-0.47361267,0.84751888,0.39980467,0.04567174,0.24342602,-0.77285576,0.23985383,-0.44410184,-0.84330824,0.39447122,-0.03017786
0.86000000,0.27656331,0.77648754,-0.22907263,-0.47361267,0.84751888,0.39980467,0.04567174,0.24342602,-0.77285576,0.23985383,-0.44410184,-0.84330824,0.39447122,-0.03017786
0.88000000,0.27656331,0.77648754,-0.22907263,-0.47361267,0.84751888,0.39980467,0.04567174,0.24342602,-0.77285576,0.23985383,-0.44410184,-0.84330824,0.39447122,-0.03017786
0.90000000,0.27656331,0.77648754,-0.22907263,-0.47361267,0.84751888,0.39980467,0.04567174,0.24342602,-0.77285576,0.23985383,-0.44410184,-0.84330824,0.39447122,-0.03017786
0.92000000,0.27656331,0.77648754,-0.22907263,-0.47361267,0.84751888,0.39980467,0.04567174,0.24342602,-0.77285576,0.23985383,-0.44410184,-0.84330824,0.39447122,-0.03017786
0.94000000,0.27656331,0.77648754,-0.22907263,-0.47361267,0.84751888,0.39980467,0.04567174,0.24342602,-0.77285576,0.23985383,-0.44410184,-0.84330824,0.39447122,-0.03017786
0.96000000,0.27656331,0.77648754,-0.22907263,-0.47361267,0.84751888,0.39980467,0.04567174,0.24342602,-0.77285576,0.23985383,-0.44410184,-0.84330824,0.39447122,-0.03017786
0.98000000,0.27656331,0.77648754,-0.22907263,-0.47361267,0.84751888,0.39980467,0.04567174,0.24342602,-0.77285576,0.23985383,-0.44410184,-0.84330824,0.39447122,-0.03017786
1.00000000,0.27656331,0.77648754,-0.22907263,-0.47361267,0.84751888,0.39980467,0.04567174,0.24342602,-0.77285576,0.23985383,-0.44410184,-0.84330824,0.39447122,-0.03017786
1.02000000,0.27656331,0.77648754,-0.22907263,-0.47361267,0.84751888,0.39980467,0.04567174,0.24342602,-0.77285576,0.23985383,-0.44410184,-0.84330824,0.39447122,-0.03017786
1.04000000,0.27656331,0.77648754,-0.22907263,-0.47361267,0.84751888,0.39980467,0.04567174,0.24342602,-0.77285576,0.23985383,-0.44410184,-0.84330824,0.39447122,-0.03017786
1.06000000,0.27656331,0.77648754,-0.22907263,-0.47361267,0.84751888,0.39980467,0.04567174,0.24342602,-0.77285576,0.23985383,-0.44410184,-0.84330824,0.39447122,-0.03017786
1.08000000,0.27656331,0.77648754,-0.22907263,-0.47361267,0.84751888,0.39980467,0.04567174,0.24342602,-0.77285576,0.23985383,-0.44410184,-0.84330824,0.39447122,-0.03017786
1.10000000,0.27656331,0.77648754,-0.22907263,-0.47361267,0.84751888,0.39980467,0.04567174,0.24342602,-0.77285576,0.23985383,-0.44410184,-0.84330824,0.39447122,-0.03017786
1.12000000,0.27656331,0.77648754,-0.22907263,-0.47361267,0.84751888,0.39980467,0.04567174,0.24342602,-0.77285576,0.23985383,-0.44410184,-0.84330824,0.39447122,-0.03017786
1.14000000,0.27656331,0.77648754,-0.22907263,-0.47361267,0.84751888,0.39980467,0.04567174,0.24342602,-0.77285576,0.23985383,-0.44410184,-0.84330824,0.39447122,-0.03017786
1.16000000,0.27656331,0.77648754,-0.22907263,-0.47361267,0.84751888,0.39980467,0.04567174,0.24342602,-0.77285576,0.23985383,-0.44410184,-0.84330824,0.39447122,-0.03017786
1.18000000,0.27656331,0.77648754,-0.22907263,-0.47361267,0.84751888,0.39980467,0.04567174,0.24342602,-0.77285576,0.23985383,-0.44410184,-0.84330824,0.39447122,-0.03017786
1.20000000,0.27656331,0.77648754,-0.22907263,-0.47361267,0.84751888,0.39980467,0.04567174,0.24342602,-0.77285576,0.23985383,-0.44410184,-0.84330824,0.39447122,-0.03017786
1.22000000,0.27656331,0.77648754,-0.22907263,-0.47361267,0.84751888,0.39980467,0.04567174,0.24342602,-0.77285576,0.23985383,-0.44410184,-0.84330824,0.39447122,-0.03017786
1.24000000,0.27656331,0.77648754,-0.22907263,-0.47361267,0.84751888,0.39980467,0.04567174,0.24342602,-0.77285576,0.23985383,-0.44410184,-0.84330824,0.39447122,-0.03017786
1.26000000,0.27656331,0.77648754,-0.22907263,-0.47361267,0.84751888,0.39980467,0.04567174,0.24342602,-0.77285576,0.23985383,-0.44410184,-0.84330824,0.39447122,-0.03017786
1.28000000,0.27656331,0.77648754,-0.22907263,-0.47361267,0.84751888,0.39980467,0.04567174,0.24342602,-0.77285576,0.23985383,-0.44410184,-0.84330824,0.39447122,-0.03017786
1.30000000,0.27656331,0.77648754,-0.22907263,-0.47361267,0.84751888,0.39980467,0.04567174,0.24342602,-0.77285576,0.23985383,-0.44410184,-0.84330824,0.39447122,-0.03017786
1.32000000,0.27656331,0.77648754,-0.22907263,-0.47361267,0.84751888,0.39980467,0.04567174,0.24342602,-0.77285576,0.23985383,-0.44410184,-0.84330824,0.39447122,-0.03017786
1.34000000,0.27656331,0.77648754,-0.22907263,-0.47361267,0.84751888,0.39980467,0.04567174,0.24342602,-0.77285576,0.23985383,-0.44410184,-0.84330824,0.39447122,-0.03017786
1.36000000,0.27656331,0.77648754,-0.22907263,-0.47361267,0.84751888,0.39980467,0.04567174,0.24342602,-0.77285576,0.23985383,-0.44410184,-0.84330824,0.39447122,-0.03017786
1.38000000,0.27656331,0.77648754,-0.22907263,-0.47361267,0.84751888,0.39980467,0.04567174,0.24342602,-0.77285576,0.23985383,-0.44410184,-0.84330824,0.39447122,-0.03017786
1.40000000,0.27656331,0.77648754,-0.22907263,-0.47361267,0.84751888,0.39980467,0.04567174,0.24342602,-0.77285576,0.23985383,-0.44410184,-0.84330824,0.39447122,-0.03017786
1.42000000,0.27656331,0.77648754,-0.22907263,-0.47361267,0.84751888,0.39980467,0.04567174,0.24342602,-0.77285576,0.23985383,-0.44410184,-0.84330824,0.39447122,-0.03017786
1.44000000,0.27656331,0.77648754,-0.22907263,-0.47361267,0.84751888,0.39980467,0.04567174,0.24342602,-0.77285576,0.23985383,-0.44410184,-0.84330824,0.39447122,-0.03017786
1.46000000,0.27656331,0.77648754,-0.22907263,-0.47361267,0.84751888,0.39980467,0.04567174,0.24342602,-0.77285576,0.23985383,-0.44410184,-0.84330824,0.39447122,-0.03017786
1.48000000,0.27656331,0.77648754,-0.22907263,-0.47361267,0.84751888,0.39980467,0.04567174,0.24342602,-0.77285576,0.23985383,-0.44410184,-0.84330824,0.39447122,-0.03017786
1.50000000,0.27656331,0.77648754,-0.22907263,-0.47361267,0.84751888,0.39980467,0.04567174,0.24342602,-0.77285576,0.23985383,-0.44410184,-0.84330824,0.39447122,-0.03017786
1.52000000,0.27656331,0.77648754,-0.22907263,-0.47361267,0.84751888,0.39980467,0.04567174,0.24342602,-0.77285576,0.23985383,-0.44410184,-0.84330824,0.39447122,-0.03017786
1.54000000,0.27656331,0.77648754,-0.22907263,-0.47361267,0.84751888,0.39980467,0.04567174,0.24342602,-0.77285576,0.23985383,-0.44410184,-0.84330824,0.39447122,-0.03017786
1.56000000,0.27656331,0.77648754,-0.22907263,-0.47361267,0.84751888,0.39980467,0.04567174,0.24342602,-0.77285576,0.23985383,-0.44410184,-0.84330824,0.39447122,-0.03017786
1.58000000,0.27656331,0.77648754,-0.22907263,-0.47361267,0.84751888,0.39980467,0.04567174,0.24342602,-0.77285576,0.23985383,-0.44410184,-0.84330824,0.39447122,-0.03017786
1.60000000,0.27656331,0.77648754,-0.22907263,-0.47361267,0.84751888,0.39980467,0.04567174,0.24342602,-0.77285576,0.23985383,-0.44410184,-0.84330824,0.39447122,-0.03017786
1.62000000,0.27656331,0.77648754,-0.22907263,-0.47361267,0.84751888,0.39980467,0.04567174,0.24342602,-0.77285576,0.23985383,-0.44410184,-0.84330824,0.39447122,-0.03017786
1.64000000,0.27656331,0.77648754,-0.22907263,-0.47361267,0.84751888,0.39980467,0.04567174,0.24342602,-0.77285576,0.23985383,-0.44410184,-0.84330824,0.39447122,-0.03017786
1.66000000,0.27656331,0.77648754,-0.22907263,-0.47361267,0.84751888,0.39980467,0.04567174,0.24342602,-0.77285576,0.23985383,-0.44410184,-0.84330824,0.39447122,-0.03017786
1.68000000,0.27656331,0.77648754,-0.22907263,-0.47361267,0.84751888,0.39980467,0.04567174,0.24342602,-0.77285576,0.23985383,-0.44410184,-0.84330824,0.39447122,-0.03017786
1.70000000,0.27656331,0.77648754,-0.22907263,-0.47361267,0.84751888,0.39980467,0.04567174,0.24342602,-0.77285576,0.23985383,-0.44410184,-0.84330824,0.39447122,-0.03017786
1.72000000,0.27656331,0.77648754,-0.22907263,-0.47361267,0.84751888,0.39980467,0.04567174,0.24342602,-0.77285576,0.23985383,-0.44410184,-0.84330824,0.39447122,-0.03017786
1.74000000,0.27656331,0.77648754,-0.22907263,-0.47361267,0.84751888,0.39980467,0.04567174,0.24342602,-0.77285576,0.23985383,-0.44410184,-0.84330824,0.39447122,-0.03017786
1.76000000,0.27656331,0.77648754,-0.22907263,-0.47361267,0.84751888,0.39980467,0.04567174,0.24342602,-0.77285576,0.23985383,-0.44410184,-0.84330824,0.39447122,-0.03017786
1.78000000,0.27656331,0.77648754,-0.22907263,-0.47361267,0.84751888,0.39980467,0.04567174,0.24342602,-0.77285576,0.23985383,-0.44410184,-0.84330824,0.39447122,-0.03017786
1.80000000,0.27656331,0.77648754,-0.22907263,-0.47361267,0.84751888,0.39980467,0.04567174,0.24342602,-0.77285576,0.23985383,-0.44410184,-0.84330824,0.39447122,-0.03017786
1.82000000,0.27656331,0.77648754,-0.22907263,-0.47361267,0.84751888,0.39980467,0.04567174,0.24342602,-0.77285576,0.23985383,-0.44410184,-0.84330824,0.39447122,-0.03017786
1.84000000,0.27656331,0.77648754,-0.22907263,-0.47361267,0.84751888,0.39980467,0.04567174,0.24342602,-0.77285576,0.23985383,-0.44410184,-0.84330824,0.39447122,-0.03017786
1.86000000,0.27656331,0.77648754,-0.22907263,-0.47361267,0.84751888,0.39980467,0.04567174,0.24342602,-0.77285576,0.23985383,-0.44410184,-0.84330824,0.39447122,-0.03017786
1.88000000,0.27656331,0.77648754,-0.22907263,-0.47361267,0.84751888,0.39980467,0.04567174,0.24342602,-0.77285576,0.23985383,-0.44410184,-0.84330824,0.39447122,-0.03017786
1.90000000,0.27656331,0.77648754,-0.22907263,-0.47361267,0.84751888,0.39980467,0.04567174,0.24342602,-0.77285576,0.23985383,-0.44410184,-0.84330824,0.39447122,-0.03017786
1.92000000,0.27656331,0.77648754,-0.22907263,-0.47361267,0.84751888,0.39980467,0.04567174,0.24342602,-0.77285576,0.23985383,-0.44410184,-0.84330824,0.39447122,-0.03017786
1.94000000,0.27656331,0.77648754,-0.22907263,-0.47361267,0.84751888,0.39980467,0.04567174,0.24342602,-0.77285576,0.23985383,-0.44410184,-0.84330824,0.39447122,-0.03017786
1.96000000,0.27656331,0.77648754,-0.22907263,-0.47361267,0.84751888,0.39980467,0.04567174,0.24342602,-0.77285576,0.23985383,-0.44410184,-0.84330824,0.39447122,-0.03017786
1.98000000,0.27656331,0.77648754,-0.22907263,-0.47361267,0.84751888,0.39980467,0.04567174,0.24342602,-0.77285576,0.23985383,-0.44410184,-0.84330824,0.39447122,-0.03017786
2.00000000,0.27656331,0.77648754,-0.22907263,-0.47361267,0.84751888,0.39980467,0.04567174,0.24342602,-0.77285576,0.23985383,-0.44410184,-0.84330824,0.39447122,-0.03017786
2.02000000,0.27656331,0.77648754,-0.22907263,-0.47361267,0.84751888,0.39980467,0.04567174,0.24342602,-0.77285576,0.23985383,-0.44410184,-0.84330824,0.39447122,-0.03017786
2.04000000,0.27656331,0.77648754,-0.22907263,-0.47361267,0.84751888,0.39980467,0.04567174,0.24342602,-0.77285576,0.23985383,-0.44410184,-0.84330824,0.39447122,-0.03017786
2.06000000,0.27656331,0.77648754,-0.22907263,-0.47361267,0.84751888,0.39980467,0.04567174,0.24342602,-0.77285576,0.23985383,-0.44410184,-0.84330824,0.39447122,-0.03017786
2.08000000,0.27656331,0.77648754,-0.22907263,-0.47361267,0.84751888,0.39980467,0.04567174,0.24342602,-0.77285576,0.23985383,-0.44410184,-0.84330824,0.39447122,-0.03017786
2.10000000,0.27656331,0.77648754,-0.22907263,-0.47361267,0.84751888,0.39980467,0.04567174,0.24342602,-0.77285576,0.23985383,-0.44410184,-0.84330824,0.39447122,-0.03017786
2.12000000,0.27656331,0.77648754,-0.22907263,-0.47361267,0.84751888,0.39980467,0.04567174,0.24342602,-0.77285576,0.23985383,-0.44410184,-0.84330824,0.39447122,-0.03017786
2.14000000,0.27656331,0.77648754,-0.22907263,-0.47361267,0.84751888,0.39980467,0.04567174,0.24342602,-0.77285576,0.23985383,-0.44410184,-0.84330824,0.39447122,-0.03017786
2.16000000,0.27656331,0.77648754,-0.22907263,-0.47361267,0.84751888,0.39980467,0.04567174,0.24342602,-0.77285576,0.23985383,-0.44410184,-0.84330824,0.39447122,-0.03017786
2.18000000,0.27656331,0.77648754,-0.22907263,-0.47361267,0.84751888,0.39980467,0.04567174,0.24342602,-0.77285576,0.23985383,-0.44410184,-0.84330824,0.39447122,-0.03017786
2.20000000,0.27656331,0.77648754,-0.22907263,-0.47361267,0.84751888,0.39980467,0.04567174,0.24342602,-0.77285576,0.23985383,-0.44410184,-0.84330824,0.39447122,-0.03017786
2.22000000,0.27656331,0.77648754,-0.22907263,-0.47361267,0.84751888,0.39980467,0.04567174,0.24342602,-0.77285576,0.23985383,-0.44410184,-0.84330824,0.39447122,-0.03017786
2.24000000,0.27656331,0.77648754,-0.22907263,-0.47361267,0.84751888,0.39980467,0.04567174,0.24342602,-0.77285576,0.23985383,-0.44410184,-0.84330824,0.39447122,-0.03017786
2.26000000,0.27656331,0.77648754,-0.22907263,-0.47361267,0.84751888,0.39980467,0.04567174,0.24342602,-0.77285576,0.23985383,-0.44410184,-0.84330824,0.39447122,-0.03017786
2.28000000,0.27656331,0.77648754,-0.22907263,-0.47361267,0.84751888,0.39980467,0.04567174,0.24342602,-0.77285576,0.23985383,-0.44410184,-0.84330824,0.39447122,-0.03017786
2.30000000,0.27656331,0.77648754,-0.22907263,-0.47361267,0.84751888,0.39980467,0.04567174,0.24342602,-0.77285576,0.23985383,-0.44410184,-0.84330824,0.39447122,-0.03017786
2.32000000,0.27656331,0.77648754,-0.22907263,-0.47361267,0.84751888,0.39980467,0.04567174,0.24342602,-0.77285576,0.23985383,-0.44410184,-0.84330824,0.39447122,-0.03017786
2.34000000,0.27656331,0.77648754,-0.22907263,-0.47361267,0.84751888,0.39980467,0.04567174,0.24342602,-0.77285576,0.23985383,-0.44410184,-0.84330824,0.39447122,-0.03017786
2.36000000,0.27656331,0.77648754,-0.22907263,-0.47361267,0.84751888,0.39980467,0.04567174,0.24342602,-0.77285576,0.23985383,-0.44410184,-0.84330824,0.39447122,-0.03017786
2.38000000,0.27656331,0.77648754,-0.22907263,-0.47361267,0.84751888,0.39980467,0.04567174,0.24342602,-0.77285576,0.23985383,-0.44410184,-0.84330824,0.39447122,-0.03017786
2.40000000,0.27656331,0.77648754,-0.22907263,-0.47361267,0.84751888,0.39980467,0.04567174,0.24342602,-0.77285576,0.23985383,-0.44410184,-0.84330824,0.39447122,-0.03017786
2.42000000,0.27656331,0.77648754,-0.22907263,-0.47361267,0.84751888,0.39980467,0.04567174,0.24342602,-0.77285576,0.23985383,-0.44410184,-0.84330824,0.39447122,-0.03017786
2.44000000,0.27656331,0.77648754,-0.22907263,-0.47361267,0.84751888,0.39980467,0.04567174,0.24342602,-0.77285576,0.23985383,-0.44410184,-0.84330824,0.39447122,-0.03017786
2.46000000,0.27656331,0.77648754,-0.22907263,-0.47361267,0.84751888,0.39980467,0.04567174,0.24342602,-0.77285576,0.23985383,-0.44410184,-0.84330824,0.39447122,-0.03017786
2.48000000,0.27656331,0.77648754,-0.22907263,-0.47361267,0.84751888,0.39980467,0.04567174,0.24342602,-0.77285576,0.23985383,-0.44410184,-0.84330824,0.39447122,-0.03017786
2.50000000,0.27656331,0.77648754,-0.22907263,-0.47361267,0.84751888,0.39980467,0.04567174,0.24342602,-0.77285576,0.23985383,-0.44410184,-0.84330824,0.39447122,-0.03017786
2.52000000,0.27656331,0.77648754,-0.22907263,-0.47361267,0.84751888,0.39980467,0.04567174,0.24342602,-0.77285576,0.23985383,-0.44410184,-0.84330824,0.39447122,-0.03017786
2.54000000,0.27656331,0.77648754,-0.22907263,-0.47361267,0.84751888,0.39980467,0.04567174,0.24342602,-0.77285576,0.23985383,-0.44410184,-0.84330824,0.39447122,-0.03017786
2.56000000,0.27656331,0.77648754,-0.22907263,-0.47361267,0.84751888,0.39980467,0.04567174,0.24342602,-0.77285576,0.23985383,-0.44410184,-0.84330824,0.39447122,-0.03017786
2.58000000,0.27656331,0.77648754,-0.22907263,-0.47361267,0.84751888,0.39980467,0.04567174,0.24342602,-0.77285576,0.23985383,-0.44410184,-0.84330824,0.39447122,-0.03017786
2.60000000,0.27656331,0.77648754,-0.22907263,-0.47361267,0.84751888,0.39980467,0.04567174,0.24342602,-0.77285576,0.23985383,-0.44410184,-0.84330824,0.39447122,-0.03017786
2.62000000,0.27656331,0.77648754,-0.22907263,-0.47361267,0.84751888,0.39980467,0.04567174,0.24342602,-0.77285576,0.23985383,-0.44410184,-0.84330824,0.39447122,-0.03017786
2.64000000,0.27656331,0.77648754,-0.22907263,-0.47361267,0.84751888,0.39980467,0.04567174,0.24342602,-0.77285576,0.23985383,-0.44410184,-0.84330824,0.39447122,-0.03017786
2.66000000,0.27656331,0.77648754,-0.22907263,-0.47361267,0.84751888,0.39980467,0.04567174,0.24342602,-0.77285576,0.23985383,-0.44410184,-0.84330824,0.39447122,-0.03017786
2.68000000,0.27656331,0.77648754,-0.22907263,-0.47361267,0.84751888,0.39980467,0.04567174,0.24342602,-0.77285576,0.23985383,-0.44410184,-0.84330824,0.39447122,-0.03017786
2.70000000,0.27656331,0.77648754,-0.22907263,-0.47361267,0.84751888,0.39980467,0.04567174,0.24342602,-0.77285576,0.23985383,-0.44410184,-0.84330824,0.39447122,-0.03017786
2.72000000,0.27656331,0.77648754,-0.22907263,-0.47361267,0.84751888,0.39980467,0.04567174,0.24342602,-0.77285576,0.23985383,-0.44410184,-0.84330824,0.39447122,-0.03017786
2.74000000,0.27656331,0.77648754,-0.22907263,-0.47361267,0.84751888,0.39980467,0.04567174,0.24342602,-0.77285576,0.23985383,-0.44410184,-0.84330824,0.39447122,-0.03017786
2.76000000,0.27656331,0.77648754,-0.22907263,-0.47361267,0.84751888,0.39980467,0.04567174,0.24342602,-0.77285576,0.23985383,-0.44410184,-0.84330824,0.39447122,-0.03017786
2.78000000,0.27656331,0.77648754,-0.22907263,-0.47361267,0.84751888,0.39980467,0.04567174,0.24342602,-0.77285576,0.23985383,-0.44410184,-0.84330824,0.39447122,-0.03017786
2.80000000,0.27656331,0.77648754,-0.22907263,-0.47361267,0.84751888,0.39980467,0.04567174,0.24342602,-0.77285576,0.23985383,-0.44410184,-0.84330824,0.39447122,-0.03017786
2.82000000,0.27656331,0.77648754,-0.22907263,-0.47361267,0.84751888,0.39980467,0.04567174,0.24342602,-0.77285576,0.23985383,-0.44410184,-0.84330824,0.39447122,-0.03017786
2.84000000,0.27656331,0.77648754,-0.22907263,-0.47361267,0.84751888,0.39980467,0.04567174,0.24342602,-0.77285576,0.23985383,-0.44410184,-0.84330824,0.39447122,-0.03017786
2.86000000,0.27656331,0.77648754,-0.22907263,-0.47361267,0.84751888,0.39980467,0.04567174,0.24342602,-0.77285576,0.23985383,-0.44410184,-0.84330824,0.39447122,-0.03017786
2.88000000,0.27656331,0.77648754,-0.22907263,-0.47361267,0.84751888,0.39980467,0.04567174,0.24342602,-0.77285576,0.23985383,-0.44410184,-0.84330824,0.39447122,-0.03017786
2.90000000,0.27656331,0.77648754,-0.22907263,-0.47361267,0.84751888,0.39980467,0.04567174,0.24342602,-0.77285576,0.23985383,-0.44410184,-0.84330824,0.39447122,-0.03017786
2.92000000,0.27656331,0.77648754,-0.22907263,-0.47361267,0.84751888,0.39980467,0.04567174,0.24342602,-0.77285576,0.23985383,-0.44410184,-0.84330824,0.39447122,-0.03017786
2.94000000,0.27656331,0.77648754,-0.22907263,-0.47361267,0.84751888,0.39980467,0.04567174,0.24342602,-0.77285576,0.23985383,-0.44410184,-0.84330824,0.39447122,-0.03017786
2.96000000,0.27656331,0.77648754,-0.22907263,-0.47361267,0.84751888,0.39980467,0.04567174,0.24342602,-0.77285576,0.23985383,-0.44410184,-0.84330824,0.39447122,-0.03017786
2.98000000,0.27656331,0.77648754,-0.22907263,-0.47361267,0.84751888,0.39980467,0.04567174,0.24342602,-0.77285576,0.23985383,-0.44410184,-0.84330824,0.39447122,-0.03017786
3.00000000,0.27656331,0.77648754,-0.22907263,-0.47361267,0.84751888,0.39980467,0.04567174,0.24342602,-0.77285576,0.23985383,-0.44410184,-0.84330824,0.39447122,-0.03017786
3.02000000,0.27656331,0.77648754,-0.22907263,-0.47361267,0.84751888,0.39980467,0.04567174,0.24342602,-0.77285576,0.23985383,-0.44410184,-0.84330824,0.39447122,-0.03017786
3.04000000,0.27656331,0.77648754,-0.22907263,-0.47361267,0.84751888,0.39980467,0.04567174,0.24342602,-0.77285576,0.23985383,-0.44410184,-0.84330824,0.39447122,-0.03017786
3.06000000,0.27656331,0.77648754,-0.22907263,-0.47361267,0.84751888,0.39980467,0.04567174,0.24342602,-0.77285576,0.23985383,-0.44410184,-0.84330824,0.39447122,-0.03017786
3.08000000,0.27656331,0.77648754,-0.22907263,-0.47361267,0.84751888,0.39980467,0.04567174,0.24342602,-0.77285576,0.23985383,-0.44410184,-0.84330824,0.39447122,-0.03017786
3.10000000,0.27656331,0.77648754,-0.22907263,-0.47361267,0.84751888,0.39980467,0.04567174,0.24342602,-0.77285576,0.23985383,-0.44410184,-0.84330824,0.39447122,-0.03017786
3.12000000,0.27656331,0.77648754,-0.22907263,-0.47361267,0.84751888,0.39980467,0.04567174,0.24342602,-0.77285576,0.23985383,-0.44410184,-0.84330824,0.39447122,-0.03017786
3.14000000,0.27656331,0.77648754,-0.22907263,-0.47361267,0.84751888,0.39980467,0.04567174,0.24342602,-0.77285576,0.23985383,-0.44410184,-0.84330824,0.39447122,-0.03017786
3.16000000,0.27656331,0.77648754,-0.22907263,-0.47361267,0.84751888,0.39980467,0.04567174,0.24342602,-0.77285576,0.23985383,-0.44410184,-0.84330824,0.39447122,-0.03017786
3.18000000,0.27656331,0.77648754,-0.22907263,-0.47361267,0.84751888,0.39980467,0.04567174,0.24342602,-0.77285576,0.23985383,-0.44410184,-0.84330824,0.39447122,-0.03017786
3.20000000,0.27656331,0.77648754,-0.22907263,-0.47361267,0.84751888,0.39980467,0.04567174,0.24342602,-0.77285576,0.23985383,-0.44410184,-0.84330824,0.39447122,-0.03017786
3.22000000,0.27656331,0.77648754,-0.22907263,-0.47361267,0.84751888,0.39980467,0.04567174,0.24342602,-0.77285576,0.23985383,-0.44410184,-0.84330824,0.39447122,-0.03017786
3.24000000,0.27656331,0.77648754,-0.22907263,-0.47361267,0.84751888,0.39980467,0.04567174,0.24342602,-0.77285576,0.23985383,-0.44410184,-0.84330824,0.39447122,-0.03017786
3.26000000,0.27656331,0.77648754,-0.22907263,-0.47361267,0.84751888,0.39980467,0.04567174,0.24342602,-0.77285576,0.23985383,-0.44410184,-0.84330824,0.39447122,-0.03017786
3.28000000,0.27656331,0.77648754,-0.22907263,-0.47361267,0.84751888,0.39980467,0.04567174,0.24342602,-0.77285576,0.23985383,-0.44410184,-0.84330824,0.39447122,-0.03017786
3.30000000,0.27656331,0.77648754,-0.22907263,-0.47361267,0.84751888,0.39980467,0.04567174,0.24342602,-0.77285576,0.23985383,-0.44410184,-0.84330824,0.39447122,-0.03017786
3.32000000,0.27656331,0.77648754,-0.22907263,-0.47361267,0.84751888,0.39980467,0.04567174,0.24342602,-0.77285576,0.23985383,-0.44410184,-0.84330824,0.39447122,-0.03017786
3.34000000,0.27656331,0.77648754,-0.22907263,-0.47361267,0.84751888,0.39980467,0.04567174,0.24342602,-0.77285576,0.23985383,-0.44410184,-0.84330824,0.39447122,-0.03017786
3.36000000,0.27656331,0.77648754,-0.22907263,-0.47361267,0.84751888,0.39980467,0.04567174,0.24342602,-0.77285576,0.23985383,-0.44410184,-0.84330824,0.39447122,-0.03017786
3.38000000,0.27656331,0.77648754,-0.22907263,-0.47361267,0.84751888,0.39980467,0.04567174,0.24342602,-0.77285576,0.23985383,-0.44410184,-0.84330824,0.39447122,-0.03017786
3.40000000,0.27656331,0.77648754,-0.22907263,-0.47361267,0.84751888,0.39980467,0.04567174,0.24342602,-0.77285576,0.23985383,-0.44410184,-0.84330824,0.39447122,-0.03017786
3.42000000,0.27656331,0.77648754,-0.22907263,-0.47361267,0.84751888,0.39980467,0.04567174,0.24342602,-0.77285576,0.23985383,-0.44410184,-0.84330824,0.39447122,-0.03017786
3.44000000,0.27656331,0.77648754,-0.22907263,-0.47361267,0.84751888,0.39980467,0.04567174,0.24342602,-0.77285576,0.23985383,-0.44410184,-0.84330824,0.39447122,-0.03017786
3.46000000,0.27656331,0.77648754,-0.22907263,-0.47361267,0.84751888,0.39980467,0.04567174,0.24342602,-0.77285576,0.23985383,-0.44410184,-0.84330824,0.39447122,-0.03017786
3.48000000,0.27656331,0.77648754,-0.22907263,-0.47361267,0.84751888,0.39980467,0.04567174,0.24342602,-0.77285576,0.23985383,-0.44410184,-0.84330824,0.39447122,-0.03017786
3.50000000,0.27656331,0.77648754,-0.22907263,-0.47361267,0.84751888,0.39980467,0.04567174,0.24342602,-0.77285576,0.23985383,-0.44410184,-0.84330824,0.39447122,-0.03017786
3.52000000,0.27656331,0.77648754,-0.22907263,-0.47361267,0.84751888,0.39980467,0.04567174,0.24342602,-0.77285576,0.23985383,-0.44410184,-0.84330824,0.39447122,-0.03017786
3.54000000,0.27656331,0.77648754,-0.22907263,-0.47361267,0.84751888,0.39980467,0.04567174,0.24342602,-0.77285576,0.23985383,-0.44410184,-0.84330824,0.39447122,-0.03017786
3.56000000,0.27656331,0.77648754,-0.22907263,-0.47361267,0.84751888,0.39980467,0.04567174,0.24342602,-0.77285576,0.23985383,-0.44410184,-0.84330824,0.39447122,-0.03017786
3.58000000,0.27656331,0.77648754,-0.22907263,-0.47361267,0.84751888,0.39980467,0.04567174,0.24342602,-0.77285576,0.23985383,-0.44410184,-0.84330824,0.39447122,-0.03017786
3.60000000,0.27656331,0.77648754,-0.22907263,-0.47361267,0.84751888,0.39980467,0.04567174,0.24342602,-0.77285576,0.23985383,-0.44410184,-0.84330824,0.39447122,-0.03017786
3.62000000,0.27656331,0.77648754,-0.22907263,-0.47361267,0.84751888,0.39980467,0.04567174,0.24342602,-0.77285576,0.23985383,-0.44410184,-0.84330824,0.39447122,-0.03017786
3.64000000,0.27656331,0.77648754,-0.22907263,-0.47361267,0.84751888,0.39980467,0.04567174,0.24342602,-0.77285576,0.23985383,-0.44410184,-0.84330824,0.39447122,-0.03017786
3.66000000,0.27656331,0.77648754,-0.22907263,-0.47361267,0.84751888,0.39980467,0.04567174,0.24342602,-0.77285576,0.23985383,-0.44410184,-0.84330824,0.39447122,-0.03017786
3.68000000,0.27656331,0.77648754,-0.22907263,-0.47361267,0.84751888,0.39980467,0.04567174,0.24342602,-0.77285576,0.23985383,-0.44410184,-0.84330824,0.39447122,-0.03017786
3.70000000,0.27656331,0.77648754,-0.22907263,-0.47361267,0.84751888,0.39980467,0.04567174,0.24342602,-0.77285576,0.23985383,-0.44410184,-0.84330824,0.39447122,-0.03017786
3.72000000,0.27656331,0.77648754,-0.22907263,-0.47361267,0.84751888,0.39980467,0.04567174,0.24342602,-0.77285576,0.23985383,-0.44410184,-0.84330824,0.39447122,-0.03017786
3.74000000,0.27656331,0.77648754,-0.22907263,-0.47361267,0.84751888,0.39980467,0.04567174,0.24342602,-0.77285576,0.23985383,-0.44410184,-0.84330824,0.39447122,-0.03017786
3.76000000,0.27656331,0.77648754,-0.22907263,-0.47361267,0.84751888,0.39980467,0.04567174,0.24342602,-0.77285576,0.23985383,-0.44410184,-0.84330824,0.39447122,-0.03017786
3.78000000,0.27656331,0.77648754,-0.22907263,-0.47361267,0.84751888,0.39980467,0.04567174,0.24342602,-0.77285576,0.23985383,-0.44410184,-0.84330824,0.39447122,-0.03017786
3.80000000,0.27656331,0.77648754,-0.22907263,-0.47361267,0.84751888,0.39980467,0.04567174,0.24342602,-0.77285576,0.23985383,-0.44410184,-0.84330824,0.39447122,-0.03017786
3.82000000,0.27656331,0.77648754,-0.22907263,-0.47361267,0.84751888,0.39980467,0.04567174,0.24342602,-0.77285576,0.23985383,-0.44410184,-0.84330824,0.39447122,-0.03017786
3.84000000,0.27656331,0.77648754,-0.22907263,-0.47361267,0.84751888,0.39980467,0.04567174,0.24342602,-0.77285576,0.23985383,-0.44410184,-0.84330824,0.39447122,-0.03017786
3.86000000,0.27656331,0.77648754,-0.22907263,-0.47361267,0.84751888,0.39980467,0.04567174,0.24342602,-0.77285576,0.23985383,-0.44410184,-0.84330824,0.39447122,-0.03017786
3.88000000,0.27656331,0.77648754,-0.22907263,-0.47361267,0.84751888,0.39980467,0.04567174,0.24342602,-0.77285576,0.23985383,-0.44410184,-0.84330824,0.39447122,-0.03017786
3.90000000,0.27656331,0.77648754,-0.22907263,-0.47361267,0.84751888,0.39980467,0.04567174,0.24342602,-0.77285576,0.23985383,-0.44410184,-0.84330824,0.39447122,-0.03017786
3.92000000,0.27656331,0.77648754,-0.22907263,-0.47361267,0.84751888,0.39980467,0.04567174,0.24342602,-0.77285576,0.23985383,-0.44410184,-0.84330824,0.39447122,-0.03017786
3.94000000,0.27656331,0.77648754,-0.22907263,-0.47361267,0.84751888,0.39980467,0.04567174,0.24342602,-0.77285576,0.23985383,-0.44410184,-0.84330824,0.39447122,-0.03017786
3.96000000,0.27656331,0.77648754,-0.22907263,-0.47361267,0.84751888,0.39980467,0.04567174,0.24342602,-0.77285576,0.23985383,-0.44410184,-0.84330824,0.39447122,-0.03017786
3.98000000,0.27656331,0.77648754,-0.22907263,-0.47361267,0.84751888,0.39980467,0.04567174,0.24342602,-0.77285576,0.23985383,-0.44410184,-0.84330824,0.39447122,-0.03017786
4.00000000,0.27656288,0.77648792,-0.22907233,-0.47361324,0.84751866,0.39980512,0.04567039,0.24342607,-0.77285577,0.23985382,-0.44410189,-0.84330825,0.39447123,-0.03017789
4.02000000,0.27655987,0.77649049,-0.22907029,-0.47361725,0.84751715,0.39980826,0.04566099,0.24342641,-0.77285582,0.23985372,-0.44410219,-0.84330829,0.39447129,-0.03017804
4.04000000,0.27655180,0.77649740,-0.22906479,-0.47362800,0.84751309,0.39981671,0.04563574,0.24342733,-0.77285595,0.23985346,-0.44410301,-0.84330841,0.39447145,-0.03017847
4.06000000,0.27653624,0.77651072,-0.22905419,-0.47364872,0.84750525,0.39983300,0.04558708,0.24342910,-0.77285620,0.23985297,-0.44410460,-0.84330865,0.39447175,-0.03017928
4.08000000,0.27651085,0.77653245,-0.22903690,-0.47368254,0.84749247,0.39985957,0.04550768,0.24343198,-0.77285662,0.23985215,-0.44410718,-0.84330903,0.39447224,-0.03018061
4.10000000,0.27647338,0.77656452,-0.22901139,-0.47373245,0.84747360,0.39989879,0.04539048,0.24343623,-0.77285724,0.23985095,-0.44411099,-0.84330960,0.39447296,-0.03018258
4.12000000,0.27642164,0.77660881,-0.22897615,-0.47380137,0.84744755,0.39995294,0.04522865,0.24344211,-0.77285809,0.23984930,-0.44411626,-0.84331038,0.39447396,-0.03018529
4.14000000,0.27635352,0.77666712,-0.22892977,-0.47389210,0.84741326,0.40002424,0.04501560,0.24344984,-0.77285921,0.23984712,-0.44412319,-0.84331140,0.39447527,-0.03018886
4.16000000,0.27626699,0.77674119,-0.22887084,-0.47400736,0.84736969,0.40011480,0.04474497,0.24345966,-0.77286063,0.23984435,-0.44413199,-0.84331271,0.39447694,-0.03019340
4.18000000,0.27616009,0.77683269,-0.22879805,-0.47414974,0.84731587,0.40022668,0.04441064,0.24347180,-0.77286239,0.23984092,-0.44414287,-0.84331432,0.39447900,-0.03019900
4.20000000,0.27603094,0.77694323,-0.22871010,-0.47432176,0.84725085,0.40036184,0.04400672,0.24348646,-0.77286452,0.23983679,-0.44415601,-0.84331627,0.39448150,-0.03020577
4.22000000,0.27587773,0.77707438,-0.22860578,-0.47452583,0.84717372,0.40052219,0.04352755,0.24350385,-0.77286704,0.23983188,-0.44417160,-0.84331858,0.39448445,-0.03021380
4.24000000,0.27569873,0.77722760,-0.22848388,-0.47476426,0.84708359,0.40070954,0.04296769,0.24352417,-0.77286998,0.23982615,-0.44418981,-0.84332127,0.39448791,-0.03022318
4.26000000,0.27549225,0.77740434,-0.22834328,-0.47503928,0.84697964,0.40092564,0.04232192,0.24354761,-0.77287338,0.23981954,-0.44421082,-0.84332439,0.39449189,-0.03023401
4.28000000,0.27525672,0.77760595,-0.22818289,-0.47535300,0.84686105,0.40117215,0.04158526,0.24357435,-0.77287726,0.23981200,-0.44423478,-0.84332794,0.39449644,-0.03024635
4.30000000,0.27499059,0.77783374,-0.22800167,-0.47570747,0.84672707,0.40145068,0.04075293,0.24360456,-0.77288164,0.23980348,-0.44426186,-0.84333195,0.39450157,-0.03026030
4.32000000,0.27469242,0.77808897,-0.22779862,-0.47610463,0.84657694,0.40176275,0.03982037,0.24363841,-0.77288654,0.23979393,-0.44429220,-0.84333644,0.39450733,-0.03027593
4.34000000,0.27436080,0.77837282,-0.22757281,-0.47654633,0.84640999,0.40210981,0.03878322,0.24367606,-0.77289200,0.23978331,-0.44432594,-0.84334144,0.39451373,-0.03029331
4.36000000,0.27399443,0.77868642,-0.22732332,-0.47703432,0.84622553,0.40249326,0.03763736,0.24371765,-0.77289803,0.23977158,-0.44436321,-0.84334697,0.39452080,-0.03031252
4.38000000,0.27359204,0.77903086,-0.22704930,-0.47757030,0.84602294,0.40291440,0.03637884,0.24376333,-0.77290465,0.23975870,-0.44440415,-0.84335303,0.39452856,-0.03033361
4.40000000,0.27315243,0.77940714,-0.22674995,-0.47815583,0.84580161,0.40337449,0.03500394,0.24381323,-0.77291188,0.23974462,-0.44444888,-0.84335966,0.39453705,-0.03035665
4.42000000,0.27267449,0.77981625,-0.22642449,-0.47879243,0.84556098,0.40387471,0.03350915,0.24386749,-0.77291974,0.23972932,-0.44449751,-0.84336686,0.39454627,-0.03038171
4.44000000,0.27215715,0.78025907,-0.22607220,-0.47948151,0.84530052,0.40441616,0.03189112,0.24392622,-0.77292825,0.23971276,-0.44455015,-0.84337466,0.39455625,-0.03040882
4.46000000,0.27159941,0.78073648,-0.22569240,-0.48022440,0.84501971,0.40499989,0.03014673,0.24398954,-0.77293743,0.23969490,-0.44460689,-0.84338307,0.39456702,-0.03043806
4.48000000,0.27100033,0.78124928,-0.22528445,-0.48102236,0.84471809,0.40562689,0.02827305,0.24405755,-0.77294729,0.23967572,-0.44466785,-0.84339210,0.39457858,-0.03046946
4.50000000,0.27035902,0.78179821,-0.22484775,-0.48187655,0.84439522,0.40629808,0.02626733,0.24413035,-0.77295784,0.23965518,-0.44473310,-0.84340177,0.39459095,-0.03050308
4.52000000,0.26967469,0.78238398,-0.22438175,-0.48278806,0.84405068,0.40701430,0.02412702,0.24420804,-0.77296910,0.23963327,-0.44480272,-0.84341208,0.39460416,-0.03053895
4.54000000,0.26894656,0.78300723,-0.22388592,-0.48375790,0.84368409,0.40777636,0.02184974,0.24429070,-0.77298108,0.23960996,-0.44487681,-0.84342306,0.39461821,-0.03057711
4.56000000,0.26817394,0.78366857,-0.22335980,-0.48478700,0.84329510,0.40858498,0.01943331,0.24437841,-0.77299379,0.23958522,-0.44495542,-0.84343471,0.39463312,-0.03061761
4.58000000,0.26735619,0.78436854,-0.22280294,-0.48587621,0.84288339,0.40944084,0.01687573,0.24447124,-0.77300725,0.23955904,-0.44503862,-0.84344703,0.39464890,-0.03066048
4.60000000,0.26649273,0.78510764,-0.22221495,-0.48702632,0.84244866,0.41034455,0.01417516,0.24456926,-0.77302145,0.23953139,-0.44512647,-0.84346005,0.39466556,-0.03070574
4.62000000,0.26558301,0.78588632,-0.22159548,-0.48823802,0.84199065,0.41129665,0.01132996,0.24467254,-0.77303642,0.23950227,-0.44521903,-0.84347376,0.39468312,-0.03075342
4.64000000,0.26462658,0.78670499,-0.22094418,-0.48951195,0.84150911,0.41229765,0.00833865,0.24478111,-0.77305216,0.23947164,-0.44531634,-0.84348818,0.39470157,-0.03080355
4.66000000,0.26362302,0.78756401,-0.22026080,-0.49084867,0.84100385,0.41334799,0.00519991,0.24489504,-0.77306867,0.23943951,-0.44541845,-0.84350331,0.39472094,-0.03085616
4.68000000,0.26257195,0.78846369,-0.21954506,-0.49224865,0.84047467,0.41444803,0.00191262,0.24501436,-0.77308596,0.23940586,-0.44552539,-0.84351915,0.39474122,-0.03091125
4.70000000,0.26147307,0.78940430,-0.21879677,-0.49371232,0.83992142,0.41559812,-0.00152422,0.24513911,-0.77310404,0.23937067,-0.44563720,-0.84353572,0.39476243,-0.03096885
4.72000000,0.26032611,0.79038605,-0.21801573,-0.49524002,0.83934396,0.41679853,-0.00511142,0.24526931,-0.77312291,0.23933395,-0.44575389,-0.84355301,0.39478456,-0.03102897
4.74000000,0.25913088,0.79140914,-0.21720183,-0.49683203,0.83874220,0.41804946,-0.00884962,0.24540500,-0.77314258,0.23929568,-0.44587550,-0.84357102,0.39480763,-0.03109162
4.76000000,0.25788720,0.79247369,-0.21635493,-0.49848857,0.83811605,0.41935110,-0.01273933,0.24554619,-0.77316304,0.23925586,-0.44600204,-0.84358977,0.39483163,-0.03115681
4.78000000,0.25659497,0.79357979,-0.21547497,-0.50020977,0.83746545,0.42070355,-0.01678089,0.24569288,-0.77318430,0.23921449,-0.44613352,-0.84360925,0.39485657,-0.03122455
4.80000000,0.25525412,0.79472751,-0.21456191,-0.50199573,0.83679037,0.42210688,-0.02097449,0.24584510,-0.77320636,0.23917156,-0.44626994,-0.84362946,0.39488244,-0.03129483
4.82000000,0.25386465,0.79591685,-0.21361573,-0.50384646,0.83609082,0.42356110,-0.02532018,0.24600284,-0.77322922,0.23912707,-0.44641131,-0.84365041,0.39490926,-0.03136766
4.84000000,0.25242659,0.79714779,-0.21263647,-0.50576190,0.83536680,0.42506618,-0.02981784,0.24616609,-0.77325288,0.23908102,-0.44655763,-0.84367209,0.39493701,-0.03144304
4.86000000,0.25094001,0.79842025,-0.21162417,-0.50774197,0.83461835,0.42662203,-0.03446724,0.24633485,-0.77327734,0.23903343,-0.44670888,-0.84369450,0.39496569,-0.03152097
4.88000000,0.24940504,0.79973413,-0.21057891,-0.50978650,0.83384555,0.42822853,-0.03926798,0.24650910,-0.77330260,0.23898428,-0.44686505,-0.84371764,0.39499532,-0.03160142
4.90000000,0.24782185,0.80108929,-0.20950082,-0.51189525,0.83304846,0.42988550,-0.04421953,0.24668883,-0.77332865,0.23893359,-0.44702614,-0.84374150,0.39502587,-0.03168441
4.92000000,0.24619065,0.80248555,-0.20839004,-0.51406794,0.83222720,0.43159271,-0.04932124,0.24687401,-0.77335548,0.23888136,-0.44719210,-0.84376609,0.39505735,-0.03176991
4.94000000,0.24451170,0.80392267,-0.20724674,-0.51630425,0.83138190,0.43334990,-0.05457230,0.24706461,-0.77338311,0.23882760,-0.44736293,-0.84379140,0.39508975,-0.03185792
4.96000000,0.24278529,0.80540042,-0.20607112,-0.51860376,0.83051271,0.43515677,-0.05997180,0.24726060,-0.77341151,0.23877233,-0.44753858,-0.84381742,0.39512306,-0.03194841
4.98000000,0.24101175,0.80691851,-0.20486342,-0.52096604,0.82961979,0.43701294,-0.06551866,0.24746193,-0.77344069,0.23871554,-0.44771903,-0.84384416,0.39515729,-0.03204138
5.00000000,0.23919148,0.80847660,-0.20362388,-0.52339058,0.82870334,0.43891805,-0.07121172,0.24766857,-0.77347064,0.23865726,-0.44790423,-0.84387160,0.39519241,-0.03213679
5.02000000,0.23732488,0.81007435,-0.20235280,-0.52587682,0.82776357,0.44087163,-0.07704966,0.24788048,-0.77350135,0.23859750,-0.44809415,-0.84389974,0.39522844,-0.03223463
5.04000000,0.23541241,0.81171137,-0.20105048,-0.52842417,0.82680070,0.44287322,-0.08303108,0.24809758,-0.77353282,0.23853626,-0.44828873,-0.84392857,0.39526534,-0.03233488
5.06000000,0.23345456,0.81338722,-0.19971726,-0.53103195,0.82581498,0.44492231,-0.08915442,0.24831984,-0.77356503,0.23847358,-0.44848793,-0.84395808,0.39530312,-0.03243750
5.08000000,0.23145186,0.81510147,-0.19835350,-0.53369948,0.82480668,0.44701834,-0.09541803,0.24854720,-0.77359798,0.23840945,-0.44869170,-0.84398827,0.39534177,-0.03254248
5.10000000,0.22940487,0.81685362,-0.19695959,-0.53642599,0.82377609,0.44916071,-0.10182014,0.24877958,-0.77363166,0.23834391,-0.44889997,-0.84401913,0.39538127,-0.03264978
5.12000000,0.22731420,0.81864316,-0.19553592,-0.53921068,0.82272351,0.45134881,-0.10835887,0.24901691,-0.77366606,0.23827697,-0.44911268,-0.84405064,0.39542162,-0.03275936
5.14000000,0.22518048,0.82046956,-0.19408295,-0.54205272,0.82164925,0.45358196,-0.11503225,0.24925914,-0.77370117,0.23820866,-0.44932978,-0.84408281,0.39546279,-0.03287121
5.16000000,0.22300438,0.82233223,-0.19260111,-0.54495120,0.82055365,0.45585947,-0.12183819,0.24950618,-0.77373697,0.23813898,-0.44955118,-0.84411561,0.39550479,-0.03298527
5.18000000,0.22078660,0.82423058,-0.19109089,-0.54790521,0.81943706,0.45818060,-0.12877448,0.24975795,-0.77377346,0.23806797,-0.44977683,-0.84414904,0.39554759,-0.03310152
5.20000000,0.21852787,0.82616398,-0.18955278,-0.55091376,0.81829986,0.46054459,-0.13583886,0.25001436,-0.77381062,0.23799565,-0.45000664,-0.84418309,0.39559118,-0.03321992
5.22000000,0.21622895,0.82813178,-0.18798730,-0.55397584,0.81714243,0.46295064,-0.14302892,0.25027534,-0.77384845,0.23792205,-0.45024055,-0.84421775,0.39563554,-0.03334042
5.24000000,0.21389063,0.83013330,-0.18639500,-0.55709039,0.81596516,0.46539793,-0.15034220,0.25054079,-0.77388692,0.23784718,-0.45047846,-0.84425299,0.39568066,-0.03346299
5.26000000,0.21151374,0.83216784,-0.18477643,-0.56025632,0.81476847,0.46788558,-0.15777611,0.25081063,-0.77392603,0.23777108,-0.45072030,-0.84428883,0.39572653,-0.03358758
5.28000000,0.20909913,0.83423467,-0.18313218,-0.56347249,0.81355279,0.47041272,-0.16532801,0.25108474,-0.77396576,0.23769376,-0.45096597,-0.84432522,0.39577313,-0.03371414
5.30000000,0.20664767,0.83633304,-0.18146283,-0.56673775,0.81231856,0.47297842,-0.17299516,0.25136304,-0.77400609,0.23761527,-0.45121539,-0.84436218,0.39582044,-0.03384264
5.32000000,0.20416027,0.83846217,-0.17976901,-0.57005088,0.81106623,0.47558173,-0.18077471,0.25164541,-0.77404702,0.23753563,-0.45146847,-0.84439967,0.39586844,-0.03397303
5.34000000,0.20163785,0.84062128,-0.17805134,-0.57341064,0.80979627,0.47822169,-0.18866377,0.25193176,-0.77408852,0.23745487,-0.45172512,-0.84443770,0.39591711,-0.03410524
5.36000000,0.19908138,0.84280954,-0.17631048,-0.57681578,0.80850917,0.48089730,-0.19665936,0.25222198,-0.77413058,0.23737302,-0.45198522,-0.84447624,0.39596645,-0.03423925
5.38000000,0.19649182,0.84502611,-0.17454710,-0.58026497,0.80720541,0.48360753,-0.20475840,0.25251595,-0.77417319,0.23729010,-0.45224870,-0.84451527,0.39601642,-0.03437498
5.40000000,0.19387019,0.84727014,-0.17276187,-0.58375689,0.80588550,0.48635133,-0.21295777,0.25281357,-0.77421632,0.23720616,-0.45251543,-0.84455479,0.39606701,-0.03451240
5.42000000,0.19121750,0.84954075,-0.17095549,-0.58729017,0.80454995,0.48912764,-0.22125427,0.25311471,-0.77425997,0.23712123,-0.45278533,-0.84459478,0.39611820,-0.03465145
5.44000000,0.18853481,0.85183705,-0.16912868,-0.59086342,0.80319930,0.49193535,-0.22964462,0.25341926,-0.77430410,0.23703534,-0.45305828,-0.84463522,0.39616997,-0.03479207
5.46000000,0.18582317,0.85415813,-0.16728216,-0.59447522,0.80183408,0.49477335,-0.23812549,0.25372709,-0.77434872,0.23694851,-0.45333418,-0.84467610,0.39622230,-0.03493420
5.48000000,0.18308367,0.85650304,-0.16541668,-0.59812413,0.80045483,0.49764051,-0.24669348,0.25403808,-0.77439379,0.23686080,-0.45361291,-0.84471739,0.39627517,-0.03507780
5.50000000,0.18031743,0.85887086,-0.16353297,-0.60180867,0.79906211,0.50053566,-0.25534514,0.25435212,-0.77443931,0.23677223,-0.45389436,-0.84475909,0.39632855,-0.03522280
5.52000000,0.17752555,0.86126061,-0.16163182,-0.60552734,0.79765649,0.50345764,-0.26407696,0.25466906,-0.77448524,0.23668284,-0.45417842,-0.84480118,0.39638243,-0.03536914
5.54000000,0.17470919,0.86367133,-0.15971398,-0.60927864,0.79623854,0.50640524,-0.27288536,0.25498878,-0.77453158,0.23659267,-0.45446497,-0.84484363,0.39643678,-0.03551677
5.56000000,0.17186950,0.86610201,-0.15778027,-0.61306100,0.79480884,0.50937727,-0.28176673,0.25531115,-0.77457830,0.23650175,-0.45475389,-0.84488644,0.39649158,-0.03566562
5.58000000,0.16900765,0.86855166,-0.15583146,-0.61687288,0.79336799,0.51237248,-0.29071741,0.25563603,-0.77462539,0.23641011,-0.45504507,-0.84492958,0.39654680,-0.03581563
5.60000000,0.16612483,0.87101926,-0.15386837,-0.62071270,0.79191658,0.51538965,-0.29973367,0.25596330,-0.77467282,0.23631781,-0.45533838,-0.84497304,0.39660243,-0.03596673
5.62000000,0.16322223,0.87350378,-0.15189182,-0.62457884,0.79045522,0.51842750,-0.30881176,0.25629281,-0.77472058,0.23622488,-0.45563370,-0.84501679,0.39665845,-0.03611888
5.64000000,0.16030109,0.87600419,-0.14990263,-0.62846970,0.78898451,0.52148477,-0.31794788,0.25662442,-0.77476864,0.23613135,-0.45593091,-0.84506083,0.39671482,-0.03627200
5.66000000,0.15736261,0.87851943,-0.14790165,-0.63238364,0.78750508,0.52456018,-0.32713821,0.25695801,-0.77481698,0.23603726,-0.45622989,-0.84510512,0.39677153,-0.03642603
5.68000000,0.15440804,0.88104844,-0.14588971,-0.63631902,0.78601755,0.52765243,-0.33637886,0.25729342,-0.77486560,0.23594266,-0.45653050,-0.84514966,0.39682854,-0.03658090
5.70000000,0.15143864,0.88359016,-0.14386766,-0.64027416,0.78452255,0.53076022,-0.34566592,0.25763051,-0.77491445,0.23584759,-0.45683262,-0.84519442,0.39688584,-0.03673654
5.72000000,0.14845564,0.88614350,-0.14183635,-0.64424740,0.78302070,0.53388222,-0.35499548,0.25796915,-0.77496353,0.23575208,-0.45713613,-0.84523939,0.39694341,-0.03689290
5.74000000,0.14546033,0.88870739,-0.13979667,-0.64823704,0.78151266,0.53701711,-0.36436356,0.25830919,-0.77501281,0.23565618,-0.45744088,-0.84528454,0.39700121,-0.03704991
5.76000000,0.14245398,0.89128073,-0.13774946,-0.65224140,0.77999906,0.54016356,-0.37376617,0.25865048,-0.77506228,0.23555992,-0.45774676,-0.84532986,0.39705923,-0.03720749
5.78000000,0.13943787,0.89386242,-0.13569560,-0.65625875,0.77848054,0.54332023,-0.38319931,0.25899287,-0.77511190,0.23546335,-0.45805364,-0.84537533,0.39711743,-0.03736559
5.80000000,0.13641328,0.89645136,-0.13363598,-0.66028738,0.77695775,0.54648576,-0.39265895,0.25933623,-0.77516167,0.23536651,-0.45836137,-0.84542092,0.39717580,-0.03752413
5.82000000,0.13338152,0.89904645,-0.13157147,-0.66432558,0.77543136,0.54965880,-0.40214103,0.25968041,-0.77521155,0.23526944,-0.45866984,-0.84546662,0.39723431,-0.03768305
5.84000000,0.13034388,0.90164657,-0.12950296,-0.66837161,0.77390200,0.55283800,-0.41164150,0.26002525,-0.77526153,0.23517218,-0.45897890,-0.84551241,0.39729293,-0.03784227
5.86000000,0.12730166,0.90425061,-0.12743133,-0.67242373,0.77237034,0.55602199,-0.42115628,0.26037061,-0.77531158,0.23507477,-0.45928843,-0.84555827,0.39735163,-0.03800173
5.88000000,0.12425618,0.90685745,-0.12535747,-0.67648020,0.77083703,0.55920939,-0.43068129,0.26071634,-0.77536169,0.23497726,-0.45959829,-0.84560418,0.39741040,-0.03816137
5.90000000,0.12120873,0.90946596,-0.12328228,-0.68053930,0.76930274,0.56239886,-0.44021244,0.26106229,-0.77541183,0.23487969,-0.45990836,-0.84565012,0.39746921,-0.03832111
5.92000000,0.11816062,0.91207504,-0.12120664,-0.68459926,0.76776811,0.56558901,-0.44974564,0.26140832,-0.77546198,0.23478209,-0.46021849,-0.84569607,0.39752803,-0.03848088
5.94000000,0.11511317,0.91468356,-0.11913144,-0.68865836,0.76623382,0.56877847,-0.45927680,0.26175428,-0.77551212,0.23468452,-0.46052855,-0.84574201,0.39758684,-0.03864062
5.96000000,0.11206768,0.91729040,-0.11705759,-0.69271483,0.76470051,0.57196588,-0.46880181,0.26210001,-0.77556223,0.23458701,-0.46083841,-0.84578792,0.39764561,-0.03880026
5.98000000,0.10902547,0.91989444,-0.11498596,-0.69676696,0.76316885,0.57514986,-0.47831659,0.26244537,-0.77561228,0.23448960,-0.46114794,-0.84583378,0.39770432,-0.03895972
6.00000000,0.10598783,0.92249456,-0.11291744,-0.70081298,0.76163950,0.57832906,-0.48781706,0.26279021,-0.77566226,0.23439235,-0.46145700,-0.84587957,0.39776294,-0.03911894
6.02000000,0.10295606,0.92508964,-0.11085293,-0.70485118,0.76011310,0.58150210,-0.49729914,0.26313439,-0.77571214,0.23429527,-0.46176547,-0.84592527,0.39782145,-0.03927786
6.04000000,0.09993148,0.92767859,-0.10879331,-0.70887981,0.75859032,0.58466764,-0.50675877,0.26347774,-0.77576191,0.23419843,-0.46207321,-0.84597086,0.39787982,-0.03943640
6.06000000,0.09691537,0.93026028,-0.10673946,-0.71289716,0.75707180,0.58782430,-0.51619191,0.26382014,-0.77581153,0.23410186,-0.46238008,-0.84601633,0.39793802,-0.03959450
6.08000000,0.09390901,0.93283362,-0.10469225,-0.71690152,0.75555819,0.59097075,-0.52559453,0.26416143,-0.77586100,0.23400561,-0.46268596,-0.84606165,0.39799604,-0.03975208
6.10000000,0.09091370,0.93539751,-0.10265256,-0.72089116,0.75405015,0.59410564,-0.53496261,0.26450147,-0.77591028,0.23390970,-0.46299072,-0.84610680,0.39805384,-0.03990909
6.12000000,0.08793071,0.93795085,-0.10062126,-0.72486440,0.75254831,0.59722765,-0.54429216,0.26484010,-0.77595936,0.23381419,-0.46329422,-0.84615177,0.39811140,-0.04006545
6.14000000,0.08496130,0.94049257,-0.09859921,-0.72881954,0.75105330,0.60033543,-0.55357923,0.26517720,-0.77600821,0.23371912,-0.46359634,-0.84619653,0.39816871,-0.04022110
6.16000000,0.08200674,0.94302158,-0.09658727,-0.73275492,0.74956577,0.60342768,-0.56281988,0.26551261,-0.77605683,0.23362452,-0.46389695,-0.84624107,0.39822572,-0.04037597
6.18000000,0.07906826,0.94553682,-0.09458628,-0.73666886,0.74808634,0.60650309,-0.57201020,0.26584619,-0.77610517,0.23353043,-0.46419593,-0.84628536,0.39828243,-0.04052999
6.20000000,0.07614711,0.94803722,-0.09259710,-0.74055972,0.74661564,0.60956037,-0.58114633,0.26617781,-0.77615323,0.23343691,-0.46449314,-0.84632940,0.39833880,-0.04068311
6.22000000,0.07324452,0.95052175,-0.09062055,-0.74442587,0.74515427,0.61259822,-0.59022442,0.26650732,-0.77620099,0.23334397,-0.46478846,-0.84637315,0.39839481,-0.04083526
6.24000000,0.07036170,0.95298935,-0.08865746,-0.74826568,0.74370286,0.61561538,-0.59924068,0.26683459,-0.77624842,0.23325167,-0.46508178,-0.84641661,0.39845045,-0.04098636
6.26000000,0.06749985,0.95543900,-0.08670865,-0.75207756,0.74226201,0.61861060,-0.60819135,0.26715947,-0.77629551,0.23316004,-0.46537295,-0.84645975,0.39850567,-0.04113637
6.28000000,0.06466016,0.95786968,-0.08477493,-0.75585993,0.74083232,0.62158262,-0.61707272,0.26748184,-0.77634223,0.23306912,-0.46566188,-0.84650256,0.39856047,-0.04128522
6.30000000,0.06184380,0.96028039,-0.08285710,-0.75961122,0.73941437,0.62453023,-0.62588113,0.26780156,-0.77638857,0.23297894,-0.46594843,-0.84654501,0.39861482,-0.04143285
6.32000000,0.05905192,0.96267015,-0.08095594,-0.76332989,0.73800874,0.62745220,-0.63461294,0.26811850,-0.77643450,0.23288955,-0.46623249,-0.84658710,0.39866870,-0.04157919
6.34000000,0.05628568,0.96503796,-0.07907224,-0.76701443,0.73661603,0.63034736,-0.64326460,0.26843253,-0.77648002,0.23280098,-0.46651394,-0.84662880,0.39872208,-0.04172419
6.36000000,0.05354618,0.96738288,-0.07720675,-0.77066334,0.73523678,0.63321451,-0.65183260,0.26874353,-0.77652509,0.23271327,-0.46679267,-0.84667009,0.39877495,-0.04186779
6.38000000,0.05083454,0.96970395,-0.07536023,-0.77427514,0.73387155,0.63605252,-0.66031347,0.26905136,-0.77656971,0.23262645,-0.46706856,-0.84671097,0.39882728,-0.04200992
6.40000000,0.04815185,0.97200025,-0.07353342,-0.77784839,0.73252090,0.63886023,-0.66870382,0.26935591,-0.77661384,0.23254055,-0.46734151,-0.84675141,0.39887905,-0.04215054
6.42000000,0.04549916,0.97427087,-0.07172705,-0.78138167,0.73118536,0.64163653,-0.67700031,0.26965705,-0.77665749,0.23245562,-0.46761141,-0.84679140,0.39893024,-0.04228959
6.44000000,0.04287753,0.97651490,-0.06994182,-0.78487359,0.72986545,0.64438033,-0.68519969,0.26995466,-0.77670062,0.23237168,-0.46787815,-0.84683092,0.39898083,-0.04242701
6.46000000,0.04028797,0.97873147,-0.06817843,-0.78832279,0.72856169,0.64709056,-0.69329873,0.27024864,-0.77674323,0.23228877,-0.46814162,-0.84686995,0.39903080,-0.04256274
6.48000000,0.03773150,0.98091973,-0.06643758,-0.79172792,0.72727458,0.64976617,-0.70129431,0.27053885,-0.77678529,0.23220691,-0.46840173,-0.84690849,0.39908013,-0.04269675
6.50000000,0.03520908,0.98307883,-0.06471991,-0.79508768,0.72600463,0.65240613,-0.70918337,0.27082521,-0.77682679,0.23212615,-0.46865837,-0.84694652,0.39912881,-0.04282896
6.52000000,0.03272168,0.98520797,-0.06302609,-0.79840081,0.72475230,0.65500945,-0.71696293,0.27110758,-0.77686772,0.23204651,-0.46891145,-0.84698401,0.39917681,-0.04295935
6.54000000,0.03027022,0.98730634,-0.06135674,-0.80166607,0.72351806,0.65757515,-0.72463007,0.27138588,-0.77690805,0.23196802,-0.46916087,-0.84702097,0.39922412,-0.04308785
6.56000000,0.02785561,0.98937317,-0.05971248,-0.80488224,0.72230238,0.66010228,-0.73218197,0.27165999,-0.77694778,0.23189071,-0.46940655,-0.84705737,0.39927072,-0.04321441
6.58000000,0.02547872,0.99140771,-0.05809392,-0.80804817,0.72110569,0.66258994,-0.73961589,0.27192982,-0.77698689,0.23181460,-0.46964838,-0.84709320,0.39931658,-0.04333900
6.60000000,0.02314040,0.99340923,-0.05650161,-0.81116273,0.71992842,0.66503722,-0.74692917,0.27219527,-0.77702536,0.23173974,-0.46988629,-0.84712844,0.39936171,-0.04346157
6.62000000,0.02084148,0.99537703,-0.05493614,-0.81422480,0.71877099,0.66744327,-0.75411923,0.27245625,-0.77706319,0.23166613,-0.47012020,-0.84716310,0.39940607,-0.04358207
6.64000000,0.01858275,0.99731043,-0.05339803,-0.81723335,0.71763379,0.66980726,-0.76118360,0.27271267,-0.77710035,0.23159381,-0.47035001,-0.84719715,0.39944966,-0.04370047
6.66000000,0.01636496,0.99920878,-0.05188781,-0.82018736,0.71651721,0.67212840,-0.76811990,0.27296444,-0.77713684,0.23152280,-0.47057566,-0.84723058,0.39949246,-0.04381672
6.68000000,0.01418886,1.00107145,-0.05040597,-0.82308585,0.71542161,0.67440590,-0.77492583,0.27321148,-0.77717264,0.23145313,-0.47079707,-0.84726338,0.39953445,-0.04393078
6.70000000,0.01205514,1.00289784,-0.04895299,-0.82592788,0.71434735,0.67663905,-0.78159921,0.27345370,-0.77720775,0.23138481,-0.47101416,-0.84729555,0.39957563,-0.04404263
6.72000000,0.00996448,1.00468739,-0.04752933,-0.82871258,0.71329476,0.67882715,-0.78813795,0.27369104,-0.77724215,0.23131787,-0.47122688,-0.84732706,0.39961597,-0.04415222
6.74000000,0.00791749,1.00643954,-0.04613541,-0.83143908,0.71226417,0.68096952,-0.79454006,0.27392342,-0.77727583,0.23125233,-0.47143515,-0.84735792,0.39965548,-0.04425951
6.76000000,0.00591479,1.00815378,-0.04477165,-0.83410661,0.71125587,0.68306555,-0.80080367,0.27415077,-0.77730878,0.23118821,-0.47163891,-0.84738811,0.39969412,-0.04436449
6.78000000,0.00395694,1.00982964,-0.04343843,-0.83671439,0.71027016,0.68511464,-0.80692701,0.27437303,-0.77734099,0.23112552,-0.47183811,-0.84741762,0.39973191,-0.04446711
6.80000000,0.00204447,1.01146665,-0.04213612,-0.83926174,0.70930729,0.68711623,-0.81290842,0.27459014,-0.77737246,0.23106429,-0.47203270,-0.84744645,0.39976881,-0.04456736
6.82000000,0.00017787,1.01306440,-0.04086503,-0.84174798,0.70836751,0.68906982,-0.81874637,0.27480204,-0.77740317,0.23100452,-0.47222261,-0.84747459,0.39980483,-0.04466520
6.84000000,-0.00164241,1.01462250,-0.03962550,-0.84417252,0.70745106,0.69097492,-0.82443943,0.27500869,-0.77743312,0.23094624,-0.47240782,-0.84750203,0.39983996,-0.04476061
6.86000000,-0.00341594,1.01614058,-0.03841779,-0.84653480,0.70655814,0.69283110,-0.82998629,0.27521002,-0.77746230,0.23088945,-0.47258826,-0.84752877,0.39987419,-0.04485358
6.88000000,-0.00514235,1.01761833,-0.03724218,-0.84883431,0.70568895,0.69463796,-0.83538578,0.27540601,-0.77749070,0.23083418,-0.47276392,-0.84755479,0.39990750,-0.04494407
6.90000000,-0.00682130,1.01905546,-0.03609888,-0.85107062,0.70484365,0.69639515,-0.84063684,0.27559661,-0.77751832,0.23078042,-0.47293474,-0.84758010,0.39993990,-0.04503208
6.92000000,-0.00845250,1.02045171,-0.03498809,-0.85324332,0.70402239,0.69810237,-0.84573855,0.27578179,-0.77754516,0.23072819,-0.47310071,-0.84760469,0.39997138,-0.04511758
6.94000000,-0.01003569,1.02180687,-0.03391000,-0.85535207,0.70322531,0.69975933,-0.85069011,0.27596151,-0.77757121,0.23067750,-0.47326179,-0.84762855,0.40000193,-0.04520057
6.96000000,-0.01157066,1.02312076,-0.03286475,-0.85739659,0.70245250,0.70136583,-0.85549085,0.27613577,-0.77759647,0.23062836,-0.47341796,-0.84765169,0.40003155,-0.04528103
6.98000000,-0.01305724,1.02439322,-0.03185245,-0.85937666,0.70170405,0.70292169,-0.86014024,0.27630453,-0.77762093,0.23058076,-0.47356921,-0.84767410,0.40006024,-0.04535895
7.00000000,-0.01449530,1.02562415,-0.03087318,-0.86129211,0.70098003,0.70442677,-0.86463791,0.27646778,-0.77764459,0.23053472,-0.47371553,-0.84769578,0.40008799,-0.04543433
7.02000000,-0.01588477,1.02681350,-0.02992701,-0.86314283,0.70028048,0.70588099,-0.86898359,0.27662552,-0.77766745,0.23049023,-0.47385690,-0.84771673,0.40011481,-0.04550716
7.04000000,-0.01722562,1.02796121,-0.02901395,-0.86492879,0.69960541,0.70728432,-0.87317719,0.27677773,-0.77768951,0.23044730,-0.47399333,-0.84773694,0.40014068,-0.04557744
7.06000000,-0.01851785,1.02906732,-0.02813399,-0.86664999,0.69895481,0.70863677,-0.87721875,0.27692443,-0.77771077,0.23040592,-0.47412480,-0.84775642,0.40016562,-0.04564518
7.08000000,-0.01976153,1.03013187,-0.02728709,-0.86830653,0.69832865,0.70993840,-0.88110846,0.27706562,-0.77773123,0.23036610,-0.47425134,-0.84777517,0.40018962,-0.04571037
7.10000000,-0.02095677,1.03115496,-0.02647318,-0.86989854,0.69772689,0.71118934,-0.88484667,0.27720130,-0.77775090,0.23032783,-0.47437295,-0.84779318,0.40021268,-0.04577302
7.12000000,-0.02210372,1.03213671,-0.02569215,-0.87142624,0.69714943,0.71238974,-0.88843386,0.27733151,-0.77776977,0.23029111,-0.47448965,-0.84781047,0.40023482,-0.04583314
7.14000000,-0.02320260,1.03307732,-0.02494386,-0.87288991,0.69659618,0.71353983,-0.89187070,0.27745626,-0.77778785,0.23025593,-0.47460145,-0.84782704,0.40025602,-0.04589074
7.16000000,-0.02425367,1.03397700,-0.02422812,-0.87428989,0.69606700,0.71463988,-0.89515800,0.27757558,-0.77780514,0.23022227,-0.47470839,-0.84784288,0.40027631,-0.04594583
7.18000000,-0.02525724,1.03483602,-0.02354473,-0.87562661,0.69556174,0.71569021,-0.89829674,0.27768951,-0.77782165,0.23019014,-0.47481050,-0.84785801,0.40029567,-0.04599844
7.20000000,-0.02621367,1.03565469,-0.02289344,-0.87690054,0.69508021,0.71669121,-0.90128805,0.27779808,-0.77783739,0.23015952,-0.47490781,-0.84787243,0.40031413,-0.04604857
7.22000000,-0.02712338,1.03643337,-0.02227396,-0.87811224,0.69462219,0.71764332,-0.90413325,0.27790135,-0.77785236,0.23013039,-0.47500037,-0.84788614,0.40033169,-0.04609625
7.24000000,-0.02798685,1.03717247,-0.02168598,-0.87926235,0.69418747,0.71854702,-0.90683382,0.27799938,-0.77786656,0.23010274,-0.47508822,-0.84789916,0.40034835,-0.04614152
7.26000000,-0.02880460,1.03787244,-0.02112912,-0.88035156,0.69377575,0.71940288,-0.90939140,0.27809221,-0.77788002,0.23007656,-0.47517143,-0.84791148,0.40036413,-0.04618438
7.28000000,-0.02957722,1.03853378,-0.02060300,-0.88138066,0.69338677,0.72021150,-0.91180783,0.27817992,-0.77789273,0.23005182,-0.47525004,-0.84792313,0.40037904,-0.04622488
7.30000000,-0.03030534,1.03915703,-0.02010717,-0.88235050,0.69302018,0.72097356,-0.91408510,0.27826258,-0.77790471,0.23002851,-0.47532412,-0.84793411,0.40039309,-0.04626304
7.32000000,-0.03098968,1.03974280,-0.01964117,-0.88326201,0.69267564,0.72168979,-0.91622542,0.27834027,-0.77791597,0.23000660,-0.47539375,-0.84794442,0.40040630,-0.04629891
7.34000000,-0.03163098,1.04029173,-0.01920447,-0.88411620,0.69235276,0.72236097,-0.91823114,0.27841307,-0.77792652,0.22998607,-0.47545900,-0.84795409,0.40041867,-0.04633253
7.36000000,-0.03223006,1.04080452,-0.01879651,-0.88491416,0.69205114,0.72298797,-0.92010482,0.27848108,-0.77793638,0.22996688,-0.47551995,-0.84796312,0.40043023,-0.04636393
7.38000000,-0.03278780,1.04128193,-0.01841671,-0.88565705,0.69177034,0.72357171,-0.92184920,0.27854440,-0.77794556,0.22994903,-0.47557670,-0.84797153,0.40044100,-0.04639317
7.40000000,-0.03330515,1.04172476,-0.01806442,-0.88634613,0.69150987,0.72411316,-0.92346723,0.27860313,-0.77795407,0.22993246,-0.47562933,-0.84797933,0.40045098,-0.04642029
7.42000000,-0.03378309,1.04213386,-0.01773896,-0.88698273,0.69126924,0.72461337,-0.92496203,0.27865738,-0.77796193,0.22991716,-0.47567796,-0.84798653,0.40046020,-0.04644534
7.44000000,-0.03422269,1.04251015,-0.01743961,-0.88756826,0.69104792,0.72507346,-0.92633693,0.27870729,-0.77796916,0.22990308,-0.47572269,-0.84799316,0.40046869,-0.04646838
7.46000000,-0.03462508,1.04285458,-0.01716560,-0.88810424,0.69084532,0.72549460,-0.92759544,0.27875297,-0.77797578,0.22989020,-0.47576363,-0.84799923,0.40047645,-0.04648947
7.48000000,-0.03499146,1.04316819,-0.01691611,-0.88859223,0.69066087,0.72587805,-0.92874131,0.27879456,-0.77798181,0.22987847,-0.47580091,-0.84800475,0.40048352,-0.04650868
7.50000000,-0.03532307,1.04345204,-0.01669030,-0.88903393,0.69049391,0.72622512,-0.92977845,0.27883221,-0.77798727,0.22986785,-0.47583465,-0.84800975,0.40048992,-0.04652606
7.52000000,-0.03562124,1.04370726,-0.01648725,-0.88943109,0.69034379,0.72653719,-0.93071102,0.27886606,-0.77799217,0.22985831,-0.47586498,-0.84801424,0.40049568,-0.04654169
7.54000000,-0.03588737,1.04393506,-0.01630603,-0.88978556,0.69020980,0.72681571,-0.93154335,0.27889627,-0.77799655,0.22984978,-0.47589206,-0.84801825,0.40050081,-0.04655564
7.56000000,-0.03612291,1.04413667,-0.01614564,-0.89009928,0.69009122,0.72706223,-0.93228001,0.27892301,-0.77800043,0.22984224,-0.47591603,-0.84802180,0.40050536,-0.04656798
7.58000000,-0.03632938,1.04431341,-0.01600504,-0.89037430,0.68998726,0.72727832,-0.93292577,0.27894644,-0.77800383,0.22983563,-0.47593703,-0.84802492,0.40050934,-0.04657881
7.60000000,-0.03650839,1.04446663,-0.01588314,-0.89061273,0.68989714,0.72746567,-0.93348563,0.27896677,-0.77800677,0.22982990,-0.47595525,-0.84802761,0.40051280,-0.04658819
7.62000000,-0.03666160,1.04459777,-0.01577881,-0.89081680,0.68982000,0.72762602,-0.93396481,0.27898416,-0.77800929,0.22982499,-0.47597083,-0.84802992,0.40051575,-0.04659622
7.64000000,-0.03679074,1.04470832,-0.01569087,-0.89098882,0.68975498,0.72776119,-0.93436873,0.27899882,-0.77801142,0.22982086,-0.47598397,-0.84803187,0.40051824,-0.04660299
7.66000000,-0.03689764,1.04479982,-0.01561808,-0.89113120,0.68970116,0.72787307,-0.93470306,0.27901096,-0.77801317,0.22981744,-0.47599485,-0.84803348,0.40052031,-0.04660859
7.68000000,-0.03698417,1.04487389,-0.01555915,-0.89124646,0.68965760,0.72796363,-0.93497369,0.27902078,-0.77801460,0.22981467,-0.47600365,-0.84803479,0.40052198,-0.04661313
7.70000000,-0.03705229,1.04493220,-0.01551276,-0.89133719,0.68962330,0.72803492,-0.93518674,0.27902851,-0.77801572,0.22981249,-0.47601059,-0.84803581,0.40052329,-0.04661670
7.72000000,-0.03710404,1.04497649,-0.01547753,-0.89140611,0.68959725,0.72808908,-0.93534857,0.27903439,-0.77801657,0.22981083,-0.47601585,-0.84803659,0.40052429,-0.04661941
7.74000000,-0.03714151,1.04500856,-0.01545201,-0.89145602,0.68957838,0.72812830,-0.93546577,0.27903864,-0.77801719,0.22980963,-0.47601966,-0.84803716,0.40052501,-0.04662138
7.76000000,-0.03716689,1.04503029,-0.01543473,-0.89148984,0.68956560,0.72815487,-0.93554516,0.27904152,-0.77801760,0.22980882,-0.47602225,-0.84803754,0.40052550,-0.04662271
7.78000000,-0.03718245,1.04504361,-0.01542413,-0.89151056,0.68955777,0.72817115,-0.93559383,0.27904329,-0.77801786,0.22980832,-0.47602383,-0.84803778,0.40052580,-0.04662352
7.80000000,-0.03719053,1.04505052,-0.01541863,-0.89152132,0.68955370,0.72817960,-0.93561908,0.27904420,-0.77801799,0.22980806,-0.47602465,-0.84803790,0.40052596,-0.04662395
7.82000000,-0.03719353,1.04505309,-0.01541659,-0.89152532,0.68955219,0.72818274,-0.93562848,0.27904455,-0.77801804,0.22980796,-0.47602496,-0.84803794,0.40052602,-0.04662410
7.84000000,-0.03719396,1.04505346,-0.01541629,-0.89152589,0.68955197,0.72818320,-0.93562983,0.27904459,-0.77801805,0.22980795,-0.47602500,-0.84803795,0.40052603,-0.04662413
7.86000000,-0.03719396,1.04505346,-0.01541629,-0.89152589,0.68955197,0.72818320,-0.93562983,0.27904459,-0.77801805,0.22980795,-0.47602500,-0.84803795,0.40052603,-0.04662413
7.88000000,-0.03719396,1.04505346,-0.01541629,-0.89152589,0.68955197,0.72818320,-0.93562983,0.27904459,-0.77801805,0.22980795,-0.47602500,-0.84803795,0.40052603,-0.04662413
7.90000000,-0.03719396,1.04505346,-0.01541629,-0.89152589,0.68955197,0.72818320,-0.93562983,0.27904459,-0.77801805,0.22980795,-0.47602500,-0.84803795,0.40052603,-0.04662413
7.92000000,-0.03719396,1.04505346,-0.01541629,-0.89152589,0.68955197,0.72818320,-0.93562983,0.27904459,-0.77801805,0.22980795,-0.47602500,-0.84803795,0.40052603,-0.04662413
7.94000000,-0.03719396,1.04505346,-0.01541629,-0.89152589,0.68955197,0.72818320,-0.93562983,0.27904459,-0.77801805,0.22980795,-0.47602500,-0.84803795,0.40052603,-0.04662413
7.96000000,-0.03719396,1.04505346,-0.01541629,-0.89152589,0.68955197,0.72818320,-0.93562983,0.27904459,-0.77801805,0.22980795,-0.47602500,-0.84803795,0.40052603,-0.04662413
7.98000000,-0.03719396,1.04505346,-0.01541629,-0.89152589,0.68955197,0.72818320,-0.93562983,0.27904459,-0.77801805,0.22980795,-0.47602500,-0.84803795,0.40052603,-0.04662413
8.00000000,-0.03719396,1.04505346,-0.01541629,-0.89152589,0.68955197,0.72818320,-0.93562983,0.27904459,-0.77801805,0.22980795,-0.47602500,-0.84803795,0.40052603,-0.04662413
8.02000000,-0.03719396,1.04505346,-0.01541629,-0.89152589,0.68955197,0.72818320,-0.93562983,0.27904459,-0.77801805,0.22980795,-0.47602500,-0.84803795,0.40052603,-0.04662413
8.04000000,-0.03719396,1.04505346,-0.01541629,-0.89152589,0.68955197,0.72818320,-0.93562983,0.27904459,-0.77801805,0.22980795,-0.47602500,-0.84803795,0.40052603,-0.04662413
8.06000000,-0.03719396,1.04505346,-0.01541629,-0.89152589,0.68955197,0.72818320,-0.93562983,0.27904459,-0.77801805,0.22980795,-0.47602500,-0.84803795,0.40052603,-0.04662413
8.08000000,-0.03719396,1.04505346,-0.01541629,-0.89152589,0.68955197,0.72818320,-0.93562983,0.27904459,-0.77801805,0.22980795,-0.47602500,-0.84803795,0.40052603,-0.04662413
8.10000000,-0.03719396,1.04505346,-0.01541629,-0.89152589,0.68955197,0.72818320,-0.93562983,0.27904459,-0.77801805,0.22980795,-0.47602500,-0.84803795,0.40052603,-0.04662413
8.12000000,-0.03719396,1.04505346,-0.01541629,-0.89152589,0.68955197,0.72818320,-0.93562983,0.27904459,-0.77801805,0.22980795,-0.47602500,-0.84803795,0.40052603,-0.04662413
8.14000000,-0.03719396,1.04505346,-0.01541629,-0.89152589,0.68955197,0.72818320,-0.93562983,0.27904459,-0.77801805,0.22980795,-0.47602500,-0.84803795,0.40052603,-0.04662413
8.16000000,-0.03719396,1.04505346,-0.01541629,-0.89152589,0.68955197,0.72818320,-0.93562983,0.27904459,-0.77801805,0.22980795,-0.47602500,-0.84803795,0.40052603,-0.04662413
8.18000000,-0.03719396,1.04505346,-0.01541629,-0.89152589,0.68955197,0.72818320,-0.93562983,0.27904459,-0.77801805,0.22980795,-0.47602500,-0.84803795,0.40052603,-0.04662413
8.20000000,-0.03719396,1.04505346,-0.01541629,-0.89152589,0.68955197,0.72818320,-0.93562983,0.27904459,-0.77801805,0.22980795,-0.47602500,-0.84803795,0.40052603,-0.04662413
8.22000000,-0.03719396,1.04505346,-0.01541629,-0.89152589,0.68955197,0.72818320,-0.93562983,0.27904459,-0.77801805,0.22980795,-0.47602500,-0.84803795,0.40052603,-0.04662413
8.24000000,-0.03719396,1.04505346,-0.01541629,-0.89152589,0.68955197,0.72818320,-0.93562983,0.27904459,-0.77801805,0.22980795,-0.47602500,-0.84803795,0.40052603,-0.04662413
8.26000000,-0.03719396,1.04505346,-0.01541629,-0.89152589,0.68955197,0.72818320,-0.93562983,0.27904459,-0.77801805,0.22980795,-0.47602500,-0.84803795,0.40052603,-0.04662413
8.28000000,-0.03719396,1.04505346,-0.01541629,-0.89152589,0.68955197,0.72818320,-0.93562983,0.27904459,-0.77801805,0.22980795,-0.47602500,-0.84803795,0.40052603,-0.04662413
8.30000000,-0.03719396,1.04505346,-0.01541629,-0.89152589,0.68955197,0.72818320,-0.93562983,0.27904459,-0.77801805,0.22980795,-0.47602500,-0.84803795,0.40052603,-0.04662413
8.32000000,-0.03719396,1.04505346,-0.01541629,-0.89152589,0.68955197,0.72818320,-0.93562983,0.27904459,-0.77801805,0.22980795,-0.47602500,-0.84803795,0.40052603,-0.04662413
8.34000000,-0.03719396,1.04505346,-0.01541629,-0.89152589,0.68955197,0.72818320,-0.93562983,0.27904459,-0.77801805,0.22980795,-0.47602500,-0.84803795,0.40052603,-0.04662413
8.36000000,-0.03719396,1.04505346,-0.01541629,-0.89152589,0.68955197,0.72818320,-0.93562983,0.27904459,-0.77801805,0.22980795,-0.47602500,-0.84803795,0.40052603,-0.04662413
8.38000000,-0.03719396,1.04505346,-0.01541629,-0.89152589,0.68955197,0.72818320,-0.93562983,0.27904459,-0.77801805,0.22980795,-0.47602500,-0.84803795,0.40052603,-0.04662413
8.40000000,-0.03719396,1.04505346,-0.01541629,-0.89152589,0.68955197,0.72818320,-0.93562983,0.27904459,-0.77801805,0.22980795,-0.47602500,-0.84803795,0.40052603,-0.04662413
8.42000000,-0.03719396,1.04505346,-0.01541629,-0.89152589,0.68955197,0.72818320,-0.93562983,0.27904459,-0.77801805,0.22980795,-0.47602500,-0.84803795,0.40052603,-0.04662413
8.44000000,-0.03719396,1.04505346,-0.01541629,-0.89152589,0.68955197,0.72818320,-0.93562983,0.27904459,-0.77801805,0.22980795,-0.47602500,-0.84803795,0.40052603,-0.04662413
8.46000000,-0.03719396,1.04505346,-0.01541629,-0.89152589,0.68955197,0.72818320,-0.93562983,0.27904459,-0.77801805,0.22980795,-0.47602500,-0.84803795,0.40052603,-0.04662413
8.48000000,-0.03719396,1.04505346,-0.01541629,-0.89152589,0.68955197,0.72818320,-0.93562983,0.27904459,-0.77801805,0.22980795,-0.47602500,-0.84803795,0.40052603,-0.04662413
8.50000000,-0.03719396,1.04505346,-0.01541629,-0.89152589,0.68955197,0.72818320,-0.93562983,0.27904459,-0.77801805,0.22980795,-0.47602500,-0.84803795,0.40052603,-0.04662413
8.52000000,-0.03719396,1.04505346,-0.01541629,-0.89152589,0.68955197,0.72818320,-0.93562983,0.27904459,-0.77801805,0.22980795,-0.47602500,-0.84803795,0.40052603,-0.04662413
8.54000000,-0.03719396,1.04505346,-0.01541629,-0.89152589,0.68955197,0.72818320,-0.93562983,0.27904459,-0.77801805,0.22980795,-0.47602500,-0.84803795,0.40052603,-0.04662413
8.56000000,-0.03719396,1.04505346,-0.01541629,-0.89152589,0.68955197,0.72818320,-0.93562983,0.27904459,-0.77801805,0.22980795,-0.47602500,-0.84803795,0.40052603,-0.04662413
8.58000000,-0.03719396,1.04505346,-0.01541629,-0.89152589,0.68955197,0.72818320,-0.93562983,0.27904459,-0.77801805,0.22980795,-0.47602500,-0.84803795,0.40052603,-0.04662413
8.60000000,-0.03719396,1.04505346,-0.01541629,-0.89152589,0.68955197,0.72818320,-0.93562983,0.27904459,-0.77801805,0.22980795,-0.47602500,-0.84803795,0.40052603,-0.04662413
8.62000000,-0.03719396,1.04505346,-0.01541629,-0.89152589,0.68955197,0.72818320,-0.93562983,0.27904459,-0.77801805,0.22980795,-0.47602500,-0.84803795,0.40052603,-0.04662413
8.64000000,-0.03719396,1.04505346,-0.01541629,-0.89152589,0.68955197,0.72818320,-0.93562983,0.27904459,-0.77801805,0.22980795,-0.47602500,-0.84803795,0.40052603,-0.04662413
8.66000000,-0.03719396,1.04505346,-0.01541629,-0.89152589,0.68955197,0.72818320,-0.93562983,0.27904459,-0.77801805,0.22980795,-0.47602500,-0.84803795,0.40052603,-0.04662413
8.68000000,-0.03719396,1.04505346,-0.01541629,-0.89152589,0.68955197,0.72818320,-0.93562983,0.27904459,-0.77801805,0.22980795,-0.47602500,-0.84803795,0.40052603,-0.04662413
8.70000000,-0.03719396,1.04505346,-0.01541629,-0.89152589,0.68955197,0.72818320,-0.93562983,0.27904459,-0.77801805,0.22980795,-0.47602500,-0.84803795,0.40052603,-0.04662413
8.72000000,-0.03719396,1.04505346,-0.01541629,-0.89152589,0.68955197,0.72818320,-0.93562983,0.27904459,-0.77801805,0.22980795,-0.47602500,-0.84803795,0.40052603,-0.04662413
8.74000000,-0.03719396,1.04505346,-0.01541629,-0.89152589,0.68955197,0.72818320,-0.93562983,0.27904459,-0.77801805,0.22980795,-0.47602500,-0.84803795,0.40052603,-0.04662413
8.76000000,-0.03719396,1.04505346,-0.01541629,-0.89152589,0.68955197,0.72818320,-0.93562983,0.27904459,-0.77801805,0.22980795,-0.47602500,-0.84803795,0.40052603,-0.04662413
8.78000000,-0.03719396,1.04505346,-0.01541629,-0.89152589,0.68955197,0.72818320,-0.93562983,0.27904459,-0.77801805,0.22980795,-0.47602500,-0.84803795,0.40052603,-0.04662413
8.80000000,-0.03719396,1.04505346,-0.01541629,-0.89152589,0.68955197,0.72818320,-0.93562983,0.27904459,-0.77801805,0.22980795,-0.47602500,-0.84803795,0.40052603,-0.04662413
8.82000000,-0.03719396,1.04505346,-0.01541629,-0.89152589,0.68955197,0.72818320,-0.93562983,0.27904459,-0.77801805,0.22980795,-0.47602500,-0.84803795,0.40052603,-0.04662413
8.84000000,-0.03719396,1.04505346,-0.01541629,-0.89152589,0.68955197,0.72818320,-0.93562983,0.27904459,-0.77801805,0.22980795,-0.47602500,-0.84803795,0.40052603,-0.04662413
8.86000000,-0.03719396,1.04505346,-0.01541629,-0.89152589,0.68955197,0.72818320,-0.93562983,0.27904459,-0.77801805,0.22980795,-0.47602500,-0.84803795,0.40052603,-0.04662413
8.88000000,-0.03719396,1.04505346,-0.01541629,-0.89152589,0.68955197,0.72818320,-0.93562983,0.27904459,-0.77801805,0.22980795,-0.47602500,-0.84803795,0.40052603,-0.04662413
8.90000000,-0.03719396,1.04505346,-0.01541629,-0.89152589,0.68955197,0.72818320,-0.93562983,0.27904459,-0.77801805,0.22980795,-0.47602500,-0.84803795,0.40052603,-0.04662413
8.92000000,-0.03719396,1.04505346,-0.01541629,-0.89152589,0.68955197,0.72818320,-0.93562983,0.27904459,-0.77801805,0.22980795,-0.47602500,-0.84803795,0.40052603,-0.04662413
8.94000000,-0.03719396,1.04505346,-0.01541629,-0.89152589,0.68955197,0.72818320,-0.93562983,0.27904459,-0.77801805,0.22980795,-0.47602500,-0.84803795,0.40052603,-0.04662413
8.96000000,-0.03719396,1.04505346,-0.01541629,-0.89152589,0.68955197,0.72818320,-0.93562983,0.27904459,-0.77801805,0.22980795,-0.47602500,-0.84803795,0.40052603,-0.04662413
8.98000000,-0.03719396,1.04505346,-0.01541629,-0.89152589,0.68955197,0.72818320,-0.93562983,0.27904459,-0.77801805,0.22980795,-0.47602500,-0.84803795,0.40052603,-0.04662413
9.00000000,-0.03719396,1.04505346,-0.01541629,-0.89152589,0.68955197,0.72818320,-0.93562983,0.27904459,-0.77801805,0.22980795,-0.47602500,-0.84803795,0.40052603,-0.04662413
9.02000000,-0.03719396,1.04505346,-0.01541629,-0.89152589,0.68955197,0.72818320,-0.93562983,0.27904459,-0.77801805,0.22980795,-0.47602500,-0.84803795,0.40052603,-0.04662413
9.04000000,-0.03719396,1.04505346,-0.01541629,-0.89152589,0.68955197,0.72818320,-0.93562983,0.27904459,-0.77801805,0.22980795,-0.47602500,-0.84803795,0.40052603,-0.04662413
9.06000000,-0.03719396,1.04505346,-0.01541629,-0.89152589,0.68955197,0.72818320,-0.93562983,0.27904459,-0.77801805,0.22980795,-0.47602500,-0.84803795,0.40052603,-0.04662413
9.08000000,-0.03719396,1.04505346,-0.01541629,-0.89152589,0.68955197,0.72818320,-0.93562983,0.27904459,-0.77801805,0.22980795,-0.47602500,-0.84803795,0.40052603,-0.04662413
9.10000000,-0.03719396,1.04505346,-0.01541629,-0.89152589,0.68955197,0.72818320,-0.93562983,0.27904459,-0.77801805,0.22980795,-0.47602500,-0.84803795,0.40052603,-0.04662413
9.12000000,-0.03719396,1.04505346,-0.01541629,-0.89152589,0.68955197,0.72818320,-0.93562983,0.27904459,-0.77801805,0.22980795,-0.47602500,-0.84803795,0.40052603,-0.04662413
9.14000000,-0.03719396,1.04505346,-0.01541629,-0.89152589,0.68955197,0.72818320,-0.93562983,0.27904459,-0.77801805,0.22980795,-0.47602500,-0.84803795,0.40052603,-0.04662413
9.16000000,-0.03719396,1.04505346,-0.01541629,-0.89152589,0.68955197,0.72818320,-0.93562983,0.27904459,-0.77801805,0.22980795,-0.47602500,-0.84803795,0.40052603,-0.04662413
9.18000000,-0.03719396,1.04505346,-0.01541629,-0.89152589,0.68955197,0.72818320,-0.93562983,0.27904459,-0.77801805,0.22980795,-0.47602500,-0.84803795,0.40052603,-0.04662413
9.20000000,-0.03719396,1.04505346,-0.01541629,-0.89152589,0.68955197,0.72818320,-0.93562983,0.27904459,-0.77801805,0.22980795,-0.47602500,-0.84803795,0.40052603,-0.04662413
9.22000000,-0.03719396,1.04505346,-0.01541629,-0.89152589,0.68955197,0.72818320,-0.93562983,0.27904459,-0.77801805,0.22980795,-0.47602500,-0.84803795,0.40052603,-0.04662413
9.24000000,-0.03719396,1.04505346,-0.01541629,-0.89152589,0.68955197,0.72818320,-0.93562983,0.27904459,-0.77801805,0.22980795,-0.47602500,-0.84803795,0.40052603,-0.04662413
9.26000000,-0.03719396,1.04505346,-0.01541629,-0.89152589,0.68955197,0.72818320,-0.93562983,0.27904459,-0.77801805,0.22980795,-0.47602500,-0.84803795,0.40052603,-0.04662413
9.28000000,-0.03719396,1.04505346,-0.01541629,-0.89152589,0.68955197,0.72818320,-0.93562983,0.27904459,-0.77801805,0.22980795,-0.47602500,-0.84803795,0.40052603,-0.04662413
9.30000000,-0.03719396,1.04505346,-0.01541629,-0.89152589,0.68955197,0.72818320,-0.93562983,0.27904459,-0.77801805,0.22980795,-0.47602500,-0.84803795,0.40052603,-0.04662413
9.32000000,-0.03719396,1.04505346,-0.01541629,-0.89152589,0.68955197,0.72818320,-0.93562983,0.27904459,-0.77801805,0.22980795,-0.47602500,-0.84803795,0.40052603,-0.04662413
9.34000000,-0.03719396,1.04505346,-0.01541629,-0.89152589,0.68955197,0.72818320,-0.93562983,0.27904459,-0.77801805,0.22980795,-0.47602500,-0.84803795,0.40052603,-0.04662413
9.36000000,-0.03719396,1.04505346,-0.01541629,-0.89152589,0.68955197,0.72818320,-0.93562983,0.27904459,-0.77801805,0.22980795,-0.47602500,-0.84803795,0.40052603,-0.04662413
9.38000000,-0.03719396,1.04505346,-0.01541629,-0.89152589,0.68955197,0.72818320,-0.93562983,0.27904459,-0.77801805,0.22980795,-0.47602500,-0.84803795,0.40052603,-0.04662413
9.40000000,-0.03719396,1.04505346,-0.01541629,-0.89152589,0.68955197,0.72818320,-0.93562983,0.27904459,-0.77801805,0.22980795,-0.47602500,-0.84803795,0.40052603,-0.04662413
9.42000000,-0.03719396,1.04505346,-0.01541629,-0.89152589,0.68955197,0.72818320,-0.93562983,0.27904459,-0.77801805,0.22980795,-0.47602500,-0.84803795,0.40052603,-0.04662413
9.44000000,-0.03719396,1.04505346,-0.01541629,-0.89152589,0.68955197,0.72818320,-0.93562983,0.27904459,-0.77801805,0.22980795,-0.47602500,-0.84803795,0.40052603,-0.04662413
9.46000000,-0.03719396,1.04505346,-0.01541629,-0.89152589,0.68955197,0.72818320,-0.93562983,0.27904459,-0.77801805,0.22980795,-0.47602500,-0.84803795,0.40052603,-0.04662413
9.48000000,-0.03719396,1.04505346,-0.01541629,-0.89152589,0.68955197,0.72818320,-0.93562983,0.27904459,-0.77801805,0.22980795,-0.47602500,-0.84803795,0.40052603,-0.04662413
9.50000000,-0.03719396,1.04505346,-0.01541629,-0.89152589,0.68955197,0.72818320,-0.93562983,0.27904459,-0.77801805,0.22980795,-0.47602500,-0.84803795,0.40052603,-0.04662413
9.52000000,-0.03719396,1.04505346,-0.01541629,-0.89152589,0.68955197,0.72818320,-0.93562983,0.27904459,-0.77801805,0.22980795,-0.47602500,-0.84803795,0.40052603,-0.04662413
9.54000000,-0.03719396,1.04505346,-0.01541629,-0.89152589,0.68955197,0.72818320,-0.93562983,0.27904459,-0.77801805,0.22980795,-0.47602500,-0.84803795,0.40052603,-0.04662413
9.56000000,-0.03719396,1.04505346,-0.01541629,-0.89152589,0.68955197,0.72818320,-0.93562983,0.27904459,-0.77801805,0.22980795,-0.47602500,-0.84803795,0.40052603,-0.04662413
9.58000000,-0.03719396,1.04505346,-0.01541629,-0.89152589,0.68955197,0.72818320,-0.93562983,0.27904459,-0.77801805,0.22980795,-0.47602500,-0.84803795,0.40052603,-0.04662413
9.60000000,-0.03719396,1.04505346,-0.01541629,-0.89152589,0.68955197,0.72818320,-0.93562983,0.27904459,-0.77801805,0.22980795,-0.47602500,-0.84803795,0.40052603,-0.04662413
9.62000000,-0.03719396,1.04505346,-0.01541629,-0.89152589,0.68955197,0.72818320,-0.93562983,0.27904459,-0.77801805,0.22980795,-0.47602500,-0.84803795,0.40052603,-0.04662413
9.64000000,-0.03719396,1.04505346,-0.01541629,-0.89152589,0.68955197,0.72818320,-0.93562983,0.27904459,-0.77801805,0.22980795,-0.47602500,-0.84803795,0.40052603,-0.04662413
9.66000000,-0.03719396,1.04505346,-0.01541629,-0.89152589,0.68955197,0.72818320,-0.93562983,0.27904459,-0.77801805,0.22980795,-0.47602500,-0.84803795,0.40052603,-0.04662413
9.68000000,-0.03719396,1.04505346,-0.01541629,-0.89152589,0.68955197,0.72818320,-0.93562983,0.27904459,-0.77801805,0.22980795,-0.47602500,-0.84803795,0.40052603,-0.04662413
9.70000000,-0.03719396,1.04505346,-0.01541629,-0.89152589,0.68955197,0.72818320,-0.93562983,0.27904459,-0.77801805,0.22980795,-0.47602500,-0.84803795,0.40052603,-0.04662413
9.72000000,-0.03719396,1.04505346,-0.01541629,-0.89152589,0.68955197,0.72818320,-0.93562983,0.27904459,-0.77801805,0.22980795,-0.47602500,-0.84803795,0.40052603,-0.04662413
9.74000000,-0.03719396,1.04505346,-0.01541629,-0.89152589,0.68955197,0.72818320,-0.93562983,0.27904459,-0.77801805,0.22980795,-0.47602500,-0.84803795,0.40052603,-0.04662413
9.76000000,-0.03719396,1.04505346,-0.01541629,-0.89152589,0.68955197,0.72818320,-0.93562983,0.27904459,-0.77801805,0.22980795,-0.47602500,-0.84803795,0.40052603,-0.04662413
9.78000000,-0.03719396,1.04505346,-0.01541629,-0.89152589,0.68955197,0.72818320,-0.93562983,0.27904459,-0.77801805,0.22980795,-0.47602500,-0.84803795,0.40052603,-0.04662413
9.80000000,-0.03719396,1.04505346,-0.01541629,-0.89152589,0.68955197,0.72818320,-0.93562983,0.27904459,-0.77801805,0.22980795,-0.47602500,-0.84803795,0.40052603,-0.04662413
9.82000000,-0.03719396,1.04505346,-0.01541629,-0.89152589,0.68955197,0.72818320,-0.93562983,0.27904459,-0.77801805,0.22980795,-0.47602500,-0.84803795,0.40052603,-0.04662413
9.84000000,-0.03719396,1.04505346,-0.01541629,-0.89152589,0.68955197,0.72818320,-0.93562983,0.27904459,-0.77801805,0.22980795,-0.47602500,-0.84803795,0.40052603,-0.04662413
9.86000000,-0.03719396,1.04505346,-0.01541629,-0.89152589,0.68955197,0.72818320,-0.93562983,0.27904459,-0.77801805,0.22980795,-0.47602500,-0.84803795,0.40052603,-0.04662413
9.88000000,-0.03719396,1.04505346,-0.01541629,-0.89152589,0.68955197,0.72818320,-0.93562983,0.27904459,-0.77801805,0.22980795,-0.47602500,-0.84803795,0.40052603,-0.04662413
9.90000000,-0.03719396,1.04505346,-0.01541629,-0.89152589,0.68955197,0.72818320,-0.93562983,0.27904459,-0.77801805,0.22980795,-0.47602500,-0.84803795,0.40052603,-0.04662413
9.92000000,-0.03719396,1.04505346,-0.01541629,-0.89152589,0.68955197,0.72818320,-0.93562983,0.27904459,-0.77801805,0.22980795,-0.47602500,-0.84803795,0.40052603,-0.04662413
9.94000000,-0.03719396,1.04505346,-0.01541629,-0.89152589,0.68955197,0.72818320,-0.93562983,0.27904459,-0.77801805,0.22980795,-0.47602500,-0.84803795,0.40052603,-0.04662413
9.96000000,-0.03719396,1.04505346,-0.01541629,-0.89152589,0.68955197,0.72818320,-0.93562983,0.27904459,-0.77801805,0.22980795,-0.47602500,-0.84803795,0.40052603,-0.04662413
9.98000000,-0.03719396,1.04505346,-0.01541629,-0.89152589,0.68955197,0.72818320,-0.93562983,0.27904459,-0.77801805,0.22980795,-0.47602500,-0.84803795,0.40052603,-0.04662413
10.00000000,-0.03719396,1.04505346,-0.01541629,-0.89152589,0.68955197,0.72818320,-0.93562983,0.27904459,-0.77801805,0.22980795,-0.47602500,-0.84803795,0.40052603,-0.04662413
10.02000000,-0.03719396,1.04505346,-0.01541629,-0.89152589,0.68955197,0.72818320,-0.93562983,0.27904459,-0.77801805,0.22980795,-0.47602500,-0.84803795,0.40052603,-0.04662413
10.04000000,-0.03719396,1.04505346,-0.01541629,-0.89152589,0.68955197,0.72818320,-0.93562983,0.27904459,-0.77801805,0.22980795,-0.47602500,-0.84803795,0.40052603,-0.04662413
10.06000000,-0.03719396,1.04505346,-0.01541629,-0.89152589,0.68955197,0.72818320,-0.93562983,0.27904459,-0.77801805,0.22980795,-0.47602500,-0.84803795,0.40052603,-0.04662413
10.08000000,-0.03719396,1.04505346,-0.01541629,-0.89152589,0.68955197,0.72818320,-0.93562983,0.27904459,-0.77801805,0.22980795,-0.47602500,-0.84803795,0.40052603,-0.04662413
10.10000000,-0.03719396,1.04505346,-0.01541629,-0.89152589,0.68955197,0.72818320,-0.93562983,0.27904459,-0.77801805,0.22980795,-0.47602500,-0.84803795,0.40052603,-0.04662413
10.12000000,-0.03719396,1.04505346,-0.01541629,-0.89152589,0.68955197,0.72818320,-0.93562983,0.27904459,-0.77801805,0.22980795,-0.47602500,-0.84803795,0.40052603,-0.04662413
10.14000000,-0.03719396,1.04505346,-0.01541629,-0.89152589,0.68955197,0.72818320,-0.93562983,0.27904459,-0.77801805,0.22980795,-0.47602500,-0.84803795,0.40052603,-0.04662413
10.16000000,-0.03719396,1.04505346,-0.01541629,-0.89152589,0.68955197,0.72818320,-0.93562983,0.27904459,-0.77801805,0.22980795,-0.47602500,-0.84803795,0.40052603,-0.04662413
10.18000000,-0.03719396,1.04505346,-0.01541629,-0.89152589,0.68955197,0.72818320,-0.93562983,0.27904459,-0.77801805,0.22980795,-0.47602500,-0.84803795,0.40052603,-0.04662413
10.20000000,-0.03719396,1.04505346,-0.01541629,-0.89152589,0.68955197,0.72818320,-0.93562983,0.27904459,-0.77801805,0.22980795,-0.47602500,-0.84803795,0.40052603,-0.04662413
10.22000000,-0.03719396,1.04505346,-0.01541629,-0.89152589,0.68955197,0.72818320,-0.93562983,0.27904459,-0.77801805,0.22980795,-0.47602500,-0.84803795,0.40052603,-0.04662413
10.24000000,-0.03719396,1.04505346,-0.01541629,-0.89152589,0.68955197,0.72818320,-0.93562983,0.27904459,-0.77801805,0.22980795,-0.47602500,-0.84803795,0.40052603,-0.04662413
10.26000000,-0.03719396,1.04505346,-0.01541629,-0.89152589,0.68955197,0.72818320,-0.93562983,0.27904459,-0.77801805,0.22980795,-0.47602500,-0.84803795,0.40052603,-0.04662413
10.28000000,-0.03719396,1.04505346,-0.01541629,-0.89152589,0.68955197,0.72818320,-0.93562983,0.27904459,-0.77801805,0.22980795,-0.47602500,-0.84803795,0.40052603,-0.04662413
10.30000000,-0.03719396,1.04505346,-0.01541629,-0.89152589,0.68955197,0.72818320,-0.93562983,0.27904459,-0.77801805,0.22980795,-0.47602500,-0.84803795,0.40052603,-0.04662413
10.32000000,-0.03719396,1.04505346,-0.01541629,-0.89152589,0.68955197,0.72818320,-0.93562983,0.27904459,-0.77801805,0.22980795,-0.47602500,-0.84803795,0.40052603,-0.04662413
10.34000000,-0.03719396,1.04505346,-0.01541629,-0.89152589,0.68955197,0.72818320,-0.93562983,0.27904459,-0.77801805,0.22980795,-0.47602500,-0.84803795,0.40052603,-0.04662413
10.36000000,-0.03719396,1.04505346,-0.01541629,-0.89152589,0.68955197,0.72818320,-0.93562983,0.27904459,-0.77801805,0.22980795,-0.47602500,-0.84803795,0.40052603,-0.04662413
10.38000000,-0.03719396,1.04505346,-0.01541629,-0.89152589,0.68955197,0.72818320,-0.93562983,0.27904459,-0.77801805,0.22980795,-0.47602500,-0.84803795,0.40052603,-0.04662413
10.40000000,-0.03719396,1.04505346,-0.01541629,-0.89152589,0.68955197,0.72818320,-0.93562983,0.27904459,-0.77801805,0.22980795,-0.47602500,-0.84803795,0.40052603,-0.04662413
10.42000000,-0.03719396,1.04505346,-0.01541629,-0.89152589,0.68955197,0.72818320,-0.93562983,0.27904459,-0.77801805,0.22980795,-0.47602500,-0.84803795,0.40052603,-0.04662413
10.44000000,-0.03719396,1.04505346,-0.01541629,-0.89152589,0.68955197,0.72818320,-0.93562983,0.27904459,-0.77801805,0.22980795,-0.47602500,-0.84803795,0.40052603,-0.04662413
10.46000000,-0.03719396,1.04505346,-0.01541629,-0.89152589,0.68955197,0.72818320,-0.93562983,0.27904459,-0.77801805,0.22980795,-0.47602500,-0.84803795,0.40052603,-0.04662413
10.48000000,-0.03719396,1.04505346,-0.01541629,-0.89152589,0.68955197,0.72818320,-0.93562983,0.27904459,-0.77801805,0.22980795,-0.47602500,-0.84803795,0.40052603,-0.04662413
10.50000000,-0.03719396,1.04505346,-0.01541629,-0.89152589,0.68955197,0.72818320,-0.93562983,0.27904459,-0.77801805,0.22980795,-0.47602500,-0.84803795,0.40052603,-0.04662413
10.52000000,-0.03719396,1.04505346,-0.01541629,-0.89152589,0.68955197,0.72818320,-0.93562983,0.27904459,-0.77801805,0.22980795,-0.47602500,-0.84803795,0.40052603,-0.04662413
10.54000000,-0.03719396,1.04505346,-0.01541629,-0.89152589,0.68955197,0.72818320,-0.93562983,0.27904459,-0.77801805,0.22980795,-0.47602500,-0.84803795,0.40052603,-0.04662413
10.56000000,-0.03719396,1.04505346,-0.01541629,-0.89152589,0.68955197,0.72818320,-0.93562983,0.27904459,-0.77801805,0.22980795,-0.47602500,-0.84803795,0.40052603,-0.04662413
10.58000000,-0.03719396,1.04505346,-0.01541629,-0.89152589,0.68955197,0.72818320,-0.93562983,0.27904459,-0.77801805,0.22980795,-0.47602500,-0.84803795,0.40052603,-0.04662413
10.60000000,-0.03719396,1.04505346,-0.01541629,-0.89152589,0.68955197,0.72818320,-0.93562983,0.27904459,-0.77801805,0.22980795,-0.47602500,-0.84803795,0.40052603,-0.04662413
10.62000000,-0.03719396,1.04505346,-0.01541629,-0.89152589,0.68955197,0.72818320,-0.93562983,0.27904459,-0.77801805,0.22980795,-0.47602500,-0.84803795,0.40052603,-0.04662413
10.64000000,-0.03719396,1.04505346,-0.01541629,-0.89152589,0.68955197,0.72818320,-0.93562983,0.27904459,-0.77801805,0.22980795,-0.47602500,-0.84803795,0.40052603,-0.04662413
10.66000000,-0.03719396,1.04505346,-0.01541629,-0.89152589,0.68955197,0.72818320,-0.93562983,0.27904459,-0.77801805,0.22980795,-0.47602500,-0.84803795,0.40052603,-0.04662413
10.68000000,-0.03719396,1.04505346,-0.01541629,-0.89152589,0.68955197,0.72818320,-0.93562983,0.27904459,-0.77801805,0.22980795,-0.47602500,-0.84803795,0.40052603,-0.04662413
10.70000000,-0.03719396,1.04505346,-0.01541629,-0.89152589,0.68955197,0.72818320,-0.93562983,0.27904459,-0.77801805,0.22980795,-0.47602500,-0.84803795,0.40052603,-0.04662413
10.72000000,-0.03719396,1.04505346,-0.01541629,-0.89152589,0.68955197,0.72818320,-0.93562983,0.27904459,-0.77801805,0.22980795,-0.47602500,-0.84803795,0.40052603,-0.04662413
10.74000000,-0.03719396,1.04505346,-0.01541629,-0.89152589,0.68955197,0.72818320,-0.93562983,0.27904459,-0.77801805,0.22980795,-0.47602500,-0.84803795,0.40052603,-0.04662413
10.76000000,-0.03719396,1.04505346,-0.01541629,-0.89152589,0.68955197,0.72818320,-0.93562983,0.27904459,-0.77801805,0.22980795,-0.47602500,-0.84803795,0.40052603,-0.04662413
10.78000000,-0.03719396,1.04505346,-0.01541629,-0.89152589,0.68955197,0.72818320,-0.93562983,0.27904459,-0.77801805,0.22980795,-0.47602500,-0.84803795,0.40052603,-0.04662413
10.80000000,-0.03719396,1.04505346,-0.01541629,-0.89152589,0.68955197,0.72818320,-0.93562983,0.27904459,-0.77801805,0.22980795,-0.47602500,-0.84803795,0.40052603,-0.04662413
10.82000000,-0.03719396,1.04505346,-0.01541629,-0.89152589,0.68955197,0.72818320,-0.93562983,0.27904459,-0.77801805,0.22980795,-0.47602500,-0.84803795,0.40052603,-0.04662413
10.84000000,-0.03719396,1.04505346,-0.01541629,-0.89152589,0.68955197,0.72818320,-0.93562983,0.27904459,-0.77801805,0.22980795,-0.47602500,-0.84803795,0.40052603,-0.04662413
10.86000000,-0.03719396,1.04505346,-0.01541629,-0.89152589,0.68955197,0.72818320,-0.93562983,0.27904459,-0.77801805,0.22980795,-0.47602500,-0.84803795,0.40052603,-0.04662413
10.88000000,-0.03719396,1.04505346,-0.01541629,-0.89152589,0.68955197,0.72818320,-0.93562983,0.27904459,-0.77801805,0.22980795,-0.47602500,-0.84803795,0.40052603,-0.04662413
10.90000000,-0.03719396,1.04505346,-0.01541629,-0.89152589,0.68955197,0.72818320,-0.93562983,0.27904459,-0.77801805,0.22980795,-0.47602500,-0.84803795,0.40052603,-0.04662413
10.92000000,-0.03719396,1.04505346,-0.01541629,-0.89152589,0.68955197,0.72818320,-0.93562983,0.27904459,-0.77801805,0.22980795,-0.47602500,-0.84803795,0.40052603,-0.04662413
10.94000000,-0.03719396,1.04505346,-0.01541629,-0.89152589,0.68955197,0.72818320,-0.93562983,0.27904459,-0.77801805,0.22980795,-0.47602500,-0.84803795,0.40052603,-0.04662413
10.96000000,-0.03719396,1.04505346,-0.01541629,-0.89152589,0.68955197,0.72818320,-0.93562983,0.27904459,-0.77801805,0.22980795,-0.47602500,-0.84803795,0.40052603,-0.04662413
10.98000000,-0.03719396,1.04505346,-0.01541629,-0.89152589,0.68955197,0.72818320,-0.93562983,0.27904459,-0.77801805,0.22980795,-0.47602500,-0.84803795,0.40052603,-0.04662413
11.00000000,-0.03719396,1.04505346,-0.01541629,-0.89152589,0.68955197,0.72818320,-0.93562983,0.27904459,-0.77801805,0.22980795,-0.47602500,-0.84803795,0.40052603,-0.04662413
11.02000000,-0.03719396,1.04505346,-0.01541629,-0.89152589,0.68955197,0.72818320,-0.93562983,0.27904459,-0.77801805,0.22980795,-0.47602500,-0.84803795,0.40052603,-0.04662413
11.04000000,-0.03719396,1.04505346,-0.01541629,-0.89152589,0.68955197,0.72818320,-0.93562983,0.27904459,-0.77801805,0.22980795,-0.47602500,-0.84803795,0.40052603,-0.04662413
11.06000000,-0.03719396,1.04505346,-0.01541629,-0.89152589,0.68955197,0.72818320,-0.93562983,0.27904459,-0.77801805,0.22980795,-0.47602500,-0.84803795,0.40052603,-0.04662413
11.08000000,-0.03719396,1.04505346,-0.01541629,-0.89152589,0.68955197,0.72818320,-0.93562983,0.27904459,-0.77801805,0.22980795,-0.47602500,-0.84803795,0.40052603,-0.04662413
11.10000000,-0.03719396,1.04505346,-0.01541629,-0.89152589,0.68955197,0.72818320,-0.93562983,0.27904459,-0.77801805,0.22980795,-0.47602500,-0.84803795,0.40052603,-0.04662413
11.12000000,-0.03719396,1.04505346,-0.01541629,-0.89152589,0.68955197,0.72818320,-0.93562983,0.27904459,-0.77801805,0.22980795,-0.47602500,-0.84803795,0.40052603,-0.04662413
11.14000000,-0.03719396,1.04505346,-0.01541629,-0.89152589,0.68955197,0.72818320,-0.93562983,0.27904459,-0.77801805,0.22980795,-0.47602500,-0.84803795,0.40052603,-0.04662413
11.16000000,-0.03719396,1.04505346,-0.01541629,-0.89152589,0.68955197,0.72818320,-0.93562983,0.27904459,-0.77801805,0.22980795,-0.47602500,-0.84803795,0.40052603,-0.04662413
11.18000000,-0.03719396,1.04505346,-0.01541629,-0.89152589,0.68955197,0.72818320,-0.93562983,0.27904459,-0.77801805,0.22980795,-0.47602500,-0.84803795,0.40052603,-0.04662413
11.20000000,-0.03719396,1.04505346,-0.01541629,-0.89152589,0.68955197,0.72818320,-0.93562983,0.27904459,-0.77801805,0.22980795,-0.47602500,-0.84803795,0.40052603,-0.04662413
11.22000000,-0.03719396,1.04505346,-0.01541629,-0.89152589,0.68955197,0.72818320,-0.93562983,0.27904459,-0.77801805,0.22980795,-0.47602500,-0.84803795,0.40052603,-0.04662413
11.24000000,-0.03719396,1.04505346,-0.01541629,-0.89152589,0.68955197,0.72818320,-0.93562983,0.27904459,-0.77801805,0.22980795,-0.47602500,-0.84803795,0.40052603,-0.04662413
11.26000000,-0.03719396,1.04505346,-0.01541629,-0.89152589,0.68955197,0.72818320,-0.93562983,0.27904459,-0.77801805,0.22980795,-0.47602500,-0.84803795,0.40052603,-0.04662413
11.28000000,-0.03719396,1.04505346,-0.01541629,-0.89152589,0.68955197,0.72818320,-0.93562983,0.27904459,-0.77801805,0.22980795,-0.47602500,-0.84803795,0.40052603,-0.04662413
11.30000000,-0.03719396,1.04505346,-0.01541629,-0.89152589,0.68955197,0.72818320,-0.93562983,0.27904459,-0.77801805,0.22980795,-0.47602500,-0.84803795,0.40052603,-0.04662413
11.32000000,-0.03719396,1.04505346,-0.01541629,-0.89152589,0.68955197,0.72818320,-0.93562983,0.27904459,-0.77801805,0.22980795,-0.47602500,-0.84803795,0.40052603,-0.04662413
11.34000000,-0.03719396,1.04505346,-0.01541629,-0.89152589,0.68955197,0.72818320,-0.93562983,0.27904459,-0.77801805,0.22980795,-0.47602500,-0.84803795,0.40052603,-0.04662413
11.36000000,-0.03719396,1.04505346,-0.01541629,-0.89152589,0.68955197,0.72818320,-0.93562983,0.27904459,-0.77801805,0.22980795,-0.47602500,-0.84803795,0.40052603,-0.04662413
11.38000000,-0.03719396,1.04505346,-0.01541629,-0.89152589,0.68955197,0.72818320,-0.93562983,0.27904459,-0.77801805,0.22980795,-0.47602500,-0.84803795,0.40052603,-0.04662413
11.40000000,-0.03719396,1.04505346,-0.01541629,-0.89152589,0.68955197,0.72818320,-0.93562983,0.27904459,-0.77801805,0.22980795,-0.47602500,-0.84803795,0.40052603,-0.04662413
11.42000000,-0.03719396,1.04505346,-0.01541629,-0.89152589,0.68955197,0.72818320,-0.93562983,0.27904459,-0.77801805,0.22980795,-0.47602500,-0.84803795,0.40052603,-0.04662413
11.44000000,-0.03719396,1.04505346,-0.01541629,-0.89152589,0.68955197,0.72818320,-0.93562983,0.27904459,-0.77801805,0.22980795,-0.47602500,-0.84803795,0.40052603,-0.04662413
11.46000000,-0.03719396,1.04505346,-0.01541629,-0.89152589,0.68955197,0.72818320,-0.93562983,0.27904459,-0.77801805,0.22980795,-0.47602500,-0.84803795,0.40052603,-0.04662413
11.48000000,-0.03719396,1.04505346,-0.01541629,-0.89152589,0.68955197,0.72818320,-0.93562983,0.27904459,-0.77801805,0.22980795,-0.47602500,-0.84803795,0.40052603,-0.04662413
11.50000000,-0.03719396,1.04505346,-0.01541629,-0.89152589,0.68955197,0.72818320,-0.93562983,0.27904459,-0.77801805,0.22980795,-0.47602500,-0.84803795,0.40052603,-0.04662413
11.52000000,-0.03719396,1.04505346,-0.01541629,-0.89152589,0.68955197,0.72818320,-0.93562983,0.27904459,-0.77801805,0.22980795,-0.47602500,-0.84803795,0.40052603,-0.04662413
11.54000000,-0.03719396,1.04505346,-0.01541629,-0.89152589,0.68955197,0.72818320,-0.93562983,0.27904459,-0.77801805,0.22980795,-0.47602500,-0.84803795,0.40052603,-0.04662413
11.56000000,-0.03719396,1.04505346,-0.01541629,-0.89152589,0.68955197,0.72818320,-0.93562983,0.27904459,-0.77801805,0.22980795,-0.47602500,-0.84803795,0.40052603,-0.04662413
