gracetata/LocomotionHEC/legged_lab/Reference Data/ArmHack/StandPerturb/TestData/ArmOnly/sequences/representative_trajectories_arm_only_sequence_50hz.csv
time_s,left_shoulder_pitch_joint,left_shoulder_roll_joint,left_shoulder_yaw_joint,left_elbow_joint,left_wrist_roll_joint,left_wrist_pitch_joint,left_wrist_yaw_joint,right_shoulder_pitch_joint,right_shoulder_roll_joint,right_shoulder_yaw_joint,right_elbow_joint,right_wrist_roll_joint,right_wrist_pitch_joint,right_wrist_yaw_joint
0.00000000,0.00988991,1.04326463,-0.00073090,-0.92963741,0.69397586,0.71548688,-0.87259149,0.27902390,-0.77804000,0.22981467,-0.47601990,-0.84802110,0.40053190,-0.04662590
0.02000000,0.01133775,1.04185773,-0.00240243,-0.92827858,0.69509775,0.71355744,-0.86673220,0.27902215,-0.77804000,0.22981628,-0.47601815,-0.84802285,0.40054385,-0.04662415
0.04000000,0.01249351,1.04019938,-0.00411805,-0.92656399,0.69639544,0.71150810,-0.86132401,0.27901700,-0.77805352,0.22981480,-0.47601976,-0.84802800,0.40053548,-0.04661900
0.06000000,0.01381753,1.03848403,-0.00562983,-0.92442170,0.69781618,0.70935861,-0.85615612,0.27901033,-0.77805065,0.22981612,-0.47602500,-0.84802800,0.40050498,-0.04661900
0.08000000,0.01550690,1.03689148,-0.00708024,-0.92175998,0.69899951,0.70739478,-0.85005845,0.27901161,-0.77802677,0.22981494,-0.47601839,-0.84803461,0.40049561,-0.04662561
0.10000000,0.01743048,1.03535454,-0.00848846,-0.91877407,0.69989598,0.70560503,-0.84337467,0.27901700,-0.77802900,0.22981596,-0.47601950,-0.84802700,0.40051400,-0.04662450
0.12000000,0.01935157,1.03376914,-0.00998414,-0.91553846,0.70079441,0.70379479,-0.83740638,0.27901064,-0.77804636,0.22981517,-0.47602500,-0.84800964,0.40052500,-0.04661900
0.14000000,0.02134462,1.03189514,-0.01162270,-0.91191000,0.70173752,0.70186979,-0.83164177,0.27901748,-0.77804576,0.22981572,-0.47602500,-0.84802896,0.40052500,-0.04662524
0.16000000,0.02334752,1.02973824,-0.01330159,-0.90856247,0.70267784,0.69976424,-0.82498591,0.27903516,-0.77804000,0.22981535,-0.47601267,-0.84802119,0.40055581,-0.04662484
0.18000000,0.02528665,1.02765957,-0.01503228,-0.90561439,0.70371184,0.69721560,-0.81790115,0.27902878,-0.77804000,0.22981560,-0.47601933,-0.84801644,0.40055445,-0.04661900
0.20000000,0.02719381,1.02567343,-0.01693611,-0.90255480,0.70481509,0.69455307,-0.81122099,0.27901095,-0.77804605,0.22981545,-0.47603095,-0.84803395,0.40050685,-0.04661900
0.22000000,0.02894093,1.02354395,-0.01895170,-0.89927473,0.70593625,0.69210857,-0.80443367,0.27901698,-0.77804601,0.22981549,-0.47601901,-0.84801602,0.40053694,-0.04663098
0.24000000,0.03062849,1.02110062,-0.02077788,-0.89573308,0.70726474,0.68937973,-0.79711206,0.27902900,-0.77803407,0.22982100,-0.47601893,-0.84799807,0.40055533,-0.04663113
0.26000000,0.03231000,1.01863221,-0.02265035,-0.89224920,0.70848804,0.68665892,-0.78955324,0.27901734,-0.77802800,0.22981566,-0.47601917,-0.84801532,0.40049002,-0.04661900
0.28000000,0.03426579,1.01647401,-0.02469269,-0.88917898,0.70937403,0.68427968,-0.78179824,0.27900500,-0.77803941,0.22981000,-0.47602441,-0.84802859,0.40048154,-0.04662471
0.30000000,0.03652582,1.01427978,-0.02650724,-0.88631153,0.71027502,0.68189241,-0.77456662,0.27901063,-0.77805200,0.22981516,-0.47603137,-0.84801600,0.40050737,-0.04662537
0.32000000,0.03877066,1.01202819,-0.02821614,-0.88289502,0.71126197,0.67948995,-0.76764203,0.27901700,-0.77805200,0.22981597,-0.47602500,-0.84802149,0.40050649,-0.04661900
0.34000000,0.04125325,1.00981305,-0.03013499,-0.87854983,0.71231353,0.67695450,-0.75956454,0.27901169,-0.77804138,0.22981487,-0.47601969,-0.84802800,0.40050769,-0.04661900
0.36000000,0.04393294,1.00768193,-0.03201192,-0.87381623,0.71347463,0.67444900,-0.75142039,0.27901023,-0.77803323,0.22982100,-0.47601823,-0.84802800,0.40049054,-0.04662423
0.38000000,0.04704181,1.00578528,-0.03381775,-0.86904970,0.71483548,0.67210872,-0.74361889,0.27902217,-0.77804517,0.22981626,-0.47602500,-0.84802800,0.40050286,-0.04662583
0.40000000,0.05034186,1.00370341,-0.03576759,-0.86445649,0.71639789,0.66938083,-0.73539574,0.27902900,-0.77805200,0.22981000,-0.47601991,-0.84802291,0.40058279,-0.04661900
0.42000000,0.05280071,1.00125502,-0.03759097,-0.86044132,0.71816567,0.66629826,-0.72784376,0.27901899,-0.77805200,0.22981000,-0.47601300,-0.84801099,0.40062498,-0.04661900
0.44000000,0.05495686,0.99868681,-0.03942642,-0.85681328,0.71997614,0.66328729,-0.71973506,0.27900995,-0.77804705,0.22981454,-0.47602290,-0.84801886,0.40055738,-0.04661900
0.46000000,0.05721136,0.99648490,-0.04133182,-0.85335071,0.72148185,0.66041249,-0.71080719,0.27900724,-0.77804000,0.22981653,-0.47602724,-0.84804000,0.40052540,-0.04661900
0.48000000,0.05949993,0.99434484,-0.04329433,-0.84964601,0.72312097,0.65753480,-0.70194507,0.27900263,-0.77804963,0.22981000,-0.47601782,-0.84803518,0.40057063,-0.04661900
0.50000000,0.06160360,0.99173096,-0.04557948,-0.84576752,0.72475374,0.65464592,-0.69312371,0.27901226,-0.77805926,0.22981434,-0.47602500,-0.84803274,0.40057552,-0.04661900
0.52000000,0.06360571,0.98908447,-0.04807690,-0.84145758,0.72608231,0.65172745,-0.68466545,0.27900500,-0.77805200,0.22981675,-0.47602964,-0.84803073,0.40051927,-0.04661900
0.54000000,0.06613696,0.98676217,-0.05052225,-0.83647253,0.72737047,0.64832585,-0.67577135,0.27900500,-0.77804747,0.22981000,-0.47603247,-0.84802053,0.40045753,-0.04661900
0.56000000,0.06913744,0.98416669,-0.05299657,-0.83089245,0.72863372,0.64469353,-0.66613566,0.27900942,-0.77803558,0.22981000,-0.47602058,-0.84802358,0.40050474,-0.04661900
0.58000000,0.07184793,0.98108961,-0.05534254,-0.82595504,0.72984802,0.64188040,-0.65793370,0.27902131,-0.77803231,0.22981000,-0.47601300,-0.84802031,0.40055578,-0.04661900
0.60000000,0.07440477,0.97790493,-0.05771693,-0.82165496,0.73097019,0.63930293,-0.64953220,0.27902478,-0.77804000,0.22981000,-0.47601300,-0.84802378,0.40050813,-0.04661900
0.62000000,0.07710724,0.97513821,-0.06016389,-0.81753626,0.73216947,0.63647805,-0.64041688,0.27901285,-0.77804415,0.22981000,-0.47601715,-0.84802015,0.40050608,-0.04661900
0.64000000,0.07976786,0.97250054,-0.06257608,-0.81362328,0.73370571,0.63355182,-0.63100982,0.27899686,-0.77805200,0.22981000,-0.47602500,-0.84803614,0.40053658,-0.04661900
0.66000000,0.08266543,0.96989593,-0.06485980,-0.80941568,0.73562564,0.63034156,-0.62065811,0.27899288,-0.77804804,0.22981363,-0.47602104,-0.84804012,0.40049296,-0.04661900
0.68000000,0.08554154,0.96756347,-0.06697802,-0.80519608,0.73746978,0.62687574,-0.61204304,0.27901700,-0.77804390,0.22982100,-0.47602079,-0.84801990,0.40049710,-0.04661900
0.70000000,0.08850993,0.96550956,-0.06959624,-0.79976302,0.73921296,0.62311759,-0.60235480,0.27901700,-0.77805581,0.22981369,-0.47603319,-0.84802800,0.40050806,-0.04662281
0.72000000,0.09141522,0.96309995,-0.07227981,-0.79383153,0.74090477,0.61957127,-0.59281234,0.27901700,-0.77806034,0.22980166,-0.47602866,-0.84803166,0.40053802,-0.04663100
0.74000000,0.09433159,0.96030278,-0.07465453,-0.78886884,0.74264808,0.61639466,-0.58328272,0.27901700,-0.77805200,0.22981320,-0.47603003,-0.84804000,0.40051300,-0.04662054
0.76000000,0.09732105,0.95728660,-0.07692186,-0.78428607,0.74433885,0.61339291,-0.57359356,0.27901358,-0.77805542,0.22981787,-0.47600958,-0.84802975,0.40052325,-0.04660525
0.78000000,0.10041181,0.95464438,-0.07912472,-0.77957532,0.74609872,0.61010863,-0.56370538,0.27900831,-0.77806400,0.22981304,-0.47600100,-0.84800731,0.40056887,-0.04663100
0.80000000,0.10290735,0.95172587,-0.08130930,-0.77508887,0.74759135,0.60667483,-0.55369135,0.27901383,-0.77805765,0.22981809,-0.47600735,-0.84801600,0.40060830,-0.04662783
0.82000000,0.10503228,0.94915433,-0.08322660,-0.77126129,0.74883118,0.60324836,-0.54501229,0.27900500,-0.77804000,0.22981000,-0.47602500,-0.84801900,0.40054903,-0.04661900
0.84000000,0.10764948,0.94694295,-0.08558109,-0.76720312,0.75003044,0.59933591,-0.53485545,0.27900500,-0.77804000,0.22980716,-0.47602500,-0.84802516,0.40048837,-0.04661616
0.86000000,0.11026159,0.94427340,-0.08799884,-0.76218593,0.75134647,0.59601022,-0.52471830,0.27900500,-0.77804000,0.22980319,-0.47602771,-0.84801600,0.40051687,-0.04661242
0.88000000,0.11284048,0.94096950,-0.09062554,-0.75677343,0.75284114,0.59333926,-0.51472972,0.27900500,-0.77804530,0.22981857,-0.47603170,-0.84801335,0.40049430,-0.04662835
0.90000000,0.11566672,0.93751076,-0.09326931,-0.75087247,0.75470391,0.59046903,-0.50514726,0.27900758,-0.77806142,0.22981000,-0.47601558,-0.84800658,0.40051558,-0.04661642
0.92000000,0.11921241,0.93446652,-0.09612079,-0.74578803,0.75664190,0.58716650,-0.49522902,0.27901450,-0.77805200,0.22981000,-0.47602500,-0.84801850,0.40052999,-0.04660700
0.94000000,0.12288202,0.93116064,-0.09908710,-0.74127460,0.75810845,0.58363036,-0.48537423,0.27900984,-0.77805442,0.22981000,-0.47602500,-0.84803042,0.40055625,-0.04660942
0.96000000,0.12655850,0.92829919,-0.10182827,-0.73655625,0.75993975,0.57940751,-0.47517727,0.27902431,-0.77806400,0.22981000,-0.47602500,-0.84803765,0.40057092,-0.04661900
0.98000000,0.12952901,0.92588631,-0.10431271,-0.73250154,0.76145020,0.57594228,-0.46605519,0.27900273,-0.77805946,0.22981208,-0.47602273,-0.84802573,0.40052208,-0.04661900
1.00000000,0.13204378,0.92352937,-0.10650884,-0.72801654,0.76356717,0.57277255,-0.45659249,0.27899300,-0.77804215,0.22981903,-0.47601730,-0.84801815,0.40055885,-0.04661900
1.02000000,0.13454653,0.92100559,-0.10862415,-0.72272124,0.76594014,0.56909797,-0.44543542,0.27899917,-0.77805200,0.22981000,-0.47603494,-0.84802594,0.40053253,-0.04662106
1.04000000,0.13724611,0.91822605,-0.11061417,-0.71720262,0.76792052,0.56575925,-0.43466725,0.27902515,-0.77805393,0.22981000,-0.47602693,-0.84801600,0.40045878,-0.04662907
1.06000000,0.13997166,0.91578166,-0.11291155,-0.71175254,0.76893579,0.56284568,-0.42538090,0.27900844,-0.77806400,0.22981000,-0.47603184,-0.84801600,0.40050620,-0.04661900
1.08000000,0.14270918,0.91254614,-0.11540966,-0.70644060,0.77004283,0.55929335,-0.41652249,0.27902586,-0.77806400,0.22981000,-0.47600570,-0.84801757,0.40060430,-0.04662057
1.10000000,0.14572086,0.90944874,-0.11820905,-0.70165127,0.77120730,0.55551159,-0.40637783,0.27900786,-0.77806400,0.22981000,-0.47603700,-0.84802800,0.40055869,-0.04662957
1.12000000,0.14883144,0.90647556,-0.12083647,-0.69718352,0.77255864,0.55245697,-0.39627456,0.27902763,-0.77806400,0.22981000,-0.47603563,-0.84802663,0.40046394,-0.04661900
1.14000000,0.15168783,0.90354282,-0.12308185,-0.69237088,0.77439099,0.54933861,-0.38602121,0.27901823,-0.77806277,0.22981000,-0.47602377,-0.84801723,0.40055147,-0.04661900
1.16000000,0.15411934,0.90042860,-0.12497372,-0.68813061,0.77618280,0.54646335,-0.37677622,0.27902793,-0.77805307,0.22981000,-0.47601407,-0.84802800,0.40056872,-0.04661900
1.18000000,0.15645787,0.89793718,-0.12703776,-0.68332432,0.77804355,0.54297065,-0.36721883,0.27901700,-0.77806400,0.22981092,-0.47602400,-0.84802800,0.40051897,-0.04661900
1.20000000,0.15923715,0.89528355,-0.12950409,-0.67760400,0.77977814,0.53850725,-0.35646651,0.27901418,-0.77806306,0.22982100,-0.47601394,-0.84802612,0.40045864,-0.04661994
1.22000000,0.16232660,0.89227976,-0.13187798,-0.67223184,0.78131010,0.53503184,-0.34673319,0.27898535,-0.77805200,0.22981933,-0.47602413,-0.84800574,0.40052500,-0.04663013
1.24000000,0.16557650,0.88947196,-0.13502201,-0.66767770,0.78292494,0.53252473,-0.33790682,0.27903969,-0.77805265,0.22979865,-0.47601365,-0.84802800,0.40052696,-0.04661900
1.26000000,0.16888911,0.88713094,-0.13840071,-0.66291062,0.78480153,0.52955766,-0.32954465,0.27901748,-0.77806400,0.22981000,-0.47602452,-0.84802800,0.40056148,-0.04661900
1.28000000,0.17234014,0.88470057,-0.14151294,-0.65824279,0.78692544,0.52595396,-0.31888061,0.27902859,-0.77806441,0.22981000,-0.47601300,-0.84802717,0.40057051,-0.04661983
1.30000000,0.17529521,0.88200323,-0.14331122,-0.65440226,0.78811273,0.52291524,-0.30939374,0.27901757,-0.77807543,0.22981000,-0.47601300,-0.84800400,0.40050213,-0.04664272
1.32000000,0.17839645,0.87949014,-0.14501045,-0.65052405,0.78936692,0.51967577,-0.29970689,0.27904056,-0.77805200,0.22981000,-0.47601278,-0.84800489,0.40054922,-0.04663100
1.34000000,0.18028197,0.87715653,-0.14700163,-0.64584564,0.79074469,0.51604771,-0.29044679,0.27901698,-0.77805200,0.22981000,-0.47600102,-0.84805196,0.40056081,-0.04663098
1.36000000,0.18197653,0.87460224,-0.14850592,-0.64106979,0.79171202,0.51302719,-0.28175482,0.27900502,-0.77805200,0.22981000,-0.47601298,-0.84802805,0.40045322,-0.04661902
1.38000000,0.18442134,0.87154855,-0.15059264,-0.63552251,0.79364263,0.50993678,-0.27148475,0.27900500,-0.77804008,0.22982093,-0.47603685,-0.84802800,0.40046492,-0.04661900
1.40000000,0.18700645,0.86932704,-0.15241677,-0.63108307,0.79474462,0.50753722,-0.26368793,0.27902871,-0.77806371,0.22981013,-0.47601329,-0.84802800,0.40050056,-0.04660715
1.42000000,0.18992346,0.86677915,-0.15501882,-0.62611801,0.79650147,0.50466971,-0.25415922,0.27901721,-0.77806400,0.22981000,-0.47601300,-0.84802800,0.40059535,-0.04661879
1.44000000,0.19248371,0.86367443,-0.15758545,-0.62213877,0.79817285,0.50144201,-0.24537489,0.27902874,-0.77806400,0.22982076,-0.47600126,-0.84801626,0.40058526,-0.04661900
1.46000000,0.19457104,0.86074558,-0.15974321,-0.61847915,0.79931907,0.49824159,-0.23720792,0.27900561,-0.77804061,0.22982100,-0.47601270,-0.84802770,0.40053822,-0.04663070
1.48000000,0.19724982,0.85831184,-0.16193608,-0.61496992,0.80059109,0.49476719,-0.22787752,0.27900500,-0.77806327,0.22982100,-0.47603627,-0.84801636,0.40047882,-0.04663100
1.50000000,0.20027169,0.85589996,-0.16385431,-0.61098558,0.80236639,0.49111965,-0.21954840,0.27902818,-0.77806400,0.22981038,-0.47601382,-0.84800441,0.40054653,-0.04660782
1.52000000,0.20288784,0.85335205,-0.16589311,-0.60642142,0.80403367,0.48837881,-0.21053614,0.27899455,-0.77805252,0.22981000,-0.47602448,-0.84803845,0.40052603,-0.04661848
1.54000000,0.20542936,0.85101722,-0.16771478,-0.60207133,0.80565608,0.48615141,-0.20324425,0.27902726,-0.77804058,0.22982047,-0.47602500,-0.84802858,0.40050216,-0.04663042
1.56000000,0.20802761,0.84898625,-0.16965351,-0.59686627,0.80719912,0.48335441,-0.19435829,0.27902900,-0.77806273,0.22981058,-0.47601364,-0.84801664,0.40054646,-0.04661964
1.58000000,0.21073461,0.84692633,-0.17182106,-0.59227915,0.80849323,0.48080295,-0.18553489,0.27901777,-0.77807523,0.22981000,-0.47602423,-0.84799353,0.40058270,-0.04664147
1.60000000,0.21288212,0.84495265,-0.17375872,-0.58854333,0.80962113,0.47824337,-0.17845154,0.27901700,-0.77804328,0.22981000,-0.47600319,-0.84801381,0.40059591,-0.04661028
1.62000000,0.21526404,0.84272385,-0.17644794,-0.58461780,0.81076477,0.47551482,-0.16970804,0.27900617,-0.77801834,0.22981000,-0.47601183,-0.84800517,0.40051036,-0.04661783
1.64000000,0.21750098,0.84060975,-0.17851620,-0.58143376,0.81207094,0.47265344,-0.16217485,0.27902654,-0.77805909,0.22981000,-0.47600223,-0.84801477,0.40056563,-0.04661900
1.66000000,0.21961352,0.83871312,-0.18067965,-0.57760408,0.81335200,0.46921148,-0.15447990,0.27901828,-0.77802113,0.22981982,-0.47601172,-0.84800528,0.40055156,-0.04662972
1.68000000,0.22202207,0.83668003,-0.18255397,-0.57444627,0.81443743,0.46696037,-0.14668302,0.27900633,-0.77805867,0.22981122,-0.47600233,-0.84802533,0.40048500,-0.04663100
1.70000000,0.22419174,0.83412029,-0.18408300,-0.57124475,0.81583758,0.46454378,-0.13964716,0.27902621,-0.77803218,0.22981000,-0.47600100,-0.84802800,0.40055124,-0.04659918
1.72000000,0.22593001,0.83208339,-0.18566285,-0.56721782,0.81702318,0.46207470,-0.13286784,0.27900799,-0.77803850,0.22981963,-0.47601150,-0.84800699,0.40055050,-0.04662651
1.74000000,0.22781180,0.83037614,-0.18735520,-0.56344285,0.81801335,0.45983389,-0.12523608,0.27901545,-0.77807134,0.22981142,-0.47603389,-0.84800400,0.40049676,-0.04662055
1.76000000,0.22936835,0.82837324,-0.18891654,-0.55935542,0.81912589,0.45740772,-0.11826853,0.27901700,-0.77806560,0.22981000,-0.47600581,-0.84801440,0.40054099,-0.04661900
1.78000000,0.23118072,0.82605293,-0.19047604,-0.55562941,0.82015532,0.45514669,-0.11133890,0.27900666,-0.77803297,0.22981000,-0.47603203,-0.84802634,0.40052832,-0.04662934
1.80000000,0.23309357,0.82363921,-0.19165917,-0.55287147,0.82094326,0.45277178,-0.10477517,0.27904615,-0.77802800,0.22981000,-0.47603700,-0.84801771,0.40054558,-0.04662071
1.82000000,0.23512778,0.82124649,-0.19329205,-0.54974575,0.82220646,0.44988156,-0.09811607,0.27901204,-0.77803824,0.22981000,-0.47601652,-0.84801600,0.40052852,-0.04661900
1.84000000,0.23711786,0.81947190,-0.19497913,-0.54673060,0.82358540,0.44734966,-0.09209811,0.27899482,-0.77807055,0.22981000,-0.47600282,-0.84802618,0.40051482,-0.04661900
1.86000000,0.23934253,0.81767884,-0.19644977,-0.54396910,0.82487899,0.44534560,-0.08552063,0.27902341,-0.77804559,0.22981929,-0.47600100,-0.84802800,0.40049273,-0.04662914
1.88000000,0.24150962,0.81581517,-0.19780084,-0.54115737,0.82595456,0.44359544,-0.07870585,0.27901891,-0.77805009,0.22981176,-0.47601109,-0.84802800,0.40052934,-0.04661083
1.90000000,0.24374913,0.81400855,-0.19916273,-0.53816051,0.82703819,0.44178442,-0.07317138,0.27900701,-0.77805200,0.22980001,-0.47601300,-0.84802800,0.40056696,-0.04660700
1.92000000,0.24551415,0.81240020,-0.20080685,-0.53580957,0.82765766,0.44022958,-0.06826362,0.27901490,-0.77803221,0.22981697,-0.47601300,-0.84799831,0.40058290,-0.04661690
1.94000000,0.24702848,0.81097096,-0.20249369,-0.53361272,0.82860955,0.43856853,-0.06246063,0.27902678,-0.77803778,0.22981204,-0.47601300,-0.84804088,0.40057522,-0.04662878
1.96000000,0.24828458,0.80958719,-0.20390200,-0.53125524,0.82941871,0.43667871,-0.05650211,0.27900980,-0.77804000,0.22981000,-0.47603220,-0.84803280,0.40048658,-0.04663100
1.98000000,0.24972132,0.80836025,-0.20490382,-0.52846016,0.83043347,0.43480942,-0.05097974,0.27900500,-0.77804000,0.22981869,-0.47603700,-0.84800905,0.40049343,-0.04661205
2.00000000,0.25111571,0.80726569,-0.20579107,-0.52544779,0.83139279,0.43311425,-0.04585053,0.27902375,-0.77803062,0.22981241,-0.47601825,-0.84800400,0.40051038,-0.04661638
2.02000000,0.25238446,0.80612698,-0.20688724,-0.52187383,0.83236026,0.43127085,-0.04034537,0.27902900,-0.77803732,0.22981000,-0.47601300,-0.84803195,0.40054095,-0.04661900
2.04000000,0.25371965,0.80459044,-0.20805653,-0.51841209,0.83354393,0.42934777,-0.03506743,0.27901061,-0.77802161,0.22981000,-0.47602219,-0.84802161,0.40052142,-0.04661900
2.06000000,0.25521816,0.80296170,-0.20918150,-0.51584220,0.83428534,0.42748737,-0.03097107,0.27902326,-0.77804339,0.22981837,-0.47601587,-0.84800687,0.40051300,-0.04661900
2.08000000,0.25666309,0.80159568,-0.21059546,-0.51374951,0.83485046,0.42564522,-0.02731243,0.27901995,-0.77804295,0.22981271,-0.47600395,-0.84802209,0.40055824,-0.04662805
2.10000000,0.25764209,0.80042507,-0.21224415,-0.51172306,0.83538352,0.42401267,-0.02286006,0.27902598,-0.77804000,0.22981000,-0.47600100,-0.84801902,0.40056402,-0.04663100
2.12000000,0.25852940,0.79922102,-0.21346510,-0.50972366,0.83594340,0.42246886,-0.01797949,0.27902008,-0.77803108,0.22981818,-0.47600100,-0.84802492,0.40052532,-0.04661316
2.14000000,0.25944192,0.79794336,-0.21433848,-0.50786098,0.83662943,0.42109370,-0.01336508,0.27901700,-0.77801917,0.22981291,-0.47602748,-0.84802800,0.40045121,-0.04661583
2.16000000,0.26045057,0.79677328,-0.21519609,-0.50641213,0.83719623,0.42000424,-0.00971447,0.27901700,-0.77803339,0.22981000,-0.47601961,-0.84802800,0.40053336,-0.04661900
2.18000000,0.26172668,0.79575686,-0.21619464,-0.50493157,0.83781797,0.41895219,-0.00627259,0.27899983,-0.77804000,0.22981787,-0.47601300,-0.84802800,0.40053008,-0.04661900
2.20000000,0.26308311,0.79467310,-0.21723114,-0.50321899,0.83833014,0.41788345,-0.00263404,0.27900147,-0.77802306,0.22981324,-0.47603841,-0.84802800,0.40047912,-0.04661900
2.22000000,0.26435761,0.79360884,-0.21818319,-0.50121418,0.83894194,0.41682844,0.00107405,0.27901340,-0.77803279,0.22981000,-0.47601541,-0.84799441,0.40051538,-0.04661900
2.24000000,0.26542013,0.79276501,-0.21926513,-0.49925388,0.83942945,0.41576502,0.00509715,0.27901700,-0.77804831,0.22981000,-0.47600931,-0.84801323,0.40056192,-0.04661900
2.26000000,0.26624153,0.79204624,-0.22029422,-0.49785349,0.83985749,0.41468053,0.00837638,0.27901700,-0.77803561,0.22981000,-0.47601300,-0.84803619,0.40058119,-0.04661900
2.28000000,0.26675623,0.79120746,-0.22108292,-0.49685437,0.84030561,0.41342505,0.01077934,0.27900081,-0.77802800,0.22980191,-0.47602109,-0.84804000,0.40056072,-0.04661900
2.30000000,0.26713727,0.79038970,-0.22165763,-0.49588080,0.84075045,0.41225055,0.01272765,0.27900103,-0.77803603,0.22980603,-0.47602500,-0.84804000,0.40052491,-0.04662703
2.32000000,0.26765785,0.78969429,-0.22220194,-0.49479945,0.84145426,0.41120121,0.01508152,0.27900500,-0.77803203,0.22981000,-0.47602500,-0.84803203,0.40051300,-0.04663100
2.34000000,0.26832510,0.78896734,-0.22275492,-0.49364702,0.84206761,0.41028605,0.01775621,0.27901291,-0.77803591,0.22981000,-0.47601709,-0.84802800,0.40052091,-0.04662309
2.36000000,0.26910701,0.78815714,-0.22335056,-0.49228273,0.84249806,0.40931034,0.02082349,0.27901700,-0.77804000,0.22981000,-0.47602085,-0.84803585,0.40052500,-0.04661900
2.38000000,0.26987574,0.78724392,-0.22396298,-0.49099399,0.84289944,0.40842048,0.02362932,0.27902480,-0.77804000,0.22981000,-0.47600941,-0.84803220,0.40052500,-0.04661900
2.40000000,0.27066924,0.78625161,-0.22449359,-0.48979381,0.84320449,0.40758629,0.02617749,0.27902900,-0.77804774,0.22981000,-0.47600874,-0.84802026,0.40051726,-0.04661900
2.42000000,0.27146094,0.78536138,-0.22502084,-0.48864361,0.84350110,0.40674004,0.02842506,0.27902133,-0.77804433,0.22981000,-0.47601300,-0.84801600,0.40052834,-0.04661900
2.44000000,0.27214344,0.78462363,-0.22552282,-0.48747964,0.84383737,0.40590259,0.03028770,0.27902459,-0.77803241,0.22981000,-0.47602817,-0.84801600,0.40052183,-0.04661900
2.46000000,0.27264674,0.78397838,-0.22603555,-0.48634280,0.84410736,0.40518252,0.03167216,0.27902151,-0.77803549,0.22981687,-0.47602951,-0.84801600,0.40054297,-0.04661900
2.48000000,0.27300047,0.78340477,-0.22654091,-0.48528248,0.84431860,0.40458838,0.03280385,0.27902439,-0.77803261,0.22982100,-0.47602500,-0.84802339,0.40056100,-0.04660422
2.50000000,0.27327256,0.78288849,-0.22691101,-0.48432322,0.84459981,0.40412500,0.03385616,0.27902900,-0.77803526,0.22981434,-0.47602500,-0.84803526,0.40056100,-0.04660953
2.52000000,0.27354430,0.78246744,-0.22719412,-0.48335654,0.84486841,0.40377794,0.03501562,0.27902900,-0.77803282,0.22981000,-0.47601782,-0.84802564,0.40053228,-0.04661900
2.54000000,0.27383687,0.78217662,-0.22741148,-0.48242020,0.84504518,0.40351103,0.03625156,0.27903610,-0.77803510,0.22981000,-0.47601300,-0.84803020,0.40052010,-0.04662610
2.56000000,0.27416169,0.78196717,-0.22758926,-0.48150901,0.84514594,0.40326623,0.03732795,0.27902702,-0.77804000,0.22981641,-0.47601300,-0.84804000,0.40053199,-0.04662401
2.58000000,0.27454708,0.78174261,-0.22775338,-0.48067266,0.84524418,0.40306531,0.03820497,0.27901012,-0.77804688,0.22981470,-0.47600612,-0.84804000,0.40052325,-0.04661900
2.60000000,0.27495606,0.78151997,-0.22798239,-0.48004228,0.84540326,0.40287220,0.03901932,0.27901853,-0.77803847,0.22981000,-0.47600100,-0.84802647,0.40051977,-0.04662577
2.62000000,0.27526117,0.78131777,-0.22828816,-0.47957829,0.84560079,0.40264413,0.03981451,0.27902231,-0.77802800,0.22981000,-0.47600769,-0.84802939,0.40051831,-0.04663100
2.64000000,0.27546772,0.78108187,-0.22851735,-0.47925351,0.84575078,0.40243172,0.04063669,0.27903693,-0.77802800,0.22981000,-0.47600636,-0.84804000,0.40051300,-0.04662436
2.66000000,0.27564426,0.78089882,-0.22866522,-0.47904377,0.84588319,0.40224225,0.04153640,0.27903996,-0.77802800,0.22981598,-0.47600752,-0.84804000,0.40051952,-0.04661900
2.68000000,0.27581018,0.78080578,-0.22875648,-0.47888556,0.84599222,0.40209130,0.04240800,0.27902900,-0.77803437,0.22981516,-0.47600663,-0.84803363,0.40052500,-0.04662537
2.70000000,0.27598257,0.78072834,-0.22879771,-0.47878057,0.84609462,0.40196638,0.04313856,0.27901652,-0.77804000,0.22981000,-0.47601348,-0.84802800,0.40053124,-0.04662476
2.72000000,0.27610584,0.78066958,-0.22885184,-0.47869073,0.84618256,0.40185387,0.04370011,0.27902342,-0.77804000,0.22981000,-0.47601886,-0.84802800,0.40052472,-0.04661900
2.74000000,0.27618308,0.78063375,-0.22889917,-0.47858933,0.84623033,0.40176441,0.04404350,0.27902883,-0.77804000,0.22981000,-0.47601300,-0.84803408,0.40052517,-0.04661900
2.76000000,0.27627216,0.78058640,-0.22894110,-0.47849986,0.84627206,0.40169892,0.04424631,0.27901098,-0.77804000,0.22981552,-0.47601300,-0.84803398,0.40053098,-0.04661900
2.78000000,0.27637937,0.78050950,-0.22900662,-0.47842238,0.84632562,0.40164531,0.04443650,0.27900500,-0.77804594,0.22981556,-0.47601300,-0.84802206,0.40051906,-0.04661900
2.80000000,0.27645757,0.78044928,-0.22907180,-0.47836843,0.84639715,0.40159157,0.04459158,0.27901086,-0.77804614,0.22981000,-0.47601300,-0.84802186,0.40052472,-0.04662486
2.82000000,0.27649338,0.78041962,-0.22912518,-0.47833262,0.84642241,0.40154382,0.04468197,0.27901700,-0.77804000,0.22981000,-0.47601300,-0.84802800,0.40053121,-0.04663100
2.84000000,0.27652905,0.78040668,-0.22916705,-0.47830832,0.84642137,0.40150242,0.04474142,0.27901132,-0.77802863,0.22979863,-0.47601300,-0.84801663,0.40052500,-0.04662532
2.86000000,0.27655357,0.78038514,-0.22919715,-0.47828528,0.84645072,0.40146728,0.04478415,0.27901057,-0.77803272,0.22979715,-0.47601300,-0.84800400,0.40052500,-0.04661900
2.88000000,0.27656000,0.78031992,-0.22920449,-0.47825497,0.84645897,0.40143146,0.04482457,0.27901700,-0.77804649,0.22980449,-0.47601851,-0.84800400,0.40052500,-0.04660797
2.90000000,0.27657090,0.78028645,-0.22919255,-0.47823701,0.84645145,0.40141200,0.04487334,0.27901700,-0.77804000,0.22980844,-0.47602500,-0.84801490,0.40053045,-0.04660590
2.92000000,0.27658400,0.78028762,-0.22917523,-0.47822562,0.84646338,0.40139046,0.04489300,0.27901162,-0.77804000,0.22981606,-0.47601962,-0.84802262,0.40053162,-0.04662438
2.94000000,0.27659465,0.78028100,-0.22918330,-0.47821368,0.84647532,0.40136400,0.04489300,0.27901032,-0.77803468,0.22981488,-0.47601300,-0.84802132,0.40053032,-0.04662568
2.96000000,0.27660800,0.78028627,-0.22919945,-0.47820173,0.84648200,0.40135873,0.04490882,0.27902227,-0.77803327,0.22981617,-0.47601300,-0.84802273,0.40052645,-0.04661373
2.98000000,0.27661323,0.78028777,-0.22918077,-0.47819500,0.84647677,0.40134677,0.04492377,0.27902900,-0.77804523,0.22981479,-0.47601300,-0.84802123,0.40051823,-0.04661223
3.00000000,0.27663035,0.78028618,-0.22918435,-0.47819500,0.84647000,0.40134000,0.04492218,0.27902900,-0.77804682,0.22981625,-0.47601300,-0.84802800,0.40051982,-0.04662418
3.02000000,0.27665425,0.78028275,-0.22919800,-0.47818475,0.84647512,0.40134000,0.04493925,0.27902388,-0.77803488,0.22981000,-0.47601812,-0.84802288,0.40050788,-0.04662588
3.04000000,0.27666293,0.78026900,-0.22919800,-0.47816593,0.84647693,0.40133493,0.04495300,0.27901700,-0.77803307,0.22981000,-0.47601993,-0.84801093,0.40049593,-0.04662407
3.06000000,0.27666605,0.78026900,-0.22919800,-0.47815398,0.84647000,0.40131795,0.04495802,0.27901700,-0.77804000,0.22981000,-0.47601300,-0.84800902,0.40049905,-0.04662598
3.08000000,0.27667005,0.78025905,-0.22920297,-0.47812711,0.84647497,0.40129903,0.04496500,0.27901700,-0.77804995,0.22981456,-0.47602295,-0.84801600,0.40051300,-0.04661900
3.10000000,0.27665600,0.78025978,-0.22921000,-0.47805959,0.84648693,0.40127722,0.04496500,0.27901700,-0.77804922,0.22981648,-0.47603207,-0.84802093,0.40051300,-0.04661407
3.12000000,0.27664624,0.78028100,-0.22920512,-0.47792493,0.84648912,0.40120720,0.04496500,0.27901700,-0.77802800,0.22981447,-0.47602012,-0.84802312,0.40051300,-0.04661188
3.14000000,0.27662717,0.78028100,-0.22920283,-0.47771928,0.84648683,0.40108773,0.04496500,0.27902183,-0.77803283,0.22982100,-0.47601783,-0.84801600,0.40051783,-0.04661900
3.16000000,0.27661523,0.78026668,-0.22919568,-0.47745925,0.84649400,0.40091573,0.04496023,0.27902900,-0.77803523,0.22981662,-0.47602023,-0.84802077,0.40052500,-0.04661900
3.18000000,0.27659384,0.78025916,-0.22917400,-0.47713035,0.84648928,0.40064163,0.04495300,0.27902428,-0.77803272,0.22981000,-0.47601300,-0.84802328,0.40052500,-0.04661900
3.20000000,0.27654866,0.78025766,-0.22916466,-0.47670699,0.84648667,0.40030362,0.04494366,0.27901700,-0.77803533,0.22981000,-0.47601300,-0.84802534,0.40052500,-0.04661433
3.22000000,0.27648430,0.78022562,-0.22914077,-0.47612227,0.84650323,0.39988012,0.04492438,0.27901700,-0.77802800,0.22981423,-0.47601300,-0.84803077,0.40052500,-0.04661162
3.24000000,0.27636312,0.78022848,-0.22911696,-0.47535414,0.84653609,0.39940652,0.04491248,0.27902152,-0.77802800,0.22981685,-0.47600848,-0.84801600,0.40052500,-0.04661900
3.26000000,0.27614134,0.78021236,-0.22909336,-0.47439064,0.84656600,0.39892000,0.04488772,0.27902468,-0.77802800,0.22981000,-0.47600100,-0.84801600,0.40052500,-0.04661900
3.28000000,0.27581653,0.78018876,-0.22906187,-0.47332187,0.84657012,0.39834523,0.04483229,0.27901700,-0.77803212,0.22981000,-0.47601335,-0.84802012,0.40052500,-0.04662312
3.30000000,0.27531850,0.78016083,-0.22899042,-0.47225342,0.84658206,0.39770910,0.04476471,0.27902106,-0.77803594,0.22981000,-0.47603294,-0.84803206,0.40052500,-0.04662694
3.32000000,0.27465847,0.78012501,-0.22883104,-0.47119986,0.84659800,0.39695349,0.04470101,0.27903300,-0.77803200,0.22981366,-0.47602500,-0.84803600,0.40052900,-0.04661900
3.34000000,0.27378060,0.78008523,-0.22854880,-0.47004320,0.84662188,0.39597589,0.04462147,0.27903312,-0.77804000,0.22981739,-0.47602500,-0.84802800,0.40053306,-0.04661900
3.36000000,0.27273527,0.78004521,-0.22810856,-0.46881020,0.84664189,0.39487081,0.04450282,0.27901311,-0.77804000,0.22981000,-0.47602111,-0.84802800,0.40052111,-0.04662289
3.38000000,0.27157628,0.78001761,-0.22751484,-0.46743534,0.84668006,0.39363331,0.04431784,0.27901260,-0.77804380,0.22981000,-0.47601680,-0.84803180,0.40051680,-0.04662720
3.40000000,0.27026235,0.77998582,-0.22685581,-0.46578374,0.84675937,0.39216192,0.04407579,0.27902541,-0.77805200,0.22981000,-0.47602500,-0.84804000,0.40052141,-0.04661900
3.42000000,0.26884503,0.77995205,-0.22610010,-0.46381590,0.84681673,0.39046690,0.04373190,0.27901700,-0.77804861,0.22981000,-0.47602161,-0.84804000,0.40051300,-0.04662578
3.44000000,0.26742028,0.77989257,-0.22532077,-0.46157121,0.84689672,0.38861465,0.04316750,0.27902029,-0.77804329,0.22981000,-0.47601300,-0.84803014,0.40051629,-0.04663971
3.46000000,0.26597982,0.77983330,-0.22444157,-0.45943972,0.84693942,0.38645681,0.04239838,0.27902581,-0.77804561,0.22981000,-0.47601939,-0.84801039,0.40052819,-0.04662781
3.48000000,0.26471401,0.77978060,-0.22356378,-0.45771943,0.84693180,0.38416920,0.04148959,0.27901387,-0.77803113,0.22981000,-0.47602760,-0.84802800,0.40053387,-0.04661900
3.50000000,0.26307039,0.77973239,-0.22262500,-0.45567304,0.84699426,0.38164991,0.04046665,0.27900500,-0.77804000,0.22981000,-0.47600100,-0.84803109,0.40052809,-0.04661900
3.52000000,0.26107277,0.77964561,-0.22179525,-0.45303940,0.84705149,0.37963769,0.03950513,0.27901110,-0.77804000,0.22981000,-0.47600405,-0.84804000,0.40053700,-0.04662205
3.54000000,0.25860939,0.77953809,-0.22095102,-0.44985428,0.84714998,0.37767214,0.03848195,0.27902601,-0.77804000,0.22981274,-0.47601001,-0.84803102,0.40053401,-0.04662502
3.56000000,0.25619305,0.77940066,-0.21974697,-0.44643689,0.84718580,0.37554991,0.03748781,0.27901993,-0.77804293,0.22981831,-0.47600980,-0.84800107,0.40052793,-0.04661287
3.58000000,0.25390313,0.77927534,-0.21830276,-0.44281669,0.84723611,0.37323480,0.03658618,0.27902611,-0.77804911,0.22981000,-0.47602833,-0.84800067,0.40053122,-0.04662811
3.60000000,0.25134515,0.77913782,-0.21657126,-0.43844540,0.84732036,0.37050606,0.03546037,0.27901984,-0.77804000,0.22981000,-0.47600668,-0.84802516,0.40052152,-0.04661900
3.62000000,0.24854621,0.77902746,-0.21489656,-0.43426171,0.84738469,0.36753881,0.03438682,0.27902900,-0.77804279,0.22981000,-0.47601942,-0.84802158,0.40055738,-0.04661621
3.64000000,0.24559195,0.77891911,-0.21323577,-0.43034691,0.84748423,0.36421388,0.03331278,0.27902626,-0.77804926,0.22981251,-0.47600374,-0.84804000,0.40056854,-0.04660974
3.66000000,0.24291901,0.77873869,-0.21142835,-0.42692016,0.84753085,0.36091847,0.03238744,0.27902238,-0.77804269,0.22981853,-0.47601300,-0.84803731,0.40052108,-0.04661900
3.68000000,0.23994919,0.77857159,-0.20965211,-0.42343495,0.84760919,0.35795313,0.03152215,0.27903308,-0.77804936,0.22981000,-0.47601300,-0.84802800,0.40055692,-0.04661900
3.70000000,0.23659074,0.77833904,-0.20773248,-0.41918312,0.84768701,0.35494452,0.03051630,0.27901017,-0.77804258,0.22981237,-0.47601300,-0.84802542,0.40056949,-0.04661900
3.72000000,0.23288475,0.77816468,-0.20571772,-0.41478126,0.84781274,0.35162503,0.02952609,0.27902900,-0.77804945,0.22982100,-0.47601300,-0.84802110,0.40052574,-0.04661645
3.74000000,0.22864321,0.77795902,-0.20366385,-0.40983353,0.84788998,0.34792148,0.02848454,0.27902400,-0.77804000,0.22982100,-0.47601550,-0.84803750,0.40056051,-0.04660700
3.76000000,0.22450041,0.77777331,-0.20150748,-0.40448826,0.84802603,0.34377278,0.02732111,0.27900990,-0.77804490,0.22982100,-0.47602010,-0.84802066,0.40050566,-0.04661190
3.78000000,0.22080067,0.77768026,-0.19916156,-0.39884861,0.84813816,0.33929137,0.02583420,0.27903140,-0.77805681,0.22982100,-0.47600100,-0.84799679,0.40049617,-0.04662860
3.80000000,0.21707121,0.77748783,-0.19696121,-0.39303241,0.84824534,0.33524324,0.02404511,0.27903632,-0.77803034,0.22981885,-0.47600100,-0.84802068,0.40056363,-0.04661666
3.82000000,0.21336755,0.77723529,-0.19491300,-0.38761097,0.84828889,0.33112755,0.02208263,0.27902378,-0.77804226,0.22981207,-0.47600100,-0.84803548,0.40053630,-0.04660926
3.84000000,0.20939026,0.77695983,-0.19287157,-0.38227901,0.84844376,0.32687300,0.01992552,0.27905081,-0.77804981,0.22982100,-0.47600100,-0.84801819,0.40057843,-0.04662119
3.86000000,0.20513664,0.77663516,-0.19045199,-0.37693497,0.84852325,0.32211972,0.01763760,0.27904524,-0.77804212,0.22982100,-0.47600100,-0.84802588,0.40055324,-0.04662888
3.88000000,0.20056743,0.77635272,-0.18806249,-0.37093516,0.84875010,0.31707351,0.01568083,0.27905471,-0.77804994,0.22981911,-0.47600100,-0.84801600,0.40058123,-0.04661900
3.90000000,0.19512047,0.77610029,-0.18557730,-0.36386989,0.84895876,0.31226200,0.01351163,0.27900898,-0.77803801,0.22981183,-0.47600299,-0.84801799,0.40059908,-0.04661701
3.92000000,0.18985623,0.77589246,-0.18299559,-0.35692919,0.84908112,0.30749935,0.01156496,0.27903285,-0.77803185,0.22982100,-0.47601107,-0.84802607,0.40049863,-0.04660700
3.94000000,0.18447861,0.77566867,-0.18030442,-0.35006535,0.84923735,0.30252738,0.01016247,0.27905300,-0.77805014,0.22981743,-0.47601030,-0.84801414,0.40054342,-0.04661072
3.96000000,0.18005401,0.77552369,-0.17726325,-0.34373430,0.84945152,0.29723739,0.00875876,0.27905659,-0.77803821,0.22979979,-0.47605562,-0.84800400,0.40052555,-0.04662921
3.98000000,0.17557908,0.77534784,-0.17437685,-0.33744267,0.84961023,0.29169297,0.00725510,0.27908393,-0.77803146,0.22981000,-0.47602327,-0.84800227,0.40059873,-0.04661727
4.00000000,0.17076910,0.77504689,-0.17168447,-0.33093915,0.84985173,0.28620520,0.00580575,0.27911498,-0.77804866,0.22981000,-0.47601467,-0.84799033,0.40059898,-0.04660867
4.02000000,0.16499680,0.77473729,-0.16883786,-0.32341028,0.85004771,0.28063717,0.00381057,0.27905300,-0.77803285,0.22981148,-0.47602985,-0.84798808,0.40051437,-0.04661900
4.04000000,0.15976711,0.77452307,-0.16538939,-0.31560248,0.85028365,0.27510087,0.00139753,0.27906851,-0.77805780,0.22982255,-0.47605480,-0.84803380,0.40039537,-0.04661745
4.06000000,0.15396877,0.77438228,-0.16181470,-0.30754603,0.85057221,0.26917464,-0.00113084,0.27917733,-0.77802045,0.22982867,-0.47601003,-0.84799497,0.40058636,-0.04660848
4.08000000,0.14795755,0.77417591,-0.15866597,-0.30001308,0.85080192,0.26350242,-0.00368805,0.27920527,-0.77805058,0.22979942,-0.47599327,-0.84801458,0.40066675,-0.04661900
4.10000000,0.14191019,0.77400651,-0.15548948,-0.29255851,0.85104462,0.25730071,-0.00636054,0.27918500,-0.77803725,0.22981126,-0.47602363,-0.84800263,0.40055138,-0.04661900
4.12000000,0.13574979,0.77365959,-0.15218885,-0.28417561,0.85123677,0.25029924,-0.00890649,0.27917711,-0.77801600,0.22981979,-0.47601958,-0.84799332,0.40046648,-0.04662032
4.14000000,0.12992814,0.77348626,-0.14870221,-0.27545234,0.85152924,0.24403678,-0.01114810,0.27912175,-0.77801725,0.22980875,-0.47606800,-0.84800275,0.40039224,-0.04662975
4.16000000,0.12415296,0.77326299,-0.14508471,-0.26702514,0.85176926,0.23836859,-0.01291798,0.27920759,-0.77802800,0.22979800,-0.47602262,-0.84799200,0.40050445,-0.04661781
4.18000000,0.11827690,0.77308106,-0.14176536,-0.25843819,0.85192828,0.23195954,-0.01496583,0.27931078,-0.77802913,0.22979687,-0.47599987,-0.84799087,0.40064613,-0.04661039
4.20000000,0.11172775,0.77295531,-0.13863813,-0.25007095,0.85223897,0.22504800,-0.01715512,0.27936742,-0.77803893,0.22978815,-0.47599007,-0.84798107,0.40065164,-0.04663978
4.22000000,0.10394470,0.77251885,-0.13544620,-0.24062576,0.85255910,0.21817651,-0.02000531,0.27927396,-0.77802699,0.22981092,-0.47600704,-0.84799099,0.40057887,-0.04660901
4.24000000,0.09728380,0.77215223,-0.13172846,-0.23197828,0.85285403,0.21102176,-0.02276368,0.27921326,-0.77801688,0.22982100,-0.47607300,-0.84798263,0.40038188,-0.04663100
4.26000000,0.09124128,0.77193072,-0.12732630,-0.22372264,0.85313715,0.20400275,-0.02592057,0.27928294,-0.77802800,0.22982033,-0.47607080,-0.84801453,0.40040401,-0.04663027
4.28000000,0.08528175,0.77159455,-0.12298608,-0.21571928,0.85340099,0.19806694,-0.02897296,0.27932681,-0.77802859,0.22980762,-0.47603522,-0.84799259,0.40057835,-0.04661959
4.30000000,0.07832363,0.77140607,-0.11898148,-0.20615451,0.85372239,0.19112310,-0.03150573,0.27930453,-0.77803947,0.22976360,-0.47600260,-0.84800453,0.40067460,-0.04663153
4.32000000,0.07097068,0.77125325,-0.11527493,-0.19654235,0.85403762,0.18359742,-0.03362542,0.27931741,-0.77802894,0.22979890,-0.47603794,-0.84801600,0.40053372,-0.04664253
4.34000000,0.06369091,0.77115095,-0.11158421,-0.18713087,0.85418682,0.17655264,-0.03570605,0.27935160,-0.77805240,0.22982023,-0.47605979,-0.84801600,0.40045702,-0.04663140
4.36000000,0.05755017,0.77085555,-0.10803416,-0.17860710,0.85450277,0.16955380,-0.03797219,0.27933981,-0.77806362,0.22979781,-0.47602481,-0.84801562,0.40057357,-0.04664281
4.38000000,0.05084791,0.77051021,-0.10399797,-0.16911629,0.85474071,0.16201330,-0.04064298,0.27932763,-0.77803988,0.22978612,-0.47601337,-0.84799200,0.40060753,-0.04663100
4.40000000,0.04372042,0.77014065,-0.10038454,-0.15929350,0.85490804,0.15482304,-0.04337484,0.27929200,-0.77802806,0.22979800,-0.47604882,-0.84799212,0.40046475,-0.04663100
4.42000000,0.03719965,0.76987903,-0.09660538,-0.14987594,0.85510998,0.14764672,-0.04645069,0.27929200,-0.77804000,0.22979800,-0.47601300,-0.84801600,0.40041700,-0.04663100
4.44000000,0.02981717,0.76973570,-0.09270511,-0.14025017,0.85536077,0.13991787,-0.05024342,0.27935171,-0.77805194,0.22978606,-0.47601300,-0.84800406,0.40057224,-0.04661906
4.46000000,0.02296807,0.76930715,-0.08780731,-0.13006729,0.85556404,0.13267487,-0.05309849,0.27938765,-0.77802823,0.22978600,-0.47600112,-0.84802777,0.40062054,-0.04664277
4.48000000,0.01567028,0.76880783,-0.08386751,-0.11982234,0.85575501,0.12518427,-0.05545027,0.27931712,-0.77803981,0.22978600,-0.47601281,-0.84803981,0.40052649,-0.04663119
4.50000000,0.00840591,0.76843657,-0.07962605,-0.11025883,0.85598037,0.11742515,-0.05775281,0.27926898,-0.77802824,0.22982029,-0.47603651,-0.84799298,0.40046622,-0.04661924
4.52000000,0.00146927,0.76828982,-0.07571746,-0.10145728,0.85617057,0.11035069,-0.06046368,0.27933759,-0.77802800,0.22979877,-0.47602540,-0.84799200,0.40054619,-0.04661900
4.54000000,-0.00661561,0.76807755,-0.07154446,-0.09106487,0.85636140,0.10246885,-0.06334125,0.27948983,-0.77806258,0.22978647,-0.47597890,-0.84800353,0.40073340,-0.04661900
4.56000000,-0.01450389,0.76773665,-0.06756642,-0.08075953,0.85654091,0.09488612,-0.06621512,0.27938139,-0.77802962,0.22979746,-0.47599992,-0.84801546,0.40050033,-0.04663046
4.58000000,-0.02189877,0.76749388,-0.06348132,-0.07110378,0.85666208,0.08757365,-0.06954461,0.27935319,-0.77805081,0.22981986,-0.47602381,-0.84801600,0.40040918,-0.04663100
4.60000000,-0.02883337,0.76729058,-0.05931822,-0.06191913,0.85680312,0.07993326,-0.07278219,0.27938578,-0.77800696,0.22982100,-0.47600248,-0.84801600,0.40046130,-0.04661974
4.62000000,-0.03603968,0.76711066,-0.05486880,-0.05178789,0.85707975,0.07225824,-0.07555739,0.27941031,-0.77802631,0.22978846,-0.47598984,-0.84801600,0.40059888,-0.04663016
4.64000000,-0.04318074,0.76674549,-0.05095599,-0.04077398,0.85722149,0.06479718,-0.07795820,0.27937887,-0.77806113,0.22978600,-0.47601109,-0.84801600,0.40058691,-0.04664204
4.66000000,-0.05043284,0.76631072,-0.04712028,-0.03087052,0.85736221,0.05724881,-0.08022231,0.27940878,-0.77805307,0.22980785,-0.47602393,-0.84802693,0.40050851,-0.04662115
4.68000000,-0.05743451,0.76546910,-0.04097154,-0.02148087,0.85762480,0.04858230,-0.08414678,0.27947717,-0.77804114,0.22979914,-0.47603586,-0.84800628,0.40051186,-0.04661900
4.70000000,-0.06680833,0.76476909,-0.03523669,-0.01108197,0.85804000,0.03880976,-0.08838916,0.27941917,-0.77804000,0.22978719,-0.47598297,-0.84801481,0.40067508,-0.04661900
4.72000000,-0.07617076,0.76422922,-0.03079732,-0.00096520,0.85832918,0.02896031,-0.09196883,0.27936903,-0.77805074,0.22978600,-0.47605220,-0.84799451,0.40056409,-0.04665123
4.74000000,-0.08563539,0.76394968,-0.02620478,0.00848037,0.85856096,0.02056231,-0.09543218,0.27939605,-0.77804132,0.22979668,-0.47607168,-0.84801336,0.40048491,-0.04663364
4.76000000,-0.09412848,0.76373278,-0.02204513,0.01741561,0.85895476,0.01227088,-0.09826066,0.27941056,-0.77805056,0.22978744,-0.47600963,-0.84799488,0.40052981,-0.04663100
4.78000000,-0.10227732,0.76350856,-0.01758439,0.02703456,0.85915122,0.00474602,-0.10035734,0.27933889,-0.77802067,0.22978600,-0.47604278,-0.84800244,0.40045345,-0.04663100
4.80000000,-0.10979822,0.76325137,-0.01362521,0.03666647,0.85943167,-0.00244524,-0.10252125,0.27926592,-0.77802635,0.22980669,-0.47605935,-0.84802469,0.40038927,-0.04664135
4.82000000,-0.11733658,0.76298978,-0.00935158,0.04670513,0.85974960,-0.01044912,-0.10529815,0.27932793,-0.77802800,0.22981000,-0.47604045,-0.84800745,0.40047349,-0.04661217
4.84000000,-0.12416939,0.76280904,-0.00521651,0.05635374,0.85997981,-0.01732555,-0.10834415,0.27937063,-0.77804842,0.22978958,-0.47602679,-0.84801421,0.40055027,-0.04660700
4.86000000,-0.13095319,0.76250994,-0.00103324,0.06671878,0.86020486,-0.02411235,-0.11106519,0.27934555,-0.77803170,0.22979615,-0.47602500,-0.84801600,0.40054070,-0.04661715
4.88000000,-0.13725577,0.76221870,0.00288087,0.07695128,0.86051157,-0.03188727,-0.11420782,0.27930973,-0.77804818,0.22978791,-0.47604518,-0.84803618,0.40049664,-0.04662909
4.90000000,-0.14372728,0.76198318,0.00645285,0.08697134,0.86093265,-0.03851823,-0.11723927,0.27933397,-0.77802203,0.22978600,-0.47600904,-0.84802002,0.40051897,-0.04663100
4.92000000,-0.15004504,0.76170895,0.00993451,0.09600604,0.86130124,-0.04521447,-0.11970962,0.27935967,-0.77801600,0.22978600,-0.47602067,-0.84801600,0.40056434,-0.04662116
4.94000000,-0.15657254,0.76138555,0.01342466,0.10652813,0.86161881,-0.05254927,-0.12174395,0.27935428,-0.77804517,0.22977628,-0.47600555,-0.84800628,0.40060217,-0.04658983
4.96000000,-0.16320865,0.76107204,0.01639796,0.11688908,0.86183182,-0.05972859,-0.12392403,0.27936161,-0.77803277,0.22978361,-0.47602984,-0.84801361,0.40056093,-0.04660223
4.98000000,-0.16995650,0.76067678,0.01986722,0.12664453,0.86205053,-0.06654087,-0.12646916,0.27932583,-0.77802800,0.22978600,-0.47603700,-0.84801600,0.40048220,-0.04661654
5.00000000,-0.17589794,0.76030641,0.02371110,0.13513547,0.86226776,-0.07302358,-0.12898929,0.27937292,-0.77803749,0.22978600,-0.47602751,-0.84802549,0.40055986,-0.04661900
5.02000000,-0.17590247,0.76030468,0.02370433,0.13513630,0.86226637,-0.07302277,-0.12899165,0.27937292,-0.77803749,0.22978600,-0.47602751,-0.84802549,0.40055986,-0.04661900
5.04000000,-0.17593363,0.76029282,0.02365773,0.13514203,0.86225685,-0.07301720,-0.12900791,0.27937292,-0.77803751,0.22978600,-0.47602752,-0.84802549,0.40055986,-0.04661901
5.06000000,-0.17601657,0.76026124,0.02353369,0.13515727,0.86223150,-0.07300239,-0.12905118,0.27937293,-0.77803755,0.22978600,-0.47602752,-0.84802549,0.40055986,-0.04661902
5.08000000,-0.17617483,0.76020098,0.02329698,0.13518635,0.86218313,-0.07297412,-0.12913377,0.27937293,-0.77803763,0.22978599,-0.47602753,-0.84802549,0.40055984,-0.04661905
5.10000000,-0.17643043,0.76010366,0.02291470,0.13523331,0.86210502,-0.07292846,-0.12926713,0.27937295,-0.77803777,0.22978599,-0.47602755,-0.84802549,0.40055982,-0.04661910
5.12000000,-0.17680384,0.75996149,0.02235622,0.13530192,0.86199090,-0.07286177,-0.12946197,0.27937297,-0.77803796,0.22978598,-0.47602758,-0.84802549,0.40055979,-0.04661917
5.14000000,-0.17731404,0.75976723,0.02159313,0.13539567,0.86183497,-0.07277063,-0.12972819,0.27937300,-0.77803823,0.22978596,-0.47602762,-0.84802549,0.40055976,-0.04661926
5.16000000,-0.17797857,0.75951420,0.02059923,0.13551777,0.86163188,-0.07265193,-0.13007494,0.27937304,-0.77803858,0.22978595,-0.47602767,-0.84802550,0.40055970,-0.04661938
5.18000000,-0.17881355,0.75919629,0.01935041,0.13567119,0.86137670,-0.07250279,-0.13051062,0.27937309,-0.77803902,0.22978592,-0.47602773,-0.84802550,0.40055964,-0.04661953
5.20000000,-0.17983367,0.75880787,0.01782467,0.13585863,0.86106493,-0.07232058,-0.13104291,0.27937315,-0.77803956,0.22978590,-0.47602780,-0.84802551,0.40055956,-0.04661972
5.22000000,-0.18105231,0.75834387,0.01600202,0.13608255,0.86069250,-0.07210291,-0.13167879,0.27937322,-0.77804020,0.22978587,-0.47602789,-0.84802552,0.40055947,-0.04661994
5.24000000,-0.18248150,0.75779970,0.01386446,0.13634515,0.86025571,-0.07184762,-0.13242453,0.27937330,-0.77804096,0.22978583,-0.47602800,-0.84802553,0.40055936,-0.04662020
5.26000000,-0.18413199,0.75717127,0.01139592,0.13664842,0.85975130,-0.07155281,-0.13328574,0.27937340,-0.77804183,0.22978579,-0.47602812,-0.84802554,0.40055923,-0.04662050
5.28000000,-0.18601326,0.75645498,0.00858221,0.13699409,0.85917635,-0.07121678,-0.13426737,0.27937351,-0.77804282,0.22978574,-0.47602826,-0.84802555,0.40055909,-0.04662085
5.30000000,-0.18813358,0.75564766,0.00541098,0.13738368,0.85852835,-0.07083805,-0.13537373,0.27937363,-0.77804393,0.22978568,-0.47602841,-0.84802556,0.40055892,-0.04662124
5.32000000,-0.19050001,0.75474663,0.00187164,0.13781850,0.85780513,-0.07041536,-0.13660851,0.27937377,-0.77804518,0.22978562,-0.47602858,-0.84802557,0.40055874,-0.04662167
5.34000000,-0.19311848,0.75374965,-0.00204464,0.13829962,0.85700489,-0.06994765,-0.13797480,0.27937392,-0.77804656,0.22978555,-0.47602878,-0.84802559,0.40055854,-0.04662215
5.36000000,-0.19599375,0.75265488,-0.00634502,0.13882794,0.85612616,-0.06943407,-0.13947509,0.27937409,-0.77804808,0.22978548,-0.47602899,-0.84802561,0.40055832,-0.04662267
5.38000000,-0.19912954,0.75146092,-0.01103503,0.13940412,0.85516781,-0.06887396,-0.14111131,0.27937428,-0.77804973,0.22978539,-0.47602922,-0.84802562,0.40055808,-0.04662324
5.40000000,-0.20252846,0.75016677,-0.01611861,0.14002864,0.85412904,-0.06826684,-0.14288484,0.27937447,-0.77805152,0.22978530,-0.47602947,-0.84802564,0.40055782,-0.04662387
5.42000000,-0.20619214,0.74877182,-0.02159816,0.14070182,0.85300936,-0.06761244,-0.14479651,0.27937469,-0.77805345,0.22978521,-0.47602973,-0.84802567,0.40055754,-0.04662453
5.44000000,-0.21012119,0.74727582,-0.02747460,0.14142376,0.85180859,-0.06691064,-0.14684665,0.27937492,-0.77805552,0.22978511,-0.47603002,-0.84802569,0.40055724,-0.04662525
5.46000000,-0.21431525,0.74567892,-0.03374742,0.14219439,0.85052681,-0.06616149,-0.14903507,0.27937516,-0.77805773,0.22978500,-0.47603033,-0.84802571,0.40055691,-0.04662602
5.48000000,-0.21877307,0.74398160,-0.04041471,0.14301348,0.84916443,-0.06536524,-0.15136112,0.27937542,-0.77806008,0.22978488,-0.47603066,-0.84802574,0.40055657,-0.04662683
5.50000000,-0.22349247,0.74218468,-0.04747324,0.14388064,0.84772211,-0.06452226,-0.15382366,0.27937570,-0.77806257,0.22978476,-0.47603100,-0.84802577,0.40055621,-0.04662770
5.52000000,-0.22847043,0.74028931,-0.05491848,0.14479530,0.84620076,-0.06363310,-0.15642111,0.27937599,-0.77806519,0.22978463,-0.47603137,-0.84802580,0.40055583,-0.04662860
5.54000000,-0.23370309,0.73829696,-0.06274467,0.14575677,0.84460158,-0.06269845,-0.15915146,0.27937630,-0.77806795,0.22978449,-0.47603175,-0.84802583,0.40055543,-0.04662956
5.56000000,-0.23918581,0.73620940,-0.07094485,0.14676418,0.84292597,-0.06171913,-0.16201229,0.27937662,-0.77807084,0.22978435,-0.47603215,-0.84802586,0.40055501,-0.04663056
5.58000000,-0.24491317,0.73402869,-0.07951093,0.14781654,0.84117560,-0.06069611,-0.16500077,0.27937695,-0.77807386,0.22978420,-0.47603257,-0.84802590,0.40055457,-0.04663161
5.60000000,-0.25087904,0.73175717,-0.08843374,0.14891273,0.83935233,-0.05963049,-0.16811371,0.27937730,-0.77807700,0.22978404,-0.47603301,-0.84802593,0.40055411,-0.04663270
5.62000000,-0.25707658,0.72939744,-0.09770304,0.15005149,0.83745826,-0.05852348,-0.17134753,0.27937766,-0.77808027,0.22978388,-0.47603346,-0.84802597,0.40055363,-0.04663383
5.64000000,-0.26349831,0.72695235,-0.10730764,0.15123143,0.83549568,-0.05737644,-0.17469832,0.27937804,-0.77808365,0.22978371,-0.47603394,-0.84802601,0.40055314,-0.04663500
5.66000000,-0.27013609,0.72442500,-0.11723538,0.15245108,0.83346707,-0.05619080,-0.17816185,0.27937842,-0.77808715,0.22978354,-0.47603442,-0.84802605,0.40055263,-0.04663622
5.68000000,-0.27698120,0.72181871,-0.12747322,0.15370882,0.83137509,-0.05496813,-0.18173357,0.27937882,-0.77809076,0.22978336,-0.47603492,-0.84802609,0.40055210,-0.04663747
5.70000000,-0.28402437,0.71913701,-0.13800727,0.15500296,0.82922259,-0.05371008,-0.18540862,0.27937924,-0.77809447,0.22978318,-0.47603544,-0.84802613,0.40055156,-0.04663875
5.72000000,-0.29125577,0.71638363,-0.14882286,0.15633168,0.82701256,-0.05241841,-0.18918190,0.27937966,-0.77809828,0.22978299,-0.47603597,-0.84802617,0.40055101,-0.04664008
5.74000000,-0.29866511,0.71356251,-0.15990457,0.15769309,0.82474815,-0.05109496,-0.19304802,0.27938009,-0.77810218,0.22978280,-0.47603651,-0.84802622,0.40055044,-0.04664143
5.76000000,-0.30624160,0.71067774,-0.17123628,0.15908522,0.82243265,-0.04974165,-0.19700136,0.27938053,-0.77810618,0.22978260,-0.47603707,-0.84802626,0.40054986,-0.04664281
5.78000000,-0.31397404,0.70773359,-0.18280125,0.16050600,0.82006949,-0.04836049,-0.20103608,0.27938099,-0.77811025,0.22978240,-0.47603764,-0.84802631,0.40054926,-0.04664423
5.80000000,-0.32185084,0.70473448,-0.19458212,0.16195331,0.81766221,-0.04695353,-0.20514612,0.27938145,-0.77811440,0.22978219,-0.47603821,-0.84802635,0.40054866,-0.04664566
5.82000000,-0.32986003,0.70168496,-0.20656099,0.16342494,0.81521448,-0.04552294,-0.20932524,0.27938191,-0.77811862,0.22978198,-0.47603880,-0.84802640,0.40054804,-0.04664713
5.84000000,-0.33798931,0.69858972,-0.21871949,0.16491864,0.81273004,-0.04407089,-0.21356702,0.27938239,-0.77812291,0.22978177,-0.47603940,-0.84802645,0.40054742,-0.04664861
5.86000000,-0.34622610,0.69545354,-0.23103876,0.16643210,0.81021275,-0.04259964,-0.21786489,0.27938287,-0.77812725,0.22978155,-0.47604000,-0.84802650,0.40054679,-0.04665012
5.88000000,-0.35455752,0.69228133,-0.24349959,0.16796294,0.80766653,-0.04111148,-0.22221215,0.27938336,-0.77813164,0.22978134,-0.47604061,-0.84802655,0.40054615,-0.04665164
5.90000000,-0.36297050,0.68907807,-0.25608239,0.16950876,0.80509539,-0.03960876,-0.22660196,0.27938385,-0.77813607,0.22978112,-0.47604123,-0.84802660,0.40054550,-0.04665318
5.92000000,-0.37145174,0.68584882,-0.26876728,0.17106713,0.80250339,-0.03809384,-0.23102739,0.27938434,-0.77814054,0.22978090,-0.47604185,-0.84802665,0.40054485,-0.04665473
5.94000000,-0.37998779,0.68259870,-0.28153416,0.17263557,0.79989463,-0.03656914,-0.23548142,0.27938484,-0.77814504,0.22978067,-0.47604247,-0.84802670,0.40054420,-0.04665629
5.96000000,-0.38856507,0.67933288,-0.29436268,0.17421159,0.79727328,-0.03503707,-0.23995696,0.27938534,-0.77814956,0.22978045,-0.47604310,-0.84802675,0.40054354,-0.04665785
5.98000000,-0.39716988,0.67605657,-0.30723240,0.17579266,0.79464351,-0.03350008,-0.24444687,0.27938585,-0.77815409,0.22978022,-0.47604373,-0.84802680,0.40054288,-0.04665943
6.00000000,-0.40578847,0.67277502,-0.32012273,0.17737627,0.79200953,-0.03196063,-0.24894397,0.27938635,-0.77815863,0.22978000,-0.47604437,-0.84802685,0.40054221,-0.04666100
6.02000000,-0.41440707,0.66949347,-0.33301306,0.17895988,0.78937555,-0.03042118,-0.25344107,0.27938685,-0.77816318,0.22977978,-0.47604500,-0.84802690,0.40054155,-0.04666257
6.04000000,-0.42301188,0.66621717,-0.34588277,0.18054095,0.78674578,-0.02888420,-0.25793098,0.27938736,-0.77816771,0.22977955,-0.47604563,-0.84802695,0.40054089,-0.04666415
6.06000000,-0.43158915,0.66295135,-0.35871130,0.18211697,0.78412443,-0.02735213,-0.26240652,0.27938786,-0.77817223,0.22977933,-0.47604626,-0.84802701,0.40054023,-0.04666571
6.08000000,-0.44012520,0.65970123,-0.37147817,0.18368541,0.78151568,-0.02582742,-0.26686055,0.27938836,-0.77817673,0.22977910,-0.47604688,-0.84802706,0.40053958,-0.04666727
6.10000000,-0.44860645,0.65647197,-0.38416307,0.18524378,0.77892367,-0.02431251,-0.27128598,0.27938885,-0.77818120,0.22977888,-0.47604750,-0.84802711,0.40053893,-0.04666882
6.12000000,-0.45701942,0.65326871,-0.39674587,0.18678961,0.77635253,-0.02280978,-0.27567579,0.27938934,-0.77818563,0.22977866,-0.47604812,-0.84802716,0.40053828,-0.04667036
6.14000000,-0.46535085,0.65009650,-0.40920669,0.18832045,0.77380632,-0.02132163,-0.28002305,0.27938983,-0.77819002,0.22977845,-0.47604873,-0.84802721,0.40053764,-0.04667188
6.16000000,-0.47358763,0.64696033,-0.42152597,0.18983390,0.77128902,-0.01985038,-0.28432092,0.27939031,-0.77819436,0.22977823,-0.47604934,-0.84802725,0.40053701,-0.04667339
6.18000000,-0.48171691,0.64386508,-0.43368446,0.19132760,0.76880458,-0.01839833,-0.28856271,0.27939079,-0.77819865,0.22977802,-0.47604993,-0.84802730,0.40053639,-0.04667487
6.20000000,-0.48972610,0.64081556,-0.44566334,0.19279923,0.76635685,-0.01696773,-0.29274182,0.27939125,-0.77820287,0.22977781,-0.47605052,-0.84802735,0.40053577,-0.04667634
6.22000000,-0.49760290,0.63781645,-0.45744421,0.19424654,0.76394957,-0.01556078,-0.29685186,0.27939171,-0.77820702,0.22977760,-0.47605110,-0.84802740,0.40053517,-0.04667777
6.24000000,-0.50533535,0.63487231,-0.46900917,0.19566732,0.76158641,-0.01417962,-0.30088658,0.27939217,-0.77821109,0.22977740,-0.47605166,-0.84802744,0.40053457,-0.04667919
6.26000000,-0.51291184,0.63198754,-0.48034089,0.19705945,0.75927092,-0.01282631,-0.30483992,0.27939261,-0.77821509,0.22977720,-0.47605222,-0.84802749,0.40053399,-0.04668057
6.28000000,-0.52032117,0.62916642,-0.49142260,0.19842087,0.75700650,-0.01150285,-0.30870604,0.27939304,-0.77821899,0.22977701,-0.47605276,-0.84802753,0.40053342,-0.04668192
6.30000000,-0.52755258,0.62641304,-0.50223819,0.19974959,0.75479647,-0.01021118,-0.31247932,0.27939346,-0.77822280,0.22977682,-0.47605329,-0.84802758,0.40053287,-0.04668325
6.32000000,-0.53459574,0.62373134,-0.51277224,0.20104372,0.75264397,-0.00895314,-0.31615437,0.27939388,-0.77822651,0.22977664,-0.47605381,-0.84802762,0.40053233,-0.04668453
6.34000000,-0.54144086,0.62112504,-0.52301007,0.20230146,0.75055199,-0.00773047,-0.31972609,0.27939428,-0.77823012,0.22977646,-0.47605431,-0.84802766,0.40053180,-0.04668578
6.36000000,-0.54807864,0.61859769,-0.53293781,0.20352111,0.74852338,-0.00654483,-0.32318962,0.27939466,-0.77823362,0.22977629,-0.47605480,-0.84802770,0.40053129,-0.04668700
6.38000000,-0.55450036,0.61615261,-0.54254241,0.20470106,0.74656080,-0.00539778,-0.32654041,0.27939504,-0.77823700,0.22977612,-0.47605527,-0.84802774,0.40053080,-0.04668817
6.40000000,-0.56069791,0.61379288,-0.55181172,0.20583981,0.74466673,-0.00429078,-0.32977423,0.27939540,-0.77824027,0.22977596,-0.47605572,-0.84802777,0.40053032,-0.04668930
6.42000000,-0.56666378,0.61152136,-0.56073452,0.20693600,0.74284346,-0.00322516,-0.33288717,0.27939575,-0.77824341,0.22977580,-0.47605616,-0.84802781,0.40052986,-0.04669039
6.44000000,-0.57239114,0.60934065,-0.56930061,0.20798837,0.74109309,-0.00220214,-0.33587565,0.27939608,-0.77824643,0.22977565,-0.47605658,-0.84802784,0.40052942,-0.04669144
6.46000000,-0.57787386,0.60725309,-0.57750079,0.20899578,0.73941748,-0.00122282,-0.33873648,0.27939641,-0.77824932,0.22977551,-0.47605698,-0.84802787,0.40052900,-0.04669244
6.48000000,-0.58310652,0.60526074,-0.58532697,0.20995724,0.73781830,-0.00028816,-0.34146683,0.27939671,-0.77825208,0.22977537,-0.47605736,-0.84802791,0.40052860,-0.04669340
6.50000000,-0.58808448,0.60336537,-0.59277221,0.21087191,0.73629695,0.00060100,-0.34406428,0.27939700,-0.77825470,0.22977524,-0.47605773,-0.84802793,0.40052822,-0.04669430
6.52000000,-0.59280388,0.60156845,-0.59983074,0.21173907,0.73485463,0.00144397,-0.34652682,0.27939728,-0.77825719,0.22977512,-0.47605807,-0.84802796,0.40052786,-0.04669517
6.54000000,-0.59726169,0.59987112,-0.60649804,0.21255816,0.73349225,0.00224023,-0.34885287,0.27939754,-0.77825954,0.22977500,-0.47605840,-0.84802799,0.40052751,-0.04669598
6.56000000,-0.60145576,0.59827422,-0.61277086,0.21332879,0.73221048,0.00298937,-0.35104129,0.27939778,-0.77826175,0.22977489,-0.47605871,-0.84802801,0.40052719,-0.04669675
6.58000000,-0.60538480,0.59677823,-0.61864730,0.21405072,0.73100970,0.00369117,-0.35309143,0.27939801,-0.77826382,0.22977479,-0.47605900,-0.84802804,0.40052689,-0.04669747
6.60000000,-0.60904848,0.59538327,-0.62412685,0.21472390,0.72989002,0.00434558,-0.35500310,0.27939823,-0.77826575,0.22977470,-0.47605927,-0.84802806,0.40052661,-0.04669813
6.62000000,-0.61244741,0.59408912,-0.62921043,0.21534843,0.72885125,0.00495269,-0.35677663,0.27939843,-0.77826754,0.22977461,-0.47605951,-0.84802808,0.40052635,-0.04669876
6.64000000,-0.61558319,0.59289517,-0.63390044,0.21592461,0.72789291,0.00551281,-0.35841285,0.27939861,-0.77826919,0.22977452,-0.47605974,-0.84802810,0.40052611,-0.04669933
6.66000000,-0.61845847,0.59180040,-0.63820082,0.21645292,0.72701418,0.00602639,-0.35991314,0.27939878,-0.77827071,0.22977445,-0.47605996,-0.84802812,0.40052589,-0.04669985
6.68000000,-0.62107693,0.59080341,-0.64211710,0.21693404,0.72621393,0.00649409,-0.36127943,0.27939893,-0.77827209,0.22977438,-0.47606015,-0.84802813,0.40052569,-0.04670033
6.70000000,-0.62344336,0.58990239,-0.64565643,0.21736886,0.72549071,0.00691679,-0.36251421,0.27939907,-0.77827333,0.22977432,-0.47606032,-0.84802814,0.40052550,-0.04670076
6.72000000,-0.62556368,0.58909507,-0.64882767,0.21775845,0.72484271,0.00729552,-0.36362058,0.27939919,-0.77827445,0.22977426,-0.47606048,-0.84802816,0.40052534,-0.04670115
6.74000000,-0.62744495,0.58837877,-0.65164138,0.21810412,0.72426776,0.00763155,-0.36460221,0.27939930,-0.77827544,0.22977421,-0.47606061,-0.84802817,0.40052520,-0.04670150
6.76000000,-0.62909544,0.58775034,-0.65410992,0.21840739,0.72376335,0.00792636,-0.36546341,0.27939940,-0.77827631,0.22977417,-0.47606073,-0.84802818,0.40052507,-0.04670180
6.78000000,-0.63052463,0.58720618,-0.65624748,0.21866999,0.72332656,0.00818164,-0.36620915,0.27939948,-0.77827707,0.22977413,-0.47606084,-0.84802819,0.40052496,-0.04670206
6.80000000,-0.63174327,0.58674218,-0.65807013,0.21889391,0.72295413,0.00839931,-0.36684503,0.27939955,-0.77827771,0.22977410,-0.47606093,-0.84802819,0.40052487,-0.04670228
6.82000000,-0.63276340,0.58635376,-0.65959587,0.21908135,0.72264236,0.00858153,-0.36737732,0.27939961,-0.77827825,0.22977408,-0.47606100,-0.84802820,0.40052479,-0.04670247
6.84000000,-0.63359837,0.58603584,-0.66084469,0.21923477,0.72238718,0.00873067,-0.36781300,0.27939966,-0.77827869,0.22977405,-0.47606107,-0.84802821,0.40052472,-0.04670262
6.86000000,-0.63426290,0.58578282,-0.66183859,0.21935688,0.72218409,0.00884937,-0.36815975,0.27939970,-0.77827904,0.22977404,-0.47606111,-0.84802821,0.40052467,-0.04670274
6.88000000,-0.63477311,0.58558856,-0.66260167,0.21945062,0.72202816,0.00894050,-0.36842597,0.27939973,-0.77827931,0.22977402,-0.47606115,-0.84802821,0.40052463,-0.04670283
6.90000000,-0.63514652,0.58544638,-0.66316016,0.21951923,0.72191404,0.00900720,-0.36862081,0.27939975,-0.77827950,0.22977401,-0.47606118,-0.84802821,0.40052461,-0.04670290
6.92000000,-0.63540211,0.58534906,-0.66354244,0.21956620,0.72183593,0.00905285,-0.36875418,0.27939977,-0.77827964,0.22977401,-0.47606120,-0.84802822,0.40052459,-0.04670295
6.94000000,-0.63556038,0.58528880,-0.66377915,0.21959528,0.72178756,0.00908112,-0.36883676,0.27939978,-0.77827972,0.22977400,-0.47606121,-0.84802822,0.40052457,-0.04670298
6.96000000,-0.63564331,0.58525723,-0.66390318,0.21961052,0.72176221,0.00909594,-0.36888003,0.27939978,-0.77827976,0.22977400,-0.47606121,-0.84802822,0.40052457,-0.04670299
6.98000000,-0.63567447,0.58524536,-0.66394979,0.21961624,0.72175269,0.00910150,-0.36889629,0.27939978,-0.77827978,0.22977400,-0.47606122,-0.84802822,0.40052457,-0.04670300
7.00000000,-0.63567900,0.58524364,-0.66395656,0.21961707,0.72175131,0.00910231,-0.36889865,0.27939978,-0.77827978,0.22977400,-0.47606122,-0.84802822,0.40052456,-0.04670300
7.02000000,-0.63567900,0.58482731,-0.66425535,0.21939979,0.72159746,0.00877918,-0.36890973,0.27937653,-0.77828000,0.22976227,-0.47607273,-0.84801627,0.40058367,-0.04672549
7.04000000,-0.63567900,0.58450401,-0.66454100,0.21918502,0.72150068,0.00859799,-0.36893333,0.27938767,-0.77829167,0.22976200,-0.47607300,-0.84802767,0.40052667,-0.04671531
7.06000000,-0.63566749,0.58419579,-0.66471011,0.21913393,0.72145197,0.00851244,-0.36893400,0.27941102,-0.77829200,0.22976200,-0.47607300,-0.84801649,0.40054802,-0.04670349
7.08000000,-0.63566700,0.58396529,-0.66503784,0.21898304,0.72136979,0.00837150,-0.36892254,0.27940054,-0.77828054,0.22978492,-0.47607300,-0.84801600,0.40059483,-0.04669154
7.10000000,-0.63566700,0.58356791,-0.66533737,0.21885046,0.72130989,0.00815957,-0.36893341,0.27938859,-0.77829141,0.22976317,-0.47607300,-0.84800459,0.40057417,-0.04670241
7.12000000,-0.63566700,0.58309334,-0.66567026,0.21880990,0.72130700,0.00805807,-0.36893400,0.27939937,-0.77829200,0.22976200,-0.47607300,-0.84801537,0.40052753,-0.04671437
7.14000000,-0.63564444,0.58271924,-0.66581209,0.21878544,0.72127316,0.00795242,-0.36895656,0.27938872,-0.77828072,0.22977328,-0.47607300,-0.84801600,0.40052500,-0.04670372
7.16000000,-0.63566545,0.58252864,-0.66588641,0.21873910,0.72124855,0.00791233,-0.36892433,0.27939922,-0.77829122,0.22978522,-0.47607300,-0.84799355,0.40053622,-0.04670300
7.18000000,-0.63564465,0.58246113,-0.66594687,0.21873600,0.72122465,0.00788765,-0.36888848,0.27941117,-0.77828083,0.22977483,-0.47606183,-0.84803669,0.40052583,-0.04670300
7.20000000,-0.63565411,0.58242368,-0.66591768,0.21860271,0.72123411,0.00789711,-0.36893043,0.27942311,-0.77829111,0.22978511,-0.47607211,-0.84802889,0.40053611,-0.04670300
7.22000000,-0.63568813,0.58248726,-0.66589291,0.21844844,0.72129022,0.00788696,-0.36893400,0.27942400,-0.77828096,0.22976391,-0.47607300,-0.84802800,0.40059222,-0.04669196
7.24000000,-0.63566901,0.58249300,-0.66590200,0.21860094,0.72129500,0.00790799,-0.36892300,0.27942400,-0.77828000,0.22976200,-0.47607300,-0.84802800,0.40062999,-0.04670200
7.26000000,-0.63567789,0.58251479,-0.66587123,0.21865957,0.72132768,0.00794268,-0.36894379,0.27943489,-0.77829089,0.22976200,-0.47607300,-0.84801711,0.40062211,-0.04669211
7.28000000,-0.63568984,0.58253867,-0.66586800,0.21866400,0.72125514,0.00793516,-0.36890265,0.27943600,-0.77829200,0.22976200,-0.47604049,-0.84799433,0.40063184,-0.04670184
7.30000000,-0.63569100,0.58251944,-0.66586800,0.21864244,0.72126856,0.00793400,-0.36889800,0.27941444,-0.77828122,0.22976200,-0.47605856,-0.84801356,0.40063300,-0.04668144
7.32000000,-0.63568028,0.58248485,-0.66589926,0.21852211,0.72123885,0.00791257,-0.36893015,0.27941200,-0.77828000,0.22976200,-0.47607172,-0.84803743,0.40060085,-0.04672098
7.34000000,-0.63567900,0.58241700,-0.66591367,0.21837022,0.72120300,0.00787800,-0.36892333,0.27941200,-0.77829067,0.22976200,-0.47606233,-0.84804000,0.40059700,-0.04669489
7.36000000,-0.63567900,0.58232407,-0.66593623,0.21817251,0.72114592,0.00778907,-0.36891138,0.27941200,-0.77829200,0.22976200,-0.47607162,-0.84800815,0.40056515,-0.04669100
7.38000000,-0.63567900,0.58218685,-0.66594959,0.21807490,0.72111783,0.00772507,-0.36894176,0.27941200,-0.77828141,0.22976200,-0.47607300,-0.84803576,0.40055041,-0.04668041
7.40000000,-0.63566847,0.58208576,-0.66594047,0.21795970,0.72109394,0.00767588,-0.36893547,0.27938041,-0.77830106,0.22976200,-0.47606247,-0.84801894,0.40052794,-0.04671059
7.42000000,-0.63566700,0.58204259,-0.66593900,0.21782981,0.72105959,0.00763859,-0.36893400,0.27940741,-0.77828306,0.22977247,-0.47605053,-0.84800553,0.40054594,-0.04671500
7.44000000,-0.63568764,0.58203800,-0.66591836,0.21772012,0.72108596,0.00759272,-0.36894432,0.27940168,-0.77828000,0.22977400,-0.47605932,-0.84801432,0.40054900,-0.04670468
7.46000000,-0.63569100,0.58202775,-0.66589450,0.21765459,0.72109100,0.00759625,-0.36894600,0.27940000,-0.77829025,0.22976375,-0.47607125,-0.84801600,0.40054900,-0.04670300
7.48000000,-0.63569100,0.58203617,-0.66591134,0.21762566,0.72111134,0.00760817,-0.36893583,0.27940000,-0.77828183,0.22977217,-0.47606283,-0.84802617,0.40054900,-0.04668266
7.50000000,-0.63569100,0.58202786,-0.66591500,0.21762200,0.72109472,0.00762014,-0.36891372,0.27940000,-0.77828000,0.22976386,-0.47607114,-0.84802800,0.40053886,-0.04670942
7.52000000,-0.63568090,0.58203610,-0.66592510,0.21762200,0.72112129,0.00762200,-0.36889990,0.27941010,-0.77829010,0.22976200,-0.47606290,-0.84801790,0.40052690,-0.04670490
7.54000000,-0.63568906,0.58203800,-0.66591694,0.21764213,0.72109681,0.00762200,-0.36890806,0.27940194,-0.77828194,0.22977206,-0.47607106,-0.84802606,0.40052500,-0.04671306
7.56000000,-0.63569100,0.58204801,-0.66591500,0.21764600,0.72111103,0.00763201,-0.36894004,0.27940000,-0.77829001,0.22976399,-0.47606299,-0.84802800,0.40054503,-0.04671500
7.58000000,-0.63569100,0.58204005,-0.66591500,0.21767503,0.72111500,0.00763400,-0.36892609,0.27940995,-0.77828205,0.22976200,-0.47608091,-0.84803795,0.40051914,-0.04669509
7.60000000,-0.63569100,0.58205779,-0.66591500,0.21773048,0.72113479,0.00765379,-0.36892200,0.27941200,-0.77828990,0.22976200,-0.47607510,-0.84801031,0.40055259,-0.04671079
7.62000000,-0.63569100,0.58207184,-0.66591500,0.21779020,0.72112916,0.00767768,-0.36891216,0.27941200,-0.77828216,0.22976200,-0.47607300,-0.84802368,0.40058068,-0.04669532
7.64000000,-0.63567140,0.58207400,-0.66593460,0.21784020,0.72114660,0.00768200,-0.36891000,0.27941200,-0.77828000,0.22976200,-0.47607300,-0.84802800,0.40053600,-0.04670080
7.66000000,-0.63569593,0.58207400,-0.66591007,0.21786828,0.72117028,0.00767236,-0.36891000,0.27940236,-0.77828964,0.22976200,-0.47607300,-0.84799907,0.40053464,-0.04670300
7.68000000,-0.63568393,0.58207400,-0.66587518,0.21791115,0.72119407,0.00767954,-0.36890046,0.27940000,-0.77829200,0.22978107,-0.47607300,-0.84799200,0.40054654,-0.04669346
7.70000000,-0.63567900,0.58207400,-0.66588617,0.21793048,0.72118952,0.00767252,-0.36886008,0.27940948,-0.77828252,0.22977652,-0.47607300,-0.84800148,0.40054900,-0.04669100
7.72000000,-0.63567900,0.58207400,-0.66590974,0.21792363,0.72118700,0.00767937,-0.36889685,0.27940263,-0.77828000,0.22976463,-0.47606363,-0.84802274,0.40055837,-0.04670037
7.74000000,-0.63568822,0.58208322,-0.66590578,0.21791178,0.72119622,0.00767278,-0.36889156,0.27940922,-0.77828000,0.22978044,-0.47606100,-0.84801878,0.40056100,-0.04669378
7.76000000,-0.63569100,0.58206798,-0.66589399,0.21789098,0.72118098,0.00767000,-0.36889501,0.27942101,-0.77828000,0.22977699,-0.47606100,-0.84801600,0.40055199,-0.04670902
7.78000000,-0.63568220,0.58206200,-0.66590861,0.21787620,0.72114859,0.00767000,-0.36889800,0.27941520,-0.77828000,0.22976520,-0.47606980,-0.84802480,0.40054900,-0.04669739
7.80000000,-0.63568768,0.58206200,-0.66591500,0.21784697,0.72114768,0.00767000,-0.36889800,0.27941200,-0.77828868,0.22977068,-0.47607300,-0.84801065,0.40054900,-0.04669968
7.82000000,-0.63569100,0.58206200,-0.66589785,0.21782842,0.72114242,0.00767858,-0.36888085,0.27941200,-0.77828342,0.22977400,-0.47606442,-0.84800400,0.40054042,-0.04670300
7.84000000,-0.63569100,0.58204495,-0.66589952,0.21779943,0.72111343,0.00766495,-0.36891662,0.27940348,-0.77827148,0.22977400,-0.47606100,-0.84802105,0.40053700,-0.04667743
7.86000000,-0.63568252,0.58205496,-0.66589452,0.21778900,0.72111148,0.00766648,-0.36893400,0.27940848,-0.77829344,0.22976552,-0.47606100,-0.84801952,0.40054548,-0.04668396
7.88000000,-0.63568743,0.58206200,-0.66589943,0.21778900,0.72111500,0.00767000,-0.36890029,0.27941200,-0.77829557,0.22976200,-0.47606943,-0.84801600,0.40054057,-0.04669943
7.90000000,-0.63569100,0.58206200,-0.66589464,0.21778900,0.72110664,0.00767000,-0.36890272,0.27941200,-0.77828364,0.22976200,-0.47607300,-0.84802436,0.40054536,-0.04669464
7.92000000,-0.63569100,0.58205370,-0.66590759,0.21778900,0.72112789,0.00766170,-0.36890170,0.27941200,-0.77827170,0.22976200,-0.47606470,-0.84801970,0.40057389,-0.04669930
7.94000000,-0.63569100,0.58205824,-0.66590676,0.21779724,0.72116373,0.00766624,-0.36892273,0.27941200,-0.77828449,0.22976200,-0.47606924,-0.84802424,0.40053554,-0.04669476
7.96000000,-0.63569100,0.58206200,-0.66589480,0.21780100,0.72115041,0.00767820,-0.36892580,0.27941200,-0.77828380,0.22976200,-0.47607300,-0.84801161,0.40052939,-0.04669100
7.98000000,-0.63569100,0.58206200,-0.66590730,0.21780915,0.72113900,0.00767385,-0.36893015,0.27940385,-0.77827185,0.22976200,-0.47606485,-0.84801215,0.40057776,-0.04669100
8.00000000,-0.63569100,0.58207010,-0.66591500,0.21782110,0.72113900,0.00767810,-0.36897451,0.27940810,-0.77827610,0.22977010,-0.47606100,-0.84803220,0.40057270,-0.04669100
8.02000000,-0.63569904,0.58208204,-0.66590696,0.21781696,0.72112291,0.00769809,-0.36910663,0.27941200,-0.77828000,0.22976596,-0.47606904,-0.84803196,0.40057709,-0.04669904
8.04000000,-0.63568707,0.58209397,-0.66587977,0.21778910,0.72106721,0.00773786,-0.36946402,0.27939607,-0.77828797,0.22976200,-0.47607300,-0.84802800,0.40057703,-0.04671097
8.06000000,-0.63570267,0.58211378,-0.66585222,0.21767510,0.72095622,0.00784867,-0.37008244,0.27940378,-0.77828411,0.22976989,-0.47607300,-0.84803589,0.40058878,-0.04670711
8.08000000,-0.63571500,0.58214545,-0.66578927,0.21741872,0.72079373,0.00802244,-0.37106643,0.27940418,-0.77828782,0.22976618,-0.47606518,-0.84803218,0.40055791,-0.04669518
8.10000000,-0.63573824,0.58220448,-0.66573676,0.21699305,0.72053025,0.00829815,-0.37246871,0.27940775,-0.77829200,0.22976200,-0.47606100,-0.84802025,0.40056024,-0.04670649
8.12000000,-0.63585079,0.58233683,-0.66554745,0.21615182,0.72000613,0.00879616,-0.37453894,0.27940432,-0.77829200,0.22976200,-0.47606100,-0.84803903,0.40056532,-0.04669965
8.14000000,-0.63612686,0.58251105,-0.66518252,0.21495611,0.71939284,0.00954360,-0.37704898,0.27940000,-0.77828440,0.22976200,-0.47606860,-0.84801398,0.40055340,-0.04669860
8.16000000,-0.63663813,0.58288518,-0.66470513,0.21315764,0.71860183,0.01049812,-0.38021034,0.27940000,-0.77828000,0.22976200,-0.47607300,-0.84801460,0.40054900,-0.04671053
8.18000000,-0.63730603,0.58350865,-0.66407297,0.21090316,0.71760638,0.01153800,-0.38329305,0.27940747,-0.77828000,0.22977694,-0.47607300,-0.84802053,0.40054153,-0.04670753
8.20000000,-0.63820168,0.58430093,-0.66319214,0.20849464,0.71639405,0.01266164,-0.38640550,0.27941200,-0.77828000,0.22977118,-0.47606559,-0.84801600,0.40052959,-0.04669559
8.22000000,-0.63942436,0.58533499,-0.66224200,0.20598400,0.71461101,0.01414126,-0.39103356,0.27940468,-0.77828732,0.22976200,-0.47606100,-0.84802332,0.40053963,-0.04669832
8.24000000,-0.64051340,0.58626549,-0.66130654,0.20314433,0.71261554,0.01608589,-0.39654710,0.27939277,-0.77828477,0.22976200,-0.47605377,-0.84802077,0.40054900,-0.04668131
8.26000000,-0.64171735,0.58735230,-0.66025081,0.19992448,0.71042273,0.01848575,-0.40255405,0.27939516,-0.77828000,0.22976916,-0.47606332,-0.84801600,0.40053468,-0.04668849
8.28000000,-0.64302696,0.58878828,-0.65919647,0.19666037,0.70858720,0.02109349,-0.40872955,0.27937871,-0.77828000,0.22978110,-0.47606590,-0.84801600,0.40051081,-0.04670300
8.30000000,-0.64417275,0.59057215,-0.65780867,0.19330594,0.70703179,0.02373689,-0.41501924,0.27937103,-0.77829406,0.22977194,-0.47606100,-0.84801600,0.40050803,-0.04669597
8.32000000,-0.64561436,0.59318798,-0.65569217,0.18931298,0.70492181,0.02666647,-0.42273693,0.27939691,-0.77829703,0.22976200,-0.47605403,-0.84803691,0.40054784,-0.04668403
8.34000000,-0.64745737,0.59613758,-0.65364868,0.18506949,0.70256486,0.02942443,-0.42988507,0.27942581,-0.77829200,0.22976891,-0.47604900,-0.84803819,0.40060062,-0.04668591
8.36000000,-0.64977558,0.59870638,-0.65119357,0.18002720,0.70006965,0.03224330,-0.43794549,0.27944968,-0.77830511,0.22976716,-0.47604216,-0.84801432,0.40066887,-0.04669784
8.38000000,-0.65314605,0.60083335,-0.64835948,0.17429918,0.69744205,0.03533591,-0.44643298,0.27943973,-0.77830881,0.22976200,-0.47604376,-0.84800400,0.40067122,-0.04669624
8.40000000,-0.65726490,0.60291285,-0.64539190,0.16802059,0.69440053,0.03877616,-0.45447952,0.27941732,-0.77830400,0.22976868,-0.47604900,-0.84799732,0.40061160,-0.04669100
8.42000000,-0.66199212,0.60502176,-0.64224548,0.16124744,0.69081648,0.04252499,-0.46340138,0.27941862,-0.77829738,0.22978062,-0.47604238,-0.84800524,0.40060486,-0.04669100
8.44000000,-0.66734365,0.60699438,-0.63874891,0.15444074,0.68748483,0.04613343,-0.47244443,0.27938464,-0.77829856,0.22977944,-0.47604356,-0.84802912,0.40058164,-0.04669100
8.46000000,-0.67269229,0.60900580,-0.63485434,0.14774168,0.68435605,0.04931153,-0.48169482,0.27928703,-0.77829750,0.22978050,-0.47606199,-0.84802051,0.40047104,-0.04669750
8.48000000,-0.67770435,0.61180419,-0.63089887,0.14036212,0.68118420,0.05259025,-0.49131696,0.27914891,-0.77829843,0.22977957,-0.47607300,-0.84801687,0.40038570,-0.04670300
8.50000000,-0.68235313,0.61515954,-0.62693756,0.13252600,0.67818438,0.05582705,-0.50091589,0.27910242,-0.77830983,0.22977400,-0.47605393,-0.84802164,0.40041349,-0.04669664
8.52000000,-0.68681729,0.61820080,-0.62306122,0.12529572,0.67505906,0.05931240,-0.51054034,0.27911874,-0.77832804,0.22977400,-0.47604326,-0.84801600,0.40049681,-0.04669726
8.54000000,-0.69133357,0.62097206,-0.61961697,0.11848591,0.67141383,0.06358757,-0.52026240,0.27908831,-0.77831531,0.22977400,-0.47605517,-0.84802834,0.40048763,-0.04669683
8.56000000,-0.69557443,0.62345062,-0.61651957,0.11180374,0.66810926,0.06756041,-0.53032494,0.27907721,-0.77829810,0.22978621,-0.47606100,-0.84802169,0.40044710,-0.04669100
8.58000000,-0.69936372,0.62587278,-0.61358258,0.10494008,0.66502892,0.07111488,-0.54016643,0.27911316,-0.77829796,0.22978592,-0.47606704,-0.84800400,0.40047112,-0.04669100
8.60000000,-0.70283988,0.62840073,-0.61063677,0.09754585,0.66143927,0.07475195,-0.55008978,0.27913700,-0.77829798,0.22976802,-0.47606104,-0.84800998,0.40053087,-0.04669698
8.62000000,-0.70657020,0.63066256,-0.60783760,0.09001150,0.65810226,0.07797525,-0.55962226,0.27914293,-0.77830400,0.22975607,-0.47605493,-0.84800415,0.40058485,-0.04670300
8.64000000,-0.71066117,0.63246281,-0.60485498,0.08300005,0.65503969,0.08129536,-0.56875759,0.27912588,-0.77829822,0.22976156,-0.47607256,-0.84799778,0.40052765,-0.04670878
8.66000000,-0.71483769,0.63432023,-0.60135051,0.07627232,0.65179041,0.08500194,-0.57800357,0.27908980,-0.77829760,0.22977400,-0.47608500,-0.84800960,0.40046979,-0.04670940
8.68000000,-0.71893343,0.63655867,-0.59769508,0.06970368,0.64871283,0.08831579,-0.58640019,0.27910454,-0.77830400,0.22977951,-0.47607949,-0.84802151,0.40050002,-0.04670300
8.70000000,-0.72261728,0.63889710,-0.59440978,0.06332195,0.64596578,0.09131832,-0.59479547,0.27912610,-0.77829855,0.22978055,-0.47607300,-0.84802800,0.40052390,-0.04670845
8.72000000,-0.72598282,0.64148548,-0.59165498,0.05681788,0.64315749,0.09430033,-0.60301634,0.27911839,-0.77830234,0.22977400,-0.47607300,-0.84802800,0.40052082,-0.04670421
8.74000000,-0.72918303,0.64408166,-0.58874331,0.05087420,0.64033455,0.09698611,-0.61071780,0.27914634,-0.77830478,0.22977933,-0.47606767,-0.84802267,0.40057034,-0.04669100
8.76000000,-0.73238832,0.64624124,-0.58599004,0.04585889,0.63794275,0.09928397,-0.61838379,0.27916246,-0.77829200,0.22978600,-0.47607154,-0.84802654,0.40062537,-0.04669627
8.78000000,-0.73541771,0.64799988,-0.58362396,0.04160480,0.63586954,0.10167745,-0.62497973,0.27912831,-0.77829200,0.22977566,-0.47607466,-0.84802448,0.40054363,-0.04670300
8.80000000,-0.73810651,0.64967011,-0.58133211,0.03768544,0.63382511,0.10426668,-0.63071137,0.27910100,-0.77828697,0.22976200,-0.47606100,-0.84802412,0.40049906,-0.04670300
8.82000000,-0.74042352,0.65127810,-0.57918225,0.03372554,0.63193082,0.10663537,-0.63674481,0.27911085,-0.77828985,0.22976692,-0.47606592,-0.84803230,0.40053270,-0.04670300
8.84000000,-0.74247701,0.65270294,-0.57735530,0.03018146,0.63024483,0.10870782,-0.64242524,0.27911538,-0.77830400,0.22977881,-0.47607300,-0.84801362,0.40056581,-0.04669338
8.86000000,-0.74428686,0.65385109,-0.57583609,0.02713223,0.62882336,0.11057609,-0.64668431,0.27911032,-0.77829934,0.22978134,-0.47607300,-0.84803266,0.40055903,-0.04668832
8.88000000,-0.74598191,0.65486412,-0.57466432,0.02385547,0.62755384,0.11240662,-0.65065981,0.27912956,-0.77829200,0.22977400,-0.47607300,-0.84803088,0.40054156,-0.04669388
8.90000000,-0.74718654,0.65564587,-0.57360506,0.02063471,0.62635066,0.11383761,-0.65429666,0.27912813,-0.77828757,0.22977400,-0.47607743,-0.84801600,0.40054900,-0.04668787
8.92000000,-0.74796134,0.65625250,-0.57247766,0.01787223,0.62513536,0.11492804,-0.65768137,0.27911300,-0.77828000,0.22977400,-0.47607640,-0.84802030,0.40054470,-0.04670730
8.94000000,-0.74858841,0.65684093,-0.57168036,0.01541860,0.62395562,0.11579464,-0.66072648,0.27912148,-0.77828424,0.22977824,-0.47606948,-0.84802800,0.40053276,-0.04671500
8.96000000,-0.74906479,0.65726836,-0.57097088,0.01325757,0.62283244,0.11656262,-0.66329666,0.27912864,-0.77828782,0.22978182,-0.47608082,-0.84803218,0.40052500,-0.04670664
8.98000000,-0.74957993,0.65755620,-0.57049111,0.01166723,0.62190671,0.11724216,-0.66532321,0.27912124,-0.77828412,0.22977400,-0.47607300,-0.84803588,0.40052088,-0.04669924
9.00000000,-0.75026874,0.65768643,-0.57030815,0.01101667,0.62138072,0.11762222,-0.66620132,0.27912888,-0.77828794,0.22977400,-0.47607706,-0.84803612,0.40051300,-0.04671094
9.02000000,-0.75102703,0.65780183,-0.57011357,0.01091006,0.62113854,0.11783286,-0.66657447,0.27911300,-0.77828798,0.22977400,-0.47608101,-0.84804003,0.40051699,-0.04670300
9.04000000,-0.75164545,0.65799563,-0.56988012,0.01086225,0.62097537,0.11798738,-0.66674125,0.27911688,-0.77830012,0.22977400,-0.47607300,-0.84801600,0.40052888,-0.04669912
9.06000000,-0.75208399,0.65820245,-0.56969301,0.01084223,0.62093216,0.11812661,-0.66680508,0.27912500,-0.77829200,0.22977400,-0.47607300,-0.84801977,0.40054077,-0.04669477
9.08000000,-0.75236810,0.65833182,-0.56957488,0.01083029,0.62088729,0.11820371,-0.66685282,0.27912871,-0.77828829,0.22977400,-0.47606929,-0.84802800,0.40056382,-0.04670671
9.10000000,-0.75253959,0.65837594,-0.56954271,0.01081471,0.62087535,0.11821929,-0.66689329,0.27913335,-0.77828365,0.22977765,-0.47606465,-0.84802800,0.40058241,-0.04671500
9.12000000,-0.75257300,0.65839741,-0.56953677,0.01079800,0.62086341,0.11824677,-0.66691359,0.27911423,-0.77829200,0.22978241,-0.47607300,-0.84802800,0.40055259,-0.04671141
9.14000000,-0.75256947,0.65839253,-0.56955847,0.01079800,0.62083737,0.11827553,-0.66692553,0.27910311,-0.77829553,0.22977753,-0.47606947,-0.84802800,0.40057158,-0.04670300
9.16000000,-0.75256100,0.65840789,-0.56954656,0.01078767,0.62078467,0.11829433,-0.66694089,0.27913356,-0.77829711,0.22978256,-0.47606444,-0.84802111,0.40059011,-0.04670300
9.18000000,-0.75256100,0.65844813,-0.56953139,0.01072895,0.62075239,0.11832330,-0.66696791,0.27912170,-0.77828330,0.22977070,-0.47607300,-0.84800730,0.40056639,-0.04670300
9.20000000,-0.75256100,0.65855018,-0.56949499,0.01057864,0.62070649,0.11834784,-0.66700984,0.27911300,-0.77828883,0.22976517,-0.47607300,-0.84801917,0.40054900,-0.04670300
9.22000000,-0.75255791,0.65871130,-0.56939904,0.01031583,0.62058996,0.11841361,-0.66709413,0.27911609,-0.77828309,0.22977400,-0.47607300,-0.84802491,0.40054900,-0.04670609
9.24000000,-0.75254900,0.65892968,-0.56919917,0.00992166,0.62044054,0.11851240,-0.66725246,0.27912803,-0.77829200,0.22977703,-0.47607300,-0.84801600,0.40054900,-0.04671500
9.26000000,-0.75254308,0.65928659,-0.56886569,0.00933507,0.62024715,0.11864961,-0.66743401,0.27913700,-0.77828904,0.22978600,-0.47607300,-0.84801600,0.40054308,-0.04671204
9.28000000,-0.75252216,0.65975666,-0.56837882,0.00862067,0.61997182,0.11878522,-0.66766182,0.27913700,-0.77828000,0.22978316,-0.47607584,-0.84801600,0.40052500,-0.04670300
9.30000000,-0.75251300,0.66038761,-0.56767289,0.00755770,0.61966562,0.11898967,-0.66790647,0.27912582,-0.77828000,0.22977121,-0.47607941,-0.84802159,0.40052779,-0.04670300
9.32000000,-0.75251026,0.66114633,-0.56673025,0.00613627,0.61928231,0.11924331,-0.66818827,0.27909722,-0.77828000,0.22976748,-0.47606374,-0.84803452,0.40053700,-0.04670300
9.34000000,-0.75249589,0.66207139,-0.56564618,0.00433588,0.61882392,0.11950276,-0.66853864,0.27912500,-0.77828000,0.22978067,-0.47607300,-0.84801867,0.40053700,-0.04670567
9.36000000,-0.75247019,0.66295713,-0.56439777,0.00257612,0.61822489,0.11978387,-0.66893187,0.27912240,-0.77828260,0.22976720,-0.47607300,-0.84802540,0.40053440,-0.04671240
9.38000000,-0.75242676,0.66391880,-0.56285209,0.00065378,0.61747301,0.12016746,-0.66942873,0.27911554,-0.77829454,0.22978346,-0.47607300,-0.84801600,0.40053516,-0.04670300
9.40000000,-0.75234763,0.66498167,-0.56126989,-0.00148314,0.61667369,0.12051308,-0.67000109,0.27912500,-0.77830151,0.22977400,-0.47607549,-0.84801351,0.40056803,-0.04670300
9.42000000,-0.75216488,0.66620145,-0.55963533,-0.00383950,0.61585024,0.12088106,-0.67061220,0.27912014,-0.77829200,0.22977400,-0.47608257,-0.84800643,0.40054414,-0.04670300
9.44000000,-0.75155162,0.66778185,-0.55785229,-0.00684150,0.61492883,0.12133916,-0.67140223,0.27910100,-0.77828724,0.22977400,-0.47607300,-0.84801600,0.40051786,-0.04670300
9.46000000,-0.75035085,0.66985823,-0.55591379,-0.01048326,0.61398733,0.12183302,-0.67233193,0.27910332,-0.77827032,0.22977400,-0.47607300,-0.84802065,0.40049132,-0.04670532
9.48000000,-0.74885912,0.67222617,-0.55417169,-0.01431662,0.61297466,0.12242490,-0.67342573,0.27911074,-0.77828226,0.22977174,-0.47607300,-0.84804226,0.40051685,-0.04671500
9.50000000,-0.74677305,0.67486126,-0.55224917,-0.01826833,0.61186439,0.12318171,-0.67462702,0.27910100,-0.77828979,0.22976421,-0.47607300,-0.84804536,0.40059164,-0.04671057
9.52000000,-0.74407086,0.67699977,-0.55004492,-0.02225183,0.61074869,0.12405612,-0.67593120,0.27909668,-0.77828432,0.22977400,-0.47607300,-0.84801816,0.40060587,-0.04669532
9.54000000,-0.74102196,0.67936145,-0.54792717,-0.02668346,0.60958581,0.12489371,-0.67730341,0.27907278,-0.77829978,0.22977611,-0.47607300,-0.84802800,0.40053278,-0.04671500
9.56000000,-0.73748662,0.68194927,-0.54542107,-0.03143058,0.60829681,0.12574780,-0.67872187,0.27905507,-0.77828000,0.22978600,-0.47607713,-0.84803007,0.40051300,-0.04671500
9.58000000,-0.73393772,0.68466293,-0.54299066,-0.03593284,0.60673809,0.12666768,-0.68037182,0.27906500,-0.77828404,0.22978600,-0.47609498,-0.84804000,0.40052715,-0.04670893
9.60000000,-0.73063719,0.68771673,-0.54029297,-0.04024652,0.60488677,0.12778013,-0.68210590,0.27905905,-0.77830202,0.22978203,-0.47608302,-0.84804000,0.40058709,-0.04668495
9.62000000,-0.72749174,0.69040491,-0.53733752,-0.04480000,0.60268371,0.12895196,-0.68389145,0.27903286,-0.77829570,0.22976393,-0.47607300,-0.84803807,0.40054471,-0.04671307
9.64000000,-0.72429325,0.69346009,-0.53442869,-0.04972724,0.60082324,0.13010918,-0.68559860,0.27904736,-0.77830952,0.22977212,-0.47607676,-0.84802988,0.40058312,-0.04670300
9.66000000,-0.72096179,0.69641866,-0.53105085,-0.05533619,0.59902921,0.13147586,-0.68723774,0.27900602,-0.77828366,0.22976383,-0.47609883,-0.84804000,0.40056202,-0.04670651
9.68000000,-0.71723665,0.69962681,-0.52781000,-0.06239923,0.59711698,0.13288649,-0.68852685,0.27894678,-0.77830222,0.22977400,-0.47610722,-0.84804000,0.40050633,-0.04672437
9.70000000,-0.71363889,0.70308106,-0.52454814,-0.06968479,0.59468120,0.13396076,-0.68998287,0.27893285,-0.77829373,0.22977573,-0.47609355,-0.84803655,0.40053355,-0.04671155
9.72000000,-0.71030843,0.70616815,-0.52077085,-0.07596495,0.59256329,0.13498333,-0.69160031,0.27875889,-0.77830065,0.22978433,-0.47607802,-0.84801935,0.40050129,-0.04669435
9.74000000,-0.70587891,0.71032178,-0.51537349,-0.08322804,0.59068689,0.13612457,-0.69337942,0.27858605,-0.77827837,0.22977726,-0.47610900,-0.84804000,0.40042574,-0.04671337
9.76000000,-0.70191121,0.71489103,-0.51070072,-0.09053404,0.58873259,0.13729054,-0.69548481,0.27866425,-0.77827275,0.22979642,-0.47610900,-0.84803842,0.40041768,-0.04670300
9.78000000,-0.69740092,0.71981568,-0.50637961,-0.09813149,0.58670796,0.13882504,-0.69777069,0.27864065,-0.77830540,0.22978447,-0.47610900,-0.84802953,0.40051324,-0.04670453
9.80000000,-0.69250667,0.72453766,-0.50245919,-0.10610823,0.58398168,0.14039261,-0.70006802,0.27870041,-0.77831216,0.22977252,-0.47610752,-0.84803852,0.40060144,-0.04671352
9.82000000,-0.68729137,0.72849932,-0.49808989,-0.11392891,0.58074781,0.14180412,-0.70268440,0.27875300,-0.77829200,0.22976489,-0.47609411,-0.84802945,0.40062577,-0.04670011
9.84000000,-0.68230287,0.73265544,-0.49382537,-0.12165453,0.57780237,0.14302577,-0.70544001,0.27875162,-0.77829465,0.22978462,-0.47607715,-0.84803446,0.40056885,-0.04667900
9.86000000,-0.67730271,0.73666960,-0.48942768,-0.12976902,0.57477509,0.14416514,-0.70794942,0.27872122,-0.77831379,0.22977532,-0.47610900,-0.84799596,0.40053041,-0.04667900
9.88000000,-0.67235873,0.74066426,-0.48502880,-0.13834960,0.57190460,0.14576512,-0.70985169,0.27856840,-0.77830400,0.22978723,-0.47611023,-0.84802677,0.40047330,-0.04667900
9.90000000,-0.66665787,0.74556749,-0.47971454,-0.14856454,0.56952658,0.14751184,-0.71184605,0.27863300,-0.77830400,0.22979919,-0.47611626,-0.84801363,0.40044574,-0.04667663
9.92000000,-0.66124221,0.75049621,-0.47432140,-0.15729999,0.56717304,0.14922234,-0.71389783,0.27862846,-0.77830400,0.22980773,-0.47607300,-0.84799540,0.40048900,-0.04665727
9.94000000,-0.65611594,0.75588250,-0.46841980,-0.16573590,0.56421552,0.15131457,-0.71638980,0.27858392,-0.77830400,0.22978815,-0.47607300,-0.84802585,0.40049331,-0.04667900
9.96000000,-0.65130796,0.76139521,-0.46301605,-0.17464576,0.56111686,0.15346399,-0.71890093,0.27857505,-0.77830400,0.22980898,-0.47607300,-0.84800707,0.40053598,-0.04667695
9.98000000,-0.64595019,0.76735604,-0.45766236,-0.18417935,0.55780960,0.15558919,-0.72163566,0.27861420,-0.77830483,0.22979709,-0.47606757,-0.84803638,0.40053677,-0.04665319
10.00000000,-0.64119214,0.77271813,-0.45240730,-0.19289027,0.55444120,0.15729534,-0.72501165,0.27882797,-0.77831500,0.22978600,-0.47600397,-0.84799497,0.40067952,-0.04663174
10.02000000,-0.63548676,0.77747723,-0.44656669,-0.20174370,0.55145653,0.15904838,-0.72843661,0.27886284,-0.77831398,0.22978707,-0.47605007,-0.84803893,0.40064898,-0.04664247
10.04000000,-0.63009430,0.78231218,-0.44116086,-0.21117667,0.54884010,0.16077390,-0.73108842,0.27864309,-0.77829292,0.22981044,-0.47607300,-0.84801504,0.40047604,-0.04662861
10.06000000,-0.62411270,0.78724997,-0.43542754,-0.22140011,0.54638858,0.16241520,-0.73324614,0.27859700,-0.77831466,0.22982100,-0.47607300,-0.84799349,0.40045449,-0.04657249
10.08000000,-0.61756037,0.79319805,-0.42944744,-0.23259423,0.54266614,0.16410527,-0.73565431,0.27859874,-0.77830543,0.22982015,-0.47607184,-0.84804000,0.40050332,-0.04661900
10.10000000,-0.61169809,0.79902736,-0.42419988,-0.24212439,0.53905704,0.16531402,-0.73821556,0.27866645,-0.77836259,0.22978600,-0.47602585,-0.84803979,0.40059551,-0.04661921
10.12000000,-0.60556510,0.80463072,-0.41845700,-0.25130161,0.53539979,0.16690050,-0.74089995,0.27852481,-0.77834000,0.22978619,-0.47607300,-0.84802725,0.40051319,-0.04663081
10.14000000,-0.59961100,0.81057083,-0.41337906,-0.26223877,0.53190067,0.16896335,-0.74388429,0.27851505,-0.77834063,0.22979774,-0.47607173,-0.84797974,0.40052641,-0.04661849
10.16000000,-0.59439963,0.81557674,-0.40845075,-0.27114917,0.52898794,0.17095029,-0.74716712,0.27870435,-0.77839892,0.22977408,-0.47595415,-0.84795611,0.40065669,-0.04657108
10.18000000,-0.58865931,0.82018293,-0.40243662,-0.28057663,0.52646977,0.17322949,-0.75032852,0.27850122,-0.77837503,0.22979797,-0.47600095,-0.84799196,0.40056111,-0.04659497
10.20000000,-0.58258203,0.82533487,-0.39671522,-0.29007239,0.52337215,0.17519992,-0.75296480,0.27840701,-0.77837500,0.22982076,-0.47606036,-0.84801575,0.40043040,-0.04654751
10.22000000,-0.57577587,0.83162281,-0.39046749,-0.30051572,0.52036396,0.17711045,-0.75531885,0.27839418,-0.77836318,0.22979834,-0.47607282,-0.84800418,0.40047629,-0.04658246
10.24000000,-0.56984852,0.83733261,-0.38482965,-0.31065086,0.51686842,0.17889308,-0.75748291,0.27856873,-0.77840985,0.22978629,-0.47596758,-0.84798057,0.40071127,-0.04658300
10.26000000,-0.56412693,0.84310739,-0.37931224,-0.32079542,0.51303319,0.18073024,-0.75992311,0.27846803,-0.77837601,0.22977434,-0.47599999,-0.84796834,0.40061203,-0.04655967
10.28000000,-0.55843592,0.84868400,-0.37405641,-0.33047158,0.51010821,0.18249800,-0.76303997,0.27852304,-0.77837500,0.22981946,-0.47600100,-0.84799122,0.40053935,-0.04655900
10.30000000,-0.55321828,0.85386306,-0.36915272,-0.33969602,0.50779756,0.18412539,-0.76614314,0.27851345,-0.77839811,0.22979886,-0.47600100,-0.84796889,0.40056011,-0.04655900
10.32000000,-0.54734329,0.85859865,-0.36253026,-0.34976917,0.50472195,0.18553133,-0.76943329,0.27843335,-0.77838749,0.22982007,-0.47597797,-0.84796800,0.40056100,-0.04652446
10.34000000,-0.54155875,0.86344052,-0.35681794,-0.35908046,0.50144531,0.18680201,-0.77253415,0.27844052,-0.77839847,0.22982100,-0.47598847,-0.84802535,0.40054953,-0.04651153
10.36000000,-0.53563408,0.86871953,-0.35160527,-0.36850169,0.49818571,0.18854649,-0.77506668,0.27835058,-0.77839900,0.22982100,-0.47608037,-0.84800516,0.40046905,-0.04655669
10.38000000,-0.53041646,0.87475879,-0.34702544,-0.37813841,0.49450619,0.19060858,-0.77722145,0.27840288,-0.77837625,0.22977644,-0.47600537,-0.84799262,0.40052188,-0.04654762
10.40000000,-0.52523687,0.88010973,-0.34216109,-0.38709164,0.49150778,0.19253775,-0.77915375,0.27848434,-0.77839765,0.22979665,-0.47595664,-0.84800333,0.40061561,-0.04653567
10.42000000,-0.52032295,0.88523377,-0.33682473,-0.39580390,0.48896850,0.19449107,-0.78114085,0.27851152,-0.77837648,0.22981959,-0.47599811,-0.84799274,0.40055343,-0.04654626
10.44000000,-0.51608785,0.89010576,-0.33213798,-0.40404924,0.48618382,0.19630438,-0.78368036,0.27849070,-0.77838615,0.22979962,-0.47601215,-0.84798085,0.40054900,-0.04656930
10.46000000,-0.51123587,0.89407509,-0.32672136,-0.41275668,0.48366907,0.19839478,-0.78635736,0.27847791,-0.77840919,0.22979800,-0.47601300,-0.84801328,0.40061556,-0.04658209
10.48000000,-0.50586146,0.89823806,-0.32141379,-0.42183816,0.48109963,0.19995435,-0.78898458,0.27845493,-0.77838893,0.22981915,-0.47600197,-0.84799393,0.40055480,-0.04654990
10.50000000,-0.50060116,0.90305881,-0.31653710,-0.43042879,0.47855111,0.20132897,-0.79174586,0.27849699,-0.77838700,0.22982100,-0.47602300,-0.84798100,0.40048301,-0.04654700
10.52000000,-0.49623741,0.90766430,-0.31253575,-0.43786679,0.47559453,0.20255754,-0.79425085,0.27846817,-0.77839794,0.22980002,-0.47598122,-0.84799094,0.40061928,-0.04656889
10.54000000,-0.49125077,0.91270965,-0.30840119,-0.44516303,0.47258866,0.20398164,-0.79654222,0.27847581,-0.77837739,0.22978719,-0.47604184,-0.84800281,0.40056816,-0.04658181
10.56000000,-0.48634088,0.91706503,-0.30448306,-0.45272488,0.47055798,0.20525483,-0.79819892,0.27853075,-0.77839650,0.22979675,-0.47601675,-0.84799325,0.40053950,-0.04657225
10.58000000,-0.48170661,0.92095441,-0.30070805,-0.46061571,0.46843411,0.20635232,-0.79972494,0.27861147,-0.77839900,0.22981839,-0.47601300,-0.84799200,0.40060083,-0.04654972
10.60000000,-0.47781981,0.92461711,-0.29645387,-0.46751658,0.46602909,0.20736083,-0.80128907,0.27856828,-0.77838846,0.22980079,-0.47600246,-0.84801309,0.40061954,-0.04656809
10.62000000,-0.47439435,0.92850305,-0.29238142,-0.47452658,0.46361417,0.20831738,-0.80323241,0.27856100,-0.77837656,0.22979800,-0.47605320,-0.84800556,0.40055836,-0.04657100
10.64000000,-0.47105969,0.93168258,-0.28835968,-0.48111220,0.46162468,0.20921616,-0.80523025,0.27854031,-0.77838535,0.22979800,-0.47606100,-0.84801435,0.40052831,-0.04658135
10.66000000,-0.46697367,0.93466745,-0.28411704,-0.48770790,0.45969862,0.21036389,-0.80731924,0.27850626,-0.77838700,0.22980825,-0.47604051,-0.84801600,0.40052500,-0.04658300
10.68000000,-0.46294538,0.93797453,-0.28031269,-0.49449052,0.45770602,0.21174963,-0.80923610,0.27855194,-0.77838700,0.22981934,-0.47605738,-0.84800581,0.40051481,-0.04658300
10.70000000,-0.45916194,0.94137838,-0.27685378,-0.50041075,0.45545929,0.21289625,-0.81123253,0.27861166,-0.77841739,0.22980158,-0.47606100,-0.84799387,0.40060418,-0.04658300
10.72000000,-0.45581711,0.94434903,-0.27406448,-0.50573312,0.45351945,0.21403441,-0.81331023,0.27855041,-0.77838266,0.22979800,-0.47605092,-0.84799200,0.40062100,-0.04659308
10.74000000,-0.45275633,0.94768867,-0.27154850,-0.51054800,0.45199067,0.21520633,-0.81509333,0.27854700,-0.77838500,0.22981717,-0.47605900,-0.84801200,0.40053100,-0.04659500
10.76000000,-0.44967538,0.95053037,-0.26895383,-0.51480698,0.45046810,0.21623572,-0.81646168,0.27859856,-0.77837709,0.22980200,-0.47604118,-0.84799618,0.40058238,-0.04659500
10.78000000,-0.44676554,0.95289625,-0.26625408,-0.51936248,0.44904466,0.21722328,-0.81760904,0.27857961,-0.77837500,0.22979800,-0.47603700,-0.84799200,0.40063619,-0.04659500
10.80000000,-0.44437326,0.95510274,-0.26365708,-0.52326082,0.44750942,0.21807791,-0.81840991,0.27855350,-0.77839450,0.22979800,-0.47605650,-0.84798225,0.40054750,-0.04661450
10.82000000,-0.44174532,0.95762541,-0.26107229,-0.52785514,0.44598516,0.21893034,-0.81915707,0.27857809,-0.77839900,0.22979800,-0.47606100,-0.84799939,0.40048621,-0.04660930
10.84000000,-0.43959740,0.96024309,-0.25887034,-0.53248396,0.44473129,0.21984578,-0.82002288,0.27863317,-0.77838937,0.22977873,-0.47607063,-0.84800400,0.40065040,-0.04660700
10.86000000,-0.43801201,0.96217884,-0.25669217,-0.53656967,0.44365300,0.22061342,-0.82075469,0.27857796,-0.77839658,0.22977400,-0.47606342,-0.84802315,0.40063554,-0.04660700
10.88000000,-0.43658959,0.96409679,-0.25464831,-0.54048306,0.44266050,0.22119917,-0.82144748,0.27859910,-0.77837995,0.22980258,-0.47606100,-0.84800895,0.40050669,-0.04659747
10.90000000,-0.43502609,0.96567014,-0.25265058,-0.54337338,0.44180790,0.22162351,-0.82208074,0.27859957,-0.77837500,0.22980057,-0.47607043,-0.84801343,0.40044870,-0.04660443
10.92000000,-0.43333252,0.96711142,-0.25090999,-0.54558649,0.44111652,0.22205463,-0.82274722,0.27862511,-0.77836563,0.22978863,-0.47607300,-0.84800663,0.40057216,-0.04659763
10.94000000,-0.43150464,0.96841185,-0.24965951,-0.54740608,0.44050672,0.22248623,-0.82345457,0.27861439,-0.77837231,0.22978600,-0.47607300,-0.84799469,0.40059039,-0.04660431
10.96000000,-0.42953067,0.96943274,-0.24870509,-0.54907714,0.43989404,0.22288604,-0.82411237,0.27862741,-0.77838421,0.22979521,-0.47606379,-0.84801962,0.40054817,-0.04660700
10.98000000,-0.42788055,0.97024523,-0.24782208,-0.55067068,0.43923239,0.22314138,-0.82477054,0.27862392,-0.77838700,0.22978892,-0.47607008,-0.84800077,0.40054608,-0.04661608
11.00000000,-0.42652987,0.97091156,-0.24698535,-0.55209317,0.43850839,0.22336511,-0.82534752,0.27862100,-0.77837799,0.22978600,-0.47607300,-0.84801902,0.40055801,-0.04659198
11.02000000,-0.42553596,0.97145441,-0.24616170,-0.55338496,0.43795650,0.22353844,-0.82579850,0.27862996,-0.77839291,0.22979496,-0.47607300,-0.84803696,0.40053413,-0.04660987
11.04000000,-0.42481920,0.97202039,-0.24525848,-0.55477361,0.43752937,0.22371967,-0.82621578,0.27863300,-0.77839900,0.22978020,-0.47607300,-0.84803110,0.40056060,-0.04661010
11.06000000,-0.42436679,0.97260526,-0.24448721,-0.55616921,0.43718600,0.22391047,-0.82654505,0.27864184,-0.77839016,0.22978284,-0.47606416,-0.84801916,0.40056416,-0.04660700
11.08000000,-0.42415152,0.97316434,-0.24375277,-0.55745008,0.43684563,0.22407548,-0.82675609,0.27862739,-0.77838700,0.22978600,-0.47606100,-0.84803361,0.40053458,-0.04659819
11.10000000,-0.42407496,0.97374828,-0.24305639,-0.55835945,0.43650844,0.22414328,-0.82690912,0.27863852,-0.77838700,0.22979476,-0.47606976,-0.84801372,0.40052500,-0.04659500
11.12000000,-0.42397534,0.97429056,-0.24258676,-0.55884958,0.43630535,0.22418766,-0.82706860,0.27861900,-0.77836967,0.22978933,-0.47607300,-0.84801267,0.40053367,-0.04660367
11.14000000,-0.42381305,0.97479805,-0.24225349,-0.55911073,0.43617604,0.22427837,-0.82720096,0.27861760,-0.77836300,0.22979460,-0.47607300,-0.84802460,0.40053700,-0.04661560
11.16000000,-0.42365952,0.97512816,-0.24205398,-0.55922324,0.43610784,0.22432608,-0.82733748,0.27863808,-0.77838008,0.22978092,-0.47606446,-0.84802800,0.40053700,-0.04661046
11.18000000,-0.42350005,0.97532266,-0.24199205,-0.55931180,0.43605162,0.22440080,-0.82744680,0.27863652,-0.77837005,0.22977400,-0.47606948,-0.84802800,0.40054548,-0.04661548
11.20000000,-0.42340899,0.97542241,-0.24196049,-0.55938201,0.43600879,0.22444580,-0.82753382,0.27864140,-0.77837980,0.22979080,-0.47607300,-0.84802800,0.40053220,-0.04661900
11.22000000,-0.42334106,0.97548561,-0.24191671,-0.55946658,0.43598135,0.22447797,-0.82759229,0.27862835,-0.77836203,0.22978135,-0.47607300,-0.84803632,0.40054165,-0.04660235
11.24000000,-0.42331900,0.97550400,-0.24188552,-0.55950424,0.43598224,0.22450479,-0.82761524,0.27862100,-0.77836748,0.22979048,-0.47606476,-0.84803176,0.40053252,-0.04660324
11.26000000,-0.42330264,0.97554491,-0.24186164,-0.55949982,0.43596145,0.22450382,-0.82761900,0.27862100,-0.77837500,0.22979800,-0.47606918,-0.84801164,0.40052500,-0.04659882
11.28000000,-0.42329500,0.97558826,-0.24185400,-0.55952026,0.43595000,0.22452426,-0.82762709,0.27862100,-0.77839118,0.22978991,-0.47608109,-0.84802018,0.40051691,-0.04661118
11.30000000,-0.42329500,0.97560793,-0.24182227,-0.55952407,0.43595000,0.22453600,-0.82764686,0.27862100,-0.77838314,0.22977807,-0.47607707,-0.84802800,0.40052093,-0.04661900
11.32000000,-0.42330282,0.97562764,-0.24179818,-0.55952782,0.43595782,0.22452818,-0.82765500,0.27862100,-0.77837500,0.22978182,-0.47607300,-0.84802018,0.40052500,-0.04661900
11.34000000,-0.42328384,0.97563600,-0.24176313,-0.55953200,0.43593113,0.22453944,-0.82765500,0.27861328,-0.77837500,0.22978600,-0.47606528,-0.84802372,0.40053272,-0.04661128
11.36000000,-0.42327100,0.97565892,-0.24174600,-0.55953200,0.43593692,0.22454036,-0.82763208,0.27862428,-0.77837500,0.22978600,-0.47606864,-0.84802800,0.40052172,-0.04661464
11.38000000,-0.42326341,0.97566441,-0.24174600,-0.55953895,0.43594241,0.22455117,-0.82761141,0.27864059,-0.77838259,0.22977841,-0.47606541,-0.84803559,0.40052817,-0.04660383
11.40000000,-0.42319167,0.97566000,-0.24171608,-0.55954300,0.43595296,0.22458992,-0.82758456,0.27863752,-0.77839448,0.22978896,-0.47606848,-0.84802504,0.40052952,-0.04660248
11.42000000,-0.42305522,0.97566000,-0.24168327,-0.55955037,0.43599147,0.22460800,-0.82752680,0.27864037,-0.77838427,0.22979800,-0.47607300,-0.84801600,0.40052500,-0.04661437
11.44000000,-0.42286431,0.97566000,-0.24164482,-0.55954771,0.43605377,0.22462988,-0.82744065,0.27863041,-0.77837500,0.22978341,-0.47607300,-0.84803059,0.40052500,-0.04662629
11.46000000,-0.42260644,0.97566000,-0.24159707,-0.55954300,0.43614708,0.22466569,-0.82729453,0.27862100,-0.77838223,0.22978846,-0.47607300,-0.84802554,0.40053223,-0.04661654
11.48000000,-0.42230612,0.97566000,-0.24158515,-0.55955015,0.43626864,0.22470860,-0.82710861,0.27862100,-0.77838700,0.22979085,-0.47607300,-0.84801600,0.40053700,-0.04661415
11.50000000,-0.42193284,0.97563876,-0.24159000,-0.55954143,0.43639279,0.22479879,-0.82686878,0.27863516,-0.77837284,0.22979308,-0.47607300,-0.84801600,0.40052992,-0.04661192
11.52000000,-0.42149515,0.97561001,-0.24159000,-0.55953200,0.43662331,0.22491796,-0.82651814,0.27864500,-0.77837699,0.22978401,-0.47607300,-0.84801600,0.40052500,-0.04660700
11.54000000,-0.42101859,0.97560000,-0.24159000,-0.55953826,0.43694432,0.22504316,-0.82593860,0.27864500,-0.77838017,0.22978767,-0.47607300,-0.84801600,0.40052500,-0.04661383
