gracetata/LocomotionHEC/legged_lab/Reference Data/ArmHack/StandPerturb/TestData/ArmOnly/sequences/representative_poses_arm_only_sequence_50hz.csv
time_s,left_shoulder_pitch_joint,left_shoulder_roll_joint,left_shoulder_yaw_joint,left_elbow_joint,left_wrist_roll_joint,left_wrist_pitch_joint,left_wrist_yaw_joint,right_shoulder_pitch_joint,right_shoulder_roll_joint,right_shoulder_yaw_joint,right_elbow_joint,right_wrist_roll_joint,right_wrist_pitch_joint,right_wrist_yaw_joint
0.00000000,0.27744700,0.77759600,-0.22961800,-0.47545000,0.84738100,0.40014100,0.04635500,0.27819000,-0.77841100,0.22883900,-0.47379600,-0.84847100,0.40059700,-0.04655900
0.02000000,0.27744700,0.77759600,-0.22961800,-0.47545000,0.84738100,0.40014100,0.04635500,0.27819000,-0.77841100,0.22883900,-0.47379600,-0.84847100,0.40059700,-0.04655900
0.04000000,0.27744700,0.77759600,-0.22961800,-0.47545000,0.84738100,0.40014100,0.04635500,0.27819000,-0.77841100,0.22883900,-0.47379600,-0.84847100,0.40059700,-0.04655900
0.06000000,0.27744700,0.77759600,-0.22961800,-0.47545000,0.84738100,0.40014100,0.04635500,0.27819000,-0.77841100,0.22883900,-0.47379600,-0.84847100,0.40059700,-0.04655900
0.08000000,0.27744700,0.77759600,-0.22961800,-0.47545000,0.84738100,0.40014100,0.04635500,0.27819000,-0.77841100,0.22883900,-0.47379600,-0.84847100,0.40059700,-0.04655900
0.10000000,0.27744700,0.77759600,-0.22961800,-0.47545000,0.84738100,0.40014100,0.04635500,0.27819000,-0.77841100,0.22883900,-0.47379600,-0.84847100,0.40059700,-0.04655900
0.12000000,0.27744700,0.77759600,-0.22961800,-0.47545000,0.84738100,0.40014100,0.04635500,0.27819000,-0.77841100,0.22883900,-0.47379600,-0.84847100,0.40059700,-0.04655900
0.14000000,0.27744700,0.77759600,-0.22961800,-0.47545000,0.84738100,0.40014100,0.04635500,0.27819000,-0.77841100,0.22883900,-0.47379600,-0.84847100,0.40059700,-0.04655900
0.16000000,0.27744700,0.77759600,-0.22961800,-0.47545000,0.84738100,0.40014100,0.04635500,0.27819000,-0.77841100,0.22883900,-0.47379600,-0.84847100,0.40059700,-0.04655900
0.18000000,0.27744700,0.77759600,-0.22961800,-0.47545000,0.84738100,0.40014100,0.04635500,0.27819000,-0.77841100,0.22883900,-0.47379600,-0.84847100,0.40059700,-0.04655900
0.20000000,0.27744700,0.77759600,-0.22961800,-0.47545000,0.84738100,0.40014100,0.04635500,0.27819000,-0.77841100,0.22883900,-0.47379600,-0.84847100,0.40059700,-0.04655900
0.22000000,0.27744700,0.77759600,-0.22961800,-0.47545000,0.84738100,0.40014100,0.04635500,0.27819000,-0.77841100,0.22883900,-0.47379600,-0.84847100,0.40059700,-0.04655900
0.24000000,0.27744700,0.77759600,-0.22961800,-0.47545000,0.84738100,0.40014100,0.04635500,0.27819000,-0.77841100,0.22883900,-0.47379600,-0.84847100,0.40059700,-0.04655900
0.26000000,0.27744700,0.77759600,-0.22961800,-0.47545000,0.84738100,0.40014100,0.04635500,0.27819000,-0.77841100,0.22883900,-0.47379600,-0.84847100,0.40059700,-0.04655900
0.28000000,0.27744700,0.77759600,-0.22961800,-0.47545000,0.84738100,0.40014100,0.04635500,0.27819000,-0.77841100,0.22883900,-0.47379600,-0.84847100,0.40059700,-0.04655900
0.30000000,0.27744700,0.77759600,-0.22961800,-0.47545000,0.84738100,0.40014100,0.04635500,0.27819000,-0.77841100,0.22883900,-0.47379600,-0.84847100,0.40059700,-0.04655900
0.32000000,0.27744700,0.77759600,-0.22961800,-0.47545000,0.84738100,0.40014100,0.04635500,0.27819000,-0.77841100,0.22883900,-0.47379600,-0.84847100,0.40059700,-0.04655900
0.34000000,0.27744700,0.77759600,-0.22961800,-0.47545000,0.84738100,0.40014100,0.04635500,0.27819000,-0.77841100,0.22883900,-0.47379600,-0.84847100,0.40059700,-0.04655900
0.36000000,0.27744700,0.77759600,-0.22961800,-0.47545000,0.84738100,0.40014100,0.04635500,0.27819000,-0.77841100,0.22883900,-0.47379600,-0.84847100,0.40059700,-0.04655900
0.38000000,0.27744700,0.77759600,-0.22961800,-0.47545000,0.84738100,0.40014100,0.04635500,0.27819000,-0.77841100,0.22883900,-0.47379600,-0.84847100,0.40059700,-0.04655900
0.40000000,0.27744700,0.77759600,-0.22961800,-0.47545000,0.84738100,0.40014100,0.04635500,0.27819000,-0.77841100,0.22883900,-0.47379600,-0.84847100,0.40059700,-0.04655900
0.42000000,0.27744700,0.77759600,-0.22961800,-0.47545000,0.84738100,0.40014100,0.04635500,0.27819000,-0.77841100,0.22883900,-0.47379600,-0.84847100,0.40059700,-0.04655900
0.44000000,0.27744700,0.77759600,-0.22961800,-0.47545000,0.84738100,0.40014100,0.04635500,0.27819000,-0.77841100,0.22883900,-0.47379600,-0.84847100,0.40059700,-0.04655900
0.46000000,0.27744700,0.77759600,-0.22961800,-0.47545000,0.84738100,0.40014100,0.04635500,0.27819000,-0.77841100,0.22883900,-0.47379600,-0.84847100,0.40059700,-0.04655900
0.48000000,0.27744700,0.77759600,-0.22961800,-0.47545000,0.84738100,0.40014100,0.04635500,0.27819000,-0.77841100,0.22883900,-0.47379600,-0.84847100,0.40059700,-0.04655900
0.50000000,0.27744700,0.77759600,-0.22961800,-0.47545000,0.84738100,0.40014100,0.04635500,0.27819000,-0.77841100,0.22883900,-0.47379600,-0.84847100,0.40059700,-0.04655900
0.52000000,0.27744700,0.77759600,-0.22961800,-0.47545000,0.84738100,0.40014100,0.04635500,0.27819000,-0.77841100,0.22883900,-0.47379600,-0.84847100,0.40059700,-0.04655900
0.54000000,0.27744700,0.77759600,-0.22961800,-0.47545000,0.84738100,0.40014100,0.04635500,0.27819000,-0.77841100,0.22883900,-0.47379600,-0.84847100,0.40059700,-0.04655900
0.56000000,0.27744700,0.77759600,-0.22961800,-0.47545000,0.84738100,0.40014100,0.04635500,0.27819000,-0.77841100,0.22883900,-0.47379600,-0.84847100,0.40059700,-0.04655900
0.58000000,0.27744700,0.77759600,-0.22961800,-0.47545000,0.84738100,0.40014100,0.04635500,0.27819000,-0.77841100,0.22883900,-0.47379600,-0.84847100,0.40059700,-0.04655900
0.60000000,0.27744700,0.77759600,-0.22961800,-0.47545000,0.84738100,0.40014100,0.04635500,0.27819000,-0.77841100,0.22883900,-0.47379600,-0.84847100,0.40059700,-0.04655900
0.62000000,0.27744700,0.77759600,-0.22961800,-0.47545000,0.84738100,0.40014100,0.04635500,0.27819000,-0.77841100,0.22883900,-0.47379600,-0.84847100,0.40059700,-0.04655900
0.64000000,0.27744700,0.77759600,-0.22961800,-0.47545000,0.84738100,0.40014100,0.04635500,0.27819000,-0.77841100,0.22883900,-0.47379600,-0.84847100,0.40059700,-0.04655900
0.66000000,0.27744700,0.77759600,-0.22961800,-0.47545000,0.84738100,0.40014100,0.04635500,0.27819000,-0.77841100,0.22883900,-0.47379600,-0.84847100,0.40059700,-0.04655900
0.68000000,0.27744700,0.77759600,-0.22961800,-0.47545000,0.84738100,0.40014100,0.04635500,0.27819000,-0.77841100,0.22883900,-0.47379600,-0.84847100,0.40059700,-0.04655900
0.70000000,0.27744700,0.77759600,-0.22961800,-0.47545000,0.84738100,0.40014100,0.04635500,0.27819000,-0.77841100,0.22883900,-0.47379600,-0.84847100,0.40059700,-0.04655900
0.72000000,0.27744700,0.77759600,-0.22961800,-0.47545000,0.84738100,0.40014100,0.04635500,0.27819000,-0.77841100,0.22883900,-0.47379600,-0.84847100,0.40059700,-0.04655900
0.74000000,0.27744700,0.77759600,-0.22961800,-0.47545000,0.84738100,0.40014100,0.04635500,0.27819000,-0.77841100,0.22883900,-0.47379600,-0.84847100,0.40059700,-0.04655900
0.76000000,0.27744700,0.77759600,-0.22961800,-0.47545000,0.84738100,0.40014100,0.04635500,0.27819000,-0.77841100,0.22883900,-0.47379600,-0.84847100,0.40059700,-0.04655900
0.78000000,0.27744700,0.77759600,-0.22961800,-0.47545000,0.84738100,0.40014100,0.04635500,0.27819000,-0.77841100,0.22883900,-0.47379600,-0.84847100,0.40059700,-0.04655900
0.80000000,0.27744700,0.77759600,-0.22961800,-0.47545000,0.84738100,0.40014100,0.04635500,0.27819000,-0.77841100,0.22883900,-0.47379600,-0.84847100,0.40059700,-0.04655900
0.82000000,0.27744700,0.77759600,-0.22961800,-0.47545000,0.84738100,0.40014100,0.04635500,0.27819000,-0.77841100,0.22883900,-0.47379600,-0.84847100,0.40059700,-0.04655900
0.84000000,0.27744700,0.77759600,-0.22961800,-0.47545000,0.84738100,0.40014100,0.04635500,0.27819000,-0.77841100,0.22883900,-0.47379600,-0.84847100,0.40059700,-0.04655900
0.86000000,0.27744700,0.77759600,-0.22961800,-0.47545000,0.84738100,0.40014100,0.04635500,0.27819000,-0.77841100,0.22883900,-0.47379600,-0.84847100,0.40059700,-0.04655900
0.88000000,0.27744700,0.77759600,-0.22961800,-0.47545000,0.84738100,0.40014100,0.04635500,0.27819000,-0.77841100,0.22883900,-0.47379600,-0.84847100,0.40059700,-0.04655900
0.90000000,0.27744700,0.77759600,-0.22961800,-0.47545000,0.84738100,0.40014100,0.04635500,0.27819000,-0.77841100,0.22883900,-0.47379600,-0.84847100,0.40059700,-0.04655900
0.92000000,0.27744700,0.77759600,-0.22961800,-0.47545000,0.84738100,0.40014100,0.04635500,0.27819000,-0.77841100,0.22883900,-0.47379600,-0.84847100,0.40059700,-0.04655900
0.94000000,0.27744700,0.77759600,-0.22961800,-0.47545000,0.84738100,0.40014100,0.04635500,0.27819000,-0.77841100,0.22883900,-0.47379600,-0.84847100,0.40059700,-0.04655900
0.96000000,0.27744700,0.77759600,-0.22961800,-0.47545000,0.84738100,0.40014100,0.04635500,0.27819000,-0.77841100,0.22883900,-0.47379600,-0.84847100,0.40059700,-0.04655900
0.98000000,0.27744700,0.77759600,-0.22961800,-0.47545000,0.84738100,0.40014100,0.04635500,0.27819000,-0.77841100,0.22883900,-0.47379600,-0.84847100,0.40059700,-0.04655900
1.00000000,0.27744700,0.77759600,-0.22961800,-0.47545000,0.84738100,0.40014100,0.04635500,0.27819000,-0.77841100,0.22883900,-0.47379600,-0.84847100,0.40059700,-0.04655900
1.02000000,0.27744700,0.77759600,-0.22961800,-0.47545000,0.84738100,0.40014100,0.04635500,0.27819000,-0.77841100,0.22883900,-0.47379600,-0.84847100,0.40059700,-0.04655900
1.04000000,0.27744700,0.77759600,-0.22961800,-0.47545000,0.84738100,0.40014100,0.04635500,0.27819000,-0.77841100,0.22883900,-0.47379600,-0.84847100,0.40059700,-0.04655900
1.06000000,0.27744700,0.77759600,-0.22961800,-0.47545000,0.84738100,0.40014100,0.04635500,0.27819000,-0.77841100,0.22883900,-0.47379600,-0.84847100,0.40059700,-0.04655900
1.08000000,0.27744700,0.77759600,-0.22961800,-0.47545000,0.84738100,0.40014100,0.04635500,0.27819000,-0.77841100,0.22883900,-0.47379600,-0.84847100,0.40059700,-0.04655900
1.10000000,0.27744700,0.77759600,-0.22961800,-0.47545000,0.84738100,0.40014100,0.04635500,0.27819000,-0.77841100,0.22883900,-0.47379600,-0.84847100,0.40059700,-0.04655900
1.12000000,0.27744700,0.77759600,-0.22961800,-0.47545000,0.84738100,0.40014100,0.04635500,0.27819000,-0.77841100,0.22883900,-0.47379600,-0.84847100,0.40059700,-0.04655900
1.14000000,0.27744700,0.77759600,-0.22961800,-0.47545000,0.84738100,0.40014100,0.04635500,0.27819000,-0.77841100,0.22883900,-0.47379600,-0.84847100,0.40059700,-0.04655900
1.16000000,0.27744700,0.77759600,-0.22961800,-0.47545000,0.84738100,0.40014100,0.04635500,0.27819000,-0.77841100,0.22883900,-0.47379600,-0.84847100,0.40059700,-0.04655900
1.18000000,0.27744700,0.77759600,-0.22961800,-0.47545000,0.84738100,0.40014100,0.04635500,0.27819000,-0.77841100,0.22883900,-0.47379600,-0.84847100,0.40059700,-0.04655900
1.20000000,0.27744700,0.77759600,-0.22961800,-0.47545000,0.84738100,0.40014100,0.04635500,0.27819000,-0.77841100,0.22883900,-0.47379600,-0.84847100,0.40059700,-0.04655900
1.22000000,0.27744700,0.77759600,-0.22961800,-0.47545000,0.84738100,0.40014100,0.04635500,0.27819000,-0.77841100,0.22883900,-0.47379600,-0.84847100,0.40059700,-0.04655900
1.24000000,0.27744700,0.77759600,-0.22961800,-0.47545000,0.84738100,0.40014100,0.04635500,0.27819000,-0.77841100,0.22883900,-0.47379600,-0.84847100,0.40059700,-0.04655900
1.26000000,0.27744700,0.77759600,-0.22961800,-0.47545000,0.84738100,0.40014100,0.04635500,0.27819000,-0.77841100,0.22883900,-0.47379600,-0.84847100,0.40059700,-0.04655900
1.28000000,0.27744700,0.77759600,-0.22961800,-0.47545000,0.84738100,0.40014100,0.04635500,0.27819000,-0.77841100,0.22883900,-0.47379600,-0.84847100,0.40059700,-0.04655900
1.30000000,0.27744700,0.77759600,-0.22961800,-0.47545000,0.84738100,0.40014100,0.04635500,0.27819000,-0.77841100,0.22883900,-0.47379600,-0.84847100,0.40059700,-0.04655900
1.32000000,0.27744700,0.77759600,-0.22961800,-0.47545000,0.84738100,0.40014100,0.04635500,0.27819000,-0.77841100,0.22883900,-0.47379600,-0.84847100,0.40059700,-0.04655900
1.34000000,0.27744700,0.77759600,-0.22961800,-0.47545000,0.84738100,0.40014100,0.04635500,0.27819000,-0.77841100,0.22883900,-0.47379600,-0.84847100,0.40059700,-0.04655900
1.36000000,0.27744700,0.77759600,-0.22961800,-0.47545000,0.84738100,0.40014100,0.04635500,0.27819000,-0.77841100,0.22883900,-0.47379600,-0.84847100,0.40059700,-0.04655900
1.38000000,0.27744700,0.77759600,-0.22961800,-0.47545000,0.84738100,0.40014100,0.04635500,0.27819000,-0.77841100,0.22883900,-0.47379600,-0.84847100,0.40059700,-0.04655900
1.40000000,0.27744700,0.77759600,-0.22961800,-0.47545000,0.84738100,0.40014100,0.04635500,0.27819000,-0.77841100,0.22883900,-0.47379600,-0.84847100,0.40059700,-0.04655900
1.42000000,0.27744700,0.77759600,-0.22961800,-0.47545000,0.84738100,0.40014100,0.04635500,0.27819000,-0.77841100,0.22883900,-0.47379600,-0.84847100,0.40059700,-0.04655900
1.44000000,0.27744700,0.77759600,-0.22961800,-0.47545000,0.84738100,0.40014100,0.04635500,0.27819000,-0.77841100,0.22883900,-0.47379600,-0.84847100,0.40059700,-0.04655900
1.46000000,0.27744700,0.77759600,-0.22961800,-0.47545000,0.84738100,0.40014100,0.04635500,0.27819000,-0.77841100,0.22883900,-0.47379600,-0.84847100,0.40059700,-0.04655900
1.48000000,0.27744700,0.77759600,-0.22961800,-0.47545000,0.84738100,0.40014100,0.04635500,0.27819000,-0.77841100,0.22883900,-0.47379600,-0.84847100,0.40059700,-0.04655900
1.50000000,0.27744700,0.77759600,-0.22961800,-0.47545000,0.84738100,0.40014100,0.04635500,0.27819000,-0.77841100,0.22883900,-0.47379600,-0.84847100,0.40059700,-0.04655900
1.52000000,0.27744700,0.77759600,-0.22961800,-0.47545000,0.84738100,0.40014100,0.04635500,0.27819000,-0.77841100,0.22883900,-0.47379600,-0.84847100,0.40059700,-0.04655900
1.54000000,0.27744700,0.77759600,-0.22961800,-0.47545000,0.84738100,0.40014100,0.04635500,0.27819000,-0.77841100,0.22883900,-0.47379600,-0.84847100,0.40059700,-0.04655900
1.56000000,0.27744700,0.77759600,-0.22961800,-0.47545000,0.84738100,0.40014100,0.04635500,0.27819000,-0.77841100,0.22883900,-0.47379600,-0.84847100,0.40059700,-0.04655900
1.58000000,0.27744700,0.77759600,-0.22961800,-0.47545000,0.84738100,0.40014100,0.04635500,0.27819000,-0.77841100,0.22883900,-0.47379600,-0.84847100,0.40059700,-0.04655900
1.60000000,0.27744700,0.77759600,-0.22961800,-0.47545000,0.84738100,0.40014100,0.04635500,0.27819000,-0.77841100,0.22883900,-0.47379600,-0.84847100,0.40059700,-0.04655900
1.62000000,0.27744700,0.77759600,-0.22961800,-0.47545000,0.84738100,0.40014100,0.04635500,0.27819000,-0.77841100,0.22883900,-0.47379600,-0.84847100,0.40059700,-0.04655900
1.64000000,0.27744700,0.77759600,-0.22961800,-0.47545000,0.84738100,0.40014100,0.04635500,0.27819000,-0.77841100,0.22883900,-0.47379600,-0.84847100,0.40059700,-0.04655900
1.66000000,0.27744700,0.77759600,-0.22961800,-0.47545000,0.84738100,0.40014100,0.04635500,0.27819000,-0.77841100,0.22883900,-0.47379600,-0.84847100,0.40059700,-0.04655900
1.68000000,0.27744700,0.77759600,-0.22961800,-0.47545000,0.84738100,0.40014100,0.04635500,0.27819000,-0.77841100,0.22883900,-0.47379600,-0.84847100,0.40059700,-0.04655900
1.70000000,0.27744700,0.77759600,-0.22961800,-0.47545000,0.84738100,0.40014100,0.04635500,0.27819000,-0.77841100,0.22883900,-0.47379600,-0.84847100,0.40059700,-0.04655900
1.72000000,0.27744700,0.77759600,-0.22961800,-0.47545000,0.84738100,0.40014100,0.04635500,0.27819000,-0.77841100,0.22883900,-0.47379600,-0.84847100,0.40059700,-0.04655900
1.74000000,0.27744700,0.77759600,-0.22961800,-0.47545000,0.84738100,0.40014100,0.04635500,0.27819000,-0.77841100,0.22883900,-0.47379600,-0.84847100,0.40059700,-0.04655900
1.76000000,0.27744700,0.77759600,-0.22961800,-0.47545000,0.84738100,0.40014100,0.04635500,0.27819000,-0.77841100,0.22883900,-0.47379600,-0.84847100,0.40059700,-0.04655900
1.78000000,0.27744700,0.77759600,-0.22961800,-0.47545000,0.84738100,0.40014100,0.04635500,0.27819000,-0.77841100,0.22883900,-0.47379600,-0.84847100,0.40059700,-0.04655900
1.80000000,0.27744700,0.77759600,-0.22961800,-0.47545000,0.84738100,0.40014100,0.04635500,0.27819000,-0.77841100,0.22883900,-0.47379600,-0.84847100,0.40059700,-0.04655900
1.82000000,0.27744700,0.77759600,-0.22961800,-0.47545000,0.84738100,0.40014100,0.04635500,0.27819000,-0.77841100,0.22883900,-0.47379600,-0.84847100,0.40059700,-0.04655900
1.84000000,0.27744700,0.77759600,-0.22961800,-0.47545000,0.84738100,0.40014100,0.04635500,0.27819000,-0.77841100,0.22883900,-0.47379600,-0.84847100,0.40059700,-0.04655900
1.86000000,0.27744700,0.77759600,-0.22961800,-0.47545000,0.84738100,0.40014100,0.04635500,0.27819000,-0.77841100,0.22883900,-0.47379600,-0.84847100,0.40059700,-0.04655900
1.88000000,0.27744700,0.77759600,-0.22961800,-0.47545000,0.84738100,0.40014100,0.04635500,0.27819000,-0.77841100,0.22883900,-0.47379600,-0.84847100,0.40059700,-0.04655900
1.90000000,0.27744700,0.77759600,-0.22961800,-0.47545000,0.84738100,0.40014100,0.04635500,0.27819000,-0.77841100,0.22883900,-0.47379600,-0.84847100,0.40059700,-0.04655900
1.92000000,0.27744700,0.77759600,-0.22961800,-0.47545000,0.84738100,0.40014100,0.04635500,0.27819000,-0.77841100,0.22883900,-0.47379600,-0.84847100,0.40059700,-0.04655900
1.94000000,0.27744700,0.77759600,-0.22961800,-0.47545000,0.84738100,0.40014100,0.04635500,0.27819000,-0.77841100,0.22883900,-0.47379600,-0.84847100,0.40059700,-0.04655900
1.96000000,0.27744700,0.77759600,-0.22961800,-0.47545000,0.84738100,0.40014100,0.04635500,0.27819000,-0.77841100,0.22883900,-0.47379600,-0.84847100,0.40059700,-0.04655900
1.98000000,0.27744700,0.77759600,-0.22961800,-0.47545000,0.84738100,0.40014100,0.04635500,0.27819000,-0.77841100,0.22883900,-0.47379600,-0.84847100,0.40059700,-0.04655900
2.00000000,0.27744700,0.77759600,-0.22961800,-0.47545000,0.84738100,0.40014100,0.04635500,0.27819000,-0.77841100,0.22883900,-0.47379600,-0.84847100,0.40059700,-0.04655900
2.02000000,0.27744700,0.77759600,-0.22961800,-0.47545000,0.84738100,0.40014100,0.04635500,0.27819000,-0.77841100,0.22883900,-0.47379600,-0.84847100,0.40059700,-0.04655900
2.04000000,0.27744700,0.77759600,-0.22961800,-0.47545000,0.84738100,0.40014100,0.04635500,0.27819000,-0.77841100,0.22883900,-0.47379600,-0.84847100,0.40059700,-0.04655900
2.06000000,0.27744700,0.77759600,-0.22961800,-0.47545000,0.84738100,0.40014100,0.04635500,0.27819000,-0.77841100,0.22883900,-0.47379600,-0.84847100,0.40059700,-0.04655900
2.08000000,0.27744700,0.77759600,-0.22961800,-0.47545000,0.84738100,0.40014100,0.04635500,0.27819000,-0.77841100,0.22883900,-0.47379600,-0.84847100,0.40059700,-0.04655900
2.10000000,0.27744700,0.77759600,-0.22961800,-0.47545000,0.84738100,0.40014100,0.04635500,0.27819000,-0.77841100,0.22883900,-0.47379600,-0.84847100,0.40059700,-0.04655900
2.12000000,0.27744700,0.77759600,-0.22961800,-0.47545000,0.84738100,0.40014100,0.04635500,0.27819000,-0.77841100,0.22883900,-0.47379600,-0.84847100,0.40059700,-0.04655900
2.14000000,0.27744700,0.77759600,-0.22961800,-0.47545000,0.84738100,0.40014100,0.04635500,0.27819000,-0.77841100,0.22883900,-0.47379600,-0.84847100,0.40059700,-0.04655900
2.16000000,0.27744700,0.77759600,-0.22961800,-0.47545000,0.84738100,0.40014100,0.04635500,0.27819000,-0.77841100,0.22883900,-0.47379600,-0.84847100,0.40059700,-0.04655900
2.18000000,0.27744700,0.77759600,-0.22961800,-0.47545000,0.84738100,0.40014100,0.04635500,0.27819000,-0.77841100,0.22883900,-0.47379600,-0.84847100,0.40059700,-0.04655900
2.20000000,0.27744700,0.77759600,-0.22961800,-0.47545000,0.84738100,0.40014100,0.04635500,0.27819000,-0.77841100,0.22883900,-0.47379600,-0.84847100,0.40059700,-0.04655900
2.22000000,0.27744700,0.77759600,-0.22961800,-0.47545000,0.84738100,0.40014100,0.04635500,0.27819000,-0.77841100,0.22883900,-0.47379600,-0.84847100,0.40059700,-0.04655900
2.24000000,0.27744700,0.77759600,-0.22961800,-0.47545000,0.84738100,0.40014100,0.04635500,0.27819000,-0.77841100,0.22883900,-0.47379600,-0.84847100,0.40059700,-0.04655900
2.26000000,0.27744700,0.77759600,-0.22961800,-0.47545000,0.84738100,0.40014100,0.04635500,0.27819000,-0.77841100,0.22883900,-0.47379600,-0.84847100,0.40059700,-0.04655900
2.28000000,0.27744700,0.77759600,-0.22961800,-0.47545000,0.84738100,0.40014100,0.04635500,0.27819000,-0.77841100,0.22883900,-0.47379600,-0.84847100,0.40059700,-0.04655900
2.30000000,0.27744700,0.77759600,-0.22961800,-0.47545000,0.84738100,0.40014100,0.04635500,0.27819000,-0.77841100,0.22883900,-0.47379600,-0.84847100,0.40059700,-0.04655900
2.32000000,0.27744700,0.77759600,-0.22961800,-0.47545000,0.84738100,0.40014100,0.04635500,0.27819000,-0.77841100,0.22883900,-0.47379600,-0.84847100,0.40059700,-0.04655900
2.34000000,0.27744700,0.77759600,-0.22961800,-0.47545000,0.84738100,0.40014100,0.04635500,0.27819000,-0.77841100,0.22883900,-0.47379600,-0.84847100,0.40059700,-0.04655900
2.36000000,0.27744700,0.77759600,-0.22961800,-0.47545000,0.84738100,0.40014100,0.04635500,0.27819000,-0.77841100,0.22883900,-0.47379600,-0.84847100,0.40059700,-0.04655900
2.38000000,0.27744700,0.77759600,-0.22961800,-0.47545000,0.84738100,0.40014100,0.04635500,0.27819000,-0.77841100,0.22883900,-0.47379600,-0.84847100,0.40059700,-0.04655900
2.40000000,0.27744700,0.77759600,-0.22961800,-0.47545000,0.84738100,0.40014100,0.04635500,0.27819000,-0.77841100,0.22883900,-0.47379600,-0.84847100,0.40059700,-0.04655900
2.42000000,0.27744700,0.77759600,-0.22961800,-0.47545000,0.84738100,0.40014100,0.04635500,0.27819000,-0.77841100,0.22883900,-0.47379600,-0.84847100,0.40059700,-0.04655900
2.44000000,0.27744700,0.77759600,-0.22961800,-0.47545000,0.84738100,0.40014100,0.04635500,0.27819000,-0.77841100,0.22883900,-0.47379600,-0.84847100,0.40059700,-0.04655900
2.46000000,0.27744700,0.77759600,-0.22961800,-0.47545000,0.84738100,0.40014100,0.04635500,0.27819000,-0.77841100,0.22883900,-0.47379600,-0.84847100,0.40059700,-0.04655900
2.48000000,0.27744700,0.77759600,-0.22961800,-0.47545000,0.84738100,0.40014100,0.04635500,0.27819000,-0.77841100,0.22883900,-0.47379600,-0.84847100,0.40059700,-0.04655900
2.50000000,0.27744700,0.77759600,-0.22961800,-0.47545000,0.84738100,0.40014100,0.04635500,0.27819000,-0.77841100,0.22883900,-0.47379600,-0.84847100,0.40059700,-0.04655900
2.52000000,0.27744700,0.77759600,-0.22961800,-0.47545000,0.84738100,0.40014100,0.04635500,0.27819000,-0.77841100,0.22883900,-0.47379600,-0.84847100,0.40059700,-0.04655900
2.54000000,0.27744700,0.77759600,-0.22961800,-0.47545000,0.84738100,0.40014100,0.04635500,0.27819000,-0.77841100,0.22883900,-0.47379600,-0.84847100,0.40059700,-0.04655900
2.56000000,0.27744700,0.77759600,-0.22961800,-0.47545000,0.84738100,0.40014100,0.04635500,0.27819000,-0.77841100,0.22883900,-0.47379600,-0.84847100,0.40059700,-0.04655900
2.58000000,0.27744700,0.77759600,-0.22961800,-0.47545000,0.84738100,0.40014100,0.04635500,0.27819000,-0.77841100,0.22883900,-0.47379600,-0.84847100,0.40059700,-0.04655900
2.60000000,0.27744700,0.77759600,-0.22961800,-0.47545000,0.84738100,0.40014100,0.04635500,0.27819000,-0.77841100,0.22883900,-0.47379600,-0.84847100,0.40059700,-0.04655900
2.62000000,0.27744700,0.77759600,-0.22961800,-0.47545000,0.84738100,0.40014100,0.04635500,0.27819000,-0.77841100,0.22883900,-0.47379600,-0.84847100,0.40059700,-0.04655900
2.64000000,0.27744700,0.77759600,-0.22961800,-0.47545000,0.84738100,0.40014100,0.04635500,0.27819000,-0.77841100,0.22883900,-0.47379600,-0.84847100,0.40059700,-0.04655900
2.66000000,0.27744700,0.77759600,-0.22961800,-0.47545000,0.84738100,0.40014100,0.04635500,0.27819000,-0.77841100,0.22883900,-0.47379600,-0.84847100,0.40059700,-0.04655900
2.68000000,0.27744700,0.77759600,-0.22961800,-0.47545000,0.84738100,0.40014100,0.04635500,0.27819000,-0.77841100,0.22883900,-0.47379600,-0.84847100,0.40059700,-0.04655900
2.70000000,0.27744700,0.77759600,-0.22961800,-0.47545000,0.84738100,0.40014100,0.04635500,0.27819000,-0.77841100,0.22883900,-0.47379600,-0.84847100,0.40059700,-0.04655900
2.72000000,0.27744700,0.77759600,-0.22961800,-0.47545000,0.84738100,0.40014100,0.04635500,0.27819000,-0.77841100,0.22883900,-0.47379600,-0.84847100,0.40059700,-0.04655900
2.74000000,0.27744700,0.77759600,-0.22961800,-0.47545000,0.84738100,0.40014100,0.04635500,0.27819000,-0.77841100,0.22883900,-0.47379600,-0.84847100,0.40059700,-0.04655900
2.76000000,0.27744700,0.77759600,-0.22961800,-0.47545000,0.84738100,0.40014100,0.04635500,0.27819000,-0.77841100,0.22883900,-0.47379600,-0.84847100,0.40059700,-0.04655900
2.78000000,0.27744700,0.77759600,-0.22961800,-0.47545000,0.84738100,0.40014100,0.04635500,0.27819000,-0.77841100,0.22883900,-0.47379600,-0.84847100,0.40059700,-0.04655900
2.80000000,0.27744700,0.77759600,-0.22961800,-0.47545000,0.84738100,0.40014100,0.04635500,0.27819000,-0.77841100,0.22883900,-0.47379600,-0.84847100,0.40059700,-0.04655900
2.82000000,0.27744700,0.77759600,-0.22961800,-0.47545000,0.84738100,0.40014100,0.04635500,0.27819000,-0.77841100,0.22883900,-0.47379600,-0.84847100,0.40059700,-0.04655900
2.84000000,0.27744700,0.77759600,-0.22961800,-0.47545000,0.84738100,0.40014100,0.04635500,0.27819000,-0.77841100,0.22883900,-0.47379600,-0.84847100,0.40059700,-0.04655900
2.86000000,0.27744700,0.77759600,-0.22961800,-0.47545000,0.84738100,0.40014100,0.04635500,0.27819000,-0.77841100,0.22883900,-0.47379600,-0.84847100,0.40059700,-0.04655900
2.88000000,0.27744700,0.77759600,-0.22961800,-0.47545000,0.84738100,0.40014100,0.04635500,0.27819000,-0.77841100,0.22883900,-0.47379600,-0.84847100,0.40059700,-0.04655900
2.90000000,0.27744700,0.77759600,-0.22961800,-0.47545000,0.84738100,0.40014100,0.04635500,0.27819000,-0.77841100,0.22883900,-0.47379600,-0.84847100,0.40059700,-0.04655900
2.92000000,0.27744700,0.77759600,-0.22961800,-0.47545000,0.84738100,0.40014100,0.04635500,0.27819000,-0.77841100,0.22883900,-0.47379600,-0.84847100,0.40059700,-0.04655900
2.94000000,0.27744700,0.77759600,-0.22961800,-0.47545000,0.84738100,0.40014100,0.04635500,0.27819000,-0.77841100,0.22883900,-0.47379600,-0.84847100,0.40059700,-0.04655900
2.96000000,0.27744700,0.77759600,-0.22961800,-0.47545000,0.84738100,0.40014100,0.04635500,0.27819000,-0.77841100,0.22883900,-0.47379600,-0.84847100,0.40059700,-0.04655900
2.98000000,0.27744700,0.77759600,-0.22961800,-0.47545000,0.84738100,0.40014100,0.04635500,0.27819000,-0.77841100,0.22883900,-0.47379600,-0.84847100,0.40059700,-0.04655900
3.00000000,0.27744700,0.77759600,-0.22961800,-0.47545000,0.84738100,0.40014100,0.04635500,0.27819000,-0.77841100,0.22883900,-0.47379600,-0.84847100,0.40059700,-0.04655900
3.02000000,0.27744700,0.77759600,-0.22961800,-0.47545000,0.84738100,0.40014100,0.04635500,0.27819000,-0.77841100,0.22883900,-0.47379600,-0.84847100,0.40059700,-0.04655900
3.04000000,0.27744700,0.77759600,-0.22961800,-0.47545000,0.84738100,0.40014100,0.04635500,0.27819000,-0.77841100,0.22883900,-0.47379600,-0.84847100,0.40059700,-0.04655900
3.06000000,0.27744700,0.77759600,-0.22961800,-0.47545000,0.84738100,0.40014100,0.04635500,0.27819000,-0.77841100,0.22883900,-0.47379600,-0.84847100,0.40059700,-0.04655900
3.08000000,0.27744700,0.77759600,-0.22961800,-0.47545000,0.84738100,0.40014100,0.04635500,0.27819000,-0.77841100,0.22883900,-0.47379600,-0.84847100,0.40059700,-0.04655900
3.10000000,0.27744700,0.77759600,-0.22961800,-0.47545000,0.84738100,0.40014100,0.04635500,0.27819000,-0.77841100,0.22883900,-0.47379600,-0.84847100,0.40059700,-0.04655900
3.12000000,0.27744700,0.77759600,-0.22961800,-0.47545000,0.84738100,0.40014100,0.04635500,0.27819000,-0.77841100,0.22883900,-0.47379600,-0.84847100,0.40059700,-0.04655900
3.14000000,0.27744700,0.77759600,-0.22961800,-0.47545000,0.84738100,0.40014100,0.04635500,0.27819000,-0.77841100,0.22883900,-0.47379600,-0.84847100,0.40059700,-0.04655900
3.16000000,0.27744700,0.77759600,-0.22961800,-0.47545000,0.84738100,0.40014100,0.04635500,0.27819000,-0.77841100,0.22883900,-0.47379600,-0.84847100,0.40059700,-0.04655900
3.18000000,0.27744700,0.77759600,-0.22961800,-0.47545000,0.84738100,0.40014100,0.04635500,0.27819000,-0.77841100,0.22883900,-0.47379600,-0.84847100,0.40059700,-0.04655900
3.20000000,0.27744700,0.77759600,-0.22961800,-0.47545000,0.84738100,0.40014100,0.04635500,0.27819000,-0.77841100,0.22883900,-0.47379600,-0.84847100,0.40059700,-0.04655900
3.22000000,0.27744700,0.77759600,-0.22961800,-0.47545000,0.84738100,0.40014100,0.04635500,0.27819000,-0.77841100,0.22883900,-0.47379600,-0.84847100,0.40059700,-0.04655900
3.24000000,0.27744700,0.77759600,-0.22961800,-0.47545000,0.84738100,0.40014100,0.04635500,0.27819000,-0.77841100,0.22883900,-0.47379600,-0.84847100,0.40059700,-0.04655900
3.26000000,0.27744700,0.77759600,-0.22961800,-0.47545000,0.84738100,0.40014100,0.04635500,0.27819000,-0.77841100,0.22883900,-0.47379600,-0.84847100,0.40059700,-0.04655900
3.28000000,0.27744700,0.77759600,-0.22961800,-0.47545000,0.84738100,0.40014100,0.04635500,0.27819000,-0.77841100,0.22883900,-0.47379600,-0.84847100,0.40059700,-0.04655900
3.30000000,0.27744700,0.77759600,-0.22961800,-0.47545000,0.84738100,0.40014100,0.04635500,0.27819000,-0.77841100,0.22883900,-0.47379600,-0.84847100,0.40059700,-0.04655900
3.32000000,0.27744700,0.77759600,-0.22961800,-0.47545000,0.84738100,0.40014100,0.04635500,0.27819000,-0.77841100,0.22883900,-0.47379600,-0.84847100,0.40059700,-0.04655900
3.34000000,0.27744700,0.77759600,-0.22961800,-0.47545000,0.84738100,0.40014100,0.04635500,0.27819000,-0.77841100,0.22883900,-0.47379600,-0.84847100,0.40059700,-0.04655900
3.36000000,0.27744700,0.77759600,-0.22961800,-0.47545000,0.84738100,0.40014100,0.04635500,0.27819000,-0.77841100,0.22883900,-0.47379600,-0.84847100,0.40059700,-0.04655900
3.38000000,0.27744700,0.77759600,-0.22961800,-0.47545000,0.84738100,0.40014100,0.04635500,0.27819000,-0.77841100,0.22883900,-0.47379600,-0.84847100,0.40059700,-0.04655900
3.40000000,0.27744700,0.77759600,-0.22961800,-0.47545000,0.84738100,0.40014100,0.04635500,0.27819000,-0.77841100,0.22883900,-0.47379600,-0.84847100,0.40059700,-0.04655900
3.42000000,0.27744700,0.77759600,-0.22961800,-0.47545000,0.84738100,0.40014100,0.04635500,0.27819000,-0.77841100,0.22883900,-0.47379600,-0.84847100,0.40059700,-0.04655900
3.44000000,0.27744700,0.77759600,-0.22961800,-0.47545000,0.84738100,0.40014100,0.04635500,0.27819000,-0.77841100,0.22883900,-0.47379600,-0.84847100,0.40059700,-0.04655900
3.46000000,0.27744700,0.77759600,-0.22961800,-0.47545000,0.84738100,0.40014100,0.04635500,0.27819000,-0.77841100,0.22883900,-0.47379600,-0.84847100,0.40059700,-0.04655900
3.48000000,0.27744700,0.77759600,-0.22961800,-0.47545000,0.84738100,0.40014100,0.04635500,0.27819000,-0.77841100,0.22883900,-0.47379600,-0.84847100,0.40059700,-0.04655900
3.50000000,0.27744700,0.77759600,-0.22961800,-0.47545000,0.84738100,0.40014100,0.04635500,0.27819000,-0.77841100,0.22883900,-0.47379600,-0.84847100,0.40059700,-0.04655900
3.52000000,0.27744700,0.77759600,-0.22961800,-0.47545000,0.84738100,0.40014100,0.04635500,0.27819000,-0.77841100,0.22883900,-0.47379600,-0.84847100,0.40059700,-0.04655900
3.54000000,0.27744700,0.77759600,-0.22961800,-0.47545000,0.84738100,0.40014100,0.04635500,0.27819000,-0.77841100,0.22883900,-0.47379600,-0.84847100,0.40059700,-0.04655900
3.56000000,0.27744700,0.77759600,-0.22961800,-0.47545000,0.84738100,0.40014100,0.04635500,0.27819000,-0.77841100,0.22883900,-0.47379600,-0.84847100,0.40059700,-0.04655900
3.58000000,0.27744700,0.77759600,-0.22961800,-0.47545000,0.84738100,0.40014100,0.04635500,0.27819000,-0.77841100,0.22883900,-0.47379600,-0.84847100,0.40059700,-0.04655900
3.60000000,0.27744700,0.77759600,-0.22961800,-0.47545000,0.84738100,0.40014100,0.04635500,0.27819000,-0.77841100,0.22883900,-0.47379600,-0.84847100,0.40059700,-0.04655900
3.62000000,0.27744700,0.77759600,-0.22961800,-0.47545000,0.84738100,0.40014100,0.04635500,0.27819000,-0.77841100,0.22883900,-0.47379600,-0.84847100,0.40059700,-0.04655900
3.64000000,0.27744700,0.77759600,-0.22961800,-0.47545000,0.84738100,0.40014100,0.04635500,0.27819000,-0.77841100,0.22883900,-0.47379600,-0.84847100,0.40059700,-0.04655900
3.66000000,0.27744700,0.77759600,-0.22961800,-0.47545000,0.84738100,0.40014100,0.04635500,0.27819000,-0.77841100,0.22883900,-0.47379600,-0.84847100,0.40059700,-0.04655900
3.68000000,0.27744700,0.77759600,-0.22961800,-0.47545000,0.84738100,0.40014100,0.04635500,0.27819000,-0.77841100,0.22883900,-0.47379600,-0.84847100,0.40059700,-0.04655900
3.70000000,0.27744700,0.77759600,-0.22961800,-0.47545000,0.84738100,0.40014100,0.04635500,0.27819000,-0.77841100,0.22883900,-0.47379600,-0.84847100,0.40059700,-0.04655900
3.72000000,0.27744700,0.77759600,-0.22961800,-0.47545000,0.84738100,0.40014100,0.04635500,0.27819000,-0.77841100,0.22883900,-0.47379600,-0.84847100,0.40059700,-0.04655900
3.74000000,0.27744700,0.77759600,-0.22961800,-0.47545000,0.84738100,0.40014100,0.04635500,0.27819000,-0.77841100,0.22883900,-0.47379600,-0.84847100,0.40059700,-0.04655900
3.76000000,0.27744700,0.77759600,-0.22961800,-0.47545000,0.84738100,0.40014100,0.04635500,0.27819000,-0.77841100,0.22883900,-0.47379600,-0.84847100,0.40059700,-0.04655900
3.78000000,0.27744700,0.77759600,-0.22961800,-0.47545000,0.84738100,0.40014100,0.04635500,0.27819000,-0.77841100,0.22883900,-0.47379600,-0.84847100,0.40059700,-0.04655900
3.80000000,0.27744700,0.77759600,-0.22961800,-0.47545000,0.84738100,0.40014100,0.04635500,0.27819000,-0.77841100,0.22883900,-0.47379600,-0.84847100,0.40059700,-0.04655900
3.82000000,0.27744700,0.77759600,-0.22961800,-0.47545000,0.84738100,0.40014100,0.04635500,0.27819000,-0.77841100,0.22883900,-0.47379600,-0.84847100,0.40059700,-0.04655900
3.84000000,0.27744700,0.77759600,-0.22961800,-0.47545000,0.84738100,0.40014100,0.04635500,0.27819000,-0.77841100,0.22883900,-0.47379600,-0.84847100,0.40059700,-0.04655900
3.86000000,0.27744700,0.77759600,-0.22961800,-0.47545000,0.84738100,0.40014100,0.04635500,0.27819000,-0.77841100,0.22883900,-0.47379600,-0.84847100,0.40059700,-0.04655900
3.88000000,0.27744700,0.77759600,-0.22961800,-0.47545000,0.84738100,0.40014100,0.04635500,0.27819000,-0.77841100,0.22883900,-0.47379600,-0.84847100,0.40059700,-0.04655900
3.90000000,0.27744700,0.77759600,-0.22961800,-0.47545000,0.84738100,0.40014100,0.04635500,0.27819000,-0.77841100,0.22883900,-0.47379600,-0.84847100,0.40059700,-0.04655900
3.92000000,0.27744700,0.77759600,-0.22961800,-0.47545000,0.84738100,0.40014100,0.04635500,0.27819000,-0.77841100,0.22883900,-0.47379600,-0.84847100,0.40059700,-0.04655900
3.94000000,0.27744700,0.77759600,-0.22961800,-0.47545000,0.84738100,0.40014100,0.04635500,0.27819000,-0.77841100,0.22883900,-0.47379600,-0.84847100,0.40059700,-0.04655900
3.96000000,0.27744700,0.77759600,-0.22961800,-0.47545000,0.84738100,0.40014100,0.04635500,0.27819000,-0.77841100,0.22883900,-0.47379600,-0.84847100,0.40059700,-0.04655900
3.98000000,0.27744700,0.77759600,-0.22961800,-0.47545000,0.84738100,0.40014100,0.04635500,0.27819000,-0.77841100,0.22883900,-0.47379600,-0.84847100,0.40059700,-0.04655900
4.00000000,0.27744010,0.77759795,-0.22961812,-0.47545083,0.84737695,0.40013927,0.04634639,0.27819000,-0.77841100,0.22883901,-0.47379602,-0.84847100,0.40059700,-0.04655900
4.02000000,0.27739265,0.77761137,-0.22961893,-0.47545653,0.84734908,0.40012738,0.04628718,0.27819003,-0.77841100,0.22883907,-0.47379618,-0.84847097,0.40059699,-0.04655901
4.04000000,0.27726634,0.77764710,-0.22962110,-0.47547170,0.84727489,0.40009572,0.04612957,0.27819011,-0.77841099,0.22883924,-0.47379659,-0.84847089,0.40059698,-0.04655902
4.06000000,0.27702531,0.77771528,-0.22962523,-0.47550064,0.84713331,0.40003531,0.04582881,0.27819026,-0.77841098,0.22883956,-0.47379737,-0.84847074,0.40059696,-0.04655904
4.08000000,0.27663605,0.77782538,-0.22963191,-0.47554739,0.84690466,0.39993775,0.04534308,0.27819050,-0.77841096,0.22884008,-0.47379864,-0.84847050,0.40059692,-0.04655908
4.10000000,0.27606737,0.77798624,-0.22964166,-0.47561569,0.84657063,0.39979522,0.04463346,0.27819085,-0.77841093,0.22884084,-0.47380049,-0.84847015,0.40059686,-0.04655914
4.12000000,0.27529035,0.77820602,-0.22965498,-0.47570900,0.84611423,0.39960048,0.04366388,0.27819133,-0.77841089,0.22884188,-0.47380301,-0.84846967,0.40059678,-0.04655922
4.14000000,0.27427829,0.77849229,-0.22967234,-0.47583054,0.84551976,0.39934683,0.04240102,0.27819195,-0.77841084,0.22884323,-0.47380630,-0.84846905,0.40059667,-0.04655933
4.16000000,0.27300666,0.77885198,-0.22969415,-0.47598326,0.84477284,0.39902812,0.04081426,0.27819273,-0.77841077,0.22884493,-0.47381044,-0.84846827,0.40059654,-0.04655946
4.18000000,0.27145306,0.77929143,-0.22972079,-0.47616984,0.84386028,0.39863875,0.03887563,0.27819369,-0.77841069,0.22884700,-0.47381549,-0.84846731,0.40059638,-0.04655962
4.20000000,0.26959712,0.77981639,-0.22975262,-0.47639272,0.84277014,0.39817359,0.03655975,0.27819483,-0.77841060,0.22884948,-0.47382153,-0.84846617,0.40059619,-0.04655981
4.22000000,0.26742052,0.78043206,-0.22978994,-0.47665412,0.84149165,0.39762808,0.03384375,0.27819617,-0.77841048,0.22885239,-0.47382860,-0.84846483,0.40059597,-0.04656003
4.24000000,0.26490690,0.78114305,-0.22983305,-0.47695599,0.84001520,0.39699809,0.03070719,0.27819772,-0.77841036,0.22885574,-0.47383678,-0.84846328,0.40059571,-0.04656029
4.26000000,0.26204180,0.78195347,-0.22988218,-0.47730007,0.83833230,0.39628001,0.02713207,0.27819948,-0.77841021,0.22885957,-0.47384609,-0.84846152,0.40059542,-0.04656058
4.28000000,0.25881265,0.78286685,-0.22993756,-0.47768787,0.83643556,0.39547070,0.02310266,0.27820147,-0.77841004,0.22886388,-0.47385660,-0.84845953,0.40059508,-0.04656092
4.30000000,0.25520867,0.78388626,-0.22999936,-0.47812069,0.83431866,0.39456744,0.01860554,0.27820369,-0.77840986,0.22886869,-0.47386831,-0.84845731,0.40059471,-0.04656129
4.32000000,0.25122086,0.78501424,-0.23006774,-0.47859960,0.83197630,0.39356798,0.01362947,0.27820614,-0.77840965,0.22887402,-0.47388128,-0.84845486,0.40059430,-0.04656170
4.34000000,0.24684194,0.78625285,-0.23014284,-0.47912548,0.82940421,0.39247049,0.00816536,0.27820884,-0.77840943,0.22887987,-0.47389552,-0.84845216,0.40059385,-0.04656215
4.36000000,0.24206627,0.78760368,-0.23022473,-0.47969901,0.82659909,0.39127357,0.00220618,0.27821178,-0.77840918,0.22888624,-0.47391105,-0.84844922,0.40059336,-0.04656264
4.38000000,0.23688985,0.78906787,-0.23031350,-0.48032067,0.82355856,0.38997621,-0.00425306,0.27821496,-0.77840891,0.22889316,-0.47392788,-0.84844604,0.40059283,-0.04656317
4.40000000,0.23131023,0.79064610,-0.23040919,-0.48099075,0.82028120,0.38857780,-0.01121544,0.27821840,-0.77840863,0.22890061,-0.47394603,-0.84844260,0.40059226,-0.04656374
4.42000000,0.22532646,0.79233865,-0.23051180,-0.48170936,0.81676646,0.38707810,-0.01868211,0.27822208,-0.77840832,0.22890860,-0.47396549,-0.84843892,0.40059164,-0.04656436
4.44000000,0.21893907,0.79414537,-0.23062134,-0.48247645,0.81301464,0.38547723,-0.02665242,0.27822601,-0.77840799,0.22891712,-0.47398626,-0.84843499,0.40059098,-0.04656502
4.46000000,0.21215001,0.79606570,-0.23073776,-0.48329177,0.80902689,0.38377570,-0.03512396,0.27823019,-0.77840764,0.22892619,-0.47400833,-0.84843081,0.40059029,-0.04656571
4.48000000,0.20496256,0.79809872,-0.23086102,-0.48415494,0.80480513,0.38197432,-0.04409261,0.27823462,-0.77840727,0.22893579,-0.47403171,-0.84842638,0.40058955,-0.04656645
4.50000000,0.19738135,0.80024312,-0.23099102,-0.48506540,0.80035207,0.38007425,-0.05355261,0.27823928,-0.77840688,0.22894591,-0.47405636,-0.84842172,0.40058877,-0.04656723
4.52000000,0.18941222,0.80249724,-0.23112768,-0.48602244,0.79567118,0.37807696,-0.06349665,0.27824419,-0.77840647,0.22895655,-0.47408227,-0.84841681,0.40058795,-0.04656805
4.54000000,0.18106228,0.80485908,-0.23127088,-0.48702522,0.79076659,0.37598422,-0.07391588,0.27824933,-0.77840604,0.22896770,-0.47410942,-0.84841167,0.40058709,-0.04656891
4.56000000,0.17233975,0.80732631,-0.23142046,-0.48807274,0.78564315,0.37379810,-0.08480004,0.27825470,-0.77840560,0.22897935,-0.47413779,-0.84840630,0.40058619,-0.04656981
4.58000000,0.16325398,0.80989628,-0.23157626,-0.48916389,0.78030636,0.37152095,-0.09613745,0.27826029,-0.77840513,0.22899148,-0.47416733,-0.84840071,0.40058526,-0.04657074
4.60000000,0.15381538,0.81256605,-0.23173812,-0.49029740,0.77476232,0.36915537,-0.10791514,0.27826610,-0.77840464,0.22900408,-0.47419803,-0.84839490,0.40058429,-0.04657171
4.62000000,0.14403537,0.81533239,-0.23190584,-0.49147192,0.76901774,0.36670421,-0.12011884,0.27827212,-0.77840414,0.22901714,-0.47422983,-0.84838888,0.40058328,-0.04657272
4.64000000,0.13392631,0.81819181,-0.23207920,-0.49268596,0.76307989,0.36417059,-0.13273314,0.27827834,-0.77840362,0.22903064,-0.47426270,-0.84838266,0.40058224,-0.04657376
4.66000000,0.12350150,0.82114054,-0.23225797,-0.49393792,0.75695656,0.36155783,-0.14574144,0.27828476,-0.77840309,0.22904456,-0.47429660,-0.84837624,0.40058117,-0.04657483
4.68000000,0.11277505,0.82417459,-0.23244191,-0.49522610,0.75065607,0.35886948,-0.15912612,0.27829136,-0.77840253,0.22905888,-0.47433148,-0.84836964,0.40058007,-0.04657593
4.70000000,0.10176193,0.82728972,-0.23263077,-0.49654871,0.74418719,0.35610928,-0.17286853,0.27829814,-0.77840197,0.22907359,-0.47436729,-0.84836286,0.40057894,-0.04657706
4.72000000,0.09047783,0.83048151,-0.23282428,-0.49790386,0.73755914,0.35328116,-0.18694907,0.27830508,-0.77840139,0.22908866,-0.47440399,-0.84835592,0.40057778,-0.04657822
4.74000000,0.07893916,0.83374530,-0.23302216,-0.49928958,0.73078156,0.35038923,-0.20134727,0.27831218,-0.77840079,0.22910406,-0.47444151,-0.84834882,0.40057659,-0.04657941
4.76000000,0.06716297,0.83707628,-0.23322410,-0.50070383,0.72386447,0.34743778,-0.21604184,0.27831943,-0.77840019,0.22911979,-0.47447980,-0.84834157,0.40057538,-0.04658062
4.78000000,0.05516694,0.84046944,-0.23342982,-0.50214448,0.71681825,0.34443123,-0.23101074,0.27832682,-0.77839957,0.22913581,-0.47451881,-0.84833418,0.40057414,-0.04658186
4.80000000,0.04296929,0.84391963,-0.23363899,-0.50360935,0.70965359,0.34137415,-0.24623123,0.27833432,-0.77839895,0.22915209,-0.47455848,-0.84832668,0.40057289,-0.04658311
4.82000000,0.03058874,0.84742155,-0.23385130,-0.50509617,0.70238151,0.33827123,-0.26167994,0.27834194,-0.77839831,0.22916863,-0.47459873,-0.84831906,0.40057162,-0.04658438
4.84000000,0.01804447,0.85096978,-0.23406642,-0.50660267,0.69501326,0.33512727,-0.27733295,0.27834967,-0.77839766,0.22918538,-0.47463953,-0.84831133,0.40057033,-0.04658567
4.86000000,0.00535606,0.85455879,-0.23428401,-0.50812647,0.68756035,0.33194719,-0.29316581,0.27835748,-0.77839701,0.22920232,-0.47468079,-0.84830352,0.40056902,-0.04658698
4.88000000,-0.00745655,0.85818292,-0.23450373,-0.50966518,0.68003449,0.32873599,-0.30915365,0.27836536,-0.77839635,0.22921943,-0.47472245,-0.84829564,0.40056771,-0.04658829
4.90000000,-0.02037312,0.86183646,-0.23472524,-0.51121638,0.67244756,0.32549872,-0.32527122,0.27837331,-0.77839569,0.22923667,-0.47476445,-0.84828769,0.40056638,-0.04658962
4.92000000,-0.03337316,0.86551361,-0.23494817,-0.51277761,0.66481160,0.32224054,-0.34149294,0.27838131,-0.77839502,0.22925403,-0.47480673,-0.84827969,0.40056504,-0.04659096
4.94000000,-0.04643598,0.86920852,-0.23517218,-0.51434637,0.65713877,0.31896662,-0.35779301,0.27838935,-0.77839435,0.22927147,-0.47484920,-0.84827165,0.40056370,-0.04659230
4.96000000,-0.05954074,0.87291529,-0.23539691,-0.51592018,0.64944130,0.31568219,-0.37414541,0.27839742,-0.77839367,0.22928897,-0.47489182,-0.84826358,0.40056235,-0.04659365
4.98000000,-0.07266650,0.87662800,-0.23562200,-0.51749650,0.64173150,0.31239250,-0.39052400,0.27840550,-0.77839300,0.22930650,-0.47493450,-0.84825550,0.40056100,-0.04659500
5.00000000,-0.08579226,0.88034071,-0.23584709,-0.51907282,0.63402170,0.30910281,-0.40690259,0.27841358,-0.77839233,0.22932403,-0.47497718,-0.84824742,0.40055965,-0.04659635
5.02000000,-0.09889702,0.88404748,-0.23607182,-0.52064663,0.62632423,0.30581838,-0.42325499,0.27842165,-0.77839165,0.22934153,-0.47501980,-0.84823935,0.40055830,-0.04659770
5.04000000,-0.11195984,0.88774239,-0.23629583,-0.52221539,0.61865140,0.30254446,-0.43955506,0.27842969,-0.77839098,0.22935897,-0.47506227,-0.84823131,0.40055696,-0.04659904
5.06000000,-0.12495988,0.89141954,-0.23651876,-0.52377662,0.61101544,0.29928628,-0.45577678,0.27843769,-0.77839031,0.22937633,-0.47510455,-0.84822331,0.40055562,-0.04660038
5.08000000,-0.13787645,0.89507308,-0.23674027,-0.52532782,0.60342851,0.29604901,-0.47189435,0.27844564,-0.77838965,0.22939357,-0.47514655,-0.84821536,0.40055429,-0.04660171
5.10000000,-0.15068906,0.89869721,-0.23695999,-0.52686653,0.59590265,0.29283781,-0.48788219,0.27845352,-0.77838899,0.22941068,-0.47518821,-0.84820748,0.40055298,-0.04660302
5.12000000,-0.16337747,0.90228622,-0.23717758,-0.52839033,0.58844974,0.28965773,-0.50371505,0.27846133,-0.77838834,0.22942762,-0.47522947,-0.84819967,0.40055167,-0.04660433
5.14000000,-0.17592174,0.90583445,-0.23739270,-0.52989683,0.58108149,0.28651377,-0.51936806,0.27846906,-0.77838769,0.22944437,-0.47527027,-0.84819194,0.40055038,-0.04660562
5.16000000,-0.18830229,0.90933637,-0.23760501,-0.53138365,0.57380941,0.28341085,-0.53481677,0.27847668,-0.77838705,0.22946091,-0.47531052,-0.84818432,0.40054911,-0.04660689
5.18000000,-0.20049994,0.91278656,-0.23781418,-0.53284852,0.56664475,0.28035377,-0.55003726,0.27848418,-0.77838643,0.22947719,-0.47535019,-0.84817682,0.40054786,-0.04660814
5.20000000,-0.21249597,0.91617972,-0.23801990,-0.53428917,0.55959853,0.27734722,-0.56500616,0.27849157,-0.77838581,0.22949321,-0.47538920,-0.84816943,0.40054662,-0.04660938
5.22000000,-0.22427216,0.91951070,-0.23822184,-0.53570342,0.55268144,0.27439577,-0.57970073,0.27849882,-0.77838521,0.22950894,-0.47542749,-0.84816218,0.40054541,-0.04661059
5.24000000,-0.23581083,0.92277449,-0.23841972,-0.53708914,0.54590386,0.27150384,-0.59409893,0.27850592,-0.77838461,0.22952434,-0.47546501,-0.84815508,0.40054422,-0.04661178
5.26000000,-0.24709493,0.92596628,-0.23861323,-0.53844429,0.53927581,0.26867572,-0.60817947,0.27851286,-0.77838403,0.22953941,-0.47550171,-0.84814814,0.40054306,-0.04661294
5.28000000,-0.25810805,0.92908141,-0.23880209,-0.53976690,0.53280693,0.26591552,-0.62192188,0.27851964,-0.77838347,0.22955412,-0.47553752,-0.84814136,0.40054193,-0.04661407
5.30000000,-0.26883450,0.93211546,-0.23898603,-0.54105508,0.52650644,0.26322717,-0.63530656,0.27852624,-0.77838291,0.22956844,-0.47557240,-0.84813476,0.40054083,-0.04661517
5.32000000,-0.27925931,0.93506419,-0.23916480,-0.54230704,0.52038311,0.26061441,-0.64831486,0.27853266,-0.77838238,0.22958236,-0.47560630,-0.84812834,0.40053976,-0.04661624
5.34000000,-0.28936837,0.93792361,-0.23933816,-0.54352108,0.51444526,0.25808079,-0.66092916,0.27853888,-0.77838186,0.22959586,-0.47563917,-0.84812212,0.40053872,-0.04661728
5.36000000,-0.29914838,0.94068995,-0.23950588,-0.54469560,0.50870068,0.25562963,-0.67313286,0.27854490,-0.77838136,0.22960892,-0.47567097,-0.84811610,0.40053771,-0.04661829
5.38000000,-0.30858698,0.94335972,-0.23966774,-0.54582911,0.50315664,0.25326405,-0.68491055,0.27855071,-0.77838087,0.22962152,-0.47570167,-0.84811029,0.40053674,-0.04661926
5.40000000,-0.31767275,0.94592969,-0.23982354,-0.54692026,0.49781985,0.25098690,-0.69624796,0.27855630,-0.77838040,0.22963365,-0.47573121,-0.84810470,0.40053581,-0.04662019
5.42000000,-0.32639528,0.94839692,-0.23997312,-0.54796778,0.49269641,0.24880078,-0.70713212,0.27856167,-0.77837996,0.22964530,-0.47575958,-0.84809933,0.40053491,-0.04662109
5.44000000,-0.33474522,0.95075876,-0.24011632,-0.54897056,0.48779182,0.24670804,-0.71755135,0.27856681,-0.77837953,0.22965645,-0.47578673,-0.84809419,0.40053405,-0.04662195
5.46000000,-0.34271435,0.95301288,-0.24025298,-0.54992760,0.48311093,0.24471075,-0.72749539,0.27857172,-0.77837912,0.22966709,-0.47581264,-0.84808928,0.40053323,-0.04662277
5.48000000,-0.35029556,0.95515728,-0.24038298,-0.55083806,0.47865787,0.24281068,-0.73695539,0.27857638,-0.77837873,0.22967721,-0.47583729,-0.84808462,0.40053245,-0.04662355
5.50000000,-0.35748301,0.95719030,-0.24050624,-0.55170123,0.47443611,0.24100930,-0.74592404,0.27858081,-0.77837836,0.22968681,-0.47586067,-0.84808019,0.40053171,-0.04662429
5.52000000,-0.36427207,0.95911063,-0.24062266,-0.55251655,0.47044836,0.23930777,-0.75439558,0.27858499,-0.77837801,0.22969588,-0.47588274,-0.84807601,0.40053102,-0.04662498
5.54000000,-0.37065946,0.96091735,-0.24073220,-0.55328364,0.46669654,0.23770690,-0.76236589,0.27858892,-0.77837768,0.22970440,-0.47590351,-0.84807208,0.40053036,-0.04662564
5.56000000,-0.37664323,0.96260990,-0.24083481,-0.55400225,0.46318180,0.23620720,-0.76983256,0.27859260,-0.77837737,0.22971239,-0.47592297,-0.84806840,0.40052974,-0.04662626
5.58000000,-0.38222285,0.96418813,-0.24093050,-0.55467233,0.45990444,0.23480879,-0.77679494,0.27859604,-0.77837709,0.22971984,-0.47594112,-0.84806496,0.40052917,-0.04662683
5.60000000,-0.38739927,0.96565232,-0.24101927,-0.55529399,0.45686391,0.23351143,-0.78325418,0.27859922,-0.77837682,0.22972676,-0.47595795,-0.84806178,0.40052864,-0.04662736
5.62000000,-0.39217494,0.96700315,-0.24110116,-0.55586752,0.45405879,0.23231451,-0.78921336,0.27860216,-0.77837657,0.22973313,-0.47597348,-0.84805884,0.40052815,-0.04662785
5.64000000,-0.39655386,0.96824176,-0.24117626,-0.55639340,0.45148670,0.23121702,-0.79467747,0.27860486,-0.77837635,0.22973898,-0.47598772,-0.84805614,0.40052770,-0.04662830
5.66000000,-0.40054167,0.96936974,-0.24124464,-0.55687231,0.44914434,0.23021756,-0.79965354,0.27860731,-0.77837614,0.22974431,-0.47600069,-0.84805369,0.40052729,-0.04662871
5.68000000,-0.40414565,0.97038915,-0.24130644,-0.55730513,0.44702744,0.22931430,-0.80415066,0.27860953,-0.77837596,0.22974912,-0.47601240,-0.84805147,0.40052692,-0.04662908
5.70000000,-0.40737480,0.97130253,-0.24136182,-0.55769293,0.44513070,0.22850499,-0.80818007,0.27861152,-0.77837579,0.22975343,-0.47602291,-0.84804948,0.40052658,-0.04662942
5.72000000,-0.41023990,0.97211295,-0.24141095,-0.55803701,0.44344780,0.22778691,-0.81175519,0.27861328,-0.77837564,0.22975726,-0.47603222,-0.84804772,0.40052629,-0.04662971
5.74000000,-0.41275352,0.97282394,-0.24145406,-0.55833888,0.44197135,0.22715692,-0.81489175,0.27861483,-0.77837552,0.22976061,-0.47604040,-0.84804617,0.40052603,-0.04662997
5.76000000,-0.41493012,0.97343961,-0.24149138,-0.55860028,0.44069286,0.22661141,-0.81760775,0.27861617,-0.77837540,0.22976352,-0.47604747,-0.84804483,0.40052581,-0.04663019
5.78000000,-0.41678606,0.97396457,-0.24152321,-0.55882316,0.43960272,0.22614625,-0.81992363,0.27861731,-0.77837531,0.22976600,-0.47605351,-0.84804369,0.40052562,-0.04663038
5.80000000,-0.41833966,0.97440402,-0.24154985,-0.55900974,0.43869016,0.22575688,-0.82186226,0.27861827,-0.77837523,0.22976807,-0.47605856,-0.84804273,0.40052546,-0.04663054
5.82000000,-0.41961129,0.97476371,-0.24157166,-0.55916246,0.43794324,0.22543817,-0.82344902,0.27861905,-0.77837516,0.22976977,-0.47606270,-0.84804195,0.40052533,-0.04663067
5.84000000,-0.42062335,0.97504998,-0.24158902,-0.55928400,0.43734877,0.22518452,-0.82471188,0.27861967,-0.77837511,0.22977112,-0.47606599,-0.84804133,0.40052522,-0.04663078
5.86000000,-0.42140037,0.97526976,-0.24160234,-0.55937731,0.43689237,0.22498978,-0.82568146,0.27862015,-0.77837507,0.22977216,-0.47606851,-0.84804085,0.40052514,-0.04663086
5.88000000,-0.42196905,0.97543062,-0.24161209,-0.55944561,0.43655834,0.22484725,-0.82639108,0.27862050,-0.77837504,0.22977292,-0.47607036,-0.84804050,0.40052508,-0.04663092
5.90000000,-0.42235831,0.97554072,-0.24161877,-0.55949236,0.43632969,0.22474969,-0.82687681,0.27862074,-0.77837502,0.22977344,-0.47607163,-0.84804026,0.40052504,-0.04663096
5.92000000,-0.42259934,0.97560890,-0.24162290,-0.55952130,0.43618811,0.22468928,-0.82717757,0.27862089,-0.77837501,0.22977376,-0.47607241,-0.84804011,0.40052502,-0.04663098
5.94000000,-0.42272565,0.97564463,-0.24162507,-0.55953647,0.43611392,0.22465762,-0.82733518,0.27862097,-0.77837500,0.22977393,-0.47607282,-0.84804003,0.40052501,-0.04663099
5.96000000,-0.42277310,0.97565805,-0.24162588,-0.55954217,0.43608605,0.22464573,-0.82739439,0.27862100,-0.77837500,0.22977399,-0.47607298,-0.84804000,0.40052500,-0.04663100
5.98000000,-0.42278000,0.97566000,-0.24162600,-0.55954300,0.43608200,0.22464400,-0.82740300,0.27862100,-0.77837500,0.22977400,-0.47607300,-0.84804000,0.40052500,-0.04663100
6.00000000,-0.42278000,0.97566000,-0.24162600,-0.55954300,0.43608200,0.22464400,-0.82740300,0.27862100,-0.77837500,0.22977400,-0.47607300,-0.84804000,0.40052500,-0.04663100
6.02000000,-0.42278000,0.97566000,-0.24162600,-0.55954300,0.43608200,0.22464400,-0.82740300,0.27862100,-0.77837500,0.22977400,-0.47607300,-0.84804000,0.40052500,-0.04663100
6.04000000,-0.42278000,0.97566000,-0.24162600,-0.55954300,0.43608200,0.22464400,-0.82740300,0.27862100,-0.77837500,0.22977400,-0.47607300,-0.84804000,0.40052500,-0.04663100
6.06000000,-0.42278000,0.97566000,-0.24162600,-0.55954300,0.43608200,0.22464400,-0.82740300,0.27862100,-0.77837500,0.22977400,-0.47607300,-0.84804000,0.40052500,-0.04663100
6.08000000,-0.42278000,0.97566000,-0.24162600,-0.55954300,0.43608200,0.22464400,-0.82740300,0.27862100,-0.77837500,0.22977400,-0.47607300,-0.84804000,0.40052500,-0.04663100
6.10000000,-0.42278000,0.97566000,-0.24162600,-0.55954300,0.43608200,0.22464400,-0.82740300,0.27862100,-0.77837500,0.22977400,-0.47607300,-0.84804000,0.40052500,-0.04663100
6.12000000,-0.42278000,0.97566000,-0.24162600,-0.55954300,0.43608200,0.22464400,-0.82740300,0.27862100,-0.77837500,0.22977400,-0.47607300,-0.84804000,0.40052500,-0.04663100
6.14000000,-0.42278000,0.97566000,-0.24162600,-0.55954300,0.43608200,0.22464400,-0.82740300,0.27862100,-0.77837500,0.22977400,-0.47607300,-0.84804000,0.40052500,-0.04663100
6.16000000,-0.42278000,0.97566000,-0.24162600,-0.55954300,0.43608200,0.22464400,-0.82740300,0.27862100,-0.77837500,0.22977400,-0.47607300,-0.84804000,0.40052500,-0.04663100
6.18000000,-0.42278000,0.97566000,-0.24162600,-0.55954300,0.43608200,0.22464400,-0.82740300,0.27862100,-0.77837500,0.22977400,-0.47607300,-0.84804000,0.40052500,-0.04663100
6.20000000,-0.42278000,0.97566000,-0.24162600,-0.55954300,0.43608200,0.22464400,-0.82740300,0.27862100,-0.77837500,0.22977400,-0.47607300,-0.84804000,0.40052500,-0.04663100
6.22000000,-0.42278000,0.97566000,-0.24162600,-0.55954300,0.43608200,0.22464400,-0.82740300,0.27862100,-0.77837500,0.22977400,-0.47607300,-0.84804000,0.40052500,-0.04663100
6.24000000,-0.42278000,0.97566000,-0.24162600,-0.55954300,0.43608200,0.22464400,-0.82740300,0.27862100,-0.77837500,0.22977400,-0.47607300,-0.84804000,0.40052500,-0.04663100
6.26000000,-0.42278000,0.97566000,-0.24162600,-0.55954300,0.43608200,0.22464400,-0.82740300,0.27862100,-0.77837500,0.22977400,-0.47607300,-0.84804000,0.40052500,-0.04663100
6.28000000,-0.42278000,0.97566000,-0.24162600,-0.55954300,0.43608200,0.22464400,-0.82740300,0.27862100,-0.77837500,0.22977400,-0.47607300,-0.84804000,0.40052500,-0.04663100
6.30000000,-0.42278000,0.97566000,-0.24162600,-0.55954300,0.43608200,0.22464400,-0.82740300,0.27862100,-0.77837500,0.22977400,-0.47607300,-0.84804000,0.40052500,-0.04663100
6.32000000,-0.42278000,0.97566000,-0.24162600,-0.55954300,0.43608200,0.22464400,-0.82740300,0.27862100,-0.77837500,0.22977400,-0.47607300,-0.84804000,0.40052500,-0.04663100
6.34000000,-0.42278000,0.97566000,-0.24162600,-0.55954300,0.43608200,0.22464400,-0.82740300,0.27862100,-0.77837500,0.22977400,-0.47607300,-0.84804000,0.40052500,-0.04663100
6.36000000,-0.42278000,0.97566000,-0.24162600,-0.55954300,0.43608200,0.22464400,-0.82740300,0.27862100,-0.77837500,0.22977400,-0.47607300,-0.84804000,0.40052500,-0.04663100
6.38000000,-0.42278000,0.97566000,-0.24162600,-0.55954300,0.43608200,0.22464400,-0.82740300,0.27862100,-0.77837500,0.22977400,-0.47607300,-0.84804000,0.40052500,-0.04663100
6.40000000,-0.42278000,0.97566000,-0.24162600,-0.55954300,0.43608200,0.22464400,-0.82740300,0.27862100,-0.77837500,0.22977400,-0.47607300,-0.84804000,0.40052500,-0.04663100
6.42000000,-0.42278000,0.97566000,-0.24162600,-0.55954300,0.43608200,0.22464400,-0.82740300,0.27862100,-0.77837500,0.22977400,-0.47607300,-0.84804000,0.40052500,-0.04663100
6.44000000,-0.42278000,0.97566000,-0.24162600,-0.55954300,0.43608200,0.22464400,-0.82740300,0.27862100,-0.77837500,0.22977400,-0.47607300,-0.84804000,0.40052500,-0.04663100
6.46000000,-0.42278000,0.97566000,-0.24162600,-0.55954300,0.43608200,0.22464400,-0.82740300,0.27862100,-0.77837500,0.22977400,-0.47607300,-0.84804000,0.40052500,-0.04663100
6.48000000,-0.42278000,0.97566000,-0.24162600,-0.55954300,0.43608200,0.22464400,-0.82740300,0.27862100,-0.77837500,0.22977400,-0.47607300,-0.84804000,0.40052500,-0.04663100
6.50000000,-0.42278000,0.97566000,-0.24162600,-0.55954300,0.43608200,0.22464400,-0.82740300,0.27862100,-0.77837500,0.22977400,-0.47607300,-0.84804000,0.40052500,-0.04663100
6.52000000,-0.42278000,0.97566000,-0.24162600,-0.55954300,0.43608200,0.22464400,-0.82740300,0.27862100,-0.77837500,0.22977400,-0.47607300,-0.84804000,0.40052500,-0.04663100
6.54000000,-0.42278000,0.97566000,-0.24162600,-0.55954300,0.43608200,0.22464400,-0.82740300,0.27862100,-0.77837500,0.22977400,-0.47607300,-0.84804000,0.40052500,-0.04663100
6.56000000,-0.42278000,0.97566000,-0.24162600,-0.55954300,0.43608200,0.22464400,-0.82740300,0.27862100,-0.77837500,0.22977400,-0.47607300,-0.84804000,0.40052500,-0.04663100
6.58000000,-0.42278000,0.97566000,-0.24162600,-0.55954300,0.43608200,0.22464400,-0.82740300,0.27862100,-0.77837500,0.22977400,-0.47607300,-0.84804000,0.40052500,-0.04663100
6.60000000,-0.42278000,0.97566000,-0.24162600,-0.55954300,0.43608200,0.22464400,-0.82740300,0.27862100,-0.77837500,0.22977400,-0.47607300,-0.84804000,0.40052500,-0.04663100
6.62000000,-0.42278000,0.97566000,-0.24162600,-0.55954300,0.43608200,0.22464400,-0.82740300,0.27862100,-0.77837500,0.22977400,-0.47607300,-0.84804000,0.40052500,-0.04663100
6.64000000,-0.42278000,0.97566000,-0.24162600,-0.55954300,0.43608200,0.22464400,-0.82740300,0.27862100,-0.77837500,0.22977400,-0.47607300,-0.84804000,0.40052500,-0.04663100
6.66000000,-0.42278000,0.97566000,-0.24162600,-0.55954300,0.43608200,0.22464400,-0.82740300,0.27862100,-0.77837500,0.22977400,-0.47607300,-0.84804000,0.40052500,-0.04663100
6.68000000,-0.42278000,0.97566000,-0.24162600,-0.55954300,0.43608200,0.22464400,-0.82740300,0.27862100,-0.77837500,0.22977400,-0.47607300,-0.84804000,0.40052500,-0.04663100
6.70000000,-0.42278000,0.97566000,-0.24162600,-0.55954300,0.43608200,0.22464400,-0.82740300,0.27862100,-0.77837500,0.22977400,-0.47607300,-0.84804000,0.40052500,-0.04663100
6.72000000,-0.42278000,0.97566000,-0.24162600,-0.55954300,0.43608200,0.22464400,-0.82740300,0.27862100,-0.77837500,0.22977400,-0.47607300,-0.84804000,0.40052500,-0.04663100
6.74000000,-0.42278000,0.97566000,-0.24162600,-0.55954300,0.43608200,0.22464400,-0.82740300,0.27862100,-0.77837500,0.22977400,-0.47607300,-0.84804000,0.40052500,-0.04663100
6.76000000,-0.42278000,0.97566000,-0.24162600,-0.55954300,0.43608200,0.22464400,-0.82740300,0.27862100,-0.77837500,0.22977400,-0.47607300,-0.84804000,0.40052500,-0.04663100
6.78000000,-0.42278000,0.97566000,-0.24162600,-0.55954300,0.43608200,0.22464400,-0.82740300,0.27862100,-0.77837500,0.22977400,-0.47607300,-0.84804000,0.40052500,-0.04663100
6.80000000,-0.42278000,0.97566000,-0.24162600,-0.55954300,0.43608200,0.22464400,-0.82740300,0.27862100,-0.77837500,0.22977400,-0.47607300,-0.84804000,0.40052500,-0.04663100
6.82000000,-0.42278000,0.97566000,-0.24162600,-0.55954300,0.43608200,0.22464400,-0.82740300,0.27862100,-0.77837500,0.22977400,-0.47607300,-0.84804000,0.40052500,-0.04663100
6.84000000,-0.42278000,0.97566000,-0.24162600,-0.55954300,0.43608200,0.22464400,-0.82740300,0.27862100,-0.77837500,0.22977400,-0.47607300,-0.84804000,0.40052500,-0.04663100
6.86000000,-0.42278000,0.97566000,-0.24162600,-0.55954300,0.43608200,0.22464400,-0.82740300,0.27862100,-0.77837500,0.22977400,-0.47607300,-0.84804000,0.40052500,-0.04663100
6.88000000,-0.42278000,0.97566000,-0.24162600,-0.55954300,0.43608200,0.22464400,-0.82740300,0.27862100,-0.77837500,0.22977400,-0.47607300,-0.84804000,0.40052500,-0.04663100
6.90000000,-0.42278000,0.97566000,-0.24162600,-0.55954300,0.43608200,0.22464400,-0.82740300,0.27862100,-0.77837500,0.22977400,-0.47607300,-0.84804000,0.40052500,-0.04663100
6.92000000,-0.42278000,0.97566000,-0.24162600,-0.55954300,0.43608200,0.22464400,-0.82740300,0.27862100,-0.77837500,0.22977400,-0.47607300,-0.84804000,0.40052500,-0.04663100
6.94000000,-0.42278000,0.97566000,-0.24162600,-0.55954300,0.43608200,0.22464400,-0.82740300,0.27862100,-0.77837500,0.22977400,-0.47607300,-0.84804000,0.40052500,-0.04663100
6.96000000,-0.42278000,0.97566000,-0.24162600,-0.55954300,0.43608200,0.22464400,-0.82740300,0.27862100,-0.77837500,0.22977400,-0.47607300,-0.84804000,0.40052500,-0.04663100
6.98000000,-0.42278000,0.97566000,-0.24162600,-0.55954300,0.43608200,0.22464400,-0.82740300,0.27862100,-0.77837500,0.22977400,-0.47607300,-0.84804000,0.40052500,-0.04663100
7.00000000,-0.42278000,0.97566000,-0.24162600,-0.55954300,0.43608200,0.22464400,-0.82740300,0.27862100,-0.77837500,0.22977400,-0.47607300,-0.84804000,0.40052500,-0.04663100
7.02000000,-0.42278000,0.97566000,-0.24162600,-0.55954300,0.43608200,0.22464400,-0.82740300,0.27862100,-0.77837500,0.22977400,-0.47607300,-0.84804000,0.40052500,-0.04663100
7.04000000,-0.42278000,0.97566000,-0.24162600,-0.55954300,0.43608200,0.22464400,-0.82740300,0.27862100,-0.77837500,0.22977400,-0.47607300,-0.84804000,0.40052500,-0.04663100
7.06000000,-0.42278000,0.97566000,-0.24162600,-0.55954300,0.43608200,0.22464400,-0.82740300,0.27862100,-0.77837500,0.22977400,-0.47607300,-0.84804000,0.40052500,-0.04663100
7.08000000,-0.42278000,0.97566000,-0.24162600,-0.55954300,0.43608200,0.22464400,-0.82740300,0.27862100,-0.77837500,0.22977400,-0.47607300,-0.84804000,0.40052500,-0.04663100
7.10000000,-0.42278000,0.97566000,-0.24162600,-0.55954300,0.43608200,0.22464400,-0.82740300,0.27862100,-0.77837500,0.22977400,-0.47607300,-0.84804000,0.40052500,-0.04663100
7.12000000,-0.42278000,0.97566000,-0.24162600,-0.55954300,0.43608200,0.22464400,-0.82740300,0.27862100,-0.77837500,0.22977400,-0.47607300,-0.84804000,0.40052500,-0.04663100
7.14000000,-0.42278000,0.97566000,-0.24162600,-0.55954300,0.43608200,0.22464400,-0.82740300,0.27862100,-0.77837500,0.22977400,-0.47607300,-0.84804000,0.40052500,-0.04663100
7.16000000,-0.42278000,0.97566000,-0.24162600,-0.55954300,0.43608200,0.22464400,-0.82740300,0.27862100,-0.77837500,0.22977400,-0.47607300,-0.84804000,0.40052500,-0.04663100
7.18000000,-0.42278000,0.97566000,-0.24162600,-0.55954300,0.43608200,0.22464400,-0.82740300,0.27862100,-0.77837500,0.22977400,-0.47607300,-0.84804000,0.40052500,-0.04663100
7.20000000,-0.42278000,0.97566000,-0.24162600,-0.55954300,0.43608200,0.22464400,-0.82740300,0.27862100,-0.77837500,0.22977400,-0.47607300,-0.84804000,0.40052500,-0.04663100
7.22000000,-0.42278000,0.97566000,-0.24162600,-0.55954300,0.43608200,0.22464400,-0.82740300,0.27862100,-0.77837500,0.22977400,-0.47607300,-0.84804000,0.40052500,-0.04663100
7.24000000,-0.42278000,0.97566000,-0.24162600,-0.55954300,0.43608200,0.22464400,-0.82740300,0.27862100,-0.77837500,0.22977400,-0.47607300,-0.84804000,0.40052500,-0.04663100
7.26000000,-0.42278000,0.97566000,-0.24162600,-0.55954300,0.43608200,0.22464400,-0.82740300,0.27862100,-0.77837500,0.22977400,-0.47607300,-0.84804000,0.40052500,-0.04663100
7.28000000,-0.42278000,0.97566000,-0.24162600,-0.55954300,0.43608200,0.22464400,-0.82740300,0.27862100,-0.77837500,0.22977400,-0.47607300,-0.84804000,0.40052500,-0.04663100
7.30000000,-0.42278000,0.97566000,-0.24162600,-0.55954300,0.43608200,0.22464400,-0.82740300,0.27862100,-0.77837500,0.22977400,-0.47607300,-0.84804000,0.40052500,-0.04663100
7.32000000,-0.42278000,0.97566000,-0.24162600,-0.55954300,0.43608200,0.22464400,-0.82740300,0.27862100,-0.77837500,0.22977400,-0.47607300,-0.84804000,0.40052500,-0.04663100
7.34000000,-0.42278000,0.97566000,-0.24162600,-0.55954300,0.43608200,0.22464400,-0.82740300,0.27862100,-0.77837500,0.22977400,-0.47607300,-0.84804000,0.40052500,-0.04663100
7.36000000,-0.42278000,0.97566000,-0.24162600,-0.55954300,0.43608200,0.22464400,-0.82740300,0.27862100,-0.77837500,0.22977400,-0.47607300,-0.84804000,0.40052500,-0.04663100
7.38000000,-0.42278000,0.97566000,-0.24162600,-0.55954300,0.43608200,0.22464400,-0.82740300,0.27862100,-0.77837500,0.22977400,-0.47607300,-0.84804000,0.40052500,-0.04663100
7.40000000,-0.42278000,0.97566000,-0.24162600,-0.55954300,0.43608200,0.22464400,-0.82740300,0.27862100,-0.77837500,0.22977400,-0.47607300,-0.84804000,0.40052500,-0.04663100
7.42000000,-0.42278000,0.97566000,-0.24162600,-0.55954300,0.43608200,0.22464400,-0.82740300,0.27862100,-0.77837500,0.22977400,-0.47607300,-0.84804000,0.40052500,-0.04663100
7.44000000,-0.42278000,0.97566000,-0.24162600,-0.55954300,0.43608200,0.22464400,-0.82740300,0.27862100,-0.77837500,0.22977400,-0.47607300,-0.84804000,0.40052500,-0.04663100
7.46000000,-0.42278000,0.97566000,-0.24162600,-0.55954300,0.43608200,0.22464400,-0.82740300,0.27862100,-0.77837500,0.22977400,-0.47607300,-0.84804000,0.40052500,-0.04663100
7.48000000,-0.42278000,0.97566000,-0.24162600,-0.55954300,0.43608200,0.22464400,-0.82740300,0.27862100,-0.77837500,0.22977400,-0.47607300,-0.84804000,0.40052500,-0.04663100
7.50000000,-0.42278000,0.97566000,-0.24162600,-0.55954300,0.43608200,0.22464400,-0.82740300,0.27862100,-0.77837500,0.22977400,-0.47607300,-0.84804000,0.40052500,-0.04663100
7.52000000,-0.42278000,0.97566000,-0.24162600,-0.55954300,0.43608200,0.22464400,-0.82740300,0.27862100,-0.77837500,0.22977400,-0.47607300,-0.84804000,0.40052500,-0.04663100
7.54000000,-0.42278000,0.97566000,-0.24162600,-0.55954300,0.43608200,0.22464400,-0.82740300,0.27862100,-0.77837500,0.22977400,-0.47607300,-0.84804000,0.40052500,-0.04663100
7.56000000,-0.42278000,0.97566000,-0.24162600,-0.55954300,0.43608200,0.22464400,-0.82740300,0.27862100,-0.77837500,0.22977400,-0.47607300,-0.84804000,0.40052500,-0.04663100
7.58000000,-0.42278000,0.97566000,-0.24162600,-0.55954300,0.43608200,0.22464400,-0.82740300,0.27862100,-0.77837500,0.22977400,-0.47607300,-0.84804000,0.40052500,-0.04663100
7.60000000,-0.42278000,0.97566000,-0.24162600,-0.55954300,0.43608200,0.22464400,-0.82740300,0.27862100,-0.77837500,0.22977400,-0.47607300,-0.84804000,0.40052500,-0.04663100
7.62000000,-0.42278000,0.97566000,-0.24162600,-0.55954300,0.43608200,0.22464400,-0.82740300,0.27862100,-0.77837500,0.22977400,-0.47607300,-0.84804000,0.40052500,-0.04663100
7.64000000,-0.42278000,0.97566000,-0.24162600,-0.55954300,0.43608200,0.22464400,-0.82740300,0.27862100,-0.77837500,0.22977400,-0.47607300,-0.84804000,0.40052500,-0.04663100
7.66000000,-0.42278000,0.97566000,-0.24162600,-0.55954300,0.43608200,0.22464400,-0.82740300,0.27862100,-0.77837500,0.22977400,-0.47607300,-0.84804000,0.40052500,-0.04663100
7.68000000,-0.42278000,0.97566000,-0.24162600,-0.55954300,0.43608200,0.22464400,-0.82740300,0.27862100,-0.77837500,0.22977400,-0.47607300,-0.84804000,0.40052500,-0.04663100
7.70000000,-0.42278000,0.97566000,-0.24162600,-0.55954300,0.43608200,0.22464400,-0.82740300,0.27862100,-0.77837500,0.22977400,-0.47607300,-0.84804000,0.40052500,-0.04663100
7.72000000,-0.42278000,0.97566000,-0.24162600,-0.55954300,0.43608200,0.22464400,-0.82740300,0.27862100,-0.77837500,0.22977400,-0.47607300,-0.84804000,0.40052500,-0.04663100
7.74000000,-0.42278000,0.97566000,-0.24162600,-0.55954300,0.43608200,0.22464400,-0.82740300,0.27862100,-0.77837500,0.22977400,-0.47607300,-0.84804000,0.40052500,-0.04663100
7.76000000,-0.42278000,0.97566000,-0.24162600,-0.55954300,0.43608200,0.22464400,-0.82740300,0.27862100,-0.77837500,0.22977400,-0.47607300,-0.84804000,0.40052500,-0.04663100
7.78000000,-0.42278000,0.97566000,-0.24162600,-0.55954300,0.43608200,0.22464400,-0.82740300,0.27862100,-0.77837500,0.22977400,-0.47607300,-0.84804000,0.40052500,-0.04663100
7.80000000,-0.42278000,0.97566000,-0.24162600,-0.55954300,0.43608200,0.22464400,-0.82740300,0.27862100,-0.77837500,0.22977400,-0.47607300,-0.84804000,0.40052500,-0.04663100
7.82000000,-0.42278000,0.97566000,-0.24162600,-0.55954300,0.43608200,0.22464400,-0.82740300,0.27862100,-0.77837500,0.22977400,-0.47607300,-0.84804000,0.40052500,-0.04663100
7.84000000,-0.42278000,0.97566000,-0.24162600,-0.55954300,0.43608200,0.22464400,-0.82740300,0.27862100,-0.77837500,0.22977400,-0.47607300,-0.84804000,0.40052500,-0.04663100
7.86000000,-0.42278000,0.97566000,-0.24162600,-0.55954300,0.43608200,0.22464400,-0.82740300,0.27862100,-0.77837500,0.22977400,-0.47607300,-0.84804000,0.40052500,-0.04663100
7.88000000,-0.42278000,0.97566000,-0.24162600,-0.55954300,0.43608200,0.22464400,-0.82740300,0.27862100,-0.77837500,0.22977400,-0.47607300,-0.84804000,0.40052500,-0.04663100
7.90000000,-0.42278000,0.97566000,-0.24162600,-0.55954300,0.43608200,0.22464400,-0.82740300,0.27862100,-0.77837500,0.22977400,-0.47607300,-0.84804000,0.40052500,-0.04663100
7.92000000,-0.42278000,0.97566000,-0.24162600,-0.55954300,0.43608200,0.22464400,-0.82740300,0.27862100,-0.77837500,0.22977400,-0.47607300,-0.84804000,0.40052500,-0.04663100
7.94000000,-0.42278000,0.97566000,-0.24162600,-0.55954300,0.43608200,0.22464400,-0.82740300,0.27862100,-0.77837500,0.22977400,-0.47607300,-0.84804000,0.40052500,-0.04663100
7.96000000,-0.42278000,0.97566000,-0.24162600,-0.55954300,0.43608200,0.22464400,-0.82740300,0.27862100,-0.77837500,0.22977400,-0.47607300,-0.84804000,0.40052500,-0.04663100
7.98000000,-0.42278000,0.97566000,-0.24162600,-0.55954300,0.43608200,0.22464400,-0.82740300,0.27862100,-0.77837500,0.22977400,-0.47607300,-0.84804000,0.40052500,-0.04663100
8.00000000,-0.42278000,0.97566000,-0.24162600,-0.55954300,0.43608200,0.22464400,-0.82740300,0.27862100,-0.77837500,0.22977400,-0.47607300,-0.84804000,0.40052500,-0.04663100
8.02000000,-0.42278000,0.97566000,-0.24162600,-0.55954300,0.43608200,0.22464400,-0.82740300,0.27862100,-0.77837500,0.22977400,-0.47607300,-0.84804000,0.40052500,-0.04663100
8.04000000,-0.42278000,0.97566000,-0.24162600,-0.55954300,0.43608200,0.22464400,-0.82740300,0.27862100,-0.77837500,0.22977400,-0.47607300,-0.84804000,0.40052500,-0.04663100
8.06000000,-0.42278000,0.97566000,-0.24162600,-0.55954300,0.43608200,0.22464400,-0.82740300,0.27862100,-0.77837500,0.22977400,-0.47607300,-0.84804000,0.40052500,-0.04663100
8.08000000,-0.42278000,0.97566000,-0.24162600,-0.55954300,0.43608200,0.22464400,-0.82740300,0.27862100,-0.77837500,0.22977400,-0.47607300,-0.84804000,0.40052500,-0.04663100
8.10000000,-0.42278000,0.97566000,-0.24162600,-0.55954300,0.43608200,0.22464400,-0.82740300,0.27862100,-0.77837500,0.22977400,-0.47607300,-0.84804000,0.40052500,-0.04663100
8.12000000,-0.42278000,0.97566000,-0.24162600,-0.55954300,0.43608200,0.22464400,-0.82740300,0.27862100,-0.77837500,0.22977400,-0.47607300,-0.84804000,0.40052500,-0.04663100
8.14000000,-0.42278000,0.97566000,-0.24162600,-0.55954300,0.43608200,0.22464400,-0.82740300,0.27862100,-0.77837500,0.22977400,-0.47607300,-0.84804000,0.40052500,-0.04663100
8.16000000,-0.42278000,0.97566000,-0.24162600,-0.55954300,0.43608200,0.22464400,-0.82740300,0.27862100,-0.77837500,0.22977400,-0.47607300,-0.84804000,0.40052500,-0.04663100
8.18000000,-0.42278000,0.97566000,-0.24162600,-0.55954300,0.43608200,0.22464400,-0.82740300,0.27862100,-0.77837500,0.22977400,-0.47607300,-0.84804000,0.40052500,-0.04663100
8.20000000,-0.42278000,0.97566000,-0.24162600,-0.55954300,0.43608200,0.22464400,-0.82740300,0.27862100,-0.77837500,0.22977400,-0.47607300,-0.84804000,0.40052500,-0.04663100
8.22000000,-0.42278000,0.97566000,-0.24162600,-0.55954300,0.43608200,0.22464400,-0.82740300,0.27862100,-0.77837500,0.22977400,-0.47607300,-0.84804000,0.40052500,-0.04663100
8.24000000,-0.42278000,0.97566000,-0.24162600,-0.55954300,0.43608200,0.22464400,-0.82740300,0.27862100,-0.77837500,0.22977400,-0.47607300,-0.84804000,0.40052500,-0.04663100
8.26000000,-0.42278000,0.97566000,-0.24162600,-0.55954300,0.43608200,0.22464400,-0.82740300,0.27862100,-0.77837500,0.22977400,-0.47607300,-0.84804000,0.40052500,-0.04663100
8.28000000,-0.42278000,0.97566000,-0.24162600,-0.55954300,0.43608200,0.22464400,-0.82740300,0.27862100,-0.77837500,0.22977400,-0.47607300,-0.84804000,0.40052500,-0.04663100
8.30000000,-0.42278000,0.97566000,-0.24162600,-0.55954300,0.43608200,0.22464400,-0.82740300,0.27862100,-0.77837500,0.22977400,-0.47607300,-0.84804000,0.40052500,-0.04663100
8.32000000,-0.42278000,0.97566000,-0.24162600,-0.55954300,0.43608200,0.22464400,-0.82740300,0.27862100,-0.77837500,0.22977400,-0.47607300,-0.84804000,0.40052500,-0.04663100
8.34000000,-0.42278000,0.97566000,-0.24162600,-0.55954300,0.43608200,0.22464400,-0.82740300,0.27862100,-0.77837500,0.22977400,-0.47607300,-0.84804000,0.40052500,-0.04663100
8.36000000,-0.42278000,0.97566000,-0.24162600,-0.55954300,0.43608200,0.22464400,-0.82740300,0.27862100,-0.77837500,0.22977400,-0.47607300,-0.84804000,0.40052500,-0.04663100
8.38000000,-0.42278000,0.97566000,-0.24162600,-0.55954300,0.43608200,0.22464400,-0.82740300,0.27862100,-0.77837500,0.22977400,-0.47607300,-0.84804000,0.40052500,-0.04663100
8.40000000,-0.42278000,0.97566000,-0.24162600,-0.55954300,0.43608200,0.22464400,-0.82740300,0.27862100,-0.77837500,0.22977400,-0.47607300,-0.84804000,0.40052500,-0.04663100
8.42000000,-0.42278000,0.97566000,-0.24162600,-0.55954300,0.43608200,0.22464400,-0.82740300,0.27862100,-0.77837500,0.22977400,-0.47607300,-0.84804000,0.40052500,-0.04663100
8.44000000,-0.42278000,0.97566000,-0.24162600,-0.55954300,0.43608200,0.22464400,-0.82740300,0.27862100,-0.77837500,0.22977400,-0.47607300,-0.84804000,0.40052500,-0.04663100
8.46000000,-0.42278000,0.97566000,-0.24162600,-0.55954300,0.43608200,0.22464400,-0.82740300,0.27862100,-0.77837500,0.22977400,-0.47607300,-0.84804000,0.40052500,-0.04663100
8.48000000,-0.42278000,0.97566000,-0.24162600,-0.55954300,0.43608200,0.22464400,-0.82740300,0.27862100,-0.77837500,0.22977400,-0.47607300,-0.84804000,0.40052500,-0.04663100
8.50000000,-0.42278000,0.97566000,-0.24162600,-0.55954300,0.43608200,0.22464400,-0.82740300,0.27862100,-0.77837500,0.22977400,-0.47607300,-0.84804000,0.40052500,-0.04663100
8.52000000,-0.42278000,0.97566000,-0.24162600,-0.55954300,0.43608200,0.22464400,-0.82740300,0.27862100,-0.77837500,0.22977400,-0.47607300,-0.84804000,0.40052500,-0.04663100
8.54000000,-0.42278000,0.97566000,-0.24162600,-0.55954300,0.43608200,0.22464400,-0.82740300,0.27862100,-0.77837500,0.22977400,-0.47607300,-0.84804000,0.40052500,-0.04663100
8.56000000,-0.42278000,0.97566000,-0.24162600,-0.55954300,0.43608200,0.22464400,-0.82740300,0.27862100,-0.77837500,0.22977400,-0.47607300,-0.84804000,0.40052500,-0.04663100
8.58000000,-0.42278000,0.97566000,-0.24162600,-0.55954300,0.43608200,0.22464400,-0.82740300,0.27862100,-0.77837500,0.22977400,-0.47607300,-0.84804000,0.40052500,-0.04663100
8.60000000,-0.42278000,0.97566000,-0.24162600,-0.55954300,0.43608200,0.22464400,-0.82740300,0.27862100,-0.77837500,0.22977400,-0.47607300,-0.84804000,0.40052500,-0.04663100
8.62000000,-0.42278000,0.97566000,-0.24162600,-0.55954300,0.43608200,0.22464400,-0.82740300,0.27862100,-0.77837500,0.22977400,-0.47607300,-0.84804000,0.40052500,-0.04663100
8.64000000,-0.42278000,0.97566000,-0.24162600,-0.55954300,0.43608200,0.22464400,-0.82740300,0.27862100,-0.77837500,0.22977400,-0.47607300,-0.84804000,0.40052500,-0.04663100
8.66000000,-0.42278000,0.97566000,-0.24162600,-0.55954300,0.43608200,0.22464400,-0.82740300,0.27862100,-0.77837500,0.22977400,-0.47607300,-0.84804000,0.40052500,-0.04663100
8.68000000,-0.42278000,0.97566000,-0.24162600,-0.55954300,0.43608200,0.22464400,-0.82740300,0.27862100,-0.77837500,0.22977400,-0.47607300,-0.84804000,0.40052500,-0.04663100
8.70000000,-0.42278000,0.97566000,-0.24162600,-0.55954300,0.43608200,0.22464400,-0.82740300,0.27862100,-0.77837500,0.22977400,-0.47607300,-0.84804000,0.40052500,-0.04663100
8.72000000,-0.42278000,0.97566000,-0.24162600,-0.55954300,0.43608200,0.22464400,-0.82740300,0.27862100,-0.77837500,0.22977400,-0.47607300,-0.84804000,0.40052500,-0.04663100
8.74000000,-0.42278000,0.97566000,-0.24162600,-0.55954300,0.43608200,0.22464400,-0.82740300,0.27862100,-0.77837500,0.22977400,-0.47607300,-0.84804000,0.40052500,-0.04663100
8.76000000,-0.42278000,0.97566000,-0.24162600,-0.55954300,0.43608200,0.22464400,-0.82740300,0.27862100,-0.77837500,0.22977400,-0.47607300,-0.84804000,0.40052500,-0.04663100
8.78000000,-0.42278000,0.97566000,-0.24162600,-0.55954300,0.43608200,0.22464400,-0.82740300,0.27862100,-0.77837500,0.22977400,-0.47607300,-0.84804000,0.40052500,-0.04663100
8.80000000,-0.42278000,0.97566000,-0.24162600,-0.55954300,0.43608200,0.22464400,-0.82740300,0.27862100,-0.77837500,0.22977400,-0.47607300,-0.84804000,0.40052500,-0.04663100
8.82000000,-0.42278000,0.97566000,-0.24162600,-0.55954300,0.43608200,0.22464400,-0.82740300,0.27862100,-0.77837500,0.22977400,-0.47607300,-0.84804000,0.40052500,-0.04663100
8.84000000,-0.42278000,0.97566000,-0.24162600,-0.55954300,0.43608200,0.22464400,-0.82740300,0.27862100,-0.77837500,0.22977400,-0.47607300,-0.84804000,0.40052500,-0.04663100
8.86000000,-0.42278000,0.97566000,-0.24162600,-0.55954300,0.43608200,0.22464400,-0.82740300,0.27862100,-0.77837500,0.22977400,-0.47607300,-0.84804000,0.40052500,-0.04663100
8.88000000,-0.42278000,0.97566000,-0.24162600,-0.55954300,0.43608200,0.22464400,-0.82740300,0.27862100,-0.77837500,0.22977400,-0.47607300,-0.84804000,0.40052500,-0.04663100
8.90000000,-0.42278000,0.97566000,-0.24162600,-0.55954300,0.43608200,0.22464400,-0.82740300,0.27862100,-0.77837500,0.22977400,-0.47607300,-0.84804000,0.40052500,-0.04663100
8.92000000,-0.42278000,0.97566000,-0.24162600,-0.55954300,0.43608200,0.22464400,-0.82740300,0.27862100,-0.77837500,0.22977400,-0.47607300,-0.84804000,0.40052500,-0.04663100
8.94000000,-0.42278000,0.97566000,-0.24162600,-0.55954300,0.43608200,0.22464400,-0.82740300,0.27862100,-0.77837500,0.22977400,-0.47607300,-0.84804000,0.40052500,-0.04663100
8.96000000,-0.42278000,0.97566000,-0.24162600,-0.55954300,0.43608200,0.22464400,-0.82740300,0.27862100,-0.77837500,0.22977400,-0.47607300,-0.84804000,0.40052500,-0.04663100
8.98000000,-0.42278000,0.97566000,-0.24162600,-0.55954300,0.43608200,0.22464400,-0.82740300,0.27862100,-0.77837500,0.22977400,-0.47607300,-0.84804000,0.40052500,-0.04663100
9.00000000,-0.42278000,0.97566000,-0.24162600,-0.55954300,0.43608200,0.22464400,-0.82740300,0.27862100,-0.77837500,0.22977400,-0.47607300,-0.84804000,0.40052500,-0.04663100
9.02000000,-0.42278000,0.97566000,-0.24162600,-0.55954300,0.43608200,0.22464400,-0.82740300,0.27862100,-0.77837500,0.22977400,-0.47607300,-0.84804000,0.40052500,-0.04663100
9.04000000,-0.42278000,0.97566000,-0.24162600,-0.55954300,0.43608200,0.22464400,-0.82740300,0.27862100,-0.77837500,0.22977400,-0.47607300,-0.84804000,0.40052500,-0.04663100
9.06000000,-0.42278000,0.97566000,-0.24162600,-0.55954300,0.43608200,0.22464400,-0.82740300,0.27862100,-0.77837500,0.22977400,-0.47607300,-0.84804000,0.40052500,-0.04663100
9.08000000,-0.42278000,0.97566000,-0.24162600,-0.55954300,0.43608200,0.22464400,-0.82740300,0.27862100,-0.77837500,0.22977400,-0.47607300,-0.84804000,0.40052500,-0.04663100
9.10000000,-0.42278000,0.97566000,-0.24162600,-0.55954300,0.43608200,0.22464400,-0.82740300,0.27862100,-0.77837500,0.22977400,-0.47607300,-0.84804000,0.40052500,-0.04663100
9.12000000,-0.42278000,0.97566000,-0.24162600,-0.55954300,0.43608200,0.22464400,-0.82740300,0.27862100,-0.77837500,0.22977400,-0.47607300,-0.84804000,0.40052500,-0.04663100
9.14000000,-0.42278000,0.97566000,-0.24162600,-0.55954300,0.43608200,0.22464400,-0.82740300,0.27862100,-0.77837500,0.22977400,-0.47607300,-0.84804000,0.40052500,-0.04663100
9.16000000,-0.42278000,0.97566000,-0.24162600,-0.55954300,0.43608200,0.22464400,-0.82740300,0.27862100,-0.77837500,0.22977400,-0.47607300,-0.84804000,0.40052500,-0.04663100
9.18000000,-0.42278000,0.97566000,-0.24162600,-0.55954300,0.43608200,0.22464400,-0.82740300,0.27862100,-0.77837500,0.22977400,-0.47607300,-0.84804000,0.40052500,-0.04663100
9.20000000,-0.42278000,0.97566000,-0.24162600,-0.55954300,0.43608200,0.22464400,-0.82740300,0.27862100,-0.77837500,0.22977400,-0.47607300,-0.84804000,0.40052500,-0.04663100
9.22000000,-0.42278000,0.97566000,-0.24162600,-0.55954300,0.43608200,0.22464400,-0.82740300,0.27862100,-0.77837500,0.22977400,-0.47607300,-0.84804000,0.40052500,-0.04663100
9.24000000,-0.42278000,0.97566000,-0.24162600,-0.55954300,0.43608200,0.22464400,-0.82740300,0.27862100,-0.77837500,0.22977400,-0.47607300,-0.84804000,0.40052500,-0.04663100
9.26000000,-0.42278000,0.97566000,-0.24162600,-0.55954300,0.43608200,0.22464400,-0.82740300,0.27862100,-0.77837500,0.22977400,-0.47607300,-0.84804000,0.40052500,-0.04663100
9.28000000,-0.42278000,0.97566000,-0.24162600,-0.55954300,0.43608200,0.22464400,-0.82740300,0.27862100,-0.77837500,0.22977400,-0.47607300,-0.84804000,0.40052500,-0.04663100
9.30000000,-0.42278000,0.97566000,-0.24162600,-0.55954300,0.43608200,0.22464400,-0.82740300,0.27862100,-0.77837500,0.22977400,-0.47607300,-0.84804000,0.40052500,-0.04663100
9.32000000,-0.42278000,0.97566000,-0.24162600,-0.55954300,0.43608200,0.22464400,-0.82740300,0.27862100,-0.77837500,0.22977400,-0.47607300,-0.84804000,0.40052500,-0.04663100
9.34000000,-0.42278000,0.97566000,-0.24162600,-0.55954300,0.43608200,0.22464400,-0.82740300,0.27862100,-0.77837500,0.22977400,-0.47607300,-0.84804000,0.40052500,-0.04663100
9.36000000,-0.42278000,0.97566000,-0.24162600,-0.55954300,0.43608200,0.22464400,-0.82740300,0.27862100,-0.77837500,0.22977400,-0.47607300,-0.84804000,0.40052500,-0.04663100
9.38000000,-0.42278000,0.97566000,-0.24162600,-0.55954300,0.43608200,0.22464400,-0.82740300,0.27862100,-0.77837500,0.22977400,-0.47607300,-0.84804000,0.40052500,-0.04663100
9.40000000,-0.42278000,0.97566000,-0.24162600,-0.55954300,0.43608200,0.22464400,-0.82740300,0.27862100,-0.77837500,0.22977400,-0.47607300,-0.84804000,0.40052500,-0.04663100
9.42000000,-0.42278000,0.97566000,-0.24162600,-0.55954300,0.43608200,0.22464400,-0.82740300,0.27862100,-0.77837500,0.22977400,-0.47607300,-0.84804000,0.40052500,-0.04663100
9.44000000,-0.42278000,0.97566000,-0.24162600,-0.55954300,0.43608200,0.22464400,-0.82740300,0.27862100,-0.77837500,0.22977400,-0.47607300,-0.84804000,0.40052500,-0.04663100
9.46000000,-0.42278000,0.97566000,-0.24162600,-0.55954300,0.43608200,0.22464400,-0.82740300,0.27862100,-0.77837500,0.22977400,-0.47607300,-0.84804000,0.40052500,-0.04663100
9.48000000,-0.42278000,0.97566000,-0.24162600,-0.55954300,0.43608200,0.22464400,-0.82740300,0.27862100,-0.77837500,0.22977400,-0.47607300,-0.84804000,0.40052500,-0.04663100
9.50000000,-0.42278000,0.97566000,-0.24162600,-0.55954300,0.43608200,0.22464400,-0.82740300,0.27862100,-0.77837500,0.22977400,-0.47607300,-0.84804000,0.40052500,-0.04663100
9.52000000,-0.42278000,0.97566000,-0.24162600,-0.55954300,0.43608200,0.22464400,-0.82740300,0.27862100,-0.77837500,0.22977400,-0.47607300,-0.84804000,0.40052500,-0.04663100
9.54000000,-0.42278000,0.97566000,-0.24162600,-0.55954300,0.43608200,0.22464400,-0.82740300,0.27862100,-0.77837500,0.22977400,-0.47607300,-0.84804000,0.40052500,-0.04663100
9.56000000,-0.42278000,0.97566000,-0.24162600,-0.55954300,0.43608200,0.22464400,-0.82740300,0.27862100,-0.77837500,0.22977400,-0.47607300,-0.84804000,0.40052500,-0.04663100
9.58000000,-0.42278000,0.97566000,-0.24162600,-0.55954300,0.43608200,0.22464400,-0.82740300,0.27862100,-0.77837500,0.22977400,-0.47607300,-0.84804000,0.40052500,-0.04663100
9.60000000,-0.42278000,0.97566000,-0.24162600,-0.55954300,0.43608200,0.22464400,-0.82740300,0.27862100,-0.77837500,0.22977400,-0.47607300,-0.84804000,0.40052500,-0.04663100
9.62000000,-0.42278000,0.97566000,-0.24162600,-0.55954300,0.43608200,0.22464400,-0.82740300,0.27862100,-0.77837500,0.22977400,-0.47607300,-0.84804000,0.40052500,-0.04663100
9.64000000,-0.42278000,0.97566000,-0.24162600,-0.55954300,0.43608200,0.22464400,-0.82740300,0.27862100,-0.77837500,0.22977400,-0.47607300,-0.84804000,0.40052500,-0.04663100
9.66000000,-0.42278000,0.97566000,-0.24162600,-0.55954300,0.43608200,0.22464400,-0.82740300,0.27862100,-0.77837500,0.22977400,-0.47607300,-0.84804000,0.40052500,-0.04663100
9.68000000,-0.42278000,0.97566000,-0.24162600,-0.55954300,0.43608200,0.22464400,-0.82740300,0.27862100,-0.77837500,0.22977400,-0.47607300,-0.84804000,0.40052500,-0.04663100
9.70000000,-0.42278000,0.97566000,-0.24162600,-0.55954300,0.43608200,0.22464400,-0.82740300,0.27862100,-0.77837500,0.22977400,-0.47607300,-0.84804000,0.40052500,-0.04663100
9.72000000,-0.42278000,0.97566000,-0.24162600,-0.55954300,0.43608200,0.22464400,-0.82740300,0.27862100,-0.77837500,0.22977400,-0.47607300,-0.84804000,0.40052500,-0.04663100
9.74000000,-0.42278000,0.97566000,-0.24162600,-0.55954300,0.43608200,0.22464400,-0.82740300,0.27862100,-0.77837500,0.22977400,-0.47607300,-0.84804000,0.40052500,-0.04663100
9.76000000,-0.42278000,0.97566000,-0.24162600,-0.55954300,0.43608200,0.22464400,-0.82740300,0.27862100,-0.77837500,0.22977400,-0.47607300,-0.84804000,0.40052500,-0.04663100
9.78000000,-0.42278000,0.97566000,-0.24162600,-0.55954300,0.43608200,0.22464400,-0.82740300,0.27862100,-0.77837500,0.22977400,-0.47607300,-0.84804000,0.40052500,-0.04663100
9.80000000,-0.42278000,0.97566000,-0.24162600,-0.55954300,0.43608200,0.22464400,-0.82740300,0.27862100,-0.77837500,0.22977400,-0.47607300,-0.84804000,0.40052500,-0.04663100
9.82000000,-0.42278000,0.97566000,-0.24162600,-0.55954300,0.43608200,0.22464400,-0.82740300,0.27862100,-0.77837500,0.22977400,-0.47607300,-0.84804000,0.40052500,-0.04663100
9.84000000,-0.42278000,0.97566000,-0.24162600,-0.55954300,0.43608200,0.22464400,-0.82740300,0.27862100,-0.77837500,0.22977400,-0.47607300,-0.84804000,0.40052500,-0.04663100
9.86000000,-0.42278000,0.97566000,-0.24162600,-0.55954300,0.43608200,0.22464400,-0.82740300,0.27862100,-0.77837500,0.22977400,-0.47607300,-0.84804000,0.40052500,-0.04663100
9.88000000,-0.42278000,0.97566000,-0.24162600,-0.55954300,0.43608200,0.22464400,-0.82740300,0.27862100,-0.77837500,0.22977400,-0.47607300,-0.84804000,0.40052500,-0.04663100
9.90000000,-0.42278000,0.97566000,-0.24162600,-0.55954300,0.43608200,0.22464400,-0.82740300,0.27862100,-0.77837500,0.22977400,-0.47607300,-0.84804000,0.40052500,-0.04663100
9.92000000,-0.42278000,0.97566000,-0.24162600,-0.55954300,0.43608200,0.22464400,-0.82740300,0.27862100,-0.77837500,0.22977400,-0.47607300,-0.84804000,0.40052500,-0.04663100
9.94000000,-0.42278000,0.97566000,-0.24162600,-0.55954300,0.43608200,0.22464400,-0.82740300,0.27862100,-0.77837500,0.22977400,-0.47607300,-0.84804000,0.40052500,-0.04663100
9.96000000,-0.42278000,0.97566000,-0.24162600,-0.55954300,0.43608200,0.22464400,-0.82740300,0.27862100,-0.77837500,0.22977400,-0.47607300,-0.84804000,0.40052500,-0.04663100
9.98000000,-0.42278000,0.97566000,-0.24162600,-0.55954300,0.43608200,0.22464400,-0.82740300,0.27862100,-0.77837500,0.22977400,-0.47607300,-0.84804000,0.40052500,-0.04663100
10.00000000,-0.42278279,0.97565583,-0.24162980,-0.55953359,0.43608480,0.22464241,-0.82739822,0.27862101,-0.77837500,0.22977400,-0.47607300,-0.84804000,0.40052500,-0.04663100
10.02000000,-0.42280201,0.97562711,-0.24165591,-0.55946883,0.43610407,0.22463150,-0.82736535,0.27862106,-0.77837500,0.22977400,-0.47607300,-0.84804000,0.40052500,-0.04663100
10.04000000,-0.42285315,0.97555067,-0.24172543,-0.55929648,0.43615536,0.22460244,-0.82727787,0.27862119,-0.77837499,0.22977400,-0.47607300,-0.84803999,0.40052502,-0.04663101
10.06000000,-0.42295075,0.97540480,-0.24185809,-0.55896758,0.43625323,0.22454698,-0.82711091,0.27862145,-0.77837499,0.22977400,-0.47607300,-0.84803999,0.40052504,-0.04663103
10.08000000,-0.42310837,0.97516923,-0.24207233,-0.55843640,0.43641130,0.22445742,-0.82684128,0.27862186,-0.77837497,0.22977400,-0.47607300,-0.84803997,0.40052507,-0.04663106
10.10000000,-0.42333864,0.97482508,-0.24238532,-0.55766038,0.43664222,0.22432658,-0.82644737,0.27862246,-0.77837495,0.22977400,-0.47607300,-0.84803995,0.40052512,-0.04663109
10.12000000,-0.42365327,0.97435484,-0.24281297,-0.55660008,0.43695774,0.22414781,-0.82590915,0.27862329,-0.77837493,0.22977400,-0.47607300,-0.84803993,0.40052518,-0.04663115
10.14000000,-0.42406307,0.97374237,-0.24336999,-0.55521905,0.43736870,0.22391496,-0.82520813,0.27862436,-0.77837489,0.22977400,-0.47607300,-0.84803989,0.40052527,-0.04663122
10.16000000,-0.42457797,0.97297281,-0.24406986,-0.55348382,0.43788507,0.22362239,-0.82432731,0.27862571,-0.77837485,0.22977400,-0.47607300,-0.84803985,0.40052538,-0.04663130
10.18000000,-0.42520705,0.97203260,-0.24492493,-0.55136380,0.43851593,0.22326495,-0.82325118,0.27862736,-0.77837479,0.22977400,-0.47607300,-0.84803979,0.40052551,-0.04663141
10.20000000,-0.42595855,0.97090942,-0.24594640,-0.54883123,0.43926957,0.22283795,-0.82196563,0.27862933,-0.77837473,0.22977400,-0.47607300,-0.84803973,0.40052567,-0.04663154
10.22000000,-0.42683989,0.96959219,-0.24714435,-0.54586109,0.44015341,0.22233717,-0.82045796,0.27863164,-0.77837466,0.22977400,-0.47607300,-0.84803966,0.40052586,-0.04663169
10.24000000,-0.42785770,0.96807100,-0.24852779,-0.54243106,0.44117410,0.22175885,-0.81871685,0.27863431,-0.77837457,0.22977400,-0.47607300,-0.84803957,0.40052607,-0.04663186
10.26000000,-0.42901783,0.96633711,-0.25010467,-0.53852141,0.44233752,0.22109966,-0.81673229,0.27863735,-0.77837447,0.22977400,-0.47607300,-0.84803947,0.40052632,-0.04663206
10.28000000,-0.43032537,0.96438290,-0.25188192,-0.53411498,0.44364877,0.22035672,-0.81449555,0.27864077,-0.77837436,0.22977400,-0.47607300,-0.84803936,0.40052660,-0.04663228
10.30000000,-0.43178468,0.96220185,-0.25386547,-0.52919707,0.44511222,0.21952754,-0.81199918,0.27864460,-0.77837424,0.22977400,-0.47607300,-0.84803924,0.40052691,-0.04663252
10.32000000,-0.43339942,0.95978852,-0.25606027,-0.52375540,0.44673153,0.21861005,-0.80923695,0.27864883,-0.77837410,0.22977400,-0.47607300,-0.84803910,0.40052725,-0.04663280
10.34000000,-0.43517252,0.95713849,-0.25847033,-0.51778002,0.44850966,0.21760257,-0.80620380,0.27865347,-0.77837395,0.22977400,-0.47607300,-0.84803895,0.40052762,-0.04663310
10.36000000,-0.43710627,0.95424836,-0.26109875,-0.51126326,0.45044889,0.21650382,-0.80289584,0.27865854,-0.77837379,0.22977400,-0.47607300,-0.84803879,0.40052803,-0.04663343
10.38000000,-0.43920229,0.95111570,-0.26394773,-0.50419963,0.45255086,0.21531286,-0.79931029,0.27866403,-0.77837361,0.22977400,-0.47607300,-0.84803861,0.40052848,-0.04663378
10.40000000,-0.44146158,0.94773904,-0.26701863,-0.49658580,0.45481655,0.21402913,-0.79544546,0.27866996,-0.77837342,0.22977400,-0.47607300,-0.84803842,0.40052895,-0.04663416
10.42000000,-0.44388451,0.94411779,-0.27031196,-0.48842048,0.45724635,0.21265242,-0.79130068,0.27867630,-0.77837321,0.22977400,-0.47607300,-0.84803821,0.40052947,-0.04663457
10.44000000,-0.44647087,0.94025229,-0.27382743,-0.47970440,0.45984005,0.21118285,-0.78687633,0.27868308,-0.77837299,0.22977400,-0.47607300,-0.84803799,0.40053001,-0.04663501
10.46000000,-0.44921988,0.93614370,-0.27756398,-0.47044020,0.46259685,0.20962086,-0.78217376,0.27869029,-0.77837276,0.22977400,-0.47607300,-0.84803776,0.40053060,-0.04663548
10.48000000,-0.45213020,0.93179401,-0.28151978,-0.46063237,0.46551543,0.20796722,-0.77719523,0.27869791,-0.77837252,0.22977400,-0.47607300,-0.84803752,0.40053121,-0.04663597
10.50000000,-0.45519997,0.92720603,-0.28569231,-0.45028721,0.46859390,0.20622298,-0.77194395,0.27870596,-0.77837226,0.22977400,-0.47607300,-0.84803726,0.40053186,-0.04663649
10.52000000,-0.45842680,0.92238329,-0.29007834,-0.43941273,0.47182988,0.20438949,-0.76642398,0.27871441,-0.77837198,0.22977400,-0.47607300,-0.84803698,0.40053254,-0.04663703
10.54000000,-0.46180784,0.91733008,-0.29467396,-0.42801858,0.47522051,0.20246839,-0.76064023,0.27872327,-0.77837170,0.22977400,-0.47607300,-0.84803670,0.40053326,-0.04663761
10.56000000,-0.46533974,0.91205140,-0.29947464,-0.41611601,0.47876242,0.20046156,-0.75459840,0.27873253,-0.77837140,0.22977400,-0.47607300,-0.84803640,0.40053401,-0.04663821
10.58000000,-0.46901872,0.90655289,-0.30447524,-0.40371778,0.48245184,0.19837116,-0.74830496,0.27874217,-0.77837109,0.22977400,-0.47607300,-0.84803609,0.40053478,-0.04663883
10.60000000,-0.47284058,0.90084086,-0.30967003,-0.39083808,0.48628453,0.19619958,-0.74176713,0.27875218,-0.77837076,0.22977400,-0.47607300,-0.84803576,0.40053559,-0.04663947
10.62000000,-0.47680067,0.89492221,-0.31505272,-0.37749249,0.49025586,0.19394946,-0.73499281,0.27876256,-0.77837043,0.22977400,-0.47607300,-0.84803543,0.40053643,-0.04664015
10.64000000,-0.48089400,0.88880443,-0.32061652,-0.36369790,0.49436079,0.19162363,-0.72799057,0.27877329,-0.77837008,0.22977400,-0.47607300,-0.84803508,0.40053730,-0.04664084
10.66000000,-0.48511519,0.88249556,-0.32635410,-0.34947243,0.49859395,0.18922515,-0.72076962,0.27878435,-0.77836972,0.22977400,-0.47607300,-0.84803472,0.40053819,-0.04664155
10.68000000,-0.48945851,0.87600416,-0.33225769,-0.33483537,0.50294959,0.18675727,-0.71333974,0.27879573,-0.77836936,0.22977400,-0.47607300,-0.84803436,0.40053911,-0.04664229
10.70000000,-0.49391792,0.86933926,-0.33831906,-0.31980711,0.50742164,0.18422344,-0.70571128,0.27880742,-0.77836898,0.22977400,-0.47607300,-0.84803398,0.40054005,-0.04664304
10.72000000,-0.49848704,0.86251037,-0.34452957,-0.30440908,0.51200372,0.18162726,-0.69789513,0.27881939,-0.77836859,0.22977400,-0.47607300,-0.84803359,0.40054102,-0.04664382
10.74000000,-0.50315925,0.85552741,-0.35088020,-0.28866367,0.51668918,0.17897251,-0.68990264,0.27883163,-0.77836820,0.22977400,-0.47607300,-0.84803320,0.40054201,-0.04664461
10.76000000,-0.50792763,0.84840072,-0.35736154,-0.27259415,0.52147108,0.17626312,-0.68174563,0.27884413,-0.77836779,0.22977400,-0.47607300,-0.84803279,0.40054302,-0.04664541
10.78000000,-0.51278503,0.84114099,-0.36396388,-0.25622464,0.52634225,0.17350315,-0.67343635,0.27885686,-0.77836738,0.22977400,-0.47607300,-0.84803238,0.40054405,-0.04664624
10.80000000,-0.51772407,0.83375924,-0.37067720,-0.23957999,0.53129530,0.17069678,-0.66498740,0.27886980,-0.77836696,0.22977400,-0.47607300,-0.84803196,0.40054509,-0.04664707
10.82000000,-0.52273717,0.82626680,-0.37749117,-0.22268577,0.53632261,0.16784834,-0.65641177,0.27888294,-0.77836654,0.22977400,-0.47607300,-0.84803154,0.40054615,-0.04664792
10.84000000,-0.52781656,0.81867528,-0.38439525,-0.20556814,0.54141641,0.16496223,-0.64772273,0.27889625,-0.77836611,0.22977400,-0.47607300,-0.84803111,0.40054723,-0.04664878
10.86000000,-0.53295432,0.81099654,-0.39137866,-0.18825383,0.54656873,0.16204296,-0.63893386,0.27890971,-0.77836567,0.22977400,-0.47607300,-0.84803067,0.40054831,-0.04664965
10.88000000,-0.53814236,0.80324263,-0.39843043,-0.17077003,0.55177149,0.15909511,-0.63005896,0.27892331,-0.77836524,0.22977400,-0.47607300,-0.84803024,0.40054941,-0.04665053
10.90000000,-0.54337251,0.79542581,-0.40553941,-0.15314437,0.55701646,0.15612335,-0.62111204,0.27893701,-0.77836479,0.22977400,-0.47607300,-0.84802979,0.40055052,-0.04665142
10.92000000,-0.54863645,0.78755847,-0.41269434,-0.13540481,0.56229533,0.15313237,-0.61210730,0.27895081,-0.77836435,0.22977400,-0.47607300,-0.84802935,0.40055163,-0.04665231
10.94000000,-0.55392581,0.77965313,-0.41988382,-0.11757957,0.56759969,0.15012696,-0.60305908,0.27896467,-0.77836390,0.22977400,-0.47607300,-0.84802890,0.40055275,-0.04665320
10.96000000,-0.55923215,0.77172242,-0.42709638,-0.09969711,0.57292108,0.14711189,-0.59398181,0.27897857,-0.77836345,0.22977400,-0.47607300,-0.84802845,0.40055388,-0.04665410
10.98000000,-0.56454700,0.76377900,-0.43432050,-0.08178600,0.57825100,0.14409200,-0.58489000,0.27899250,-0.77836300,0.22977400,-0.47607300,-0.84802800,0.40055500,-0.04665500
11.00000000,-0.56986185,0.75583558,-0.44154462,-0.06387489,0.58358092,0.14107211,-0.57579819,0.27900643,-0.77836255,0.22977400,-0.47607300,-0.84802755,0.40055612,-0.04665590
11.02000000,-0.57516819,0.74790487,-0.44875718,-0.04599243,0.58890231,0.13805704,-0.56672092,0.27902033,-0.77836210,0.22977400,-0.47607300,-0.84802710,0.40055725,-0.04665680
11.04000000,-0.58045755,0.73999953,-0.45594666,-0.02816719,0.59420667,0.13505163,-0.55767270,0.27903419,-0.77836165,0.22977400,-0.47607300,-0.84802665,0.40055837,-0.04665769
11.06000000,-0.58572149,0.73213219,-0.46310159,-0.01042763,0.59948554,0.13206065,-0.54866796,0.27904799,-0.77836121,0.22977400,-0.47607300,-0.84802621,0.40055948,-0.04665858
11.08000000,-0.59095164,0.72431537,-0.47021057,0.00719803,0.60473051,0.12908889,-0.53972104,0.27906169,-0.77836076,0.22977400,-0.47607300,-0.84802576,0.40056059,-0.04665947
11.10000000,-0.59613968,0.71656146,-0.47726234,0.02468183,0.60993327,0.12614104,-0.53084614,0.27907529,-0.77836033,0.22977400,-0.47607300,-0.84802533,0.40056169,-0.04666035
11.12000000,-0.60127744,0.70888272,-0.48424575,0.04199614,0.61508559,0.12322177,-0.52205727,0.27908875,-0.77835989,0.22977400,-0.47607300,-0.84802489,0.40056277,-0.04666122
11.14000000,-0.60635683,0.70129120,-0.49114983,0.05911377,0.62017939,0.12033566,-0.51336823,0.27910206,-0.77835946,0.22977400,-0.47607300,-0.84802446,0.40056385,-0.04666208
11.16000000,-0.61136993,0.69379876,-0.49796380,0.07600799,0.62520670,0.11748722,-0.50479260,0.27911520,-0.77835904,0.22977400,-0.47607300,-0.84802404,0.40056491,-0.04666293
11.18000000,-0.61630897,0.68641701,-0.50467712,0.09265264,0.63015975,0.11468085,-0.49634365,0.27912814,-0.77835862,0.22977400,-0.47607300,-0.84802362,0.40056595,-0.04666376
11.20000000,-0.62116637,0.67915728,-0.51127946,0.10902215,0.63503092,0.11192088,-0.48803437,0.27914087,-0.77835821,0.22977400,-0.47607300,-0.84802321,0.40056698,-0.04666459
11.22000000,-0.62593475,0.67203059,-0.51776080,0.12509167,0.63981282,0.10921149,-0.47987736,0.27915337,-0.77835780,0.22977400,-0.47607300,-0.84802280,0.40056799,-0.04666539
11.24000000,-0.63060696,0.66504763,-0.52411143,0.14083708,0.64449828,0.10655674,-0.47188487,0.27916561,-0.77835741,0.22977400,-0.47607300,-0.84802241,0.40056898,-0.04666618
11.26000000,-0.63517608,0.65821874,-0.53032194,0.15623511,0.64908036,0.10396056,-0.46406872,0.27917758,-0.77835702,0.22977400,-0.47607300,-0.84802202,0.40056995,-0.04666696
11.28000000,-0.63963549,0.65155384,-0.53638331,0.17126337,0.65355241,0.10142673,-0.45644026,0.27918927,-0.77835664,0.22977400,-0.47607300,-0.84802164,0.40057089,-0.04666771
11.30000000,-0.64397881,0.64506244,-0.54228690,0.18590043,0.65790805,0.09895885,-0.44901038,0.27920065,-0.77835628,0.22977400,-0.47607300,-0.84802128,0.40057181,-0.04666845
11.32000000,-0.64820000,0.63875357,-0.54802448,0.20012590,0.66214121,0.09656037,-0.44178943,0.27921171,-0.77835592,0.22977400,-0.47607300,-0.84802092,0.40057270,-0.04666916
11.34000000,-0.65229333,0.63263579,-0.55358828,0.21392049,0.66624614,0.09423454,-0.43478719,0.27922244,-0.77835557,0.22977400,-0.47607300,-0.84802057,0.40057357,-0.04666985
11.36000000,-0.65625342,0.62671714,-0.55897097,0.22726608,0.67021747,0.09198442,-0.42801287,0.27923282,-0.77835524,0.22977400,-0.47607300,-0.84802024,0.40057441,-0.04667053
11.38000000,-0.66007528,0.62100511,-0.56416576,0.24014578,0.67405016,0.08981284,-0.42147504,0.27924283,-0.77835491,0.22977400,-0.47607300,-0.84801991,0.40057522,-0.04667117
11.40000000,-0.66375426,0.61550660,-0.56916636,0.25254401,0.67773958,0.08772244,-0.41518160,0.27925247,-0.77835460,0.22977400,-0.47607300,-0.84801960,0.40057599,-0.04667179
11.42000000,-0.66728616,0.61022792,-0.57396704,0.26444658,0.68128149,0.08571561,-0.40913977,0.27926173,-0.77835430,0.22977400,-0.47607300,-0.84801930,0.40057674,-0.04667239
11.44000000,-0.67066720,0.60517471,-0.57856266,0.27584073,0.68467212,0.08379451,-0.40335602,0.27927059,-0.77835402,0.22977400,-0.47607300,-0.84801902,0.40057746,-0.04667297
11.46000000,-0.67389403,0.60035197,-0.58294869,0.28671521,0.68790810,0.08196102,-0.39783605,0.27927904,-0.77835374,0.22977400,-0.47607300,-0.84801874,0.40057814,-0.04667351
11.48000000,-0.67696380,0.59576399,-0.58712122,0.29706037,0.69098657,0.08021678,-0.39258477,0.27928709,-0.77835348,0.22977400,-0.47607300,-0.84801848,0.40057879,-0.04667403
11.50000000,-0.67987412,0.59141430,-0.59107702,0.30686820,0.69390515,0.07856314,-0.38760624,0.27929471,-0.77835324,0.22977400,-0.47607300,-0.84801824,0.40057940,-0.04667452
11.52000000,-0.68262313,0.58730571,-0.59481357,0.31613240,0.69666195,0.07700115,-0.38290367,0.27930192,-0.77835301,0.22977400,-0.47607300,-0.84801801,0.40057999,-0.04667499
11.54000000,-0.68520949,0.58344021,-0.59832904,0.32484848,0.69925565,0.07553158,-0.37847932,0.27930870,-0.77835279,0.22977400,-0.47607300,-0.84801779,0.40058053,-0.04667543
