gracetata/LocomotionHEC/legged_lab/Reference Data/ArmHack/StandPerturb/TestData/ArmOnly/sequences/synthesized_trajectories_arm_only_sequence_seed20260714_50hz.csv
time_s,left_shoulder_pitch_joint,left_shoulder_roll_joint,left_shoulder_yaw_joint,left_elbow_joint,left_wrist_roll_joint,left_wrist_pitch_joint,left_wrist_yaw_joint,right_shoulder_pitch_joint,right_shoulder_roll_joint,right_shoulder_yaw_joint,right_elbow_joint,right_wrist_roll_joint,right_wrist_pitch_joint,right_wrist_yaw_joint
0.00000000,0.27748673,0.77762906,-0.22960621,-0.47553482,0.84736445,0.40012900,0.04635057,-0.34717420,-0.74233276,0.41266717,-0.21889507,-0.68365911,0.26312181,0.40934783
0.02000000,0.27751661,0.77762771,-0.22960867,-0.47552781,0.84736093,0.40013081,0.04635262,-0.35173646,-0.74282552,0.41410058,-0.21768544,-0.68210422,0.26150337,0.41340407
0.04000000,0.27754950,0.77761977,-0.22961240,-0.47551482,0.84735628,0.40013058,0.04635075,-0.35672453,-0.74347752,0.41569903,-0.21656044,-0.68035839,0.25976986,0.41768819
0.06000000,0.27751859,0.77762204,-0.22961491,-0.47552194,0.84734891,0.40013829,0.04635245,-0.36151686,-0.74405655,0.41728356,-0.21571530,-0.67841313,0.25808684,0.42205903
0.08000000,0.27751254,0.77763038,-0.22962065,-0.47553766,0.84736683,0.40012470,0.04634542,-0.36598671,-0.74472076,0.41889267,-0.21526877,-0.67668130,0.25631467,0.42632849
0.10000000,0.27752011,0.77763566,-0.22959994,-0.47554446,0.84737010,0.40012490,0.04635146,-0.37058490,-0.74547740,0.42055272,-0.21476578,-0.67518186,0.25435265,0.43082281
0.12000000,0.27751891,0.77763335,-0.22960180,-0.47556285,0.84736965,0.40013439,0.04635683,-0.37552413,-0.74625802,0.42240913,-0.21435568,-0.67347390,0.25252441,0.43556823
0.14000000,0.27750939,0.77762108,-0.22960535,-0.47556584,0.84737453,0.40012487,0.04635508,-0.38080904,-0.74702704,0.42413490,-0.21410373,-0.67156003,0.25078811,0.44029854
0.16000000,0.27750448,0.77762662,-0.22960651,-0.47556125,0.84735747,0.40011996,0.04635126,-0.38541443,-0.74784023,0.42559489,-0.21395021,-0.66974535,0.24907303,0.44488758
0.18000000,0.27750795,0.77763303,-0.22961441,-0.47554878,0.84736946,0.40012447,0.04635921,-0.39005821,-0.74879651,0.42690849,-0.21368011,-0.66799451,0.24732842,0.44962915
0.20000000,0.27751764,0.77763717,-0.22961379,-0.47554444,0.84737340,0.40013359,0.04635632,-0.39508673,-0.74991860,0.42802869,-0.21345160,-0.66590879,0.24559339,0.45473457
0.22000000,0.27754660,0.77762906,-0.22961379,-0.47555319,0.84736497,0.40012337,0.04635665,-0.40005900,-0.75126701,0.42916012,-0.21314562,-0.66394682,0.24387784,0.45980781
0.24000000,0.27752432,0.77762627,-0.22961285,-0.47555251,0.84736521,0.40013086,0.04635734,-0.40491699,-0.75275009,0.43011727,-0.21309750,-0.66204959,0.24215341,0.46494323
0.26000000,0.27756623,0.77762366,-0.22960899,-0.47553166,0.84738405,0.40013056,0.04634602,-0.40958315,-0.75408293,0.43119870,-0.21289847,-0.66018988,0.24065524,0.46994495
0.28000000,0.27752096,0.77762818,-0.22962038,-0.47554306,0.84737928,0.40012503,0.04634228,-0.41434177,-0.75549968,0.43188709,-0.21296599,-0.65798100,0.23914158,0.47523317
0.30000000,0.27752052,0.77763925,-0.22961689,-0.47554543,0.84736590,0.40012431,0.04635381,-0.41902979,-0.75722082,0.43263624,-0.21310360,-0.65551175,0.23762138,0.48076584
0.32000000,0.27750803,0.77763216,-0.22960763,-0.47555677,0.84736709,0.40012471,0.04635921,-0.42406303,-0.75890007,0.43369151,-0.21344579,-0.65298070,0.23611238,0.48606399
0.34000000,0.27750618,0.77762906,-0.22960513,-0.47555330,0.84737732,0.40012709,0.04635804,-0.42844325,-0.76058480,0.43488188,-0.21398779,-0.65031049,0.23435470,0.49168555
0.36000000,0.27748238,0.77762717,-0.22961379,-0.47556097,0.84737001,0.40012259,0.04636889,-0.43215117,-0.76196369,0.43586606,-0.21520181,-0.64791052,0.23278040,0.49701109
0.38000000,0.27749956,0.77762960,-0.22961313,-0.47555957,0.84734766,0.40012801,0.04636581,-0.43610456,-0.76350099,0.43708795,-0.21611556,-0.64530198,0.23126624,0.50270471
0.40000000,0.27745909,0.77762366,-0.22960906,-0.47557527,0.84737173,0.40011600,0.04636581,-0.43996976,-0.76523974,0.43792131,-0.21742743,-0.64267882,0.22967024,0.50826286
0.42000000,0.27745763,0.77762181,-0.22960844,-0.47554847,0.84736943,0.40012351,0.04636337,-0.44343911,-0.76737239,0.43861532,-0.21879246,-0.63992294,0.22827125,0.51405294
0.44000000,0.27745301,0.77762673,-0.22960764,-0.47555437,0.84737936,0.40012655,0.04636094,-0.44727088,-0.76974924,0.43950918,-0.21972894,-0.63736541,0.22672237,0.51978834
0.46000000,0.27742994,0.77762366,-0.22961140,-0.47556960,0.84736940,0.40013273,0.04636652,-0.45103090,-0.77210990,0.43991746,-0.22078654,-0.63481570,0.22536957,0.52556184
0.48000000,0.27745519,0.77762285,-0.22960838,-0.47555466,0.84737795,0.40012982,0.04635847,-0.45478741,-0.77430801,0.44015530,-0.22210617,-0.63234578,0.22424494,0.53127488
0.50000000,0.27744122,0.77761200,-0.22961369,-0.47556968,0.84738066,0.40012330,0.04636393,-0.45816950,-0.77655050,0.44008950,-0.22395016,-0.62983194,0.22312853,0.53700774
0.52000000,0.27745687,0.77762995,-0.22958361,-0.47555217,0.84737240,0.40014480,0.04636900,-0.46209611,-0.77905470,0.44026690,-0.22549021,-0.62705960,0.22174842,0.54302643
0.54000000,0.27744615,0.77762820,-0.22959638,-0.47556393,0.84737787,0.40015311,0.04636381,-0.46609992,-0.78156037,0.44077957,-0.22715183,-0.62436154,0.22065233,0.54870516
0.56000000,0.27740250,0.77763005,-0.22960301,-0.47556682,0.84737706,0.40012560,0.04636897,-0.46983593,-0.78375180,0.44076147,-0.22893970,-0.62170139,0.21943006,0.55434512
0.58000000,0.27740241,0.77762387,-0.22961260,-0.47556241,0.84738491,0.40011852,0.04636429,-0.47302876,-0.78572931,0.44019413,-0.23113006,-0.61877451,0.21843160,0.56016808
0.60000000,0.27740804,0.77763449,-0.22960818,-0.47555292,0.84737094,0.40012867,0.04637984,-0.47627809,-0.78809229,0.43965104,-0.23365014,-0.61569345,0.21751951,0.56597633
0.62000000,0.27745243,0.77763483,-0.22959738,-0.47555159,0.84736573,0.40012054,0.04636897,-0.47987839,-0.79087020,0.43979524,-0.23583156,-0.61297643,0.21657427,0.57192573
0.64000000,0.27740840,0.77762675,-0.22960319,-0.47557591,0.84736248,0.40013419,0.04636588,-0.48322021,-0.79371003,0.43942902,-0.23839788,-0.61042772,0.21557976,0.57756308
0.66000000,0.27743744,0.77762164,-0.22961285,-0.47557707,0.84737100,0.40013041,0.04637237,-0.48611234,-0.79628166,0.43900417,-0.24100272,-0.60757400,0.21469541,0.58318304
0.68000000,0.27733560,0.77762087,-0.22961993,-0.47558920,0.84737246,0.40011000,0.04636581,-0.48859259,-0.79897204,0.43778155,-0.24394763,-0.60421207,0.21395254,0.58918710
0.70000000,0.27715700,0.77760701,-0.22963705,-0.47562432,0.84737090,0.40009061,0.04636581,-0.49027540,-0.80232507,0.43614842,-0.24763670,-0.60072774,0.21355279,0.59552652
0.72000000,0.27730393,0.77763565,-0.22959010,-0.47556720,0.84737066,0.40013962,0.04637232,-0.49222769,-0.80562602,0.43528032,-0.25049740,-0.59762159,0.21319682,0.60164031
0.74000000,0.27737043,0.77767520,-0.22955696,-0.47554742,0.84735248,0.40015881,0.04637425,-0.49492493,-0.80858087,0.43472721,-0.25280405,-0.59485638,0.21291508,0.60728948
0.76000000,0.27736097,0.77766779,-0.22958302,-0.47557531,0.84737051,0.40012450,0.04636595,-0.49727016,-0.81161043,0.43416940,-0.25559584,-0.59207785,0.21232221,0.61284805
0.78000000,0.27737411,0.77765797,-0.22958321,-0.47555010,0.84737263,0.40013871,0.04636497,-0.49918448,-0.81460917,0.43347873,-0.25924768,-0.58944402,0.21168821,0.61831895
0.80000000,0.27738890,0.77765944,-0.22958121,-0.47555975,0.84737137,0.40013456,0.04636427,-0.50093254,-0.81732488,0.43255467,-0.26283647,-0.58672884,0.21095547,0.62357761
0.82000000,0.27732340,0.77766198,-0.22959390,-0.47556287,0.84738887,0.40013242,0.04635578,-0.50305669,-0.81982535,0.43172405,-0.26592909,-0.58399262,0.21030014,0.62892589
0.84000000,0.27723958,0.77767349,-0.22958956,-0.47557658,0.84737440,0.40011187,0.04636553,-0.50496398,-0.82220997,0.43052376,-0.26930789,-0.58123021,0.20999938,0.63385608
0.86000000,0.27722448,0.77767349,-0.22958855,-0.47555059,0.84736812,0.40011656,0.04637209,-0.50665044,-0.82522013,0.42950219,-0.27285405,-0.57844708,0.20974058,0.63903476
0.88000000,0.27727555,0.77766723,-0.22956422,-0.47556378,0.84737427,0.40012619,0.04637079,-0.50831666,-0.82798625,0.42832911,-0.27625539,-0.57582601,0.20955017,0.64394935
0.90000000,0.27725767,0.77766119,-0.22958882,-0.47556363,0.84738465,0.40011604,0.04637481,-0.51037660,-0.83096294,0.42753981,-0.27919958,-0.57292325,0.20915653,0.64911619
0.92000000,0.27723828,0.77766957,-0.22959445,-0.47558249,0.84738402,0.40010391,0.04636507,-0.51165530,-0.83375486,0.42625639,-0.28252428,-0.57003703,0.20886532,0.65369928
0.94000000,0.27722032,0.77765243,-0.22958677,-0.47556374,0.84737485,0.40012851,0.04636040,-0.51241348,-0.83666437,0.42485705,-0.28624697,-0.56709789,0.20871423,0.65828654
0.96000000,0.27726681,0.77765846,-0.22958374,-0.47557509,0.84737289,0.40013639,0.04636803,-0.51336609,-0.83967467,0.42352193,-0.28989787,-0.56466558,0.20839599,0.66294855
0.98000000,0.27726056,0.77767643,-0.22957284,-0.47557441,0.84737048,0.40012927,0.04636023,-0.51435201,-0.84236396,0.42209330,-0.29324726,-0.56244812,0.20812282,0.66761363
1.00000000,0.27719248,0.77766453,-0.22957411,-0.47557841,0.84738191,0.40011239,0.04636527,-0.51508935,-0.84482224,0.42062336,-0.29671052,-0.56007084,0.20823984,0.67181155
1.02000000,0.27721737,0.77765196,-0.22957357,-0.47556284,0.84737898,0.40013247,0.04637323,-0.51618398,-0.84722434,0.41954011,-0.30011395,-0.55766984,0.20843837,0.67603324
1.04000000,0.27725047,0.77765956,-0.22958555,-0.47557809,0.84737390,0.40012096,0.04637045,-0.51705639,-0.84985275,0.41858732,-0.30378728,-0.55533705,0.20848024,0.68011053
1.06000000,0.27722477,0.77768167,-0.22958218,-0.47557735,0.84738674,0.40012054,0.04636715,-0.51797767,-0.85241897,0.41761357,-0.30743811,-0.55300459,0.20857458,0.68420974
1.08000000,0.27719975,0.77767169,-0.22958426,-0.47558652,0.84738909,0.40012496,0.04636270,-0.51879147,-0.85482234,0.41629400,-0.31145667,-0.55097454,0.20862944,0.68825025
1.10000000,0.27720567,0.77766161,-0.22958848,-0.47557393,0.84737937,0.40011498,0.04637236,-0.51936317,-0.85721083,0.41462147,-0.31551805,-0.54903529,0.20854837,0.69172571
1.12000000,0.27724887,0.77766085,-0.22957812,-0.47555243,0.84737565,0.40013496,0.04637334,-0.51971137,-0.85984874,0.41289069,-0.31946041,-0.54707213,0.20840473,0.69510898
1.14000000,0.27729015,0.77766842,-0.22957820,-0.47555546,0.84738102,0.40013341,0.04636679,-0.51995892,-0.86219850,0.41119285,-0.32288641,-0.54508866,0.20861373,0.69853338
1.16000000,0.27726130,0.77767025,-0.22957459,-0.47555791,0.84738288,0.40014610,0.04637022,-0.52039174,-0.86416126,0.40965762,-0.32611635,-0.54309933,0.20903264,0.70179682
1.18000000,0.27724317,0.77766364,-0.22957244,-0.47558478,0.84737440,0.40013440,0.04636260,-0.52029785,-0.86627779,0.40808392,-0.33000195,-0.54103556,0.20951229,0.70479716
1.20000000,0.27725875,0.77766166,-0.22958247,-0.47557391,0.84738536,0.40014211,0.04636469,-0.52029832,-0.86854823,0.40667026,-0.33384573,-0.53865924,0.20957122,0.70811400
1.22000000,0.27719956,0.77767983,-0.22959216,-0.47557807,0.84737135,0.40015286,0.04635389,-0.52018275,-0.87058659,0.40542650,-0.33710075,-0.53692198,0.20964712,0.71098814
1.24000000,0.27717869,0.77767218,-0.22959098,-0.47555656,0.84737752,0.40013352,0.04635811,-0.51995516,-0.87263770,0.40413775,-0.34020334,-0.53544740,0.20999274,0.71367527
1.26000000,0.27723222,0.77769094,-0.22959632,-0.47555811,0.84736889,0.40013467,0.04635818,-0.52000024,-0.87459537,0.40265289,-0.34314270,-0.53397053,0.21050220,0.71622064
1.28000000,0.27724179,0.77767378,-0.22959040,-0.47557288,0.84738652,0.40013524,0.04636700,-0.51979078,-0.87680546,0.40081226,-0.34638404,-0.53249721,0.21092382,0.71871914
1.30000000,0.27726532,0.77767795,-0.22957928,-0.47555996,0.84737967,0.40014366,0.04636700,-0.51962265,-0.87899947,0.39931210,-0.34930122,-0.53118466,0.21129770,0.72104199
1.32000000,0.27726997,0.77768076,-0.22956515,-0.47555949,0.84737577,0.40014942,0.04636091,-0.51927834,-0.88112046,0.39783707,-0.35192927,-0.52997022,0.21172866,0.72298055
1.34000000,0.27728496,0.77767642,-0.22956698,-0.47556759,0.84737193,0.40013605,0.04636102,-0.51865781,-0.88276466,0.39629869,-0.35451938,-0.52873209,0.21220410,0.72499670
1.36000000,0.27731383,0.77769006,-0.22957135,-0.47555626,0.84737012,0.40013765,0.04636183,-0.51789950,-0.88421801,0.39507603,-0.35741862,-0.52745913,0.21265184,0.72679928
1.38000000,0.27728484,0.77769669,-0.22957919,-0.47556917,0.84737706,0.40012316,0.04636554,-0.51710548,-0.88539989,0.39419295,-0.36019440,-0.52627255,0.21306454,0.72841131
1.40000000,0.27725695,0.77769383,-0.22958169,-0.47555477,0.84737116,0.40012845,0.04636320,-0.51597259,-0.88665749,0.39309858,-0.36310715,-0.52519579,0.21347724,0.72996485
1.42000000,0.27725695,0.77767577,-0.22958129,-0.47556054,0.84738447,0.40014272,0.04636953,-0.51512023,-0.88816939,0.39195274,-0.36557072,-0.52412891,0.21384804,0.73159869
1.44000000,0.27725795,0.77768196,-0.22959497,-0.47557023,0.84738760,0.40013050,0.04635500,-0.51442593,-0.88997519,0.39078443,-0.36755614,-0.52310975,0.21425309,0.73296517
1.46000000,0.27726867,0.77768115,-0.22958677,-0.47557137,0.84738263,0.40012332,0.04636629,-0.51358241,-0.89165528,0.38920238,-0.36925502,-0.52215279,0.21475926,0.73424234
1.48000000,0.27727899,0.77767770,-0.22958272,-0.47556685,0.84737610,0.40014258,0.04637332,-0.51293016,-0.89304653,0.38787067,-0.37101280,-0.52141904,0.21534704,0.73532451
1.50000000,0.27728474,0.77767848,-0.22958613,-0.47556212,0.84737926,0.40013207,0.04635092,-0.51242013,-0.89419736,0.38657502,-0.37294734,-0.52061250,0.21586320,0.73636657
1.52000000,0.27729334,0.77768779,-0.22957886,-0.47555864,0.84738580,0.40013826,0.04636845,-0.51188933,-0.89525296,0.38547542,-0.37508770,-0.51987932,0.21633949,0.73724469
1.54000000,0.27727226,0.77767770,-0.22958186,-0.47555864,0.84737808,0.40012815,0.04636670,-0.51128180,-0.89637915,0.38450197,-0.37719230,-0.51901102,0.21672325,0.73806324
1.56000000,0.27725280,0.77767770,-0.22959757,-0.47556333,0.84737440,0.40012564,0.04636160,-0.51082548,-0.89721239,0.38358504,-0.37887181,-0.51808116,0.21696477,0.73878497
1.58000000,0.27726630,0.77767393,-0.22959708,-0.47556523,0.84737416,0.40012730,0.04637090,-0.51033496,-0.89806733,0.38285927,-0.38051784,-0.51754941,0.21731205,0.73931741
1.60000000,0.27726891,0.77768646,-0.22957295,-0.47556523,0.84737383,0.40013463,0.04635681,-0.50984659,-0.89885744,0.38227307,-0.38169528,-0.51702856,0.21758294,0.73985079
1.62000000,0.27726370,0.77768291,-0.22957631,-0.47556066,0.84738557,0.40013505,0.04636835,-0.50937907,-0.89953722,0.38187057,-0.38266791,-0.51663215,0.21791380,0.74037148
1.64000000,0.27726776,0.77767770,-0.22959012,-0.47555863,0.84737852,0.40012327,0.04636786,-0.50886959,-0.89999981,0.38139495,-0.38350121,-0.51630463,0.21820591,0.74087712
1.66000000,0.27727314,0.77767357,-0.22959305,-0.47555776,0.84736902,0.40013473,0.04636043,-0.50830251,-0.90037481,0.38091217,-0.38436699,-0.51596972,0.21840378,0.74117732
1.68000000,0.27726421,0.77768111,-0.22958474,-0.47556966,0.84738418,0.40013565,0.04635593,-0.50771931,-0.90071745,0.38046027,-0.38520183,-0.51553558,0.21861768,0.74147448
1.70000000,0.27726439,0.77768434,-0.22957348,-0.47556740,0.84737668,0.40013646,0.04636796,-0.50732796,-0.90096718,0.38003190,-0.38594091,-0.51525142,0.21877392,0.74179081
1.72000000,0.27727094,0.77768033,-0.22959065,-0.47556523,0.84737352,0.40014405,0.04636276,-0.50698160,-0.90126474,0.37964957,-0.38667165,-0.51502465,0.21891062,0.74211681
1.74000000,0.27726881,0.77768519,-0.22958710,-0.47556523,0.84737560,0.40013772,0.04636475,-0.50679749,-0.90158206,0.37935561,-0.38722699,-0.51485370,0.21904309,0.74238651
1.76000000,0.27726566,0.77766745,-0.22959289,-0.47557045,0.84737128,0.40014365,0.04636700,-0.50665542,-0.90189281,0.37908234,-0.38762493,-0.51470847,0.21916896,0.74261360
1.78000000,0.27726435,0.77768665,-0.22959098,-0.47556976,0.84737328,0.40012855,0.04636272,-0.50657438,-0.90216186,0.37885174,-0.38784549,-0.51462425,0.21922311,0.74274006
1.80000000,0.27726847,0.77767644,-0.22958500,-0.47555822,0.84737560,0.40014315,0.04635017,-0.50657128,-0.90240544,0.37861786,-0.38791484,-0.51458631,0.21927748,0.74285825
1.82000000,0.27727228,0.77767674,-0.22960115,-0.47555832,0.84737560,0.40013385,0.04637415,-0.50661296,-0.90255246,0.37839678,-0.38777666,-0.51452295,0.21930911,0.74292103
1.84000000,0.27727525,0.77768088,-0.22959584,-0.47556280,0.84738066,0.40014154,0.04636263,-0.50667482,-0.90263154,0.37822307,-0.38755466,-0.51446942,0.21929685,0.74299180
1.86000000,0.27727316,0.77768433,-0.22958509,-0.47556110,0.84737511,0.40013137,0.04635746,-0.50676438,-0.90267571,0.37809515,-0.38729152,-0.51443745,0.21924200,0.74299968
1.88000000,0.27727316,0.77767750,-0.22958267,-0.47556274,0.84738175,0.40013602,0.04635996,-0.50690319,-0.90270371,0.37807188,-0.38695479,-0.51443017,0.21919375,0.74300150
1.90000000,0.27727316,0.77768566,-0.22958422,-0.47556118,0.84739197,0.40013440,0.04635957,-0.50709239,-0.90269539,0.37812044,-0.38651348,-0.51440945,0.21907286,0.74294508
1.92000000,0.27727316,0.77767880,-0.22959162,-0.47556263,0.84737531,0.40012556,0.04636160,-0.50729989,-0.90268000,0.37823910,-0.38604103,-0.51443104,0.21892539,0.74289700
1.94000000,0.27727709,0.77767892,-0.22958341,-0.47556612,0.84736900,0.40013205,0.04636553,-0.50760849,-0.90263918,0.37841226,-0.38539582,-0.51442715,0.21874367,0.74279976
1.96000000,0.27728064,0.77767585,-0.22958017,-0.47556316,0.84737768,0.40013711,0.04636429,-0.50804785,-0.90254768,0.37863491,-0.38453201,-0.51444438,0.21854277,0.74262933
1.98000000,0.27726138,0.77768364,-0.22958017,-0.47556050,0.84737715,0.40013981,0.04637019,-0.50851883,-0.90236460,0.37883279,-0.38350434,-0.51449285,0.21834597,0.74241773
2.00000000,0.27726597,0.77768246,-0.22958017,-0.47556449,0.84736594,0.40013895,0.04636133,-0.50910546,-0.90213027,0.37909483,-0.38241844,-0.51457403,0.21816313,0.74217243
2.02000000,0.27727521,0.77767668,-0.22958017,-0.47555688,0.84736989,0.40014100,0.04636249,-0.50976491,-0.90178371,0.37941754,-0.38134015,-0.51465927,0.21797148,0.74190328
2.04000000,0.27726579,0.77767770,-0.22958386,-0.47556146,0.84737191,0.40012455,0.04636082,-0.51042518,-0.90130773,0.37971506,-0.38025823,-0.51478001,0.21768680,0.74159586
2.06000000,0.27726725,0.77768218,-0.22958396,-0.47556607,0.84736452,0.40013241,0.04635864,-0.51112657,-0.90073820,0.38003054,-0.37913599,-0.51491957,0.21735892,0.74123086
2.08000000,0.27726152,0.77768752,-0.22958178,-0.47556323,0.84736801,0.40013498,0.04636520,-0.51185674,-0.90017162,0.38034224,-0.37795078,-0.51502994,0.21699849,0.74083411
2.10000000,0.27726249,0.77767650,-0.22959633,-0.47555730,0.84737337,0.40013419,0.04636463,-0.51258586,-0.89967127,0.38066690,-0.37666814,-0.51518931,0.21659618,0.74042995
2.12000000,0.27727004,0.77767600,-0.22958770,-0.47556626,0.84737006,0.40013149,0.04636680,-0.51331603,-0.89913194,0.38104398,-0.37524554,-0.51534075,0.21620383,0.73997271
2.14000000,0.27726974,0.77767588,-0.22958468,-0.47556423,0.84736810,0.40014602,0.04636491,-0.51398621,-0.89852769,0.38145060,-0.37361171,-0.51549418,0.21580651,0.73948447
2.16000000,0.27727334,0.77768627,-0.22958857,-0.47556185,0.84737019,0.40013793,0.04637467,-0.51464352,-0.89779803,0.38190875,-0.37175612,-0.51566723,0.21538932,0.73896474
2.18000000,0.27727640,0.77768760,-0.22957586,-0.47555773,0.84737110,0.40014100,0.04637139,-0.51531084,-0.89689855,0.38242606,-0.36977701,-0.51583899,0.21498215,0.73842787
2.20000000,0.27727648,0.77768218,-0.22958861,-0.47556490,0.84736568,0.40014100,0.04637032,-0.51605933,-0.89580226,0.38310335,-0.36751389,-0.51600011,0.21452303,0.73782395
2.22000000,0.27727975,0.77768300,-0.22959757,-0.47555989,0.84736154,0.40013442,0.04636286,-0.51694126,-0.89465783,0.38396305,-0.36511321,-0.51618739,0.21391504,0.73708346
2.24000000,0.27726998,0.77768045,-0.22959344,-0.47555038,0.84736773,0.40013194,0.04636564,-0.51780520,-0.89364441,0.38483507,-0.36273422,-0.51644544,0.21325072,0.73619733
2.26000000,0.27725911,0.77768629,-0.22958808,-0.47554869,0.84737223,0.40014375,0.04636306,-0.51861246,-0.89270164,0.38558259,-0.36023363,-0.51672695,0.21260522,0.73521331
2.28000000,0.27726832,0.77768246,-0.22958761,-0.47554980,0.84737560,0.40014865,0.04635816,-0.51944598,-0.89169759,0.38615244,-0.35770770,-0.51706125,0.21209586,0.73412182
2.30000000,0.27727907,0.77768529,-0.22958866,-0.47555323,0.84737338,0.40014038,0.04636160,-0.52037322,-0.89051262,0.38673889,-0.35522640,-0.51748721,0.21166015,0.73283843
2.32000000,0.27727995,0.77767787,-0.22959304,-0.47556020,0.84736389,0.40013795,0.04635855,-0.52131208,-0.88929303,0.38743557,-0.35282516,-0.51788692,0.21106038,0.73153623
2.34000000,0.27726712,0.77767831,-0.22959098,-0.47556221,0.84737709,0.40014305,0.04635802,-0.52213927,-0.88791089,0.38817759,-0.35018835,-0.51831858,0.21032187,0.73020334
2.36000000,0.27726382,0.77768545,-0.22958029,-0.47555864,0.84737750,0.40014226,0.04635862,-0.52302681,-0.88627767,0.38892837,-0.34700269,-0.51877554,0.20964125,0.72887466
2.38000000,0.27726154,0.77769299,-0.22958327,-0.47555277,0.84736178,0.40013581,0.04636559,-0.52398271,-0.88450501,0.38959288,-0.34353257,-0.51927481,0.20912476,0.72757674
2.40000000,0.27727132,0.77768091,-0.22959597,-0.47554834,0.84735501,0.40013950,0.04636190,-0.52506366,-0.88269470,0.39035900,-0.33999392,-0.51984712,0.20861449,0.72619987
2.42000000,0.27728317,0.77767885,-0.22958717,-0.47555204,0.84736240,0.40014263,0.04636164,-0.52621140,-0.88111557,0.39127600,-0.33664690,-0.52042948,0.20800216,0.72471055
2.44000000,0.27727126,0.77767706,-0.22958017,-0.47555204,0.84736332,0.40013909,0.04636325,-0.52730791,-0.87957685,0.39204155,-0.33358056,-0.52101934,0.20736986,0.72304724
2.46000000,0.27725997,0.77767706,-0.22959321,-0.47555484,0.84735657,0.40012669,0.04635880,-0.52837819,-0.87806349,0.39278515,-0.33044381,-0.52168969,0.20657383,0.72108613
2.48000000,0.27725627,0.77767960,-0.22959401,-0.47555033,0.84735700,0.40012028,0.04635963,-0.52941256,-0.87671625,0.39369928,-0.32697728,-0.52240846,0.20563593,0.71907729
2.50000000,0.27725277,0.77768310,-0.22958864,-0.47554065,0.84736435,0.40013249,0.04635460,-0.53061794,-0.87517993,0.39472626,-0.32291330,-0.52321217,0.20484623,0.71713444
2.52000000,0.27726818,0.77768310,-0.22958344,-0.47554488,0.84736416,0.40013886,0.04635865,-0.53188415,-0.87330823,0.39568828,-0.31851230,-0.52406460,0.20422967,0.71510177
2.54000000,0.27730891,0.77768065,-0.22959187,-0.47554420,0.84735878,0.40013203,0.04636040,-0.53321570,-0.87130234,0.39665735,-0.31428669,-0.52502925,0.20358651,0.71287270
2.56000000,0.27730753,0.77767850,-0.22958773,-0.47554318,0.84736060,0.40013390,0.04635680,-0.53462608,-0.86921706,0.39764025,-0.31040996,-0.52605287,0.20276425,0.71065022
2.58000000,0.27728447,0.77768171,-0.22957759,-0.47553703,0.84737215,0.40014601,0.04635600,-0.53602475,-0.86702544,0.39867563,-0.30666407,-0.52712901,0.20173395,0.70826968
2.60000000,0.27726507,0.77767894,-0.22957864,-0.47554645,0.84737521,0.40013118,0.04635634,-0.53709097,-0.86494011,0.39974878,-0.30281877,-0.52812720,0.20062951,0.70582108
2.62000000,0.27725410,0.77767578,-0.22958644,-0.47555122,0.84737527,0.40012863,0.04635933,-0.53797134,-0.86265571,0.40083298,-0.29837053,-0.52914219,0.19959917,0.70331852
2.64000000,0.27726831,0.77767898,-0.22958267,-0.47553533,0.84736446,0.40013856,0.04635915,-0.53871643,-0.86008086,0.40188128,-0.29359067,-0.53028782,0.19885002,0.70080562
2.66000000,0.27730174,0.77767577,-0.22958639,-0.47553694,0.84736900,0.40013308,0.04635850,-0.53916396,-0.85757713,0.40302814,-0.28903856,-0.53154109,0.19819211,0.69818912
2.68000000,0.27731920,0.77767552,-0.22958439,-0.47553647,0.84736772,0.40013027,0.04635583,-0.53964346,-0.85508200,0.40440991,-0.28458640,-0.53276179,0.19736273,0.69543084
2.70000000,0.27727119,0.77767380,-0.22958251,-0.47553817,0.84736935,0.40014791,0.04635965,-0.54049352,-0.85285854,0.40609606,-0.27994669,-0.53382418,0.19634901,0.69254813
2.72000000,0.27724909,0.77767558,-0.22958440,-0.47554400,0.84737637,0.40014145,0.04635698,-0.54132076,-0.85096862,0.40772381,-0.27513921,-0.53491817,0.19520373,0.68962537
2.74000000,0.27724905,0.77767505,-0.22957011,-0.47553252,0.84737101,0.40013005,0.04635296,-0.54213669,-0.84874297,0.40897789,-0.27027091,-0.53611311,0.19426307,0.68660155
2.76000000,0.27725339,0.77767576,-0.22958248,-0.47553660,0.84737012,0.40013426,0.04636384,-0.54297196,-0.84627407,0.41005776,-0.26548276,-0.53730606,0.19348325,0.68326295
2.78000000,0.27728653,0.77767990,-0.22958131,-0.47553225,0.84737221,0.40012782,0.04636379,-0.54381745,-0.84365232,0.41117901,-0.26062875,-0.53848272,0.19254448,0.67983217
2.80000000,0.27728845,0.77768354,-0.22957991,-0.47553531,0.84737437,0.40014670,0.04635288,-0.54458745,-0.84095152,0.41238203,-0.25564926,-0.53982187,0.19141153,0.67660961
2.82000000,0.27723764,0.77768035,-0.22959663,-0.47555322,0.84737060,0.40013415,0.04635046,-0.54543109,-0.83840456,0.41368245,-0.25031271,-0.54133336,0.19012489,0.67333524
2.84000000,0.27724800,0.77767453,-0.22958510,-0.47554812,0.84736728,0.40013714,0.04635905,-0.54594816,-0.83580886,0.41483259,-0.24522189,-0.54287621,0.18927591,0.66994483
2.86000000,0.27731873,0.77767047,-0.22956511,-0.47552902,0.84737577,0.40015176,0.04636421,-0.54637246,-0.83296891,0.41598576,-0.24009490,-0.54445587,0.18855132,0.66634088
2.88000000,0.27732360,0.77766625,-0.22958262,-0.47553914,0.84736705,0.40014316,0.04635500,-0.54678507,-0.82978073,0.41736724,-0.23468048,-0.54595110,0.18768580,0.66274236
2.90000000,0.27727396,0.77766944,-0.22958017,-0.47555296,0.84736170,0.40012500,0.04635311,-0.54713445,-0.82693334,0.41895520,-0.22941086,-0.54741448,0.18664298,0.65913545
2.92000000,0.27724553,0.77767331,-0.22957476,-0.47554918,0.84737908,0.40012543,0.04635201,-0.54748682,-0.82416908,0.42047007,-0.22390912,-0.54891375,0.18552555,0.65533238
2.94000000,0.27723143,0.77767944,-0.22956667,-0.47552945,0.84737926,0.40013841,0.04636334,-0.54761138,-0.82148132,0.42155626,-0.21880587,-0.55031179,0.18455569,0.65136782
2.96000000,0.27729104,0.77768102,-0.22956666,-0.47554259,0.84736987,0.40014382,0.04636960,-0.54798332,-0.81843172,0.42274017,-0.21316044,-0.55191588,0.18357370,0.64748621
2.98000000,0.27728636,0.77767475,-0.22956698,-0.47554249,0.84736852,0.40013409,0.04636365,-0.54865761,-0.81498884,0.42406880,-0.20745135,-0.55389634,0.18266740,0.64355496
3.00000000,0.27729954,0.77767404,-0.22957312,-0.47552641,0.84735890,0.40013766,0.04635237,-0.54920734,-0.81188853,0.42548273,-0.20206412,-0.55594554,0.18151477,0.63953233
3.02000000,0.27728606,0.77767889,-0.22957164,-0.47552604,0.84735160,0.40014760,0.04635656,-0.54945972,-0.80884866,0.42695877,-0.19668392,-0.55803304,0.18036300,0.63505600
3.04000000,0.27726546,0.77768192,-0.22956210,-0.47553196,0.84735610,0.40014167,0.04636314,-0.54974713,-0.80568676,0.42878239,-0.19109302,-0.56015921,0.17936818,0.63067721
3.06000000,0.27721649,0.77767863,-0.22958456,-0.47553241,0.84737076,0.40012860,0.04636019,-0.55015596,-0.80222818,0.43062988,-0.18516340,-0.56209492,0.17833598,0.62631262
3.08000000,0.27716768,0.77767032,-0.22958513,-0.47555349,0.84738582,0.40013131,0.04636412,-0.55037956,-0.79914200,0.43204269,-0.17968200,-0.56365590,0.17725537,0.62202327
3.10000000,0.27722543,0.77768758,-0.22957158,-0.47554119,0.84738538,0.40012676,0.04635526,-0.55016389,-0.79640751,0.43310100,-0.17454008,-0.56520245,0.17628240,0.61782109
3.12000000,0.27727278,0.77767912,-0.22957353,-0.47553520,0.84736738,0.40013922,0.04636950,-0.55000799,-0.79373112,0.43429174,-0.16897593,-0.56704126,0.17523555,0.61346174
3.14000000,0.27727298,0.77766726,-0.22957967,-0.47552754,0.84735921,0.40015121,0.04635979,-0.55032574,-0.79075661,0.43553714,-0.16291587,-0.56924582,0.17428628,0.60880828
3.16000000,0.27725519,0.77767045,-0.22957704,-0.47552804,0.84736601,0.40014312,0.04636254,-0.55047448,-0.78769525,0.43659036,-0.15730934,-0.57153793,0.17345738,0.60412540
3.18000000,0.27729675,0.77767921,-0.22956239,-0.47552890,0.84735254,0.40013317,0.04635041,-0.55023804,-0.78452025,0.43774735,-0.15214229,-0.57380775,0.17239578,0.59928740
3.20000000,0.27731652,0.77768532,-0.22957923,-0.47552591,0.84737252,0.40014923,0.04635971,-0.54992251,-0.78107082,0.43916275,-0.14678618,-0.57593550,0.17136224,0.59461981
3.22000000,0.27720744,0.77767228,-0.22958248,-0.47555340,0.84736022,0.40012101,0.04635022,-0.54974352,-0.77738802,0.44054237,-0.14095234,-0.57790864,0.17026982,0.58973393
3.24000000,0.27716814,0.77767153,-0.22958752,-0.47553082,0.84736816,0.40011581,0.04636354,-0.54953242,-0.77384145,0.44215033,-0.13569934,-0.58003710,0.16933444,0.58500712
3.26000000,0.27718848,0.77766689,-0.22958299,-0.47553551,0.84736310,0.40012341,0.04635489,-0.54897240,-0.77079960,0.44339755,-0.13051230,-0.58225687,0.16832715,0.58032491
3.28000000,0.27721558,0.77767504,-0.22957238,-0.47552916,0.84737055,0.40013973,0.04635234,-0.54824610,-0.76762809,0.44474976,-0.12498851,-0.58456438,0.16747967,0.57541670
3.30000000,0.27720398,0.77767551,-0.22958167,-0.47554625,0.84736235,0.40012512,0.04635553,-0.54749558,-0.76469802,0.44585429,-0.11912994,-0.58668297,0.16674970,0.57031939
3.32000000,0.27725003,0.77767889,-0.22957898,-0.47552804,0.84734052,0.40012868,0.04636116,-0.54658611,-0.76187111,0.44713990,-0.11367469,-0.58856290,0.16602137,0.56513816
3.34000000,0.27725420,0.77768156,-0.22958164,-0.47553409,0.84736269,0.40014064,0.04635500,-0.54545274,-0.75913163,0.44855820,-0.10861059,-0.59071478,0.16505285,0.55982540
3.36000000,0.27728537,0.77767575,-0.22958438,-0.47555139,0.84736815,0.40012946,0.04635500,-0.54440568,-0.75568958,0.45013090,-0.10293057,-0.59351120,0.16409448,0.55445568
3.38000000,0.27728223,0.77764556,-0.22958468,-0.47553565,0.84734351,0.40013541,0.04635500,-0.54284076,-0.75231979,0.45166180,-0.09747733,-0.59644812,0.16348646,0.54869091
3.40000000,0.27730887,0.77766173,-0.22958558,-0.47552119,0.84734261,0.40014546,0.04635758,-0.54153162,-0.74915598,0.45310240,-0.09255505,-0.59903168,0.16250474,0.54253837
3.42000000,0.27723565,0.77766974,-0.22957378,-0.47554213,0.84734735,0.40013202,0.04635825,-0.54041198,-0.74631522,0.45436507,-0.08786572,-0.60147992,0.16161037,0.53669013
3.44000000,0.27715299,0.77767485,-0.22958481,-0.47556012,0.84735704,0.40012486,0.04636819,-0.53912877,-0.74359682,0.45542450,-0.08302544,-0.60388743,0.16057657,0.53107642
3.46000000,0.27718706,0.77769523,-0.22957134,-0.47553770,0.84738212,0.40013304,0.04636805,-0.53754124,-0.74051839,0.45637771,-0.07834789,-0.60638178,0.15978720,0.52536584
3.48000000,0.27716538,0.77767181,-0.22957950,-0.47554533,0.84737307,0.40013093,0.04635500,-0.53612018,-0.73756621,0.45743816,-0.07295751,-0.60879001,0.15915793,0.51977394
3.50000000,0.27723270,0.77768184,-0.22958916,-0.47552342,0.84733317,0.40012423,0.04635743,-0.53501899,-0.73457457,0.45850364,-0.06823863,-0.61097590,0.15852513,0.51413486
3.52000000,0.27725489,0.77767235,-0.22958149,-0.47552744,0.84737114,0.40013844,0.04635559,-0.53382276,-0.73175014,0.45949807,-0.06413729,-0.61312492,0.15773826,0.50850267
3.54000000,0.27720616,0.77767230,-0.22958201,-0.47554327,0.84736965,0.40012501,0.04636321,-0.53290490,-0.72892936,0.46056746,-0.05956120,-0.61536036,0.15698281,0.50324017
3.56000000,0.27722936,0.77766931,-0.22956614,-0.47553209,0.84736423,0.40014236,0.04635722,-0.53184175,-0.72584873,0.46159826,-0.05469616,-0.61767383,0.15639563,0.49785149
3.58000000,0.27717972,0.77765960,-0.22957610,-0.47555196,0.84736622,0.40012016,0.04634915,-0.53073195,-0.72290257,0.46256681,-0.04970869,-0.61998440,0.15602682,0.49264153
3.60000000,0.27720262,0.77766954,-0.22958436,-0.47556134,0.84735929,0.40011457,0.04635150,-0.52871708,-0.72019865,0.46354389,-0.04583791,-0.62258800,0.15562426,0.48703691
3.62000000,0.27723484,0.77767053,-0.22957871,-0.47553623,0.84735014,0.40014232,0.04635500,-0.52676162,-0.71754953,0.46456514,-0.04182308,-0.62540373,0.15491843,0.48119199
3.64000000,0.27719329,0.77766909,-0.22958998,-0.47555242,0.84735920,0.40012271,0.04637159,-0.52497015,-0.71517976,0.46563589,-0.03800274,-0.62801170,0.15407900,0.47577882
3.66000000,0.27726488,0.77767398,-0.22958497,-0.47552656,0.84735700,0.40014524,0.04637299,-0.52314706,-0.71273666,0.46669530,-0.03392693,-0.63037845,0.15339058,0.47070965
3.68000000,0.27726443,0.77767666,-0.22958438,-0.47553282,0.84736931,0.40014548,0.04637626,-0.52170735,-0.70996691,0.46761292,-0.02937681,-0.63261475,0.15282652,0.46542196
3.70000000,0.27722251,0.77766489,-0.22957845,-0.47554711,0.84737566,0.40012259,0.04637152,-0.51983624,-0.70711627,0.46844525,-0.02542299,-0.63495451,0.15251508,0.45978095
3.72000000,0.27725626,0.77767147,-0.22958166,-0.47553099,0.84736716,0.40013824,0.04635841,-0.51787996,-0.70437705,0.46926343,-0.02192417,-0.63732796,0.15215627,0.45422681
3.74000000,0.27726436,0.77766268,-0.22956525,-0.47555039,0.84737514,0.40013414,0.04635645,-0.51574242,-0.70154043,0.46994606,-0.01832422,-0.63966280,0.15173503,0.44909653
3.76000000,0.27723167,0.77766066,-0.22957792,-0.47555988,0.84736326,0.40012931,0.04635927,-0.51339162,-0.69916583,0.47103422,-0.01471977,-0.64211722,0.15145804,0.44385435
3.78000000,0.27723477,0.77767449,-0.22957445,-0.47555864,0.84736227,0.40012781,0.04634412,-0.51115229,-0.69727219,0.47211839,-0.01115154,-0.64480441,0.15081981,0.43830064
3.80000000,0.27723855,0.77768258,-0.22957726,-0.47555679,0.84737019,0.40013907,0.04635566,-0.50889636,-0.69538994,0.47301097,-0.00766075,-0.64733956,0.15024348,0.43274672
3.82000000,0.27725109,0.77768606,-0.22958438,-0.47554583,0.84736642,0.40013164,0.04636059,-0.50655615,-0.69331454,0.47377818,-0.00416201,-0.64974827,0.14992936,0.42757240
3.84000000,0.27728729,0.77767710,-0.22958081,-0.47553568,0.84736166,0.40014789,0.04636894,-0.50408881,-0.69112196,0.47446089,-0.00096133,-0.65191167,0.14974492,0.42242068
3.86000000,0.27729362,0.77766972,-0.22957708,-0.47553639,0.84736427,0.40014643,0.04636080,-0.50151733,-0.68894595,0.47518734,0.00201828,-0.65414635,0.14954622,0.41723959
3.88000000,0.27727144,0.77767605,-0.22958814,-0.47554380,0.84737073,0.40013410,0.04636049,-0.49868114,-0.68660185,0.47577230,0.00489593,-0.65650068,0.14933289,0.41179969
3.90000000,0.27728489,0.77766974,-0.22957842,-0.47555009,0.84737986,0.40014607,0.04637421,-0.49596984,-0.68413004,0.47630326,0.00791562,-0.65880841,0.14918775,0.40660013
3.92000000,0.27727580,0.77767604,-0.22958068,-0.47556238,0.84739017,0.40013102,0.04636224,-0.49338857,-0.68196240,0.47698681,0.01081200,-0.66108221,0.14894131,0.40156923
3.94000000,0.27726806,0.77767349,-0.22958021,-0.47554206,0.84737639,0.40012905,0.04635500,-0.49074998,-0.67997132,0.47765668,0.01348533,-0.66336895,0.14860962,0.39654182
3.96000000,0.27726836,0.77767430,-0.22958062,-0.47555015,0.84736289,0.40014603,0.04636357,-0.48795733,-0.67813626,0.47822119,0.01599474,-0.66608448,0.14813584,0.39133680
3.98000000,0.27729229,0.77766359,-0.22958802,-0.47555555,0.84738356,0.40013981,0.04637442,-0.48479755,-0.67645035,0.47865897,0.01828377,-0.66853497,0.14778490,0.38611288
4.00000000,0.27730320,0.77766829,-0.22957358,-0.47554462,0.84737719,0.40013822,0.04636458,-0.48163209,-0.67476249,0.47903206,0.02037745,-0.67079543,0.14765040,0.38078149
4.02000000,0.27729430,0.77767206,-0.22957215,-0.47554928,0.84737440,0.40013800,0.04636857,-0.47860480,-0.67296136,0.47943553,0.02244047,-0.67272500,0.14756295,0.37589528
4.04000000,0.27728784,0.77767040,-0.22957667,-0.47555571,0.84737645,0.40013714,0.04636727,-0.47569174,-0.67112899,0.47993307,0.02448642,-0.67511528,0.14744952,0.37116850
4.06000000,0.27730310,0.77765910,-0.22959459,-0.47555201,0.84737835,0.40013232,0.04637601,-0.47261075,-0.66920586,0.48043877,0.02639619,-0.67760061,0.14744213,0.36645410
4.08000000,0.27728939,0.77766806,-0.22959100,-0.47554513,0.84737952,0.40013978,0.04637092,-0.46935580,-0.66741648,0.48082845,0.02817953,-0.67995566,0.14747851,0.36150010
4.10000000,0.27728306,0.77767349,-0.22957554,-0.47554065,0.84736813,0.40014727,0.04635806,-0.46633920,-0.66578834,0.48116051,0.02993276,-0.68209767,0.14759877,0.35665489
4.12000000,0.27727703,0.77767203,-0.22957736,-0.47554939,0.84737440,0.40014598,0.04636186,-0.46342690,-0.66401892,0.48147303,0.03178227,-0.68432818,0.14780308,0.35191824
4.14000000,0.27729074,0.77766952,-0.22958742,-0.47555039,0.84737791,0.40014266,0.04636581,-0.46026509,-0.66237683,0.48176437,0.03345079,-0.68662095,0.14800675,0.34723097
4.16000000,0.27730593,0.77767207,-0.22957346,-0.47555978,0.84737069,0.40013609,0.04637072,-0.45729707,-0.66098011,0.48211284,0.03502131,-0.68877765,0.14815404,0.34255484
4.18000000,0.27729440,0.77766600,-0.22956959,-0.47555691,0.84736900,0.40013093,0.04637728,-0.45417903,-0.65973205,0.48241098,0.03651984,-0.69074572,0.14821131,0.33770844
4.20000000,0.27729774,0.77766955,-0.22956779,-0.47555303,0.84737521,0.40014080,0.04637279,-0.45089214,-0.65842608,0.48267918,0.03787829,-0.69276477,0.14823908,0.33298089
4.22000000,0.27730277,0.77766630,-0.22957357,-0.47556497,0.84737831,0.40014658,0.04636834,-0.44758697,-0.65710754,0.48289938,0.03894749,-0.69497510,0.14832136,0.32819651
4.24000000,0.27733072,0.77766940,-0.22957836,-0.47555732,0.84737019,0.40014182,0.04637718,-0.44431195,-0.65603798,0.48315126,0.03991267,-0.69704833,0.14843573,0.32383005
4.26000000,0.27730718,0.77767219,-0.22957542,-0.47555369,0.84736674,0.40014576,0.04637295,-0.44089329,-0.65494942,0.48334799,0.04081715,-0.69915665,0.14857124,0.31936129
4.28000000,0.27727948,0.77766936,-0.22957102,-0.47557297,0.84737028,0.40013853,0.04637044,-0.43741326,-0.65395128,0.48350088,0.04155175,-0.70113110,0.14868555,0.31466938
4.30000000,0.27730096,0.77767349,-0.22957339,-0.47556891,0.84737440,0.40013565,0.04636944,-0.43358458,-0.65291735,0.48360757,0.04221057,-0.70343420,0.14879925,0.31052638
4.32000000,0.27731856,0.77767349,-0.22957205,-0.47555820,0.84736852,0.40014323,0.04637483,-0.43032788,-0.65188370,0.48368831,0.04276430,-0.70533260,0.14897402,0.30657478
4.34000000,0.27734139,0.77767349,-0.22956938,-0.47555263,0.84737165,0.40014100,0.04636976,-0.42665576,-0.65055496,0.48382980,0.04331100,-0.70758652,0.14927779,0.30215356
4.36000000,0.27734528,0.77767230,-0.22958054,-0.47554598,0.84737678,0.40013403,0.04637159,-0.42350011,-0.64936963,0.48395941,0.04375537,-0.70907242,0.14954680,0.29815757
4.38000000,0.27731510,0.77767041,-0.22958293,-0.47556474,0.84737528,0.40012360,0.04636636,-0.41991468,-0.64851293,0.48404845,0.04414918,-0.71080793,0.14977622,0.29399201
4.40000000,0.27730797,0.77767022,-0.22957269,-0.47556304,0.84737465,0.40012698,0.04636285,-0.41625334,-0.64764268,0.48412944,0.04454090,-0.71274853,0.15010790,0.28989173
4.42000000,0.27731012,0.77766705,-0.22957138,-0.47555525,0.84737879,0.40014878,0.04635913,-0.41298495,-0.64670369,0.48419716,0.04496892,-0.71458778,0.15048054,0.28606164
4.44000000,0.27734132,0.77766162,-0.22957803,-0.47556082,0.84736682,0.40014746,0.04636258,-0.40962960,-0.64567658,0.48426033,0.04538467,-0.71662107,0.15079816,0.28216999
4.46000000,0.27733168,0.77766702,-0.22958017,-0.47555970,0.84737007,0.40013658,0.04636589,-0.40632548,-0.64472787,0.48433454,0.04575505,-0.71836796,0.15105432,0.27807325
4.48000000,0.27731438,0.77765634,-0.22957577,-0.47556404,0.84737440,0.40013672,0.04637136,-0.40267312,-0.64389314,0.48438049,0.04596445,-0.72042998,0.15127765,0.27397881
4.50000000,0.27731627,0.77766384,-0.22957591,-0.47555632,0.84737979,0.40013761,0.04637137,-0.39930195,-0.64320053,0.48440242,0.04617082,-0.72231486,0.15151888,0.27027417
4.52000000,0.27733398,0.77766681,-0.22957132,-0.47555527,0.84738207,0.40014474,0.04636590,-0.39619530,-0.64262356,0.48440589,0.04635393,-0.72412127,0.15175497,0.26675278
4.54000000,0.27732648,0.77767010,-0.22958446,-0.47555332,0.84737890,0.40012752,0.04636490,-0.39302698,-0.64191420,0.48439626,0.04653441,-0.72589158,0.15200338,0.26311550
4.56000000,0.27732109,0.77767566,-0.22957400,-0.47555178,0.84737777,0.40014100,0.04636040,-0.38994478,-0.64106582,0.48441588,0.04673728,-0.72727160,0.15222995,0.25933496
4.58000000,0.27731149,0.77767349,-0.22957629,-0.47555106,0.84737483,0.40013678,0.04636463,-0.38665617,-0.64031447,0.48443271,0.04689718,-0.72898174,0.15236916,0.25579995
4.60000000,0.27731545,0.77767349,-0.22958139,-0.47555001,0.84738391,0.40013356,0.04636784,-0.38322414,-0.63976140,0.48441192,0.04709859,-0.73076448,0.15256023,0.25203104
4.62000000,0.27730690,0.77767431,-0.22957816,-0.47554960,0.84737529,0.40012567,0.04637240,-0.38024832,-0.63941864,0.48439844,0.04733372,-0.73238937,0.15281116,0.24876351
4.64000000,0.27731358,0.77767889,-0.22957849,-0.47554873,0.84737068,0.40013604,0.04637240,-0.37740499,-0.63902533,0.48440679,0.04765072,-0.73389090,0.15311793,0.24542075
4.66000000,0.27732173,0.77767889,-0.22958071,-0.47555163,0.84735951,0.40014509,0.04637240,-0.37463938,-0.63848679,0.48441099,0.04788463,-0.73540987,0.15339609,0.24205118
4.68000000,0.27731909,0.77767407,-0.22957357,-0.47556436,0.84736258,0.40013467,0.04637164,-0.37183416,-0.63775512,0.48437147,0.04801386,-0.73708281,0.15363898,0.23867701
4.70000000,0.27729694,0.77767013,-0.22957357,-0.47555998,0.84737765,0.40012714,0.04636227,-0.36916112,-0.63710692,0.48434930,0.04811317,-0.73888736,0.15386646,0.23554376
4.72000000,0.27729450,0.77766736,-0.22957750,-0.47554937,0.84736848,0.40013048,0.04635892,-0.36627309,-0.63647630,0.48433234,0.04821758,-0.74062112,0.15410462,0.23226641
4.74000000,0.27730376,0.77766409,-0.22958405,-0.47555522,0.84737628,0.40013557,0.04636230,-0.36345641,-0.63593174,0.48432443,0.04836016,-0.74229303,0.15435839,0.22894965
4.76000000,0.27731006,0.77767032,-0.22957522,-0.47555323,0.84738187,0.40013330,0.04635092,-0.36075325,-0.63547052,0.48432313,0.04846942,-0.74362673,0.15461733,0.22581527
4.78000000,0.27732289,0.77767478,-0.22957525,-0.47555009,0.84737755,0.40013608,0.04635491,-0.35829894,-0.63491409,0.48430702,0.04859442,-0.74469867,0.15489225,0.22288770
4.80000000,0.27730230,0.77766872,-0.22958245,-0.47555581,0.84736742,0.40014889,0.04637423,-0.35606244,-0.63428927,0.48427214,0.04871237,-0.74585961,0.15518651,0.21997592
4.82000000,0.27730099,0.77767349,-0.22958250,-0.47555926,0.84736382,0.40013909,0.04637528,-0.35351984,-0.63362676,0.48424646,0.04879332,-0.74733792,0.15545353,0.21681373
4.84000000,0.27729665,0.77767808,-0.22957245,-0.47555608,0.84735864,0.40014100,0.04636812,-0.35108765,-0.63302609,0.48420296,0.04882398,-0.74859368,0.15567452,0.21409297
4.86000000,0.27728521,0.77768151,-0.22958017,-0.47554545,0.84737274,0.40014100,0.04636404,-0.34857725,-0.63247804,0.48418193,0.04895934,-0.74984169,0.15594350,0.21133559
4.88000000,0.27729483,0.77767405,-0.22957296,-0.47554545,0.84736957,0.40014100,0.04637116,-0.34615909,-0.63194412,0.48417241,0.04901777,-0.75124278,0.15610141,0.20858661
4.90000000,0.27731054,0.77767836,-0.22957359,-0.47555259,0.84736056,0.40013385,0.04637543,-0.34368886,-0.63144916,0.48415512,0.04912646,-0.75249212,0.15625340,0.20585649
4.92000000,0.27731252,0.77766670,-0.22957279,-0.47555103,0.84737001,0.40013489,0.04637136,-0.34137336,-0.63091083,0.48413450,0.04930135,-0.75352321,0.15644653,0.20346966
4.94000000,0.27730458,0.77766454,-0.22958339,-0.47554752,0.84737552,0.40014100,0.04635860,-0.33939679,-0.63027119,0.48413019,0.04953788,-0.75477225,0.15658591,0.20103472
4.96000000,0.27730800,0.77767435,-0.22957015,-0.47555180,0.84735666,0.40014396,0.04636428,-0.33737886,-0.62962190,0.48410389,0.04966609,-0.75629876,0.15672492,0.19852217
4.98000000,0.27731075,0.77766060,-0.22956698,-0.47554881,0.84736228,0.40013883,0.04636861,-0.33537979,-0.62905574,0.48409082,0.04973598,-0.75755846,0.15689641,0.19616142
5.00000000,0.27730737,0.77767522,-0.22956698,-0.47554831,0.84737193,0.40013560,0.04636413,-0.33313884,-0.62846749,0.48408496,0.04980829,-0.75874516,0.15709105,0.19376036
5.02000000,0.27730486,0.77767469,-0.22956818,-0.47554640,0.84737158,0.40013452,0.04636299,-0.33314132,-0.62846831,0.48408480,0.04980677,-0.75874386,0.15709183,0.19376397
5.04000000,0.27728753,0.77767104,-0.22957642,-0.47553321,0.84736920,0.40012710,0.04635511,-0.33315841,-0.62847392,0.48408364,0.04979636,-0.75873491,0.15709718,0.19378886
5.06000000,0.27724143,0.77766133,-0.22959836,-0.47549811,0.84736285,0.40010735,0.04633414,-0.33320390,-0.62848887,0.48408057,0.04976865,-0.75871108,0.15711144,0.19385510
5.08000000,0.27715344,0.77764280,-0.22964023,-0.47543114,0.84735075,0.40006966,0.04629412,-0.33329071,-0.62851740,0.48407472,0.04971577,-0.75866560,0.15713866,0.19398150
5.10000000,0.27701134,0.77761287,-0.22970785,-0.47532298,0.84733120,0.40000880,0.04622950,-0.33343090,-0.62856347,0.48406526,0.04963037,-0.75859215,0.15718261,0.19418563
5.12000000,0.27680374,0.77756915,-0.22980664,-0.47516496,0.84730264,0.39991989,0.04613508,-0.33363571,-0.62863077,0.48405144,0.04950560,-0.75848485,0.15724681,0.19448386
5.14000000,0.27652009,0.77750941,-0.22994163,-0.47494906,0.84726361,0.39979840,0.04600608,-0.33391555,-0.62872274,0.48403256,0.04933512,-0.75833824,0.15733454,0.19489135
5.16000000,0.27615063,0.77743160,-0.23011744,-0.47466784,0.84721278,0.39964016,0.04583806,-0.33428004,-0.62884252,0.48400796,0.04911308,-0.75814729,0.15744881,0.19542209
5.18000000,0.27568642,0.77733383,-0.23033834,-0.47431451,0.84714891,0.39944134,0.04562694,-0.33473801,-0.62899302,0.48397706,0.04883408,-0.75790736,0.15759238,0.19608895
5.20000000,0.27511928,0.77721438,-0.23060823,-0.47388282,0.84707088,0.39919843,0.04536901,-0.33529754,-0.62917689,0.48393931,0.04849322,-0.75761422,0.15776779,0.19690369
5.22000000,0.27444176,0.77707169,-0.23093064,-0.47336712,0.84697767,0.39890825,0.04506088,-0.33596595,-0.62939654,0.48389421,0.04808603,-0.75726404,0.15797733,0.19787698
5.24000000,0.27364719,0.77690434,-0.23130875,-0.47276232,0.84686835,0.39856794,0.04469952,-0.33674984,-0.62965415,0.48384132,0.04760848,-0.75685336,0.15822308,0.19901842
5.26000000,0.27272959,0.77671108,-0.23174541,-0.47206388,0.84674211,0.39817493,0.04428220,-0.33765511,-0.62995165,0.48378024,0.04705700,-0.75637909,0.15850688,0.20033661
5.28000000,0.27168368,0.77649080,-0.23224312,-0.47126777,0.84659821,0.39772697,0.04380654,-0.33868697,-0.63029074,0.48371061,0.04642840,-0.75583850,0.15883036,0.20183912
5.30000000,0.27050488,0.77624253,-0.23280408,-0.47037051,0.84643603,0.39722209,0.04327043,-0.33984994,-0.63067292,0.48363214,0.04571992,-0.75522923,0.15919495,0.20353255
5.32000000,0.26918924,0.77596544,-0.23343015,-0.46936910,0.84625502,0.39665860,0.04267209,-0.34114790,-0.63109946,0.48354457,0.04492921,-0.75454923,0.15960185,0.20542254
5.34000000,0.26773349,0.77565884,-0.23412290,-0.46826103,0.84605473,0.39603510,0.04201002,-0.34258409,-0.63157142,0.48344766,0.04405429,-0.75379681,0.16005209,0.20751381
5.36000000,0.26613495,0.77532216,-0.23488359,-0.46704429,0.84583480,0.39535045,0.04128303,-0.34416114,-0.63208968,0.48334125,0.04309356,-0.75297059,0.16054649,0.20981020
5.38000000,0.26439159,0.77495499,-0.23571321,-0.46571731,0.84559495,0.39460376,0.04049016,-0.34588108,-0.63265489,0.48322520,0.04204578,-0.75206952,0.16108569,0.21231465
5.40000000,0.26250193,0.77455700,-0.23661244,-0.46427897,0.84533496,0.39379442,0.03963077,-0.34774535,-0.63326754,0.48309941,0.04091007,-0.75109283,0.16167013,0.21502925
5.42000000,0.26046508,0.77412801,-0.23758171,-0.46272859,0.84505473,0.39292204,0.03870443,-0.34975483,-0.63392790,0.48296383,0.03968591,-0.75004006,0.16230009,0.21795531
5.44000000,0.25828070,0.77366795,-0.23862120,-0.46106592,0.84475420,0.39198647,0.03771099,-0.35190987,-0.63463610,0.48281842,0.03837307,-0.74891104,0.16297568,0.22109330
5.46000000,0.25594897,0.77317686,-0.23973079,-0.45929110,0.84443339,0.39098779,0.03665055,-0.35421026,-0.63539206,0.48266320,0.03697168,-0.74770587,0.16369685,0.22444296
5.48000000,0.25347062,0.77265489,-0.24091017,-0.45740467,0.84409241,0.38992631,0.03552341,-0.35665532,-0.63619557,0.48249823,0.03548217,-0.74642491,0.16446336,0.22800327
5.50000000,0.25084683,0.77210228,-0.24215875,-0.45540754,0.84373143,0.38880254,0.03433014,-0.35924385,-0.63704622,0.48232357,0.03390525,-0.74506878,0.16527486,0.23177250
5.52000000,0.24807929,0.77151940,-0.24347573,-0.45330100,0.84335066,0.38761720,0.03307149,-0.36197420,-0.63794348,0.48213935,0.03224193,-0.74363835,0.16613081,0.23574822
5.54000000,0.24517016,0.77090670,-0.24486010,-0.45108667,0.84295042,0.38637122,0.03174845,-0.36484425,-0.63888664,0.48194569,0.03049351,-0.74213473,0.16703056,0.23992737
5.56000000,0.24212200,0.77026472,-0.24631063,-0.44876653,0.84253105,0.38506569,0.03036218,-0.36785145,-0.63987488,0.48174279,0.02866154,-0.74055926,0.16797330,0.24430623
5.58000000,0.23893782,0.76959409,-0.24782588,-0.44634286,0.84209296,0.38370191,0.02891405,-0.37099284,-0.64090722,0.48153083,0.02674782,-0.73891349,0.16895812,0.24888049
5.60000000,0.23562105,0.76889553,-0.24940423,-0.44381826,0.84163663,0.38228134,0.02740561,-0.37426505,-0.64198254,0.48131004,0.02475441,-0.73719919,0.16998394,0.25364523
5.62000000,0.23217548,0.76816985,-0.25104387,-0.44119562,0.84116258,0.38080560,0.02583860,-0.37766432,-0.64309963,0.48108068,0.02268358,-0.73541831,0.17104960,0.25859500
5.64000000,0.22860527,0.76741792,-0.25274283,-0.43847811,0.84067138,0.37927648,0.02421490,-0.38118656,-0.64425712,0.48084302,0.02053785,-0.73357301,0.17215381,0.26372381
5.66000000,0.22491494,0.76664069,-0.25449894,-0.43566917,0.84016366,0.37769591,0.02253658,-0.38482730,-0.64545355,0.48059737,0.01831993,-0.73166564,0.17329516,0.26902518
5.68000000,0.22110935,0.76583918,-0.25630991,-0.43277250,0.83964008,0.37606597,0.02080583,-0.38858176,-0.64668736,0.48034404,0.01603273,-0.72969868,0.17447217,0.27449214
5.70000000,0.21719365,0.76501448,-0.25817327,-0.42979201,0.83910135,0.37438888,0.01902501,-0.39244485,-0.64795686,0.48008339,0.01367936,-0.72767481,0.17568323,0.28011728
5.72000000,0.21317329,0.76416774,-0.26008643,-0.42673187,0.83854822,0.37266696,0.01719659,-0.39641119,-0.64926029,0.47981577,0.01126309,-0.72559685,0.17692666,0.28589276
5.74000000,0.20905402,0.76330017,-0.26204667,-0.42359643,0.83798148,0.37090267,0.01532319,-0.40047512,-0.65059580,0.47954156,0.00878736,-0.72346776,0.17820069,0.29181034
5.76000000,0.20484181,0.76241302,-0.26405114,-0.42039026,0.83740196,0.36909858,0.01340752,-0.40463073,-0.65196143,0.47926117,0.00625578,-0.72129064,0.17950345,0.29786143
5.78000000,0.20054289,0.76150761,-0.26609686,-0.41711809,0.83681050,0.36725736,0.01145241,-0.40887188,-0.65335518,0.47897500,0.00367210,-0.71906871,0.18083304,0.30403707
5.80000000,0.19616372,0.76058530,-0.26818077,-0.41378483,0.83620801,0.36538176,0.00946081,-0.41319221,-0.65477494,0.47868350,0.00104017,-0.71680529,0.18218744,0.31032801
5.82000000,0.19171095,0.75964749,-0.27029971,-0.41039555,0.83559538,0.36347464,0.00743574,-0.41758515,-0.65621856,0.47838709,-0.00163598,-0.71450384,0.18356461,0.31672468
5.84000000,0.18719142,0.75869561,-0.27245042,-0.40695545,0.83497358,0.36153892,0.00538030,-0.42204396,-0.65768384,0.47808624,-0.00435227,-0.71216787,0.18496243,0.32321726
5.86000000,0.18261211,0.75773115,-0.27462957,-0.40346986,0.83434355,0.35957760,0.00329767,-0.42656173,-0.65916848,0.47778141,-0.00710448,-0.70980101,0.18637873,0.32979570
5.88000000,0.17798019,0.75675561,-0.27683376,-0.39994421,0.83370628,0.35759375,0.00119112,-0.43113142,-0.66067019,0.47747308,-0.00988830,-0.70740696,0.18781131,0.33644973
5.90000000,0.17330293,0.75577051,-0.27905952,-0.39638406,0.83306277,0.35559048,-0.00093605,-0.43574583,-0.66218660,0.47716173,-0.01269938,-0.70498947,0.18925791,0.34316889
5.92000000,0.16858772,0.75477743,-0.28130335,-0.39279502,0.83241404,0.35357095,-0.00308048,-0.44039769,-0.66371531,0.47684785,-0.01553327,-0.70255237,0.19071625,0.34994257
5.94000000,0.16384204,0.75377793,-0.28356168,-0.38918278,0.83176112,0.35153837,-0.00523877,-0.44507961,-0.66525390,0.47653195,-0.01838547,-0.70009952,0.19218401,0.35676003
5.96000000,0.15907343,0.75277359,-0.28583091,-0.38555310,0.83110504,0.34949598,-0.00740748,-0.44978414,-0.66679992,0.47621452,-0.02125145,-0.69763482,0.19365886,0.36361040
5.98000000,0.15428952,0.75176604,-0.28810743,-0.38191177,0.83044686,0.34744703,-0.00958316,-0.45450377,-0.66835090,0.47589607,-0.02412663,-0.69516221,0.19513844,0.37048278
6.00000000,0.14949795,0.75075687,-0.29038759,-0.37826460,0.82978763,0.34539480,-0.01176232,-0.45923096,-0.66990437,0.47557711,-0.02700641,-0.69268564,0.19662040,0.37736616
6.02000000,0.14470637,0.74974770,-0.29266776,-0.37461744,0.82912839,0.34334256,-0.01394148,-0.46395816,-0.67145784,0.47525815,-0.02988619,-0.69020907,0.19810235,0.38424954
6.04000000,0.13992246,0.74874015,-0.29494427,-0.37097610,0.82847021,0.34129361,-0.01611715,-0.46867779,-0.67300883,0.47493970,-0.03276137,-0.68773646,0.19958194,0.39112191
6.06000000,0.13515386,0.74773582,-0.29721351,-0.36734642,0.82781413,0.33925122,-0.01828587,-0.47338232,-0.67455485,0.47462227,-0.03562734,-0.68527176,0.20105679,0.39797229
6.08000000,0.13040817,0.74673631,-0.29947183,-0.36373419,0.82716121,0.33721864,-0.02044416,-0.47806424,-0.67609344,0.47430636,-0.03847955,-0.68281891,0.20252455,0.40478975
6.10000000,0.12569296,0.74574323,-0.30171566,-0.36014515,0.82651248,0.33519912,-0.02258859,-0.48271609,-0.67762215,0.47399249,-0.04131343,-0.68038181,0.20398289,0.41156343
6.12000000,0.12101570,0.74475813,-0.30394142,-0.35658499,0.82586898,0.33319585,-0.02471576,-0.48733051,-0.67913855,0.47368114,-0.04412451,-0.67796432,0.20542949,0.41828259
6.14000000,0.11638378,0.74378259,-0.30614561,-0.35305935,0.82523171,0.33121199,-0.02682231,-0.49190019,-0.68064026,0.47337280,-0.04690834,-0.67557027,0.20686206,0.42493662
6.16000000,0.11180448,0.74281813,-0.30832477,-0.34957376,0.82460167,0.32925068,-0.02890493,-0.49641797,-0.68212491,0.47306798,-0.04966055,-0.67320341,0.20827837,0.43151506
6.18000000,0.10728494,0.74186625,-0.31047548,-0.34613366,0.82397987,0.32731496,-0.03096037,-0.50087678,-0.68359018,0.47276712,-0.05237683,-0.67086745,0.20967619,0.43800764
6.20000000,0.10283217,0.74092844,-0.31259441,-0.34274438,0.82336724,0.32540784,-0.03298545,-0.50526972,-0.68503381,0.47247072,-0.05505299,-0.66856599,0.21105335,0.44440431
6.22000000,0.09845300,0.74000613,-0.31467833,-0.33941112,0.82276475,0.32353224,-0.03497705,-0.50959005,-0.68645357,0.47217921,-0.05768491,-0.66630258,0.21240776,0.45069524
6.24000000,0.09415409,0.73910072,-0.31672405,-0.33613895,0.82217330,0.32169101,-0.03693215,-0.51383120,-0.68784731,0.47189305,-0.06026860,-0.66408064,0.21373734,0.45687089
6.26000000,0.08994188,0.73821358,-0.31872851,-0.33293277,0.82159377,0.31988692,-0.03884782,-0.51798681,-0.68921295,0.47161265,-0.06280018,-0.66190352,0.21504011,0.46292197
6.28000000,0.08582260,0.73734600,-0.32068875,-0.32979734,0.82102703,0.31812264,-0.04072123,-0.52205074,-0.69054845,0.47133845,-0.06527590,-0.65977443,0.21631413,0.46883956
6.30000000,0.08180224,0.73649926,-0.32260191,-0.32673719,0.82047390,0.31640072,-0.04254965,-0.52601707,-0.69185188,0.47107082,-0.06769218,-0.65769647,0.21755756,0.47461504
6.32000000,0.07788654,0.73567456,-0.32446528,-0.32375671,0.81993517,0.31472362,-0.04433047,-0.52988016,-0.69312139,0.47081017,-0.07004555,-0.65567261,0.21876862,0.48024017
6.34000000,0.07408095,0.73487306,-0.32627624,-0.32086003,0.81941159,0.31309368,-0.04606121,-0.53363462,-0.69435519,0.47055684,-0.07233275,-0.65370565,0.21994563,0.48570714
6.36000000,0.07039062,0.73409582,-0.32803236,-0.31805110,0.81890387,0.31151312,-0.04773954,-0.53727536,-0.69555163,0.47031119,-0.07455067,-0.65179827,0.22108699,0.49100851
6.38000000,0.06682042,0.73334389,-0.32973131,-0.31533359,0.81841267,0.30998400,-0.04936323,-0.54079760,-0.69670912,0.47007353,-0.07669640,-0.64995297,0.22219120,0.49613732
6.40000000,0.06337484,0.73261821,-0.33137095,-0.31271095,0.81793862,0.30850826,-0.05093025,-0.54419688,-0.69782620,0.46984417,-0.07876722,-0.64817210,0.22325685,0.50108709
6.42000000,0.06005807,0.73191965,-0.33294930,-0.31018635,0.81748229,0.30708768,-0.05243868,-0.54746908,-0.69890153,0.46962339,-0.08076064,-0.64645779,0.22428268,0.50585183
6.44000000,0.05687390,0.73124902,-0.33446456,-0.30776268,0.81704420,0.30572390,-0.05388681,-0.55061047,-0.69993386,0.46941143,-0.08267435,-0.64481202,0.22526749,0.51042608
6.46000000,0.05382574,0.73060704,-0.33591508,-0.30544253,0.81662483,0.30441837,-0.05527308,-0.55361768,-0.70092210,0.46920852,-0.08450633,-0.64323655,0.22621024,0.51480494
6.48000000,0.05091660,0.72999434,-0.33729945,-0.30322821,0.81622459,0.30317239,-0.05659613,-0.55648773,-0.70186527,0.46901487,-0.08625475,-0.64173293,0.22710998,0.51898409
6.50000000,0.04814906,0.72941146,-0.33861644,-0.30112166,0.81584382,0.30198705,-0.05785478,-0.55921807,-0.70276253,0.46883064,-0.08791806,-0.64030251,0.22796594,0.52295982
6.52000000,0.04552528,0.72885885,-0.33986502,-0.29912453,0.81548284,0.30086329,-0.05904805,-0.56180661,-0.70361318,0.46865599,-0.08949498,-0.63894638,0.22877743,0.52672905
6.54000000,0.04304692,0.72833688,-0.34104439,-0.29723810,0.81514186,0.29980180,-0.06017518,-0.56425166,-0.70441668,0.46849101,-0.09098450,-0.63766542,0.22954395,0.53028935
6.56000000,0.04071520,0.72784579,-0.34215399,-0.29546328,0.81482105,0.29880313,-0.06123563,-0.56655206,-0.70517265,0.46833579,-0.09238589,-0.63646024,0.23026511,0.53363901
6.58000000,0.03853081,0.72738573,-0.34319347,-0.29380061,0.81452052,0.29786756,-0.06222906,-0.56870709,-0.70588084,0.46819039,-0.09369872,-0.63533122,0.23094070,0.53677701
6.60000000,0.03649396,0.72695674,-0.34416275,-0.29225024,0.81424029,0.29699517,-0.06315540,-0.57071657,-0.70654121,0.46805480,-0.09492289,-0.63427846,0.23157067,0.53970306
6.62000000,0.03460430,0.72655875,-0.34506198,-0.29081190,0.81398030,0.29618583,-0.06401480,-0.57258084,-0.70715385,0.46792901,-0.09605859,-0.63330177,0.23215511,0.54241767
6.64000000,0.03286094,0.72619158,-0.34589159,-0.28948492,0.81374045,0.29543915,-0.06480766,-0.57430078,-0.70771906,0.46781296,-0.09710637,-0.63240069,0.23269430,0.54492212
6.66000000,0.03126241,0.72585491,-0.34665228,-0.28826818,0.81352052,0.29475450,-0.06553466,-0.57587783,-0.70823732,0.46770655,-0.09806711,-0.63157448,0.23318870,0.54721850
6.68000000,0.02980665,0.72554830,-0.34734503,-0.28716011,0.81332023,0.29413100,-0.06619672,-0.57731403,-0.70870929,0.46760965,-0.09894203,-0.63082206,0.23363894,0.54930978
6.70000000,0.02849102,0.72527121,-0.34797110,-0.28615870,0.81313923,0.29356751,-0.06679506,-0.57861199,-0.70913583,0.46752207,-0.09973274,-0.63014206,0.23404585,0.55119977
6.72000000,0.02731221,0.72502294,-0.34853206,-0.28526144,0.81297704,0.29306263,-0.06733117,-0.57977496,-0.70951801,0.46744360,-0.10044121,-0.62953278,0.23441043,0.55289320
6.74000000,0.02626630,0.72480266,-0.34902978,-0.28446533,0.81283314,0.29261466,-0.06780684,-0.58080681,-0.70985710,0.46737398,-0.10106981,-0.62899219,0.23473392,0.55439570
6.76000000,0.02534870,0.72460940,-0.34946644,-0.28376689,0.81270690,0.29222165,-0.06822415,-0.58171208,-0.71015460,0.46731290,-0.10162130,-0.62851792,0.23501771,0.55571389
6.78000000,0.02455413,0.72444205,-0.34984455,-0.28316209,0.81259758,0.29188134,-0.06858552,-0.58249598,-0.71041220,0.46726000,-0.10209885,-0.62810724,0.23526346,0.55685534
6.80000000,0.02387662,0.72429936,-0.35016696,-0.28264639,0.81250437,0.29159116,-0.06889364,-0.58316439,-0.71063186,0.46721490,-0.10250604,-0.62775706,0.23547301,0.55782863
6.82000000,0.02330947,0.72417991,-0.35043684,-0.28221470,0.81242634,0.29134825,-0.06915158,-0.58372391,-0.71081573,0.46717715,-0.10284690,-0.62746393,0.23564841,0.55864337
6.84000000,0.02284526,0.72408214,-0.35065775,-0.28186136,0.81236247,0.29114943,-0.06936269,-0.58418188,-0.71096623,0.46714625,-0.10312589,-0.62722400,0.23579199,0.55931023
6.86000000,0.02247581,0.72400433,-0.35083356,-0.28158015,0.81231164,0.29099119,-0.06953072,-0.58454637,-0.71108601,0.46712166,-0.10334794,-0.62703304,0.23590625,0.55984097
6.88000000,0.02219216,0.72394459,-0.35096854,-0.28136424,0.81227261,0.29086971,-0.06965972,-0.58482621,-0.71117797,0.46710278,-0.10351841,-0.62688643,0.23599398,0.56024845
6.90000000,0.02198456,0.72390087,-0.35106733,-0.28120623,0.81224405,0.29078079,-0.06975413,-0.58503102,-0.71124528,0.46708896,-0.10364318,-0.62677913,0.23605819,0.56054668
6.92000000,0.02184246,0.72387094,-0.35113495,-0.28109807,0.81222450,0.29071993,-0.06981876,-0.58517122,-0.71129135,0.46707950,-0.10372859,-0.62670569,0.23610214,0.56075082
6.94000000,0.02175447,0.72385241,-0.35117682,-0.28103109,0.81221240,0.29068224,-0.06985878,-0.58525802,-0.71131988,0.46707364,-0.10378147,-0.62666021,0.23612935,0.56087722
6.96000000,0.02170836,0.72384270,-0.35119876,-0.28099600,0.81220605,0.29066250,-0.06987975,-0.58530351,-0.71133482,0.46707057,-0.10380918,-0.62663638,0.23614361,0.56094346
6.98000000,0.02169104,0.72383905,-0.35120701,-0.28098281,0.81220367,0.29065508,-0.06988762,-0.58532060,-0.71134044,0.46706942,-0.10381959,-0.62662742,0.23614897,0.56096834
7.00000000,0.02168852,0.72383852,-0.35120820,-0.28098089,0.81220332,0.29065400,-0.06988877,-0.58532308,-0.71134126,0.46706925,-0.10382110,-0.62662612,0.23614975,0.56097196
7.02000000,0.02169378,0.72372196,-0.35128532,-0.28104571,0.81215698,0.29056879,-0.06988860,-0.58531907,-0.71161261,0.46690117,-0.10436448,-0.62646621,0.23631858,0.56116104
7.04000000,0.02169196,0.72362625,-0.35136529,-0.28110740,0.81213508,0.29052145,-0.06990040,-0.58530920,-0.71192977,0.46661933,-0.10506753,-0.62622151,0.23651189,0.56142324
7.06000000,0.02169174,0.72354160,-0.35142281,-0.28111826,0.81211980,0.29049749,-0.06990403,-0.58528739,-0.71229782,0.46624822,-0.10589357,-0.62594217,0.23672596,0.56175348
7.08000000,0.02169685,0.72348062,-0.35152167,-0.28116050,0.81209821,0.29045306,-0.06990580,-0.58526973,-0.71273074,0.46573399,-0.10689439,-0.62561742,0.23696637,0.56211909
7.10000000,0.02170052,0.72336937,-0.35159575,-0.28120251,0.81208022,0.29039006,-0.06990762,-0.58525107,-0.71323312,0.46509284,-0.10809113,-0.62522818,0.23722182,0.56251757
7.12000000,0.02170052,0.72323650,-0.35168144,-0.28121762,0.81208531,0.29036164,-0.06989921,-0.58522714,-0.71374610,0.46433039,-0.10947342,-0.62480329,0.23749846,0.56298579
7.14000000,0.02170206,0.72312699,-0.35171638,-0.28122924,0.81207869,0.29032729,-0.06990649,-0.58520340,-0.71441135,0.46343658,-0.11106418,-0.62428210,0.23783044,0.56352824
7.16000000,0.02169704,0.72307449,-0.35172859,-0.28123662,0.81205848,0.29031693,-0.06989660,-0.58514242,-0.71535449,0.46250442,-0.11299152,-0.62369115,0.23821840,0.56409978
7.18000000,0.02170677,0.72306419,-0.35175098,-0.28122967,0.81205334,0.29031393,-0.06988265,-0.58501521,-0.71646393,0.46146265,-0.11510918,-0.62311070,0.23863685,0.56471730
7.20000000,0.02169951,0.72305304,-0.35175071,-0.28127622,0.81206389,0.29031658,-0.06989901,-0.58475692,-0.71766849,0.46026541,-0.11741604,-0.62251811,0.23911384,0.56544202
7.22000000,0.02168142,0.72306682,-0.35174378,-0.28132291,0.81207506,0.29031374,-0.06989949,-0.58432311,-0.71912334,0.45889843,-0.12002482,-0.62186440,0.23971081,0.56630913
7.24000000,0.02168268,0.72306396,-0.35174632,-0.28127612,0.81207230,0.29032409,-0.06989232,-0.58368125,-0.72071111,0.45726080,-0.12260518,-0.62117223,0.24036292,0.56727402
7.26000000,0.02167578,0.72306589,-0.35173771,-0.28125970,0.81208585,0.29034238,-0.06989813,-0.58291563,-0.72214649,0.45536560,-0.12492328,-0.62050107,0.24103854,0.56822646
7.28000000,0.02166384,0.72307694,-0.35173681,-0.28125846,0.81206978,0.29033143,-0.06989534,-0.58199409,-0.72371342,0.45319857,-0.12737848,-0.61968526,0.24196774,0.56924306
7.30000000,0.02166787,0.72307151,-0.35173249,-0.28126450,0.81206922,0.29033122,-0.06989396,-0.58081482,-0.72565120,0.45091105,-0.13033756,-0.61852245,0.24308828,0.57041612
7.32000000,0.02168803,0.72306176,-0.35173692,-0.28128967,0.81205232,0.29033393,-0.06989432,-0.57953435,-0.72746947,0.44887041,-0.13344407,-0.61737905,0.24410808,0.57156230
7.34000000,0.02168879,0.72304715,-0.35174513,-0.28133598,0.81205045,0.29031987,-0.06989659,-0.57792177,-0.72890372,0.44678862,-0.13687062,-0.61628895,0.24505637,0.57284068
7.36000000,0.02167163,0.72301701,-0.35175591,-0.28140470,0.81203548,0.29029497,-0.06989358,-0.57590904,-0.73031016,0.44475874,-0.14092726,-0.61500759,0.24591213,0.57418244
7.38000000,0.02164635,0.72297407,-0.35175965,-0.28143610,0.81201812,0.29026893,-0.06989757,-0.57380872,-0.73194450,0.44306910,-0.14523084,-0.61363337,0.24669548,0.57545986
7.40000000,0.02161110,0.72294577,-0.35176107,-0.28146895,0.81203192,0.29025396,-0.06989581,-0.57138221,-0.73385853,0.44116953,-0.14969513,-0.61195033,0.24753591,0.57685445
7.42000000,0.02158819,0.72292978,-0.35176923,-0.28150065,0.81202534,0.29024503,-0.06989930,-0.56877549,-0.73618812,0.43907637,-0.15409725,-0.61004066,0.24856416,0.57846446
7.44000000,0.02155925,0.72292762,-0.35176046,-0.28153908,0.81202150,0.29022658,-0.06990692,-0.56629794,-0.73909359,0.43691813,-0.15823801,-0.60832240,0.24976421,0.58025264
7.46000000,0.02156017,0.72292953,-0.35174041,-0.28156317,0.81202483,0.29022853,-0.06990739,-0.56359609,-0.74226997,0.43427324,-0.16243535,-0.60692908,0.25113298,0.58210928
7.48000000,0.02160253,0.72293189,-0.35174030,-0.28155514,0.81202465,0.29023836,-0.06990832,-0.56089220,-0.74536957,0.43132456,-0.16698337,-0.60550130,0.25261392,0.58399109
7.50000000,0.02160740,0.72292956,-0.35175250,-0.28155273,0.81202487,0.29024887,-0.06990327,-0.55847339,-0.74845125,0.42832283,-0.17205504,-0.60373370,0.25396558,0.58604444
7.52000000,0.02160654,0.72293187,-0.35175535,-0.28156379,0.81202863,0.29024324,-0.06989081,-0.55609127,-0.75148000,0.42519361,-0.17744730,-0.60186981,0.25529903,0.58821543
7.54000000,0.02159930,0.72293966,-0.35173323,-0.28155683,0.81202044,0.29024820,-0.06989176,-0.55374258,-0.75444978,0.42199882,-0.18301033,-0.60023756,0.25672794,0.59015460
7.56000000,0.02157755,0.72294542,-0.35174329,-0.28156075,0.81202237,0.29024747,-0.06990219,-0.55149762,-0.75724907,0.41840128,-0.18851097,-0.59857095,0.25833347,0.59203504
7.58000000,0.02154691,0.72293297,-0.35175860,-0.28155606,0.81201670,0.29023605,-0.06989662,-0.54916199,-0.75986021,0.41443049,-0.19418958,-0.59668803,0.26001143,0.59397744
7.60000000,0.02155369,0.72294472,-0.35175183,-0.28153558,0.81203084,0.29023795,-0.06990067,-0.54677224,-0.76298313,0.41073133,-0.20046752,-0.59468746,0.26152827,0.59611993
7.62000000,0.02154425,0.72294918,-0.35174465,-0.28151640,0.81203119,0.29025182,-0.06989460,-0.54433954,-0.76649815,0.40735653,-0.20683285,-0.59286284,0.26299789,0.59842437
7.64000000,0.02153087,0.72293710,-0.35174894,-0.28152041,0.81203075,0.29025423,-0.06988867,-0.54152724,-0.77032679,0.40381392,-0.21329672,-0.59090780,0.26454884,0.60076246
7.66000000,0.02153915,0.72294887,-0.35174727,-0.28150397,0.81204058,0.29025591,-0.06988867,-0.53867194,-0.77385523,0.39994014,-0.21920104,-0.58870599,0.26626831,0.60317563
7.68000000,0.02137972,0.72293802,-0.35178026,-0.28151136,0.81204958,0.29022529,-0.06988600,-0.53491827,-0.77769676,0.39492099,-0.22578521,-0.58581100,0.26846742,0.60588575
7.70000000,0.02116811,0.72290536,-0.35178973,-0.28154111,0.81204581,0.29020283,-0.06987470,-0.53001909,-0.78266681,0.38936455,-0.23347504,-0.58222327,0.27104583,0.60934705
7.72000000,0.02135217,0.72296151,-0.35172117,-0.28149326,0.81204471,0.29026232,-0.06988499,-0.52558946,-0.78756800,0.38496431,-0.24028018,-0.57922712,0.27334375,0.61259976
7.74000000,0.02149585,0.72303697,-0.35166706,-0.28145512,0.81203895,0.29029089,-0.06988057,-0.52177321,-0.79169776,0.38080705,-0.24639643,-0.57702408,0.27568336,0.61534120
7.76000000,0.02148065,0.72300127,-0.35169512,-0.28149504,0.81204326,0.29025587,-0.06988449,-0.51822191,-0.79571751,0.37681997,-0.25284842,-0.57484311,0.27773614,0.61799912
7.78000000,0.02147422,0.72299369,-0.35169929,-0.28147914,0.81203711,0.29025856,-0.06989691,-0.51434043,-0.79996098,0.37293908,-0.26043381,-0.57240648,0.27946232,0.62073101
7.80000000,0.02148528,0.72300568,-0.35169788,-0.28147273,0.81204506,0.29028196,-0.06988812,-0.51053387,-0.80378092,0.36881843,-0.26833052,-0.56998523,0.28096530,0.62335561
7.82000000,0.02137928,0.72299060,-0.35171336,-0.28149203,0.81206175,0.29026165,-0.06988640,-0.50731664,-0.80721276,0.36454526,-0.27576680,-0.56753721,0.28259820,0.62598821
7.84000000,0.02125538,0.72300347,-0.35171700,-0.28151237,0.81203011,0.29023430,-0.06989053,-0.50412948,-0.81054638,0.36041835,-0.28305683,-0.56534622,0.28452702,0.62836171
7.86000000,0.02124410,0.72300627,-0.35170437,-0.28150344,0.81202956,0.29024267,-0.06989539,-0.50071106,-0.81467289,0.35618167,-0.29085287,-0.56315765,0.28647477,0.63108790
7.88000000,0.02132487,0.72300824,-0.35169635,-0.28150602,0.81204089,0.29025905,-0.06988854,-0.49746216,-0.81852371,0.35198381,-0.29816194,-0.56077133,0.28842785,0.63369543
7.90000000,0.02128534,0.72300824,-0.35170615,-0.28151462,0.81205513,0.29024282,-0.06989273,-0.49449009,-0.82248528,0.34807925,-0.30479490,-0.55829049,0.29051838,0.63626244
7.92000000,0.02122408,0.72300092,-0.35171697,-0.28151572,0.81204030,0.29022111,-0.06988885,-0.49103934,-0.82643559,0.34374151,-0.31177853,-0.55582390,0.29257869,0.63875869
7.94000000,0.02122288,0.72299237,-0.35170445,-0.28150113,0.81204419,0.29024204,-0.06990088,-0.48708812,-0.83084457,0.33916284,-0.31906316,-0.55306763,0.29434946,0.64146380
7.96000000,0.02130914,0.72300444,-0.35169628,-0.28150008,0.81203805,0.29026635,-0.06989932,-0.48334775,-0.83529937,0.33497344,-0.32625065,-0.55065456,0.29605450,0.64414974
7.98000000,0.02129991,0.72301451,-0.35169207,-0.28150492,0.81203100,0.29026423,-0.06989432,-0.47994512,-0.83915136,0.33082117,-0.33302381,-0.54839060,0.29789339,0.64697446
8.00000000,0.02119106,0.72300587,-0.35170676,-0.28150878,0.81203959,0.29024894,-0.06990673,-0.47645445,-0.84275751,0.32658890,-0.33986953,-0.54606703,0.30011137,0.64954662
8.02000000,0.02120935,0.72299881,-0.35170451,-0.28148505,0.81203916,0.29025862,-0.06994149,-0.47301457,-0.84632377,0.32245036,-0.34697736,-0.54383071,0.30210455,0.65211111
8.04000000,0.02129172,0.72301513,-0.35169690,-0.28150766,0.81202594,0.29026774,-0.07003734,-0.46957574,-0.85031310,0.31874206,-0.35425273,-0.54149373,0.30386491,0.65464542
8.06000000,0.02126803,0.72303787,-0.35169133,-0.28153742,0.81201636,0.29030951,-0.07021477,-0.46661932,-0.85420608,0.31522788,-0.36104981,-0.53911434,0.30578440,0.65712481
8.08000000,0.02119925,0.72303815,-0.35167810,-0.28163327,0.81195578,0.29034747,-0.07048796,-0.46367887,-0.85783128,0.31092368,-0.36841373,-0.53710605,0.30765357,0.65972625
8.10000000,0.02124420,0.72304813,-0.35166093,-0.28172424,0.81187344,0.29041565,-0.07089161,-0.46063381,-0.86149873,0.30666656,-0.37580712,-0.53521066,0.30929965,0.66198886
8.12000000,0.02127025,0.72308519,-0.35161716,-0.28195116,0.81172209,0.29057028,-0.07146460,-0.45755917,-0.86555293,0.30254864,-0.38313879,-0.53312700,0.31069118,0.66430080
8.14000000,0.02124698,0.72313784,-0.35150169,-0.28227733,0.81155898,0.29079200,-0.07216733,-0.45466738,-0.86907722,0.29871004,-0.38980976,-0.53095737,0.31223960,0.66674862
8.16000000,0.02106506,0.72325225,-0.35136804,-0.28278162,0.81134049,0.29107374,-0.07305428,-0.45209377,-0.87188423,0.29511209,-0.39638723,-0.52883707,0.31393613,0.66900690
8.18000000,0.02082490,0.72340962,-0.35118923,-0.28343807,0.81104825,0.29134455,-0.07392229,-0.44908491,-0.87486153,0.29157314,-0.40371564,-0.52646481,0.31576649,0.67115771
8.20000000,0.02061089,0.72362670,-0.35094115,-0.28410912,0.81070883,0.29166270,-0.07478864,-0.44608768,-0.87814360,0.28818653,-0.41077397,-0.52357930,0.31720414,0.67378703
8.22000000,0.02018603,0.72394526,-0.35069572,-0.28482225,0.81020964,0.29208368,-0.07609295,-0.44315534,-0.88126093,0.28511669,-0.41662142,-0.52159202,0.31860500,0.67604447
8.24000000,0.01984965,0.72419354,-0.35043382,-0.28560009,0.80964928,0.29260392,-0.07764515,-0.44015922,-0.88444327,0.28190996,-0.42223745,-0.51985253,0.32029789,0.67815709
8.26000000,0.01960670,0.72452780,-0.35013825,-0.28649082,0.80903476,0.29328812,-0.07933068,-0.43754842,-0.88753742,0.27869235,-0.42742977,-0.51808400,0.32208030,0.68014498
8.28000000,0.01923193,0.72491017,-0.34984008,-0.28741579,0.80854459,0.29401264,-0.08104552,-0.43463374,-0.89101681,0.27516407,-0.43320712,-0.51629995,0.32362283,0.68226698
8.30000000,0.01894256,0.72541815,-0.34943583,-0.28834063,0.80808770,0.29476411,-0.08280643,-0.43210534,-0.89429737,0.27225201,-0.43843947,-0.51469194,0.32482654,0.68417680
8.32000000,0.01855476,0.72615500,-0.34883742,-0.28945989,0.80749697,0.29560188,-0.08496850,-0.42969171,-0.89733352,0.26933795,-0.44300273,-0.51316896,0.32606304,0.68582006
8.34000000,0.01805660,0.72696624,-0.34827258,-0.29065258,0.80683314,0.29635482,-0.08697571,-0.42726124,-0.89966659,0.26630635,-0.44753132,-0.51160414,0.32743933,0.68759570
8.36000000,0.01745977,0.72768797,-0.34758396,-0.29205217,0.80611515,0.29715483,-0.08922505,-0.42501508,-0.90180379,0.26362635,-0.45260605,-0.50994856,0.32877595,0.68924712
8.38000000,0.01647208,0.72829819,-0.34678435,-0.29367056,0.80539423,0.29799978,-0.09160128,-0.42296915,-0.90363324,0.26141506,-0.45743809,-0.50845841,0.32996803,0.69078435
8.40000000,0.01527434,0.72887834,-0.34596095,-0.29542734,0.80454373,0.29897139,-0.09385201,-0.42058712,-0.90561121,0.25907383,-0.46243993,-0.50705572,0.33110657,0.69230775
8.42000000,0.01395087,0.72945532,-0.34508184,-0.29731599,0.80354793,0.30002767,-0.09633729,-0.41865056,-0.90800326,0.25670393,-0.46672791,-0.50564471,0.33206883,0.69407272
8.44000000,0.01245422,0.73002227,-0.34411680,-0.29922165,0.80261517,0.30102937,-0.09889229,-0.41701074,-0.91085381,0.25448217,-0.47013142,-0.50423552,0.33299699,0.69552009
8.46000000,0.01097390,0.73057684,-0.34301077,-0.30109644,0.80173921,0.30191276,-0.10147992,-0.41514965,-0.91348980,0.25178621,-0.47301718,-0.50293954,0.33403199,0.69699055
8.48000000,0.00958719,0.73135239,-0.34190473,-0.30315526,0.80085120,0.30284583,-0.10415213,-0.41361113,-0.91565505,0.24953210,-0.47590878,-0.50197620,0.33512019,0.69819792
8.50000000,0.00829487,0.73229302,-0.34081160,-0.30535708,0.80001134,0.30374531,-0.10686215,-0.41227543,-0.91743561,0.24734908,-0.47906434,-0.50081695,0.33609144,0.69938116
8.52000000,0.00705880,0.73315937,-0.33972520,-0.30738132,0.79913635,0.30473657,-0.10954123,-0.41097338,-0.91907335,0.24554011,-0.48256432,-0.49980145,0.33700436,0.70044533
8.54000000,0.00576068,0.73391910,-0.33874575,-0.30928785,0.79811580,0.30592493,-0.11227164,-0.40956146,-0.92081037,0.24389140,-0.48601643,-0.49853396,0.33771070,0.70149897
8.56000000,0.00454977,0.73461302,-0.33789490,-0.31115865,0.79719063,0.30702861,-0.11509699,-0.40836880,-0.92211264,0.24237398,-0.48877936,-0.49714690,0.33813902,0.70246750
8.58000000,0.00350608,0.73529194,-0.33707184,-0.31308025,0.79632784,0.30801594,-0.11785229,-0.40712581,-0.92344673,0.24117466,-0.49144148,-0.49635188,0.33877262,0.70321840
8.60000000,0.00254865,0.73601582,-0.33623062,-0.31515040,0.79531496,0.30904280,-0.12062981,-0.40595796,-0.92466810,0.24021260,-0.49334016,-0.49556208,0.33923997,0.70404038
8.62000000,0.00148771,0.73664046,-0.33544725,-0.31725978,0.79438899,0.30995320,-0.12328202,-0.40495474,-0.92572200,0.23956986,-0.49488528,-0.49494643,0.33980280,0.70485340
8.64000000,0.00034237,0.73713614,-0.33462055,-0.31922276,0.79353156,0.31087439,-0.12583963,-0.40405112,-0.92642849,0.23882145,-0.49622331,-0.49445325,0.34027806,0.70561745
8.66000000,-0.00081832,0.73765616,-0.33364801,-0.32109771,0.79261327,0.31191212,-0.12843681,-0.40313418,-0.92700360,0.23803472,-0.49764314,-0.49394146,0.34061362,0.70608080
8.68000000,-0.00196496,0.73829142,-0.33260752,-0.32294524,0.79176873,0.31283133,-0.13078763,-0.40219427,-0.92754654,0.23728943,-0.49898974,-0.49327548,0.34099175,0.70652908
8.70000000,-0.00299632,0.73895464,-0.33168758,-0.32473200,0.79099134,0.31368032,-0.13312958,-0.40156254,-0.92793012,0.23659804,-0.50018374,-0.49284023,0.34125502,0.70700560
8.72000000,-0.00393857,0.73966265,-0.33093316,-0.32655294,0.79019651,0.31452379,-0.13543940,-0.40099690,-0.92839300,0.23598491,-0.50139403,-0.49245311,0.34148673,0.70752108
8.74000000,-0.00483452,0.74039742,-0.33010169,-0.32821697,0.78940596,0.31527594,-0.13759579,-0.40067374,-0.92889053,0.23550252,-0.50236008,-0.49219885,0.34174031,0.70795598
8.76000000,-0.00574024,0.74097728,-0.32934701,-0.32962945,0.78873633,0.31593595,-0.13974202,-0.40040098,-0.92939399,0.23503960,-0.50313294,-0.49199264,0.34198845,0.70831758
8.78000000,-0.00658043,0.74149349,-0.32868518,-0.33081250,0.78815590,0.31658191,-0.14158867,-0.40022880,-0.92983146,0.23465021,-0.50375341,-0.49181999,0.34209732,0.70851788
8.80000000,-0.00733281,0.74195410,-0.32802718,-0.33190123,0.78758352,0.31733016,-0.14320970,-0.40013825,-0.93022629,0.23422798,-0.50434150,-0.49173024,0.34223727,0.70870685
8.82000000,-0.00798964,0.74241196,-0.32744063,-0.33301755,0.78705318,0.31797844,-0.14486727,-0.40007347,-0.93045917,0.23383321,-0.50478077,-0.49161403,0.34237698,0.70881395
8.84000000,-0.00855696,0.74281137,-0.32693015,-0.33401028,0.78658925,0.31855764,-0.14647985,-0.40002820,-0.93060573,0.23347410,-0.50517958,-0.49152888,0.34245049,0.70896024
8.86000000,-0.00906311,0.74314083,-0.32648880,-0.33486397,0.78617581,0.31905667,-0.14767390,-0.39998682,-0.93069331,0.23315541,-0.50554057,-0.49145784,0.34248448,0.70900303
8.88000000,-0.00953767,0.74341714,-0.32615948,-0.33578136,0.78582706,0.31958313,-0.14877898,-0.39995449,-0.93075308,0.23298793,-0.50582081,-0.49142000,0.34252970,0.70905159
8.90000000,-0.00987493,0.74364312,-0.32586292,-0.33668307,0.78550655,0.31998518,-0.14980430,-0.39995276,-0.93077243,0.23289707,-0.50602452,-0.49136609,0.34254385,0.70909661
8.92000000,-0.01009185,0.74379825,-0.32555505,-0.33745647,0.78515242,0.32028270,-0.15075273,-0.39993371,-0.93078748,0.23287333,-0.50616670,-0.49132355,0.34253570,0.70913409
8.94000000,-0.01026741,0.74396895,-0.32532499,-0.33815113,0.78482038,0.32053988,-0.15160526,-0.39989785,-0.93079042,0.23286505,-0.50620185,-0.49126732,0.34253920,0.70916718
8.96000000,-0.01039314,0.74408190,-0.32512544,-0.33874943,0.78451357,0.32075674,-0.15232483,-0.39990743,-0.93079143,0.23287277,-0.50621545,-0.49125436,0.34255324,0.70919616
8.98000000,-0.01055151,0.74417664,-0.32499111,-0.33918610,0.78425539,0.32094699,-0.15288462,-0.39988119,-0.93079039,0.23286400,-0.50622183,-0.49123925,0.34256165,0.70920879
9.00000000,-0.01074649,0.74421523,-0.32493989,-0.33937463,0.78410068,0.32104594,-0.15313686,-0.39987479,-0.93080637,0.23286294,-0.50623149,-0.49122974,0.34256051,0.70922149
9.02000000,-0.01095142,0.74423281,-0.32488542,-0.33939830,0.78403169,0.32110372,-0.15324251,-0.39986451,-0.93080875,0.23285557,-0.50623378,-0.49122228,0.34259846,0.70922608
9.04000000,-0.01112328,0.74428452,-0.32482006,-0.33941766,0.78398601,0.32113248,-0.15328921,-0.39984636,-0.93081941,0.23283979,-0.50623154,-0.49121428,0.34260816,0.70923442
9.06000000,-0.01124606,0.74434959,-0.32477484,-0.33943182,0.78396674,0.32117585,-0.15330708,-0.39982698,-0.93081852,0.23283702,-0.50623154,-0.49121533,0.34261149,0.70922986
9.08000000,-0.01133267,0.74439435,-0.32473618,-0.33942957,0.78395977,0.32119891,-0.15332044,-0.39979474,-0.93081748,0.23283702,-0.50623756,-0.49122470,0.34263914,0.70921798
9.10000000,-0.01137526,0.74439429,-0.32474658,-0.33942536,0.78396500,0.32121726,-0.15333177,-0.39974517,-0.93081618,0.23285203,-0.50623084,-0.49124726,0.34264907,0.70923448
9.12000000,-0.01138297,0.74440395,-0.32473596,-0.33944923,0.78395635,0.32121436,-0.15332357,-0.39967814,-0.93081157,0.23284276,-0.50623848,-0.49123831,0.34264766,0.70922003
9.14000000,-0.01138198,0.74439738,-0.32473175,-0.33944051,0.78394047,0.32124662,-0.15333042,-0.39957687,-0.93081776,0.23282420,-0.50625299,-0.49124182,0.34265468,0.70920364
9.16000000,-0.01137961,0.74441365,-0.32474038,-0.33943993,0.78392397,0.32123828,-0.15332960,-0.39939506,-0.93081995,0.23282213,-0.50625506,-0.49125534,0.34268043,0.70913161
9.18000000,-0.01137961,0.74442167,-0.32472608,-0.33944955,0.78392175,0.32124103,-0.15334220,-0.39910762,-0.93081608,0.23281200,-0.50626427,-0.49126867,0.34266552,0.70903883
9.20000000,-0.01137961,0.74444171,-0.32472565,-0.33950322,0.78391073,0.32124790,-0.15335576,-0.39872733,-0.93081763,0.23279521,-0.50626610,-0.49128906,0.34265700,0.70889128
9.22000000,-0.01137874,0.74449817,-0.32470265,-0.33957402,0.78387146,0.32126632,-0.15338601,-0.39829721,-0.93080937,0.23279381,-0.50627939,-0.49135435,0.34267029,0.70868144
9.24000000,-0.01137625,0.74455010,-0.32464009,-0.33966917,0.78383423,0.32130058,-0.15342573,-0.39778347,-0.93081648,0.23279466,-0.50628998,-0.49145564,0.34271334,0.70833672
9.26000000,-0.01138113,0.74465901,-0.32453816,-0.33983586,0.78378212,0.32134756,-0.15348105,-0.39718494,-0.93079809,0.23281024,-0.50627895,-0.49163186,0.34274988,0.70784337
9.28000000,-0.01137097,0.74479483,-0.32440614,-0.34003798,0.78370504,0.32138764,-0.15354694,-0.39660507,-0.93078924,0.23280086,-0.50627553,-0.49182737,0.34278525,0.70723588
9.30000000,-0.01136617,0.74497148,-0.32421075,-0.34033558,0.78362565,0.32143222,-0.15361543,-0.39601583,-0.93077025,0.23279303,-0.50627653,-0.49208878,0.34284153,0.70644890
9.32000000,-0.01136540,0.74517136,-0.32395310,-0.34073980,0.78351437,0.32149861,-0.15369433,-0.39533683,-0.93075078,0.23277945,-0.50627215,-0.49238156,0.34287282,0.70571567
9.34000000,-0.01136138,0.74543182,-0.32365197,-0.34124622,0.78340232,0.32158990,-0.15379242,-0.39442234,-0.93074603,0.23273487,-0.50627474,-0.49268112,0.34291487,0.70495192
9.36000000,-0.01134802,0.74567605,-0.32329012,-0.34173890,0.78322954,0.32166353,-0.15390251,-0.39332178,-0.93073443,0.23270798,-0.50627474,-0.49302909,0.34297803,0.70413593
9.38000000,-0.01133951,0.74595506,-0.32285856,-0.34227709,0.78300797,0.32175374,-0.15402937,-0.39225319,-0.93070222,0.23271618,-0.50626249,-0.49339911,0.34305923,0.70330869
9.40000000,-0.01131987,0.74624551,-0.32242419,-0.34287536,0.78278167,0.32185762,-0.15419673,-0.39132061,-0.93065510,0.23271605,-0.50625207,-0.49381852,0.34314833,0.70248177
9.42000000,-0.01126871,0.74658792,-0.32195706,-0.34353507,0.78255113,0.32195973,-0.15436692,-0.39040186,-0.93060691,0.23271605,-0.50625150,-0.49434457,0.34324261,0.70145896
9.44000000,-0.01109702,0.74703299,-0.32145265,-0.34437553,0.78229916,0.32209137,-0.15459148,-0.38953112,-0.93057456,0.23271006,-0.50623683,-0.49490817,0.34335882,0.70022561
9.46000000,-0.01076084,0.74761431,-0.32092183,-0.34539511,0.78202632,0.32222633,-0.15485442,-0.38855505,-0.93052022,0.23268361,-0.50623749,-0.49552726,0.34345063,0.69874076
9.48000000,-0.01034912,0.74827726,-0.32042765,-0.34646833,0.78173742,0.32238344,-0.15514882,-0.38738042,-0.93043378,0.23265447,-0.50624018,-0.49617780,0.34356746,0.69715405
9.50000000,-0.00976193,0.74901500,-0.31989570,-0.34756880,0.78143833,0.32260434,-0.15549144,-0.38617563,-0.93033903,0.23264419,-0.50622843,-0.49679904,0.34370294,0.69562451
9.52000000,-0.00900264,0.74961371,-0.31927828,-0.34868713,0.78112566,0.32284884,-0.15585626,-0.38500598,-0.93020227,0.23265860,-0.50619955,-0.49741871,0.34384160,0.69415457
9.54000000,-0.00813745,0.75027491,-0.31868837,-0.34993065,0.78079149,0.32307474,-0.15623763,-0.38378930,-0.92997065,0.23265321,-0.50619992,-0.49828319,0.34393234,0.69230135
9.56000000,-0.00714775,0.75099365,-0.31797806,-0.35125393,0.78043353,0.32331678,-0.15664052,-0.38256818,-0.92962673,0.23263876,-0.50618948,-0.49930718,0.34404454,0.69035578
9.58000000,-0.00617423,0.75175051,-0.31729187,-0.35251727,0.78001148,0.32358292,-0.15709960,-0.38129079,-0.92926430,0.23259291,-0.50618012,-0.50050676,0.34414894,0.68844126
9.60000000,-0.00525892,0.75261118,-0.31653660,-0.35372787,0.77948759,0.32389158,-0.15758218,-0.37968324,-0.92890217,0.23247500,-0.50617386,-0.50170559,0.34429744,0.68649275
9.62000000,-0.00437830,0.75336106,-0.31572050,-0.35500270,0.77887626,0.32421672,-0.15808774,-0.37774153,-0.92847972,0.23241451,-0.50616539,-0.50282037,0.34446838,0.68436323
9.64000000,-0.00347719,0.75421907,-0.31491207,-0.35637654,0.77835007,0.32454070,-0.15856866,-0.37554075,-0.92804257,0.23239131,-0.50615221,-0.50390362,0.34467676,0.68217212
9.66000000,-0.00253589,0.75504479,-0.31395520,-0.35794945,0.77784178,0.32492892,-0.15902198,-0.37276746,-0.92754697,0.23237695,-0.50612440,-0.50509523,0.34487385,0.67982416
9.68000000,-0.00150103,0.75593992,-0.31304177,-0.35992992,0.77731197,0.32532135,-0.15939095,-0.36988656,-0.92712562,0.23238535,-0.50607309,-0.50632446,0.34508667,0.67749893
9.70000000,-0.00049441,0.75690700,-0.31212855,-0.36196412,0.77663864,0.32563007,-0.15979923,-0.36748645,-0.92678878,0.23239997,-0.50598714,-0.50743441,0.34536812,0.67519630
9.72000000,0.00044661,0.75777129,-0.31108201,-0.36371925,0.77604332,0.32591710,-0.16024895,-0.36500391,-0.92644838,0.23238115,-0.50591008,-0.50857662,0.34567892,0.67267423
9.74000000,0.00168989,0.75893960,-0.30956093,-0.36575812,0.77550941,0.32622803,-0.16074704,-0.36245807,-0.92609339,0.23237429,-0.50585870,-0.50967361,0.34593759,0.66988120
9.76000000,0.00278996,0.76021668,-0.30824845,-0.36780677,0.77496443,0.32655126,-0.16133649,-0.35986655,-0.92566798,0.23236456,-0.50580398,-0.51068623,0.34619482,0.66685258
9.78000000,0.00406753,0.76159216,-0.30704728,-0.36993382,0.77440086,0.32698087,-0.16197646,-0.35740895,-0.92523117,0.23235884,-0.50574703,-0.51175277,0.34649846,0.66373611
9.80000000,0.00542977,0.76291946,-0.30594769,-0.37216175,0.77362699,0.32743564,-0.16261964,-0.35493289,-0.92480364,0.23236740,-0.50567579,-0.51313349,0.34676967,0.66060780
9.82000000,0.00687127,0.76403720,-0.30473686,-0.37435847,0.77272545,0.32782506,-0.16335214,-0.35237902,-0.92428987,0.23233705,-0.50558939,-0.51475025,0.34701539,0.65727738
9.84000000,0.00827494,0.76518852,-0.30353743,-0.37652294,0.77190758,0.32816215,-0.16412362,-0.34952478,-0.92375349,0.23227536,-0.50550434,-0.51634923,0.34721716,0.65384449
9.86000000,0.00968167,0.76630208,-0.30229077,-0.37878615,0.77105487,0.32847939,-0.16482618,-0.34635083,-0.92309544,0.23219020,-0.50544133,-0.51802700,0.34743001,0.65050094
9.88000000,0.01106069,0.76742046,-0.30106089,-0.38119524,0.77024775,0.32891873,-0.16535875,-0.34280138,-0.92227497,0.23216912,-0.50533174,-0.51978903,0.34770076,0.64712264
9.90000000,0.01266345,0.76879831,-0.29957657,-0.38405190,0.76957178,0.32941446,-0.16591711,-0.33907213,-0.92131880,0.23218968,-0.50512939,-0.52157233,0.34803118,0.64366996
9.92000000,0.01418674,0.77018173,-0.29806666,-0.38649553,0.76892097,0.32990042,-0.16649155,-0.33539607,-0.92029171,0.23220421,-0.50486322,-0.52321089,0.34839562,0.63986477
9.94000000,0.01562193,0.77168972,-0.29642445,-0.38885085,0.76810370,0.33048115,-0.16718922,-0.33148653,-0.91931600,0.23220231,-0.50464570,-0.52477457,0.34870882,0.63587537
9.96000000,0.01695804,0.77323310,-0.29490883,-0.39134807,0.76722619,0.33108928,-0.16788727,-0.32761527,-0.91838400,0.23223308,-0.50448172,-0.52660020,0.34898951,0.63202921
9.98000000,0.01845569,0.77490690,-0.29340267,-0.39401456,0.76629296,0.33168166,-0.16864925,-0.32418816,-0.91742612,0.23223314,-0.50427961,-0.52884802,0.34930213,0.62799008
10.00000000,0.01980621,0.77640198,-0.29194124,-0.39644597,0.76534501,0.33215196,-0.16959933,-0.32080258,-0.91652444,0.23217971,-0.50403593,-0.53119514,0.34970843,0.62384366
10.02000000,0.02140014,0.77772692,-0.29030865,-0.39892951,0.76450567,0.33264276,-0.17056194,-0.31709840,-0.91579609,0.23208696,-0.50392640,-0.53348446,0.35004359,0.61929129
10.04000000,0.02289852,0.77908538,-0.28878658,-0.40157422,0.76377798,0.33312585,-0.17129953,-0.31307617,-0.91496993,0.23202988,-0.50378005,-0.53574202,0.35032792,0.61465435
10.06000000,0.02456838,0.78046682,-0.28718242,-0.40443646,0.76310024,0.33359495,-0.17190461,-0.30885686,-0.91400420,0.23202621,-0.50354334,-0.53782068,0.35065124,0.61022214
10.08000000,0.02639898,0.78212824,-0.28550728,-0.40757521,0.76205717,0.33406630,-0.17258267,-0.30473363,-0.91298014,0.23203932,-0.50327891,-0.53952337,0.35102540,0.60572068
10.10000000,0.02804495,0.78376498,-0.28404367,-0.41024252,0.76105228,0.33440165,-0.17329502,-0.30051447,-0.91198624,0.23206584,-0.50299180,-0.54131104,0.35142277,0.60138279
10.12000000,0.02975187,0.78533298,-0.28244369,-0.41281261,0.76002685,0.33484506,-0.17404732,-0.29628375,-0.91118176,0.23210348,-0.50278076,-0.54346709,0.35176160,0.59653047
10.14000000,0.03142090,0.78699207,-0.28101273,-0.41586932,0.75903929,0.33542793,-0.17489145,-0.29200471,-0.91049171,0.23209534,-0.50257278,-0.54583903,0.35217221,0.59134938
10.16000000,0.03289189,0.78838894,-0.27962498,-0.41835597,0.75822382,0.33599219,-0.17580990,-0.28749745,-0.90978561,0.23205490,-0.50227934,-0.54842422,0.35265185,0.58637033
10.18000000,0.03449442,0.78968366,-0.27794122,-0.42099993,0.75752796,0.33662572,-0.17669098,-0.28292339,-0.90888899,0.23202247,-0.50200520,-0.55113903,0.35304374,0.58114831
10.20000000,0.03620084,0.79113869,-0.27634845,-0.42366251,0.75666886,0.33717331,-0.17742905,-0.27835373,-0.90767933,0.23200479,-0.50172974,-0.55352095,0.35344222,0.57605735
10.22000000,0.03810113,0.79289426,-0.27460304,-0.42658182,0.75582217,0.33769923,-0.17808811,-0.27356832,-0.90616180,0.23201608,-0.50148178,-0.55581300,0.35387410,0.57074359
10.24000000,0.03973924,0.79448451,-0.27302492,-0.42941963,0.75483938,0.33819000,-0.17868953,-0.26863724,-0.90446810,0.23204232,-0.50126367,-0.55840816,0.35427825,0.56540978
10.26000000,0.04134154,0.79610127,-0.27148441,-0.43226839,0.75376564,0.33871317,-0.17937734,-0.26368287,-0.90291280,0.23206038,-0.50108776,-0.56111237,0.35457757,0.56028097
10.28000000,0.04294330,0.79766692,-0.27001295,-0.43497287,0.75295112,0.33920778,-0.18025404,-0.25844869,-0.90164978,0.23208585,-0.50085096,-0.56408487,0.35496693,0.55463967
10.30000000,0.04440841,0.79911682,-0.26863573,-0.43754690,0.75231280,0.33965921,-0.18111856,-0.25326699,-0.90048892,0.23204966,-0.50054593,-0.56676511,0.35548377,0.54876894
10.32000000,0.04605752,0.80043833,-0.26677735,-0.44036706,0.75144315,0.34005714,-0.18203970,-0.24794822,-0.89940818,0.23203404,-0.50028608,-0.56904476,0.35602501,0.54274640
10.34000000,0.04765998,0.80179815,-0.26518234,-0.44298244,0.75052128,0.34041289,-0.18290785,-0.24248381,-0.89829081,0.23206863,-0.50004912,-0.57193039,0.35650354,0.53676952
10.36000000,0.04930117,0.80326784,-0.26372734,-0.44562885,0.74960902,0.34089285,-0.18361687,-0.23671174,-0.89696173,0.23206945,-0.49984578,-0.57566599,0.35695663,0.53058325
10.38000000,0.05078698,0.80492867,-0.26244514,-0.44832265,0.74857003,0.34146967,-0.18422014,-0.23013537,-0.89582225,0.23200599,-0.49950786,-0.57950014,0.35757024,0.52361429
10.40000000,0.05228455,0.80643368,-0.26107501,-0.45082480,0.74773883,0.34202697,-0.18475699,-0.22341863,-0.89498752,0.23196837,-0.49907479,-0.58280939,0.35822948,0.51609010
10.42000000,0.05367875,0.80789122,-0.25957198,-0.45325578,0.74702467,0.34258286,-0.18531289,-0.21678842,-0.89384940,0.23197352,-0.49873104,-0.58590405,0.35871423,0.50883734
10.44000000,0.05486392,0.80926276,-0.25826790,-0.45556317,0.74623945,0.34307844,-0.18602843,-0.21020147,-0.89239257,0.23204974,-0.49834160,-0.58895676,0.35911614,0.50210543
10.46000000,0.05621503,0.81037598,-0.25676064,-0.45800623,0.74554462,0.34364588,-0.18677790,-0.20382631,-0.89079346,0.23216300,-0.49800186,-0.59208829,0.35952866,0.49515065
10.48000000,0.05770567,0.81153530,-0.25526684,-0.46054016,0.74482134,0.34408961,-0.18751344,-0.19758428,-0.88927226,0.23221491,-0.49771763,-0.59511901,0.35994599,0.48825458
10.50000000,0.05917061,0.81289050,-0.25389598,-0.46295221,0.74410700,0.34448472,-0.18828262,-0.19173528,-0.88807199,0.23220070,-0.49747244,-0.59780317,0.36039193,0.48142987
10.52000000,0.06037513,0.81417514,-0.25278433,-0.46504117,0.74328785,0.34482008,-0.18898688,-0.18604650,-0.88673694,0.23215953,-0.49725741,-0.60063344,0.36098391,0.47482840
10.54000000,0.06176544,0.81558768,-0.25162778,-0.46707810,0.74244349,0.34521780,-0.18962657,-0.18014821,-0.88510261,0.23214536,-0.49701613,-0.60371978,0.36165981,0.46835518
10.56000000,0.06313737,0.81679201,-0.25052599,-0.46920754,0.74187657,0.34557157,-0.19007964,-0.17423544,-0.88361499,0.23215663,-0.49677344,-0.60689517,0.36228371,0.46166177
10.58000000,0.06442506,0.81786511,-0.24946538,-0.47141903,0.74128542,0.34587279,-0.19051921,-0.16831788,-0.88250102,0.23215268,-0.49657207,-0.60998961,0.36284338,0.45520672
10.60000000,0.06551324,0.81890644,-0.24827675,-0.47334488,0.74060101,0.34616738,-0.19096329,-0.16204028,-0.88148917,0.23212808,-0.49630978,-0.61339920,0.36337222,0.44829225
10.62000000,0.06647226,0.82000576,-0.24714655,-0.47530529,0.73992989,0.34644157,-0.19150238,-0.15573815,-0.88029774,0.23212730,-0.49600428,-0.61715765,0.36386400,0.44124434
10.64000000,0.06742344,0.82089437,-0.24602059,-0.47713892,0.73936938,0.34668813,-0.19205468,-0.14969485,-0.87878032,0.23212730,-0.49562747,-0.62057645,0.36435433,0.43461954
10.66000000,0.06859302,0.82172825,-0.24483279,-0.47898896,0.73882502,0.34700946,-0.19262928,-0.14364991,-0.87700860,0.23213017,-0.49527423,-0.62376648,0.36485214,0.42801928
10.68000000,0.06971067,0.82264714,-0.24376770,-0.48089306,0.73827729,0.34739405,-0.19316932,-0.13767758,-0.87524151,0.23216031,-0.49500982,-0.62666692,0.36533906,0.42130892
10.70000000,0.07074086,0.82360869,-0.24279931,-0.48254390,0.73765742,0.34771644,-0.19373683,-0.13154545,-0.87343615,0.23219411,-0.49479028,-0.62974199,0.36582182,0.41412787
10.72000000,0.07167878,0.82443594,-0.24201514,-0.48404286,0.73711019,0.34803597,-0.19432059,-0.12531650,-0.87157699,0.23217478,-0.49454026,-0.63287561,0.36626931,0.40696740
10.74000000,0.07257026,0.82535477,-0.24130220,-0.48541689,0.73668664,0.34835423,-0.19482073,-0.11911409,-0.86992328,0.23219333,-0.49430275,-0.63604787,0.36669152,0.40037937
10.76000000,0.07341205,0.82615647,-0.24057029,-0.48659525,0.73624023,0.34865339,-0.19520867,-0.11274476,-0.86873097,0.23224633,-0.49405095,-0.63944038,0.36720849,0.39353636
10.78000000,0.07420782,0.82683301,-0.23981445,-0.48786506,0.73583098,0.34892987,-0.19551874,-0.10625413,-0.86780472,0.23225165,-0.49377929,-0.64323674,0.36776045,0.38614648
10.80000000,0.07489744,0.82746229,-0.23909327,-0.48895352,0.73541243,0.34916914,-0.19574590,-0.09988909,-0.86683958,0.23226829,-0.49339754,-0.64693282,0.36837607,0.37876613
10.82000000,0.07565631,0.82817413,-0.23838100,-0.49023119,0.73498859,0.34941070,-0.19596078,-0.09353151,-0.86568074,0.23223074,-0.49294103,-0.65033821,0.36903194,0.37197643
10.84000000,0.07629778,0.82889267,-0.23775880,-0.49152137,0.73464042,0.34967845,-0.19620032,-0.08719575,-0.86443117,0.23217661,-0.49254347,-0.65329095,0.36969872,0.36516454
10.86000000,0.07673078,0.82943164,-0.23714303,-0.49266805,0.73433556,0.34989652,-0.19640222,-0.08087838,-0.86306908,0.23218948,-0.49226019,-0.65642646,0.37019476,0.35806597
10.88000000,0.07709888,0.82997168,-0.23657973,-0.49376674,0.73406629,0.35005128,-0.19660202,-0.07432993,-0.86151627,0.23224261,-0.49201655,-0.65971343,0.37065092,0.35056583
10.90000000,0.07757733,0.83040901,-0.23601182,-0.49457551,0.73383347,0.35018227,-0.19677659,-0.06795491,-0.85990628,0.23228721,-0.49161686,-0.66300029,0.37116278,0.34351672
10.92000000,0.07805793,0.83081575,-0.23552128,-0.49520426,0.73363721,0.35028576,-0.19695995,-0.06151434,-0.85825334,0.23225966,-0.49127623,-0.66634152,0.37179855,0.33652057
10.94000000,0.07855246,0.83117388,-0.23517714,-0.49570508,0.73345788,0.35040531,-0.19716394,-0.05512872,-0.85655736,0.23227880,-0.49096762,-0.66968823,0.37236950,0.32948111
10.96000000,0.07910364,0.83145182,-0.23491256,-0.49617481,0.73328561,0.35053594,-0.19734285,-0.04870527,-0.85485260,0.23230720,-0.49073660,-0.67353021,0.37279674,0.32228509
10.98000000,0.07958710,0.83166901,-0.23466877,-0.49663382,0.73311241,0.35059539,-0.19752026,-0.04227397,-0.85341584,0.23233384,-0.49053746,-0.67707310,0.37322484,0.31504983
11.00000000,0.07996174,0.83187372,-0.23442591,-0.49702506,0.73290971,0.35065548,-0.19769136,-0.03587014,-0.85200657,0.23231903,-0.49030948,-0.68033477,0.37370266,0.30765694
11.02000000,0.08024609,0.83202570,-0.23418923,-0.49739640,0.73275520,0.35069541,-0.19780902,-0.02933354,-0.85045486,0.23223515,-0.49011184,-0.68307490,0.37420948,0.30070724
11.04000000,0.08045150,0.83217921,-0.23394130,-0.49777904,0.73263067,0.35074249,-0.19791971,-0.02288577,-0.84891523,0.23225317,-0.48987088,-0.68640109,0.37467109,0.29374945
11.06000000,0.08058043,0.83233306,-0.23373770,-0.49816733,0.73252708,0.35080451,-0.19801189,-0.01642560,-0.84713655,0.23230298,-0.48960319,-0.68991022,0.37516675,0.28679027
11.08000000,0.08061161,0.83249819,-0.23352968,-0.49851733,0.73243938,0.35085931,-0.19807578,-0.00986595,-0.84551840,0.23235867,-0.48929751,-0.69328839,0.37572040,0.27954803
11.10000000,0.08062293,0.83266791,-0.23332848,-0.49877278,0.73233724,0.35087980,-0.19812874,-0.00357615,-0.84405203,0.23234004,-0.48902466,-0.69642732,0.37633426,0.27240618
11.12000000,0.08065710,0.83281740,-0.23319700,-0.49892649,0.73229293,0.35087968,-0.19816478,0.00255786,-0.84241459,0.23233691,-0.48867497,-0.69973382,0.37703697,0.26545377
11.14000000,0.08071383,0.83295547,-0.23310140,-0.49899330,0.73225443,0.35090507,-0.19819553,0.00880530,-0.84095000,0.23236938,-0.48829646,-0.70314930,0.37776921,0.25855628
11.16000000,0.08078366,0.83305197,-0.23304146,-0.49902933,0.73222899,0.35091843,-0.19823375,0.01464070,-0.83991090,0.23240950,-0.48787640,-0.70638608,0.37840849,0.25183238
11.18000000,0.08082036,0.83310451,-0.23302604,-0.49906242,0.73221325,0.35094158,-0.19826436,0.02069747,-0.83886832,0.23238621,-0.48739069,-0.70930994,0.37895512,0.24480357
11.20000000,0.08085394,0.83314087,-0.23300657,-0.49907363,0.73220345,0.35096497,-0.19829091,0.02696882,-0.83756785,0.23236039,-0.48688186,-0.71234653,0.37941365,0.23782743
11.22000000,0.08087331,0.83314567,-0.23300076,-0.49910591,0.73219792,0.35098043,-0.19831158,0.03305331,-0.83610961,0.23229756,-0.48658146,-0.71568922,0.37986913,0.23068977
11.24000000,0.08091367,0.83315293,-0.23299203,-0.49910136,0.73218519,0.35097269,-0.19831151,0.03890658,-0.83495888,0.23234312,-0.48630876,-0.71884152,0.38025898,0.22416267
11.26000000,0.08089290,0.83316883,-0.23298534,-0.49910191,0.73218145,0.35098339,-0.19831464,0.04490384,-0.83367922,0.23238203,-0.48601225,-0.72205222,0.38072722,0.21740584
11.28000000,0.08086420,0.83317645,-0.23297913,-0.49913388,0.73218684,0.35098052,-0.19832551,0.05088346,-0.83247208,0.23239493,-0.48581676,-0.72504709,0.38119838,0.21020756
11.30000000,0.08089405,0.83318855,-0.23295904,-0.49913294,0.73219344,0.35097920,-0.19833565,0.05734441,-0.83119884,0.23239422,-0.48558017,-0.72861631,0.38162274,0.20387229
11.32000000,0.08091695,0.83319407,-0.23295894,-0.49912735,0.73219366,0.35098169,-0.19832932,0.06285413,-0.82993910,0.23237805,-0.48538023,-0.73158465,0.38210079,0.19783270
11.34000000,0.08096616,0.83319641,-0.23295106,-0.49912273,0.73217952,0.35097816,-0.19832264,0.06903171,-0.82816146,0.23237747,-0.48508727,-0.73509986,0.38272553,0.19094998
11.36000000,0.08097178,0.83320093,-0.23295677,-0.49911210,0.73218304,0.35097462,-0.19831433,0.07440177,-0.82653969,0.23241772,-0.48491114,-0.73742320,0.38326801,0.18472908
11.38000000,0.08092974,0.83319944,-0.23296467,-0.49914403,0.73218946,0.35096417,-0.19830552,0.08043473,-0.82535079,0.23241745,-0.48479045,-0.74016864,0.38373748,0.17822798
11.40000000,0.08093446,0.83321177,-0.23293595,-0.49912800,0.73218743,0.35098042,-0.19831156,0.08654136,-0.82412400,0.23242538,-0.48459544,-0.74324415,0.38433362,0.17175415
11.42000000,0.08097995,0.83320647,-0.23292853,-0.49911815,0.73220152,0.35100600,-0.19829363,0.09201595,-0.82276616,0.23242108,-0.48433165,-0.74616130,0.38499495,0.16569395
11.44000000,0.08108666,0.83318758,-0.23292464,-0.49912255,0.73220695,0.35101039,-0.19826436,0.09757980,-0.82126434,0.23242393,-0.48402566,-0.74939529,0.38556909,0.15952058
11.46000000,0.08114344,0.83319279,-0.23291128,-0.49911603,0.73224168,0.35101351,-0.19822866,0.10300944,-0.81985374,0.23245297,-0.48370166,-0.75217295,0.38602183,0.15299408
11.48000000,0.08119283,0.83318918,-0.23290794,-0.49912497,0.73228265,0.35102219,-0.19817134,0.10897118,-0.81860453,0.23245364,-0.48351680,-0.75545660,0.38642553,0.14648001
11.50000000,0.08130383,0.83319556,-0.23290605,-0.49912415,0.73231903,0.35103836,-0.19811117,0.11444566,-0.81752830,0.23245426,-0.48327787,-0.75846670,0.38684776,0.14057855
11.52000000,0.08145130,0.83318206,-0.23289515,-0.49912696,0.73239059,0.35108651,-0.19801143,0.11944373,-0.81663827,0.23245015,-0.48304827,-0.76134098,0.38725535,0.13496032
11.54000000,0.08156912,0.83318779,-0.23290930,-0.49911873,0.73247901,0.35109763,-0.19784356,0.12454041,-0.81551946,0.23244265,-0.48281208,-0.76416420,0.38768393,0.12914660
11.56000000,0.08170758,0.83319543,-0.23290553,-0.49910350,0.73256721,0.35114451,-0.19761363,0.12949973,-0.81418012,0.23243790,-0.48251974,-0.76632603,0.38805722,0.12310561
11.58000000,0.08189191,0.83318782,-0.23288900,-0.49910740,0.73269930,0.35118539,-0.19732017,0.13478432,-0.81299233,0.23244274,-0.48231207,-0.76898330,0.38827793,0.11746460
11.60000000,0.08212406,0.83318078,-0.23288064,-0.49910812,0.73288270,0.35124592,-0.19697937,0.14037885,-0.81199543,0.23243106,-0.48210651,-0.77178012,0.38856072,0.11147264
