gracetata/LocomotionHEC/legged_lab/Reference Data/ArmHack/StandPerturb/TestData/ArmOnly/sequences/synthesized_poses_arm_only_sequence_50hz.csv
time_s,left_shoulder_pitch_joint,left_shoulder_roll_joint,left_shoulder_yaw_joint,left_elbow_joint,left_wrist_roll_joint,left_wrist_pitch_joint,left_wrist_yaw_joint,right_shoulder_pitch_joint,right_shoulder_roll_joint,right_shoulder_yaw_joint,right_elbow_joint,right_wrist_roll_joint,right_wrist_pitch_joint,right_wrist_yaw_joint
0.00000000,-0.26806911,0.81615129,-0.32947771,-0.36948638,0.63449621,0.25769815,-0.47130231,0.27843663,-0.77841100,0.22944881,-0.47519271,-0.84815483,0.40067427,-0.04657445
0.02000000,-0.26806911,0.81615129,-0.32947771,-0.36948638,0.63449621,0.25769815,-0.47130231,0.27843663,-0.77841100,0.22944881,-0.47519271,-0.84815483,0.40067427,-0.04657445
0.04000000,-0.26806911,0.81615129,-0.32947771,-0.36948638,0.63449621,0.25769815,-0.47130231,0.27843663,-0.77841100,0.22944881,-0.47519271,-0.84815483,0.40067427,-0.04657445
0.06000000,-0.26806911,0.81615129,-0.32947771,-0.36948638,0.63449621,0.25769815,-0.47130231,0.27843663,-0.77841100,0.22944881,-0.47519271,-0.84815483,0.40067427,-0.04657445
0.08000000,-0.26806911,0.81615129,-0.32947771,-0.36948638,0.63449621,0.25769815,-0.47130231,0.27843663,-0.77841100,0.22944881,-0.47519271,-0.84815483,0.40067427,-0.04657445
0.10000000,-0.26806911,0.81615129,-0.32947771,-0.36948638,0.63449621,0.25769815,-0.47130231,0.27843663,-0.77841100,0.22944881,-0.47519271,-0.84815483,0.40067427,-0.04657445
0.12000000,-0.26806911,0.81615129,-0.32947771,-0.36948638,0.63449621,0.25769815,-0.47130231,0.27843663,-0.77841100,0.22944881,-0.47519271,-0.84815483,0.40067427,-0.04657445
0.14000000,-0.26806911,0.81615129,-0.32947771,-0.36948638,0.63449621,0.25769815,-0.47130231,0.27843663,-0.77841100,0.22944881,-0.47519271,-0.84815483,0.40067427,-0.04657445
0.16000000,-0.26806911,0.81615129,-0.32947771,-0.36948638,0.63449621,0.25769815,-0.47130231,0.27843663,-0.77841100,0.22944881,-0.47519271,-0.84815483,0.40067427,-0.04657445
0.18000000,-0.26806911,0.81615129,-0.32947771,-0.36948638,0.63449621,0.25769815,-0.47130231,0.27843663,-0.77841100,0.22944881,-0.47519271,-0.84815483,0.40067427,-0.04657445
0.20000000,-0.26806911,0.81615129,-0.32947771,-0.36948638,0.63449621,0.25769815,-0.47130231,0.27843663,-0.77841100,0.22944881,-0.47519271,-0.84815483,0.40067427,-0.04657445
0.22000000,-0.26806911,0.81615129,-0.32947771,-0.36948638,0.63449621,0.25769815,-0.47130231,0.27843663,-0.77841100,0.22944881,-0.47519271,-0.84815483,0.40067427,-0.04657445
0.24000000,-0.26806911,0.81615129,-0.32947771,-0.36948638,0.63449621,0.25769815,-0.47130231,0.27843663,-0.77841100,0.22944881,-0.47519271,-0.84815483,0.40067427,-0.04657445
0.26000000,-0.26806911,0.81615129,-0.32947771,-0.36948638,0.63449621,0.25769815,-0.47130231,0.27843663,-0.77841100,0.22944881,-0.47519271,-0.84815483,0.40067427,-0.04657445
0.28000000,-0.26806911,0.81615129,-0.32947771,-0.36948638,0.63449621,0.25769815,-0.47130231,0.27843663,-0.77841100,0.22944881,-0.47519271,-0.84815483,0.40067427,-0.04657445
0.30000000,-0.26806911,0.81615129,-0.32947771,-0.36948638,0.63449621,0.25769815,-0.47130231,0.27843663,-0.77841100,0.22944881,-0.47519271,-0.84815483,0.40067427,-0.04657445
0.32000000,-0.26806911,0.81615129,-0.32947771,-0.36948638,0.63449621,0.25769815,-0.47130231,0.27843663,-0.77841100,0.22944881,-0.47519271,-0.84815483,0.40067427,-0.04657445
0.34000000,-0.26806911,0.81615129,-0.32947771,-0.36948638,0.63449621,0.25769815,-0.47130231,0.27843663,-0.77841100,0.22944881,-0.47519271,-0.84815483,0.40067427,-0.04657445
0.36000000,-0.26806911,0.81615129,-0.32947771,-0.36948638,0.63449621,0.25769815,-0.47130231,0.27843663,-0.77841100,0.22944881,-0.47519271,-0.84815483,0.40067427,-0.04657445
0.38000000,-0.26806911,0.81615129,-0.32947771,-0.36948638,0.63449621,0.25769815,-0.47130231,0.27843663,-0.77841100,0.22944881,-0.47519271,-0.84815483,0.40067427,-0.04657445
0.40000000,-0.26806911,0.81615129,-0.32947771,-0.36948638,0.63449621,0.25769815,-0.47130231,0.27843663,-0.77841100,0.22944881,-0.47519271,-0.84815483,0.40067427,-0.04657445
0.42000000,-0.26806911,0.81615129,-0.32947771,-0.36948638,0.63449621,0.25769815,-0.47130231,0.27843663,-0.77841100,0.22944881,-0.47519271,-0.84815483,0.40067427,-0.04657445
0.44000000,-0.26806911,0.81615129,-0.32947771,-0.36948638,0.63449621,0.25769815,-0.47130231,0.27843663,-0.77841100,0.22944881,-0.47519271,-0.84815483,0.40067427,-0.04657445
0.46000000,-0.26806911,0.81615129,-0.32947771,-0.36948638,0.63449621,0.25769815,-0.47130231,0.27843663,-0.77841100,0.22944881,-0.47519271,-0.84815483,0.40067427,-0.04657445
0.48000000,-0.26806911,0.81615129,-0.32947771,-0.36948638,0.63449621,0.25769815,-0.47130231,0.27843663,-0.77841100,0.22944881,-0.47519271,-0.84815483,0.40067427,-0.04657445
0.50000000,-0.26806911,0.81615129,-0.32947771,-0.36948638,0.63449621,0.25769815,-0.47130231,0.27843663,-0.77841100,0.22944881,-0.47519271,-0.84815483,0.40067427,-0.04657445
0.52000000,-0.26806911,0.81615129,-0.32947771,-0.36948638,0.63449621,0.25769815,-0.47130231,0.27843663,-0.77841100,0.22944881,-0.47519271,-0.84815483,0.40067427,-0.04657445
0.54000000,-0.26806911,0.81615129,-0.32947771,-0.36948638,0.63449621,0.25769815,-0.47130231,0.27843663,-0.77841100,0.22944881,-0.47519271,-0.84815483,0.40067427,-0.04657445
0.56000000,-0.26806911,0.81615129,-0.32947771,-0.36948638,0.63449621,0.25769815,-0.47130231,0.27843663,-0.77841100,0.22944881,-0.47519271,-0.84815483,0.40067427,-0.04657445
0.58000000,-0.26806911,0.81615129,-0.32947771,-0.36948638,0.63449621,0.25769815,-0.47130231,0.27843663,-0.77841100,0.22944881,-0.47519271,-0.84815483,0.40067427,-0.04657445
0.60000000,-0.26806911,0.81615129,-0.32947771,-0.36948638,0.63449621,0.25769815,-0.47130231,0.27843663,-0.77841100,0.22944881,-0.47519271,-0.84815483,0.40067427,-0.04657445
0.62000000,-0.26806911,0.81615129,-0.32947771,-0.36948638,0.63449621,0.25769815,-0.47130231,0.27843663,-0.77841100,0.22944881,-0.47519271,-0.84815483,0.40067427,-0.04657445
0.64000000,-0.26806911,0.81615129,-0.32947771,-0.36948638,0.63449621,0.25769815,-0.47130231,0.27843663,-0.77841100,0.22944881,-0.47519271,-0.84815483,0.40067427,-0.04657445
0.66000000,-0.26806911,0.81615129,-0.32947771,-0.36948638,0.63449621,0.25769815,-0.47130231,0.27843663,-0.77841100,0.22944881,-0.47519271,-0.84815483,0.40067427,-0.04657445
0.68000000,-0.26806911,0.81615129,-0.32947771,-0.36948638,0.63449621,0.25769815,-0.47130231,0.27843663,-0.77841100,0.22944881,-0.47519271,-0.84815483,0.40067427,-0.04657445
0.70000000,-0.26806911,0.81615129,-0.32947771,-0.36948638,0.63449621,0.25769815,-0.47130231,0.27843663,-0.77841100,0.22944881,-0.47519271,-0.84815483,0.40067427,-0.04657445
0.72000000,-0.26806911,0.81615129,-0.32947771,-0.36948638,0.63449621,0.25769815,-0.47130231,0.27843663,-0.77841100,0.22944881,-0.47519271,-0.84815483,0.40067427,-0.04657445
0.74000000,-0.26806911,0.81615129,-0.32947771,-0.36948638,0.63449621,0.25769815,-0.47130231,0.27843663,-0.77841100,0.22944881,-0.47519271,-0.84815483,0.40067427,-0.04657445
0.76000000,-0.26806911,0.81615129,-0.32947771,-0.36948638,0.63449621,0.25769815,-0.47130231,0.27843663,-0.77841100,0.22944881,-0.47519271,-0.84815483,0.40067427,-0.04657445
0.78000000,-0.26806911,0.81615129,-0.32947771,-0.36948638,0.63449621,0.25769815,-0.47130231,0.27843663,-0.77841100,0.22944881,-0.47519271,-0.84815483,0.40067427,-0.04657445
0.80000000,-0.26806911,0.81615129,-0.32947771,-0.36948638,0.63449621,0.25769815,-0.47130231,0.27843663,-0.77841100,0.22944881,-0.47519271,-0.84815483,0.40067427,-0.04657445
0.82000000,-0.26806911,0.81615129,-0.32947771,-0.36948638,0.63449621,0.25769815,-0.47130231,0.27843663,-0.77841100,0.22944881,-0.47519271,-0.84815483,0.40067427,-0.04657445
0.84000000,-0.26806911,0.81615129,-0.32947771,-0.36948638,0.63449621,0.25769815,-0.47130231,0.27843663,-0.77841100,0.22944881,-0.47519271,-0.84815483,0.40067427,-0.04657445
0.86000000,-0.26806911,0.81615129,-0.32947771,-0.36948638,0.63449621,0.25769815,-0.47130231,0.27843663,-0.77841100,0.22944881,-0.47519271,-0.84815483,0.40067427,-0.04657445
0.88000000,-0.26806911,0.81615129,-0.32947771,-0.36948638,0.63449621,0.25769815,-0.47130231,0.27843663,-0.77841100,0.22944881,-0.47519271,-0.84815483,0.40067427,-0.04657445
0.90000000,-0.26806911,0.81615129,-0.32947771,-0.36948638,0.63449621,0.25769815,-0.47130231,0.27843663,-0.77841100,0.22944881,-0.47519271,-0.84815483,0.40067427,-0.04657445
0.92000000,-0.26806911,0.81615129,-0.32947771,-0.36948638,0.63449621,0.25769815,-0.47130231,0.27843663,-0.77841100,0.22944881,-0.47519271,-0.84815483,0.40067427,-0.04657445
0.94000000,-0.26806911,0.81615129,-0.32947771,-0.36948638,0.63449621,0.25769815,-0.47130231,0.27843663,-0.77841100,0.22944881,-0.47519271,-0.84815483,0.40067427,-0.04657445
0.96000000,-0.26806911,0.81615129,-0.32947771,-0.36948638,0.63449621,0.25769815,-0.47130231,0.27843663,-0.77841100,0.22944881,-0.47519271,-0.84815483,0.40067427,-0.04657445
0.98000000,-0.26806911,0.81615129,-0.32947771,-0.36948638,0.63449621,0.25769815,-0.47130231,0.27843663,-0.77841100,0.22944881,-0.47519271,-0.84815483,0.40067427,-0.04657445
1.00000000,-0.26806911,0.81615129,-0.32947771,-0.36948638,0.63449621,0.25769815,-0.47130231,0.27843663,-0.77841100,0.22944881,-0.47519271,-0.84815483,0.40067427,-0.04657445
1.02000000,-0.26806911,0.81615129,-0.32947771,-0.36948638,0.63449621,0.25769815,-0.47130231,0.27843663,-0.77841100,0.22944881,-0.47519271,-0.84815483,0.40067427,-0.04657445
1.04000000,-0.26806911,0.81615129,-0.32947771,-0.36948638,0.63449621,0.25769815,-0.47130231,0.27843663,-0.77841100,0.22944881,-0.47519271,-0.84815483,0.40067427,-0.04657445
1.06000000,-0.26806911,0.81615129,-0.32947771,-0.36948638,0.63449621,0.25769815,-0.47130231,0.27843663,-0.77841100,0.22944881,-0.47519271,-0.84815483,0.40067427,-0.04657445
1.08000000,-0.26806911,0.81615129,-0.32947771,-0.36948638,0.63449621,0.25769815,-0.47130231,0.27843663,-0.77841100,0.22944881,-0.47519271,-0.84815483,0.40067427,-0.04657445
1.10000000,-0.26806911,0.81615129,-0.32947771,-0.36948638,0.63449621,0.25769815,-0.47130231,0.27843663,-0.77841100,0.22944881,-0.47519271,-0.84815483,0.40067427,-0.04657445
1.12000000,-0.26806911,0.81615129,-0.32947771,-0.36948638,0.63449621,0.25769815,-0.47130231,0.27843663,-0.77841100,0.22944881,-0.47519271,-0.84815483,0.40067427,-0.04657445
1.14000000,-0.26806911,0.81615129,-0.32947771,-0.36948638,0.63449621,0.25769815,-0.47130231,0.27843663,-0.77841100,0.22944881,-0.47519271,-0.84815483,0.40067427,-0.04657445
1.16000000,-0.26806911,0.81615129,-0.32947771,-0.36948638,0.63449621,0.25769815,-0.47130231,0.27843663,-0.77841100,0.22944881,-0.47519271,-0.84815483,0.40067427,-0.04657445
1.18000000,-0.26806911,0.81615129,-0.32947771,-0.36948638,0.63449621,0.25769815,-0.47130231,0.27843663,-0.77841100,0.22944881,-0.47519271,-0.84815483,0.40067427,-0.04657445
1.20000000,-0.26806911,0.81615129,-0.32947771,-0.36948638,0.63449621,0.25769815,-0.47130231,0.27843663,-0.77841100,0.22944881,-0.47519271,-0.84815483,0.40067427,-0.04657445
1.22000000,-0.26806911,0.81615129,-0.32947771,-0.36948638,0.63449621,0.25769815,-0.47130231,0.27843663,-0.77841100,0.22944881,-0.47519271,-0.84815483,0.40067427,-0.04657445
1.24000000,-0.26806911,0.81615129,-0.32947771,-0.36948638,0.63449621,0.25769815,-0.47130231,0.27843663,-0.77841100,0.22944881,-0.47519271,-0.84815483,0.40067427,-0.04657445
1.26000000,-0.26806911,0.81615129,-0.32947771,-0.36948638,0.63449621,0.25769815,-0.47130231,0.27843663,-0.77841100,0.22944881,-0.47519271,-0.84815483,0.40067427,-0.04657445
1.28000000,-0.26806911,0.81615129,-0.32947771,-0.36948638,0.63449621,0.25769815,-0.47130231,0.27843663,-0.77841100,0.22944881,-0.47519271,-0.84815483,0.40067427,-0.04657445
1.30000000,-0.26806911,0.81615129,-0.32947771,-0.36948638,0.63449621,0.25769815,-0.47130231,0.27843663,-0.77841100,0.22944881,-0.47519271,-0.84815483,0.40067427,-0.04657445
1.32000000,-0.26806911,0.81615129,-0.32947771,-0.36948638,0.63449621,0.25769815,-0.47130231,0.27843663,-0.77841100,0.22944881,-0.47519271,-0.84815483,0.40067427,-0.04657445
1.34000000,-0.26806911,0.81615129,-0.32947771,-0.36948638,0.63449621,0.25769815,-0.47130231,0.27843663,-0.77841100,0.22944881,-0.47519271,-0.84815483,0.40067427,-0.04657445
1.36000000,-0.26806911,0.81615129,-0.32947771,-0.36948638,0.63449621,0.25769815,-0.47130231,0.27843663,-0.77841100,0.22944881,-0.47519271,-0.84815483,0.40067427,-0.04657445
1.38000000,-0.26806911,0.81615129,-0.32947771,-0.36948638,0.63449621,0.25769815,-0.47130231,0.27843663,-0.77841100,0.22944881,-0.47519271,-0.84815483,0.40067427,-0.04657445
1.40000000,-0.26806911,0.81615129,-0.32947771,-0.36948638,0.63449621,0.25769815,-0.47130231,0.27843663,-0.77841100,0.22944881,-0.47519271,-0.84815483,0.40067427,-0.04657445
1.42000000,-0.26806911,0.81615129,-0.32947771,-0.36948638,0.63449621,0.25769815,-0.47130231,0.27843663,-0.77841100,0.22944881,-0.47519271,-0.84815483,0.40067427,-0.04657445
1.44000000,-0.26806911,0.81615129,-0.32947771,-0.36948638,0.63449621,0.25769815,-0.47130231,0.27843663,-0.77841100,0.22944881,-0.47519271,-0.84815483,0.40067427,-0.04657445
1.46000000,-0.26806911,0.81615129,-0.32947771,-0.36948638,0.63449621,0.25769815,-0.47130231,0.27843663,-0.77841100,0.22944881,-0.47519271,-0.84815483,0.40067427,-0.04657445
1.48000000,-0.26806911,0.81615129,-0.32947771,-0.36948638,0.63449621,0.25769815,-0.47130231,0.27843663,-0.77841100,0.22944881,-0.47519271,-0.84815483,0.40067427,-0.04657445
1.50000000,-0.26806911,0.81615129,-0.32947771,-0.36948638,0.63449621,0.25769815,-0.47130231,0.27843663,-0.77841100,0.22944881,-0.47519271,-0.84815483,0.40067427,-0.04657445
1.52000000,-0.26806911,0.81615129,-0.32947771,-0.36948638,0.63449621,0.25769815,-0.47130231,0.27843663,-0.77841100,0.22944881,-0.47519271,-0.84815483,0.40067427,-0.04657445
1.54000000,-0.26806911,0.81615129,-0.32947771,-0.36948638,0.63449621,0.25769815,-0.47130231,0.27843663,-0.77841100,0.22944881,-0.47519271,-0.84815483,0.40067427,-0.04657445
1.56000000,-0.26806911,0.81615129,-0.32947771,-0.36948638,0.63449621,0.25769815,-0.47130231,0.27843663,-0.77841100,0.22944881,-0.47519271,-0.84815483,0.40067427,-0.04657445
1.58000000,-0.26806911,0.81615129,-0.32947771,-0.36948638,0.63449621,0.25769815,-0.47130231,0.27843663,-0.77841100,0.22944881,-0.47519271,-0.84815483,0.40067427,-0.04657445
1.60000000,-0.26806911,0.81615129,-0.32947771,-0.36948638,0.63449621,0.25769815,-0.47130231,0.27843663,-0.77841100,0.22944881,-0.47519271,-0.84815483,0.40067427,-0.04657445
1.62000000,-0.26806911,0.81615129,-0.32947771,-0.36948638,0.63449621,0.25769815,-0.47130231,0.27843663,-0.77841100,0.22944881,-0.47519271,-0.84815483,0.40067427,-0.04657445
1.64000000,-0.26806911,0.81615129,-0.32947771,-0.36948638,0.63449621,0.25769815,-0.47130231,0.27843663,-0.77841100,0.22944881,-0.47519271,-0.84815483,0.40067427,-0.04657445
1.66000000,-0.26806911,0.81615129,-0.32947771,-0.36948638,0.63449621,0.25769815,-0.47130231,0.27843663,-0.77841100,0.22944881,-0.47519271,-0.84815483,0.40067427,-0.04657445
1.68000000,-0.26806911,0.81615129,-0.32947771,-0.36948638,0.63449621,0.25769815,-0.47130231,0.27843663,-0.77841100,0.22944881,-0.47519271,-0.84815483,0.40067427,-0.04657445
1.70000000,-0.26806911,0.81615129,-0.32947771,-0.36948638,0.63449621,0.25769815,-0.47130231,0.27843663,-0.77841100,0.22944881,-0.47519271,-0.84815483,0.40067427,-0.04657445
1.72000000,-0.26806911,0.81615129,-0.32947771,-0.36948638,0.63449621,0.25769815,-0.47130231,0.27843663,-0.77841100,0.22944881,-0.47519271,-0.84815483,0.40067427,-0.04657445
1.74000000,-0.26806911,0.81615129,-0.32947771,-0.36948638,0.63449621,0.25769815,-0.47130231,0.27843663,-0.77841100,0.22944881,-0.47519271,-0.84815483,0.40067427,-0.04657445
1.76000000,-0.26806911,0.81615129,-0.32947771,-0.36948638,0.63449621,0.25769815,-0.47130231,0.27843663,-0.77841100,0.22944881,-0.47519271,-0.84815483,0.40067427,-0.04657445
1.78000000,-0.26806911,0.81615129,-0.32947771,-0.36948638,0.63449621,0.25769815,-0.47130231,0.27843663,-0.77841100,0.22944881,-0.47519271,-0.84815483,0.40067427,-0.04657445
1.80000000,-0.26806911,0.81615129,-0.32947771,-0.36948638,0.63449621,0.25769815,-0.47130231,0.27843663,-0.77841100,0.22944881,-0.47519271,-0.84815483,0.40067427,-0.04657445
1.82000000,-0.26806911,0.81615129,-0.32947771,-0.36948638,0.63449621,0.25769815,-0.47130231,0.27843663,-0.77841100,0.22944881,-0.47519271,-0.84815483,0.40067427,-0.04657445
1.84000000,-0.26806911,0.81615129,-0.32947771,-0.36948638,0.63449621,0.25769815,-0.47130231,0.27843663,-0.77841100,0.22944881,-0.47519271,-0.84815483,0.40067427,-0.04657445
1.86000000,-0.26806911,0.81615129,-0.32947771,-0.36948638,0.63449621,0.25769815,-0.47130231,0.27843663,-0.77841100,0.22944881,-0.47519271,-0.84815483,0.40067427,-0.04657445
1.88000000,-0.26806911,0.81615129,-0.32947771,-0.36948638,0.63449621,0.25769815,-0.47130231,0.27843663,-0.77841100,0.22944881,-0.47519271,-0.84815483,0.40067427,-0.04657445
1.90000000,-0.26806911,0.81615129,-0.32947771,-0.36948638,0.63449621,0.25769815,-0.47130231,0.27843663,-0.77841100,0.22944881,-0.47519271,-0.84815483,0.40067427,-0.04657445
1.92000000,-0.26806911,0.81615129,-0.32947771,-0.36948638,0.63449621,0.25769815,-0.47130231,0.27843663,-0.77841100,0.22944881,-0.47519271,-0.84815483,0.40067427,-0.04657445
1.94000000,-0.26806911,0.81615129,-0.32947771,-0.36948638,0.63449621,0.25769815,-0.47130231,0.27843663,-0.77841100,0.22944881,-0.47519271,-0.84815483,0.40067427,-0.04657445
1.96000000,-0.26806911,0.81615129,-0.32947771,-0.36948638,0.63449621,0.25769815,-0.47130231,0.27843663,-0.77841100,0.22944881,-0.47519271,-0.84815483,0.40067427,-0.04657445
1.98000000,-0.26806911,0.81615129,-0.32947771,-0.36948638,0.63449621,0.25769815,-0.47130231,0.27843663,-0.77841100,0.22944881,-0.47519271,-0.84815483,0.40067427,-0.04657445
2.00000000,-0.26806911,0.81615129,-0.32947771,-0.36948638,0.63449621,0.25769815,-0.47130231,0.27843663,-0.77841100,0.22944881,-0.47519271,-0.84815483,0.40067427,-0.04657445
2.02000000,-0.26806911,0.81615129,-0.32947771,-0.36948638,0.63449621,0.25769815,-0.47130231,0.27843663,-0.77841100,0.22944881,-0.47519271,-0.84815483,0.40067427,-0.04657445
2.04000000,-0.26806911,0.81615129,-0.32947771,-0.36948638,0.63449621,0.25769815,-0.47130231,0.27843663,-0.77841100,0.22944881,-0.47519271,-0.84815483,0.40067427,-0.04657445
2.06000000,-0.26806911,0.81615129,-0.32947771,-0.36948638,0.63449621,0.25769815,-0.47130231,0.27843663,-0.77841100,0.22944881,-0.47519271,-0.84815483,0.40067427,-0.04657445
2.08000000,-0.26806911,0.81615129,-0.32947771,-0.36948638,0.63449621,0.25769815,-0.47130231,0.27843663,-0.77841100,0.22944881,-0.47519271,-0.84815483,0.40067427,-0.04657445
2.10000000,-0.26806911,0.81615129,-0.32947771,-0.36948638,0.63449621,0.25769815,-0.47130231,0.27843663,-0.77841100,0.22944881,-0.47519271,-0.84815483,0.40067427,-0.04657445
2.12000000,-0.26806911,0.81615129,-0.32947771,-0.36948638,0.63449621,0.25769815,-0.47130231,0.27843663,-0.77841100,0.22944881,-0.47519271,-0.84815483,0.40067427,-0.04657445
2.14000000,-0.26806911,0.81615129,-0.32947771,-0.36948638,0.63449621,0.25769815,-0.47130231,0.27843663,-0.77841100,0.22944881,-0.47519271,-0.84815483,0.40067427,-0.04657445
2.16000000,-0.26806911,0.81615129,-0.32947771,-0.36948638,0.63449621,0.25769815,-0.47130231,0.27843663,-0.77841100,0.22944881,-0.47519271,-0.84815483,0.40067427,-0.04657445
2.18000000,-0.26806911,0.81615129,-0.32947771,-0.36948638,0.63449621,0.25769815,-0.47130231,0.27843663,-0.77841100,0.22944881,-0.47519271,-0.84815483,0.40067427,-0.04657445
2.20000000,-0.26806911,0.81615129,-0.32947771,-0.36948638,0.63449621,0.25769815,-0.47130231,0.27843663,-0.77841100,0.22944881,-0.47519271,-0.84815483,0.40067427,-0.04657445
2.22000000,-0.26806911,0.81615129,-0.32947771,-0.36948638,0.63449621,0.25769815,-0.47130231,0.27843663,-0.77841100,0.22944881,-0.47519271,-0.84815483,0.40067427,-0.04657445
2.24000000,-0.26806911,0.81615129,-0.32947771,-0.36948638,0.63449621,0.25769815,-0.47130231,0.27843663,-0.77841100,0.22944881,-0.47519271,-0.84815483,0.40067427,-0.04657445
2.26000000,-0.26806911,0.81615129,-0.32947771,-0.36948638,0.63449621,0.25769815,-0.47130231,0.27843663,-0.77841100,0.22944881,-0.47519271,-0.84815483,0.40067427,-0.04657445
2.28000000,-0.26806911,0.81615129,-0.32947771,-0.36948638,0.63449621,0.25769815,-0.47130231,0.27843663,-0.77841100,0.22944881,-0.47519271,-0.84815483,0.40067427,-0.04657445
2.30000000,-0.26806911,0.81615129,-0.32947771,-0.36948638,0.63449621,0.25769815,-0.47130231,0.27843663,-0.77841100,0.22944881,-0.47519271,-0.84815483,0.40067427,-0.04657445
2.32000000,-0.26806911,0.81615129,-0.32947771,-0.36948638,0.63449621,0.25769815,-0.47130231,0.27843663,-0.77841100,0.22944881,-0.47519271,-0.84815483,0.40067427,-0.04657445
2.34000000,-0.26806911,0.81615129,-0.32947771,-0.36948638,0.63449621,0.25769815,-0.47130231,0.27843663,-0.77841100,0.22944881,-0.47519271,-0.84815483,0.40067427,-0.04657445
2.36000000,-0.26806911,0.81615129,-0.32947771,-0.36948638,0.63449621,0.25769815,-0.47130231,0.27843663,-0.77841100,0.22944881,-0.47519271,-0.84815483,0.40067427,-0.04657445
2.38000000,-0.26806911,0.81615129,-0.32947771,-0.36948638,0.63449621,0.25769815,-0.47130231,0.27843663,-0.77841100,0.22944881,-0.47519271,-0.84815483,0.40067427,-0.04657445
2.40000000,-0.26806911,0.81615129,-0.32947771,-0.36948638,0.63449621,0.25769815,-0.47130231,0.27843663,-0.77841100,0.22944881,-0.47519271,-0.84815483,0.40067427,-0.04657445
2.42000000,-0.26806911,0.81615129,-0.32947771,-0.36948638,0.63449621,0.25769815,-0.47130231,0.27843663,-0.77841100,0.22944881,-0.47519271,-0.84815483,0.40067427,-0.04657445
2.44000000,-0.26806911,0.81615129,-0.32947771,-0.36948638,0.63449621,0.25769815,-0.47130231,0.27843663,-0.77841100,0.22944881,-0.47519271,-0.84815483,0.40067427,-0.04657445
2.46000000,-0.26806911,0.81615129,-0.32947771,-0.36948638,0.63449621,0.25769815,-0.47130231,0.27843663,-0.77841100,0.22944881,-0.47519271,-0.84815483,0.40067427,-0.04657445
2.48000000,-0.26806911,0.81615129,-0.32947771,-0.36948638,0.63449621,0.25769815,-0.47130231,0.27843663,-0.77841100,0.22944881,-0.47519271,-0.84815483,0.40067427,-0.04657445
2.50000000,-0.26806911,0.81615129,-0.32947771,-0.36948638,0.63449621,0.25769815,-0.47130231,0.27843663,-0.77841100,0.22944881,-0.47519271,-0.84815483,0.40067427,-0.04657445
2.52000000,-0.26806911,0.81615129,-0.32947771,-0.36948638,0.63449621,0.25769815,-0.47130231,0.27843663,-0.77841100,0.22944881,-0.47519271,-0.84815483,0.40067427,-0.04657445
2.54000000,-0.26806911,0.81615129,-0.32947771,-0.36948638,0.63449621,0.25769815,-0.47130231,0.27843663,-0.77841100,0.22944881,-0.47519271,-0.84815483,0.40067427,-0.04657445
2.56000000,-0.26806911,0.81615129,-0.32947771,-0.36948638,0.63449621,0.25769815,-0.47130231,0.27843663,-0.77841100,0.22944881,-0.47519271,-0.84815483,0.40067427,-0.04657445
2.58000000,-0.26806911,0.81615129,-0.32947771,-0.36948638,0.63449621,0.25769815,-0.47130231,0.27843663,-0.77841100,0.22944881,-0.47519271,-0.84815483,0.40067427,-0.04657445
2.60000000,-0.26806911,0.81615129,-0.32947771,-0.36948638,0.63449621,0.25769815,-0.47130231,0.27843663,-0.77841100,0.22944881,-0.47519271,-0.84815483,0.40067427,-0.04657445
2.62000000,-0.26806911,0.81615129,-0.32947771,-0.36948638,0.63449621,0.25769815,-0.47130231,0.27843663,-0.77841100,0.22944881,-0.47519271,-0.84815483,0.40067427,-0.04657445
2.64000000,-0.26806911,0.81615129,-0.32947771,-0.36948638,0.63449621,0.25769815,-0.47130231,0.27843663,-0.77841100,0.22944881,-0.47519271,-0.84815483,0.40067427,-0.04657445
2.66000000,-0.26806911,0.81615129,-0.32947771,-0.36948638,0.63449621,0.25769815,-0.47130231,0.27843663,-0.77841100,0.22944881,-0.47519271,-0.84815483,0.40067427,-0.04657445
2.68000000,-0.26806911,0.81615129,-0.32947771,-0.36948638,0.63449621,0.25769815,-0.47130231,0.27843663,-0.77841100,0.22944881,-0.47519271,-0.84815483,0.40067427,-0.04657445
2.70000000,-0.26806911,0.81615129,-0.32947771,-0.36948638,0.63449621,0.25769815,-0.47130231,0.27843663,-0.77841100,0.22944881,-0.47519271,-0.84815483,0.40067427,-0.04657445
2.72000000,-0.26806911,0.81615129,-0.32947771,-0.36948638,0.63449621,0.25769815,-0.47130231,0.27843663,-0.77841100,0.22944881,-0.47519271,-0.84815483,0.40067427,-0.04657445
2.74000000,-0.26806911,0.81615129,-0.32947771,-0.36948638,0.63449621,0.25769815,-0.47130231,0.27843663,-0.77841100,0.22944881,-0.47519271,-0.84815483,0.40067427,-0.04657445
2.76000000,-0.26806911,0.81615129,-0.32947771,-0.36948638,0.63449621,0.25769815,-0.47130231,0.27843663,-0.77841100,0.22944881,-0.47519271,-0.84815483,0.40067427,-0.04657445
2.78000000,-0.26806911,0.81615129,-0.32947771,-0.36948638,0.63449621,0.25769815,-0.47130231,0.27843663,-0.77841100,0.22944881,-0.47519271,-0.84815483,0.40067427,-0.04657445
2.80000000,-0.26806911,0.81615129,-0.32947771,-0.36948638,0.63449621,0.25769815,-0.47130231,0.27843663,-0.77841100,0.22944881,-0.47519271,-0.84815483,0.40067427,-0.04657445
2.82000000,-0.26806911,0.81615129,-0.32947771,-0.36948638,0.63449621,0.25769815,-0.47130231,0.27843663,-0.77841100,0.22944881,-0.47519271,-0.84815483,0.40067427,-0.04657445
2.84000000,-0.26806911,0.81615129,-0.32947771,-0.36948638,0.63449621,0.25769815,-0.47130231,0.27843663,-0.77841100,0.22944881,-0.47519271,-0.84815483,0.40067427,-0.04657445
2.86000000,-0.26806911,0.81615129,-0.32947771,-0.36948638,0.63449621,0.25769815,-0.47130231,0.27843663,-0.77841100,0.22944881,-0.47519271,-0.84815483,0.40067427,-0.04657445
2.88000000,-0.26806911,0.81615129,-0.32947771,-0.36948638,0.63449621,0.25769815,-0.47130231,0.27843663,-0.77841100,0.22944881,-0.47519271,-0.84815483,0.40067427,-0.04657445
2.90000000,-0.26806911,0.81615129,-0.32947771,-0.36948638,0.63449621,0.25769815,-0.47130231,0.27843663,-0.77841100,0.22944881,-0.47519271,-0.84815483,0.40067427,-0.04657445
2.92000000,-0.26806911,0.81615129,-0.32947771,-0.36948638,0.63449621,0.25769815,-0.47130231,0.27843663,-0.77841100,0.22944881,-0.47519271,-0.84815483,0.40067427,-0.04657445
2.94000000,-0.26806911,0.81615129,-0.32947771,-0.36948638,0.63449621,0.25769815,-0.47130231,0.27843663,-0.77841100,0.22944881,-0.47519271,-0.84815483,0.40067427,-0.04657445
2.96000000,-0.26806911,0.81615129,-0.32947771,-0.36948638,0.63449621,0.25769815,-0.47130231,0.27843663,-0.77841100,0.22944881,-0.47519271,-0.84815483,0.40067427,-0.04657445
2.98000000,-0.26806911,0.81615129,-0.32947771,-0.36948638,0.63449621,0.25769815,-0.47130231,0.27843663,-0.77841100,0.22944881,-0.47519271,-0.84815483,0.40067427,-0.04657445
3.00000000,-0.26806911,0.81615129,-0.32947771,-0.36948638,0.63449621,0.25769815,-0.47130231,0.27843663,-0.77841100,0.22944881,-0.47519271,-0.84815483,0.40067427,-0.04657445
3.02000000,-0.26806911,0.81615129,-0.32947771,-0.36948638,0.63449621,0.25769815,-0.47130231,0.27843663,-0.77841100,0.22944881,-0.47519271,-0.84815483,0.40067427,-0.04657445
3.04000000,-0.26806911,0.81615129,-0.32947771,-0.36948638,0.63449621,0.25769815,-0.47130231,0.27843663,-0.77841100,0.22944881,-0.47519271,-0.84815483,0.40067427,-0.04657445
3.06000000,-0.26806911,0.81615129,-0.32947771,-0.36948638,0.63449621,0.25769815,-0.47130231,0.27843663,-0.77841100,0.22944881,-0.47519271,-0.84815483,0.40067427,-0.04657445
3.08000000,-0.26806911,0.81615129,-0.32947771,-0.36948638,0.63449621,0.25769815,-0.47130231,0.27843663,-0.77841100,0.22944881,-0.47519271,-0.84815483,0.40067427,-0.04657445
3.10000000,-0.26806911,0.81615129,-0.32947771,-0.36948638,0.63449621,0.25769815,-0.47130231,0.27843663,-0.77841100,0.22944881,-0.47519271,-0.84815483,0.40067427,-0.04657445
3.12000000,-0.26806911,0.81615129,-0.32947771,-0.36948638,0.63449621,0.25769815,-0.47130231,0.27843663,-0.77841100,0.22944881,-0.47519271,-0.84815483,0.40067427,-0.04657445
3.14000000,-0.26806911,0.81615129,-0.32947771,-0.36948638,0.63449621,0.25769815,-0.47130231,0.27843663,-0.77841100,0.22944881,-0.47519271,-0.84815483,0.40067427,-0.04657445
3.16000000,-0.26806911,0.81615129,-0.32947771,-0.36948638,0.63449621,0.25769815,-0.47130231,0.27843663,-0.77841100,0.22944881,-0.47519271,-0.84815483,0.40067427,-0.04657445
3.18000000,-0.26806911,0.81615129,-0.32947771,-0.36948638,0.63449621,0.25769815,-0.47130231,0.27843663,-0.77841100,0.22944881,-0.47519271,-0.84815483,0.40067427,-0.04657445
3.20000000,-0.26806911,0.81615129,-0.32947771,-0.36948638,0.63449621,0.25769815,-0.47130231,0.27843663,-0.77841100,0.22944881,-0.47519271,-0.84815483,0.40067427,-0.04657445
3.22000000,-0.26806911,0.81615129,-0.32947771,-0.36948638,0.63449621,0.25769815,-0.47130231,0.27843663,-0.77841100,0.22944881,-0.47519271,-0.84815483,0.40067427,-0.04657445
3.24000000,-0.26806911,0.81615129,-0.32947771,-0.36948638,0.63449621,0.25769815,-0.47130231,0.27843663,-0.77841100,0.22944881,-0.47519271,-0.84815483,0.40067427,-0.04657445
3.26000000,-0.26806911,0.81615129,-0.32947771,-0.36948638,0.63449621,0.25769815,-0.47130231,0.27843663,-0.77841100,0.22944881,-0.47519271,-0.84815483,0.40067427,-0.04657445
3.28000000,-0.26806911,0.81615129,-0.32947771,-0.36948638,0.63449621,0.25769815,-0.47130231,0.27843663,-0.77841100,0.22944881,-0.47519271,-0.84815483,0.40067427,-0.04657445
3.30000000,-0.26806911,0.81615129,-0.32947771,-0.36948638,0.63449621,0.25769815,-0.47130231,0.27843663,-0.77841100,0.22944881,-0.47519271,-0.84815483,0.40067427,-0.04657445
3.32000000,-0.26806911,0.81615129,-0.32947771,-0.36948638,0.63449621,0.25769815,-0.47130231,0.27843663,-0.77841100,0.22944881,-0.47519271,-0.84815483,0.40067427,-0.04657445
3.34000000,-0.26806911,0.81615129,-0.32947771,-0.36948638,0.63449621,0.25769815,-0.47130231,0.27843663,-0.77841100,0.22944881,-0.47519271,-0.84815483,0.40067427,-0.04657445
3.36000000,-0.26806911,0.81615129,-0.32947771,-0.36948638,0.63449621,0.25769815,-0.47130231,0.27843663,-0.77841100,0.22944881,-0.47519271,-0.84815483,0.40067427,-0.04657445
3.38000000,-0.26806911,0.81615129,-0.32947771,-0.36948638,0.63449621,0.25769815,-0.47130231,0.27843663,-0.77841100,0.22944881,-0.47519271,-0.84815483,0.40067427,-0.04657445
3.40000000,-0.26806911,0.81615129,-0.32947771,-0.36948638,0.63449621,0.25769815,-0.47130231,0.27843663,-0.77841100,0.22944881,-0.47519271,-0.84815483,0.40067427,-0.04657445
3.42000000,-0.26806911,0.81615129,-0.32947771,-0.36948638,0.63449621,0.25769815,-0.47130231,0.27843663,-0.77841100,0.22944881,-0.47519271,-0.84815483,0.40067427,-0.04657445
3.44000000,-0.26806911,0.81615129,-0.32947771,-0.36948638,0.63449621,0.25769815,-0.47130231,0.27843663,-0.77841100,0.22944881,-0.47519271,-0.84815483,0.40067427,-0.04657445
3.46000000,-0.26806911,0.81615129,-0.32947771,-0.36948638,0.63449621,0.25769815,-0.47130231,0.27843663,-0.77841100,0.22944881,-0.47519271,-0.84815483,0.40067427,-0.04657445
3.48000000,-0.26806911,0.81615129,-0.32947771,-0.36948638,0.63449621,0.25769815,-0.47130231,0.27843663,-0.77841100,0.22944881,-0.47519271,-0.84815483,0.40067427,-0.04657445
3.50000000,-0.26806911,0.81615129,-0.32947771,-0.36948638,0.63449621,0.25769815,-0.47130231,0.27843663,-0.77841100,0.22944881,-0.47519271,-0.84815483,0.40067427,-0.04657445
3.52000000,-0.26806911,0.81615129,-0.32947771,-0.36948638,0.63449621,0.25769815,-0.47130231,0.27843663,-0.77841100,0.22944881,-0.47519271,-0.84815483,0.40067427,-0.04657445
3.54000000,-0.26806911,0.81615129,-0.32947771,-0.36948638,0.63449621,0.25769815,-0.47130231,0.27843663,-0.77841100,0.22944881,-0.47519271,-0.84815483,0.40067427,-0.04657445
3.56000000,-0.26806911,0.81615129,-0.32947771,-0.36948638,0.63449621,0.25769815,-0.47130231,0.27843663,-0.77841100,0.22944881,-0.47519271,-0.84815483,0.40067427,-0.04657445
3.58000000,-0.26806911,0.81615129,-0.32947771,-0.36948638,0.63449621,0.25769815,-0.47130231,0.27843663,-0.77841100,0.22944881,-0.47519271,-0.84815483,0.40067427,-0.04657445
3.60000000,-0.26806911,0.81615129,-0.32947771,-0.36948638,0.63449621,0.25769815,-0.47130231,0.27843663,-0.77841100,0.22944881,-0.47519271,-0.84815483,0.40067427,-0.04657445
3.62000000,-0.26806911,0.81615129,-0.32947771,-0.36948638,0.63449621,0.25769815,-0.47130231,0.27843663,-0.77841100,0.22944881,-0.47519271,-0.84815483,0.40067427,-0.04657445
3.64000000,-0.26806911,0.81615129,-0.32947771,-0.36948638,0.63449621,0.25769815,-0.47130231,0.27843663,-0.77841100,0.22944881,-0.47519271,-0.84815483,0.40067427,-0.04657445
3.66000000,-0.26806911,0.81615129,-0.32947771,-0.36948638,0.63449621,0.25769815,-0.47130231,0.27843663,-0.77841100,0.22944881,-0.47519271,-0.84815483,0.40067427,-0.04657445
3.68000000,-0.26806911,0.81615129,-0.32947771,-0.36948638,0.63449621,0.25769815,-0.47130231,0.27843663,-0.77841100,0.22944881,-0.47519271,-0.84815483,0.40067427,-0.04657445
3.70000000,-0.26806911,0.81615129,-0.32947771,-0.36948638,0.63449621,0.25769815,-0.47130231,0.27843663,-0.77841100,0.22944881,-0.47519271,-0.84815483,0.40067427,-0.04657445
3.72000000,-0.26806911,0.81615129,-0.32947771,-0.36948638,0.63449621,0.25769815,-0.47130231,0.27843663,-0.77841100,0.22944881,-0.47519271,-0.84815483,0.40067427,-0.04657445
3.74000000,-0.26806911,0.81615129,-0.32947771,-0.36948638,0.63449621,0.25769815,-0.47130231,0.27843663,-0.77841100,0.22944881,-0.47519271,-0.84815483,0.40067427,-0.04657445
3.76000000,-0.26806911,0.81615129,-0.32947771,-0.36948638,0.63449621,0.25769815,-0.47130231,0.27843663,-0.77841100,0.22944881,-0.47519271,-0.84815483,0.40067427,-0.04657445
3.78000000,-0.26806911,0.81615129,-0.32947771,-0.36948638,0.63449621,0.25769815,-0.47130231,0.27843663,-0.77841100,0.22944881,-0.47519271,-0.84815483,0.40067427,-0.04657445
3.80000000,-0.26806911,0.81615129,-0.32947771,-0.36948638,0.63449621,0.25769815,-0.47130231,0.27843663,-0.77841100,0.22944881,-0.47519271,-0.84815483,0.40067427,-0.04657445
3.82000000,-0.26806911,0.81615129,-0.32947771,-0.36948638,0.63449621,0.25769815,-0.47130231,0.27843663,-0.77841100,0.22944881,-0.47519271,-0.84815483,0.40067427,-0.04657445
3.84000000,-0.26806911,0.81615129,-0.32947771,-0.36948638,0.63449621,0.25769815,-0.47130231,0.27843663,-0.77841100,0.22944881,-0.47519271,-0.84815483,0.40067427,-0.04657445
3.86000000,-0.26806911,0.81615129,-0.32947771,-0.36948638,0.63449621,0.25769815,-0.47130231,0.27843663,-0.77841100,0.22944881,-0.47519271,-0.84815483,0.40067427,-0.04657445
3.88000000,-0.26806911,0.81615129,-0.32947771,-0.36948638,0.63449621,0.25769815,-0.47130231,0.27843663,-0.77841100,0.22944881,-0.47519271,-0.84815483,0.40067427,-0.04657445
3.90000000,-0.26806911,0.81615129,-0.32947771,-0.36948638,0.63449621,0.25769815,-0.47130231,0.27843663,-0.77841100,0.22944881,-0.47519271,-0.84815483,0.40067427,-0.04657445
3.92000000,-0.26806911,0.81615129,-0.32947771,-0.36948638,0.63449621,0.25769815,-0.47130231,0.27843663,-0.77841100,0.22944881,-0.47519271,-0.84815483,0.40067427,-0.04657445
3.94000000,-0.26806911,0.81615129,-0.32947771,-0.36948638,0.63449621,0.25769815,-0.47130231,0.27843663,-0.77841100,0.22944881,-0.47519271,-0.84815483,0.40067427,-0.04657445
3.96000000,-0.26806911,0.81615129,-0.32947771,-0.36948638,0.63449621,0.25769815,-0.47130231,0.27843663,-0.77841100,0.22944881,-0.47519271,-0.84815483,0.40067427,-0.04657445
3.98000000,-0.26806911,0.81615129,-0.32947771,-0.36948638,0.63449621,0.25769815,-0.47130231,0.27843663,-0.77841100,0.22944881,-0.47519271,-0.84815483,0.40067427,-0.04657445
4.00000000,-0.26806503,0.81615217,-0.32947565,-0.36948944,0.63449758,0.25770107,-0.47130165,0.27843147,-0.77841216,0.22944884,-0.47519294,-0.84815211,0.40067383,-0.04656870
4.02000000,-0.26803700,0.81615820,-0.32946146,-0.36951054,0.63450700,0.25772115,-0.47129710,0.27839595,-0.77842013,0.22944902,-0.47519458,-0.84813341,0.40067078,-0.04652912
4.04000000,-0.26796238,0.81617425,-0.32942370,-0.36956670,0.63453208,0.25777462,-0.47128500,0.27830142,-0.77844135,0.22944952,-0.47519894,-0.84808366,0.40066268,-0.04642377
4.06000000,-0.26781998,0.81620488,-0.32935163,-0.36967387,0.63457995,0.25787665,-0.47126192,0.27812102,-0.77848183,0.22945046,-0.47520725,-0.84798871,0.40064721,-0.04622272
4.08000000,-0.26759001,0.81625434,-0.32923524,-0.36984696,0.63465724,0.25804142,-0.47122463,0.27782968,-0.77854722,0.22945198,-0.47522068,-0.84783536,0.40062223,-0.04589803
4.10000000,-0.26725405,0.81632661,-0.32906521,-0.37009982,0.63477017,0.25828215,-0.47117016,0.27740405,-0.77864275,0.22945420,-0.47524029,-0.84761134,0.40058573,-0.04542369
4.12000000,-0.26679500,0.81642535,-0.32883288,-0.37044531,0.63492447,0.25861106,-0.47109573,0.27682249,-0.77877327,0.22945723,-0.47526710,-0.84730524,0.40053586,-0.04477556
4.14000000,-0.26619710,0.81655396,-0.32853028,-0.37089532,0.63512544,0.25903947,-0.47099878,0.27606502,-0.77894328,0.22946118,-0.47530201,-0.84690656,0.40047091,-0.04393140
4.16000000,-0.26544586,0.81671555,-0.32815007,-0.37146073,0.63537795,0.25957775,-0.47087698,0.27511327,-0.77915689,0.22946614,-0.47534587,-0.84640562,0.40038929,-0.04287072
4.18000000,-0.26452802,0.81691297,-0.32768554,-0.37215153,0.63568645,0.26023540,-0.47072816,0.27395048,-0.77941786,0.22947221,-0.47539946,-0.84579360,0.40028958,-0.04157483
4.20000000,-0.26343157,0.81714882,-0.32713062,-0.37297676,0.63605500,0.26102103,-0.47055038,0.27256140,-0.77972962,0.22947945,-0.47546347,-0.84506248,0.40017047,-0.04002677
4.22000000,-0.26214569,0.81742541,-0.32647983,-0.37394456,0.63648721,0.26194239,-0.47034189,0.27093233,-0.78009525,0.22948795,-0.47553855,-0.84420504,0.40003077,-0.03821125
4.24000000,-0.26066070,0.81774483,-0.32572826,-0.37506223,0.63698635,0.26300641,-0.47010111,0.26905102,-0.78051748,0.22949776,-0.47562525,-0.84321484,0.39986945,-0.03611460
4.26000000,-0.25896806,0.81810891,-0.32487160,-0.37633617,0.63755529,0.26421921,-0.46982667,0.26690664,-0.78099876,0.22950894,-0.47572408,-0.84208617,0.39968557,-0.03372479
4.28000000,-0.25706035,0.81851926,-0.32390610,-0.37777198,0.63819651,0.26558612,-0.46951736,0.26448979,-0.78154119,0.22952154,-0.47583546,-0.84081410,0.39947832,-0.03103132
4.30000000,-0.25493120,0.81897723,-0.32282852,-0.37937446,0.63891217,0.26711170,-0.46917214,0.26179240,-0.78214659,0.22953561,-0.47595977,-0.83939436,0.39924702,-0.02802520
4.32000000,-0.25257530,0.81948398,-0.32163618,-0.38114761,0.63970405,0.26879975,-0.46879015,0.25880774,-0.78281646,0.22955118,-0.47609732,-0.83782342,0.39899108,-0.02469892
4.34000000,-0.24998833,0.82004044,-0.32032689,-0.38309466,0.64057359,0.27065336,-0.46837070,0.25553034,-0.78355203,0.22956827,-0.47624837,-0.83609841,0.39871004,-0.02104641
4.36000000,-0.24716698,0.82064731,-0.31889898,-0.38521812,0.64152191,0.27267491,-0.46791325,0.25195601,-0.78435425,0.22958691,-0.47641309,-0.83421711,0.39840354,-0.01706297
4.38000000,-0.24410886,0.82130510,-0.31735125,-0.38751977,0.64254982,0.27486611,-0.46741741,0.24808172,-0.78522378,0.22960711,-0.47659164,-0.83217793,0.39807132,-0.01274525
4.40000000,-0.24081255,0.82201413,-0.31568296,-0.39000070,0.64365779,0.27722798,-0.46688295,0.24390567,-0.78616105,0.22962889,-0.47678410,-0.82997992,0.39771322,-0.00809122
4.42000000,-0.23727747,0.82277452,-0.31389383,-0.39266134,0.64484601,0.27976093,-0.46630977,0.23942713,-0.78716620,0.22965225,-0.47699050,-0.82762270,0.39732918,-0.00310009
4.44000000,-0.23350395,0.82358620,-0.31198402,-0.39550143,0.64611438,0.28246473,-0.46569794,0.23464651,-0.78823915,0.22967718,-0.47721082,-0.82510649,0.39691924,0.00222771
4.46000000,-0.22949313,0.82444892,-0.30995411,-0.39852013,0.64746251,0.28533856,-0.46504763,0.22956525,-0.78937957,0.22970368,-0.47744500,-0.82243204,0.39648352,0.00789055
4.48000000,-0.22524695,0.82536227,-0.30780508,-0.40171597,0.64888976,0.28838102,-0.46435915,0.22418582,-0.79058692,0.22973173,-0.47769291,-0.81960065,0.39602223,0.01388568
4.50000000,-0.22076813,0.82632565,-0.30553832,-0.40508689,0.65039519,0.29159018,-0.46363296,0.21851167,-0.79186041,0.22976132,-0.47795441,-0.81661414,0.39553567,0.02020927
4.52000000,-0.21606016,0.82733833,-0.30315558,-0.40863030,0.65197765,0.29496353,-0.46286961,0.21254720,-0.79319906,0.22979243,-0.47822929,-0.81347482,0.39502421,0.02685640
4.54000000,-0.21112720,0.82839940,-0.30065897,-0.41234303,0.65363574,0.29849808,-0.46206979,0.20629771,-0.79460169,0.22982502,-0.47851730,-0.81018548,0.39448831,0.03382119
4.56000000,-0.20597413,0.82950782,-0.29805096,-0.41622143,0.65536781,0.30219036,-0.46123427,0.19976935,-0.79606689,0.22985906,-0.47881817,-0.80674937,0.39392850,0.04109676
4.58000000,-0.20060646,0.83066240,-0.29533434,-0.42026134,0.65717201,0.30603639,-0.46036396,0.19296912,-0.79759312,0.22989453,-0.47913157,-0.80317016,0.39334538,0.04867531
4.60000000,-0.19503035,0.83186181,-0.29251223,-0.42445813,0.65904627,0.31003178,-0.45945986,0.18590483,-0.79917861,0.22993137,-0.47945713,-0.79945197,0.39273961,0.05654816
4.62000000,-0.18925254,0.83310461,-0.28958803,-0.42880673,0.66098833,0.31417169,-0.45852305,0.17858500,-0.80082146,0.22996954,-0.47979447,-0.79559927,0.39211193,0.06470578
4.64000000,-0.18328034,0.83438922,-0.28656546,-0.43330164,0.66299573,0.31845088,-0.45755472,0.17101890,-0.80251957,0.23000900,-0.48014316,-0.79161696,0.39146313,0.07313787
4.66000000,-0.17712160,0.83571395,-0.28344847,-0.43793695,0.66506583,0.32286373,-0.45655614,0.16321647,-0.80427073,0.23004969,-0.48050275,-0.78751026,0.39079407,0.08183333
4.68000000,-0.17078466,0.83707702,-0.28024129,-0.44270637,0.66719583,0.32740427,-0.45552868,0.15518829,-0.80607256,0.23009155,-0.48087273,-0.78328473,0.39010565,0.09078039
4.70000000,-0.16427835,0.83847651,-0.27694840,-0.44760326,0.66938275,0.33206616,-0.45447375,0.14694554,-0.80792254,0.23013454,-0.48125261,-0.77894627,0.38939883,0.09996656
4.72000000,-0.15761196,0.83991044,-0.27357449,-0.45262064,0.67162348,0.33684275,-0.45339287,0.13849998,-0.80981804,0.23017858,-0.48164183,-0.77450107,0.38867461,0.10937877
4.74000000,-0.15079518,0.84137672,-0.27012446,-0.45775122,0.67391477,0.34172710,-0.45228760,0.12986389,-0.81175631,0.23022362,-0.48203984,-0.76995558,0.38793406,0.11900331
4.76000000,-0.14383807,0.84287318,-0.26660342,-0.46298740,0.67625321,0.34671200,-0.45115958,0.12105003,-0.81373447,0.23026959,-0.48244603,-0.76531652,0.38717827,0.12882597
4.78000000,-0.13675109,0.84439758,-0.26301664,-0.46832133,0.67863532,0.35178995,-0.45001050,0.11207163,-0.81574956,0.23031641,-0.48285981,-0.76059086,0.38640837,0.13883200
4.80000000,-0.12954499,0.84594760,-0.25936958,-0.47374492,0.68105746,0.35695326,-0.44884211,0.10294232,-0.81779852,0.23036402,-0.48328054,-0.75578578,0.38562552,0.14900621
4.82000000,-0.12223085,0.84752086,-0.25566783,-0.47924982,0.68351592,0.36219398,-0.44765620,0.09367613,-0.81987820,0.23041234,-0.48370759,-0.75090864,0.38483094,0.15933298
4.84000000,-0.11481997,0.84911493,-0.25191713,-0.48482753,0.68600689,0.36750401,-0.44645460,0.08428739,-0.82198538,0.23046130,-0.48414028,-0.74596701,0.38402585,0.16979630
4.86000000,-0.10732395,0.85072731,-0.24812334,-0.49046932,0.68852648,0.37287505,-0.44523920,0.07479079,-0.82411678,0.23051083,-0.48457794,-0.74096860,0.38321151,0.18037986
4.88000000,-0.09975455,0.85235548,-0.24429240,-0.49616634,0.69107073,0.37829866,-0.44401191,0.06520122,-0.82626904,0.23056084,-0.48501988,-0.73592126,0.38238920,0.19106700
4.90000000,-0.09212374,0.85399685,-0.24043039,-0.50190958,0.69363563,0.38376628,-0.44277465,0.05553384,-0.82843876,0.23061125,-0.48546541,-0.73083297,0.38156021,0.20184087
4.92000000,-0.08444361,0.85564884,-0.23654341,-0.50768994,0.69621711,0.38926924,-0.44152940,0.04580399,-0.83062251,0.23066200,-0.48591382,-0.72571179,0.38072587,0.21268436
4.94000000,-0.07672639,0.85730880,-0.23263767,-0.51349822,0.69881105,0.39479877,-0.44027814,0.03602715,-0.83281680,0.23071298,-0.48636440,-0.72056588,0.37988750,0.22358022
4.96000000,-0.06898439,0.85897409,-0.22871938,-0.51932514,0.70141332,0.40034606,-0.43902285,0.02621892,-0.83501813,0.23076413,-0.48681642,-0.71540345,0.37904644,0.23451106
4.98000000,-0.06122999,0.86064205,-0.22479482,-0.52516140,0.70401975,0.40590223,-0.43776556,0.01639498,-0.83722299,0.23081536,-0.48726917,-0.71023276,0.37820403,0.24545941
5.00000000,-0.05347560,0.86231000,-0.22087026,-0.53099765,0.70662619,0.41145840,-0.43650827,0.00657104,-0.83942785,0.23086660,-0.48772191,-0.70506206,0.37736162,0.25640776
5.02000000,-0.04573360,0.86397529,-0.21695198,-0.53682457,0.70922846,0.41700568,-0.43525299,-0.00323719,-0.84162919,0.23091775,-0.48817394,-0.69989963,0.37652056,0.26733859
5.04000000,-0.03801638,0.86563526,-0.21304623,-0.54263285,0.71182240,0.42253521,-0.43400172,-0.01301403,-0.84382348,0.23096873,-0.48862451,-0.69475372,0.37568219,0.27823445
5.06000000,-0.03033625,0.86728724,-0.20915926,-0.54841321,0.71440387,0.42803817,-0.43275647,-0.02274388,-0.84600722,0.23101947,-0.48907292,-0.68963255,0.37484785,0.28907794
5.08000000,-0.02270543,0.86892862,-0.20529724,-0.55415645,0.71696877,0.43350579,-0.43151922,-0.03241126,-0.84817695,0.23106989,-0.48951845,-0.68454425,0.37401886,0.29985181
5.10000000,-0.01513604,0.87055678,-0.20146631,-0.55985347,0.71951303,0.43892941,-0.43029192,-0.04200083,-0.85032921,0.23111990,-0.48996040,-0.67949692,0.37319655,0.31053896
5.12000000,-0.00764001,0.87216916,-0.19767252,-0.56549526,0.72203262,0.44430045,-0.42907652,-0.05149744,-0.85246060,0.23116942,-0.49039806,-0.67449850,0.37238221,0.32112251
5.14000000,-0.00022914,0.87376323,-0.19392182,-0.57107297,0.72452359,0.44961047,-0.42787493,-0.06088617,-0.85456779,0.23121839,-0.49083075,-0.66955687,0.37157712,0.33158583
5.16000000,0.00708500,0.87533649,-0.19022007,-0.57657787,0.72698205,0.45485120,-0.42668902,-0.07015236,-0.85664747,0.23126671,-0.49125779,-0.66467974,0.37078254,0.34191260
5.18000000,0.01429110,0.87688651,-0.18657301,-0.58200146,0.72940419,0.46001450,-0.42552062,-0.07928167,-0.85869643,0.23131432,-0.49167852,-0.65987465,0.36999970,0.35208681
5.20000000,0.02137808,0.87841091,-0.18298623,-0.58733539,0.73178629,0.46509246,-0.42437155,-0.08826007,-0.86071152,0.23136114,-0.49209230,-0.65514899,0.36922979,0.36209284
5.22000000,0.02833519,0.87990737,-0.17946519,-0.59257157,0.73412474,0.47007735,-0.42324353,-0.09707393,-0.86268968,0.23140711,-0.49249850,-0.65050994,0.36847400,0.37191550
5.24000000,0.03515197,0.88137365,-0.17601516,-0.59770215,0.73641602,0.47496171,-0.42213826,-0.10571002,-0.86462794,0.23145214,-0.49289650,-0.64596444,0.36773345,0.38154005
5.26000000,0.04181836,0.88280758,-0.17264124,-0.60271953,0.73865676,0.47973830,-0.42105737,-0.11415558,-0.86652344,0.23149619,-0.49328573,-0.64151924,0.36700923,0.39095225
5.28000000,0.04832467,0.88420707,-0.16934835,-0.60761642,0.74084368,0.48440019,-0.42000245,-0.12239833,-0.86837343,0.23153917,-0.49366560,-0.63718078,0.36630241,0.40013843
5.30000000,0.05466161,0.88557014,-0.16614118,-0.61238584,0.74297367,0.48894072,-0.41897498,-0.13042651,-0.87017525,0.23158104,-0.49403559,-0.63295526,0.36561399,0.40908548
5.32000000,0.06082035,0.88689487,-0.16302419,-0.61702115,0.74504378,0.49335358,-0.41797640,-0.13822894,-0.87192641,0.23162173,-0.49439517,-0.62884855,0.36494493,0.41778094
5.34000000,0.06679255,0.88817949,-0.16000161,-0.62151606,0.74705117,0.49763277,-0.41700808,-0.14579504,-0.87362453,0.23166119,-0.49474386,-0.62486624,0.36429613,0.42621303
5.36000000,0.07257036,0.88942228,-0.15707742,-0.62586466,0.74899323,0.50177268,-0.41607127,-0.15311487,-0.87526737,0.23169936,-0.49508120,-0.62101355,0.36366845,0.43437065
5.38000000,0.07814647,0.89062169,-0.15425530,-0.63006145,0.75086750,0.50576806,-0.41516716,-0.16017917,-0.87685287,0.23173620,-0.49540677,-0.61729535,0.36306268,0.44224350
5.40000000,0.08351414,0.89177627,-0.15153869,-0.63410136,0.75267170,0.50961410,-0.41429685,-0.16697939,-0.87837909,0.23177167,-0.49572017,-0.61371614,0.36247956,0.44982205
5.42000000,0.08866721,0.89288469,-0.14893068,-0.63797976,0.75440377,0.51330637,-0.41346133,-0.17350775,-0.87984430,0.23180571,-0.49602103,-0.61028003,0.36191975,0.45709762
5.44000000,0.09360017,0.89394576,-0.14643407,-0.64169249,0.75606185,0.51684093,-0.41266151,-0.17975724,-0.88124692,0.23183830,-0.49630905,-0.60699069,0.36138385,0.46406241
5.46000000,0.09830814,0.89495844,-0.14405132,-0.64523590,0.75764431,0.52021428,-0.41189816,-0.18572171,-0.88258557,0.23186941,-0.49658392,-0.60385138,0.36087239,0.47070955
5.48000000,0.10278696,0.89592182,-0.14178456,-0.64860682,0.75914975,0.52342343,-0.41117197,-0.19139586,-0.88385906,0.23189900,-0.49684542,-0.60086487,0.36038583,0.47703313
5.50000000,0.10703314,0.89683517,-0.13963554,-0.65180266,0.76057699,0.52646590,-0.41048350,-0.19677529,-0.88506641,0.23192705,-0.49709334,-0.59803348,0.35992454,0.48302827
5.52000000,0.11104396,0.89769789,-0.13760563,-0.65482136,0.76192512,0.52933973,-0.40983318,-0.20185655,-0.88620684,0.23195355,-0.49732752,-0.59535903,0.35948882,0.48869110
5.54000000,0.11481748,0.89850957,-0.13569582,-0.65766146,0.76319349,0.53204353,-0.40922135,-0.20663717,-0.88727979,0.23197848,-0.49754783,-0.59284281,0.35907888,0.49401890
5.56000000,0.11835256,0.89926996,-0.13390669,-0.66032209,0.76438172,0.53457647,-0.40864817,-0.21111571,-0.88828494,0.23200184,-0.49775423,-0.59048559,0.35869484,0.49901003
5.58000000,0.12164887,0.89997899,-0.13223840,-0.66280302,0.76548969,0.53693835,-0.40811371,-0.21529177,-0.88922220,0.23202362,-0.49794669,-0.58828758,0.35833674,0.50366406
5.60000000,0.12470699,0.90063678,-0.13069066,-0.66510467,0.76651759,0.53912954,-0.40761787,-0.21916605,-0.89009174,0.23204382,-0.49812524,-0.58624840,0.35800452,0.50798178
5.62000000,0.12752834,0.90124365,-0.12926275,-0.66722813,0.76746592,0.54115109,-0.40716042,-0.22274038,-0.89089395,0.23206246,-0.49828997,-0.58436710,0.35769802,0.51196522
5.64000000,0.13011531,0.90180011,-0.12795347,-0.66917518,0.76833546,0.54300471,-0.40674097,-0.22601778,-0.89162952,0.23207955,-0.49844101,-0.58264209,0.35741698,0.51561773
5.66000000,0.13247121,0.90230686,-0.12676113,-0.67094833,0.76912733,0.54469276,-0.40635898,-0.22900244,-0.89229939,0.23209512,-0.49857856,-0.58107115,0.35716104,0.51894401
5.68000000,0.13460036,0.90276483,-0.12568355,-0.67255081,0.76984299,0.54621833,-0.40601377,-0.23169983,-0.89290479,0.23210918,-0.49870287,-0.57965142,0.35692974,0.52195013
5.70000000,0.13650807,0.90317518,-0.12471804,-0.67398662,0.77048422,0.54758524,-0.40570445,-0.23411668,-0.89344722,0.23212179,-0.49881426,-0.57837934,0.35672249,0.52464360
5.72000000,0.13820071,0.90353926,-0.12386139,-0.67526056,0.77105315,0.54879804,-0.40543001,-0.23626106,-0.89392850,0.23213297,-0.49891308,-0.57725068,0.35653861,0.52703342
5.74000000,0.13968570,0.90385868,-0.12310982,-0.67637823,0.77155229,0.54986207,-0.40518923,-0.23814237,-0.89435074,0.23214278,-0.49899978,-0.57626047,0.35637729,0.52913006
5.76000000,0.14097158,0.90413527,-0.12245902,-0.67734603,0.77198451,0.55078343,-0.40498074,-0.23977144,-0.89471636,0.23215128,-0.49907486,-0.57540303,0.35623759,0.53094559
5.78000000,0.14206803,0.90437112,-0.12190410,-0.67817126,0.77235305,0.55156905,-0.40480296,-0.24116052,-0.89502812,0.23215852,-0.49913888,-0.57467191,0.35611848,0.53249365
5.80000000,0.14298587,0.90456854,-0.12143958,-0.67886206,0.77266156,0.55222670,-0.40465415,-0.24232331,-0.89528910,0.23216459,-0.49919247,-0.57405989,0.35601877,0.53378953
5.82000000,0.14373711,0.90473013,-0.12105937,-0.67942748,0.77291407,0.55276498,-0.40453234,-0.24327506,-0.89550271,0.23216955,-0.49923633,-0.57355895,0.35593716,0.53485021
5.84000000,0.14433501,0.90485874,-0.12075677,-0.67987748,0.77311504,0.55319339,-0.40443540,-0.24403253,-0.89567271,0.23217350,-0.49927124,-0.57316027,0.35587220,0.53569438
5.86000000,0.14479406,0.90495748,-0.12052444,-0.68022297,0.77326934,0.55352230,-0.40436097,-0.24461409,-0.89580323,0.23217653,-0.49929804,-0.57285417,0.35582233,0.53634250
5.88000000,0.14513002,0.90502975,-0.12035441,-0.68047583,0.77338226,0.55376303,-0.40430649,-0.24503972,-0.89589876,0.23217875,-0.49931766,-0.57263015,0.35578583,0.53681684
5.90000000,0.14535999,0.90507921,-0.12023802,-0.68064892,0.77345956,0.55392781,-0.40426921,-0.24533106,-0.89596415,0.23218027,-0.49933108,-0.57247681,0.35576085,0.53714153
5.92000000,0.14550239,0.90510984,-0.12016595,-0.68075609,0.77350742,0.55402984,-0.40424612,-0.24551146,-0.89600464,0.23218121,-0.49933940,-0.57238185,0.35574538,0.53734258
5.94000000,0.14557701,0.90512589,-0.12012818,-0.68081225,0.77353250,0.55408330,-0.40423402,-0.24560599,-0.89602585,0.23218171,-0.49934375,-0.57233210,0.35573728,0.53744793
5.96000000,0.14560504,0.90513192,-0.12011400,-0.68083335,0.77354193,0.55410339,-0.40422947,-0.24564151,-0.89603383,0.23218189,-0.49934539,-0.57231340,0.35573423,0.53748751
5.98000000,0.14560912,0.90513280,-0.12011193,-0.68083642,0.77354329,0.55410631,-0.40422881,-0.24564667,-0.89603498,0.23218192,-0.49934563,-0.57231069,0.35573379,0.53749327
6.00000000,0.14560912,0.90513280,-0.12011193,-0.68083642,0.77354329,0.55410631,-0.40422881,-0.24564667,-0.89603498,0.23218192,-0.49934563,-0.57231069,0.35573379,0.53749327
6.02000000,0.14560912,0.90513280,-0.12011193,-0.68083642,0.77354329,0.55410631,-0.40422881,-0.24564667,-0.89603498,0.23218192,-0.49934563,-0.57231069,0.35573379,0.53749327
6.04000000,0.14560912,0.90513280,-0.12011193,-0.68083642,0.77354329,0.55410631,-0.40422881,-0.24564667,-0.89603498,0.23218192,-0.49934563,-0.57231069,0.35573379,0.53749327
6.06000000,0.14560912,0.90513280,-0.12011193,-0.68083642,0.77354329,0.55410631,-0.40422881,-0.24564667,-0.89603498,0.23218192,-0.49934563,-0.57231069,0.35573379,0.53749327
6.08000000,0.14560912,0.90513280,-0.12011193,-0.68083642,0.77354329,0.55410631,-0.40422881,-0.24564667,-0.89603498,0.23218192,-0.49934563,-0.57231069,0.35573379,0.53749327
6.10000000,0.14560912,0.90513280,-0.12011193,-0.68083642,0.77354329,0.55410631,-0.40422881,-0.24564667,-0.89603498,0.23218192,-0.49934563,-0.57231069,0.35573379,0.53749327
6.12000000,0.14560912,0.90513280,-0.12011193,-0.68083642,0.77354329,0.55410631,-0.40422881,-0.24564667,-0.89603498,0.23218192,-0.49934563,-0.57231069,0.35573379,0.53749327
6.14000000,0.14560912,0.90513280,-0.12011193,-0.68083642,0.77354329,0.55410631,-0.40422881,-0.24564667,-0.89603498,0.23218192,-0.49934563,-0.57231069,0.35573379,0.53749327
6.16000000,0.14560912,0.90513280,-0.12011193,-0.68083642,0.77354329,0.55410631,-0.40422881,-0.24564667,-0.89603498,0.23218192,-0.49934563,-0.57231069,0.35573379,0.53749327
6.18000000,0.14560912,0.90513280,-0.12011193,-0.68083642,0.77354329,0.55410631,-0.40422881,-0.24564667,-0.89603498,0.23218192,-0.49934563,-0.57231069,0.35573379,0.53749327
6.20000000,0.14560912,0.90513280,-0.12011193,-0.68083642,0.77354329,0.55410631,-0.40422881,-0.24564667,-0.89603498,0.23218192,-0.49934563,-0.57231069,0.35573379,0.53749327
6.22000000,0.14560912,0.90513280,-0.12011193,-0.68083642,0.77354329,0.55410631,-0.40422881,-0.24564667,-0.89603498,0.23218192,-0.49934563,-0.57231069,0.35573379,0.53749327
6.24000000,0.14560912,0.90513280,-0.12011193,-0.68083642,0.77354329,0.55410631,-0.40422881,-0.24564667,-0.89603498,0.23218192,-0.49934563,-0.57231069,0.35573379,0.53749327
6.26000000,0.14560912,0.90513280,-0.12011193,-0.68083642,0.77354329,0.55410631,-0.40422881,-0.24564667,-0.89603498,0.23218192,-0.49934563,-0.57231069,0.35573379,0.53749327
6.28000000,0.14560912,0.90513280,-0.12011193,-0.68083642,0.77354329,0.55410631,-0.40422881,-0.24564667,-0.89603498,0.23218192,-0.49934563,-0.57231069,0.35573379,0.53749327
6.30000000,0.14560912,0.90513280,-0.12011193,-0.68083642,0.77354329,0.55410631,-0.40422881,-0.24564667,-0.89603498,0.23218192,-0.49934563,-0.57231069,0.35573379,0.53749327
6.32000000,0.14560912,0.90513280,-0.12011193,-0.68083642,0.77354329,0.55410631,-0.40422881,-0.24564667,-0.89603498,0.23218192,-0.49934563,-0.57231069,0.35573379,0.53749327
6.34000000,0.14560912,0.90513280,-0.12011193,-0.68083642,0.77354329,0.55410631,-0.40422881,-0.24564667,-0.89603498,0.23218192,-0.49934563,-0.57231069,0.35573379,0.53749327
6.36000000,0.14560912,0.90513280,-0.12011193,-0.68083642,0.77354329,0.55410631,-0.40422881,-0.24564667,-0.89603498,0.23218192,-0.49934563,-0.57231069,0.35573379,0.53749327
6.38000000,0.14560912,0.90513280,-0.12011193,-0.68083642,0.77354329,0.55410631,-0.40422881,-0.24564667,-0.89603498,0.23218192,-0.49934563,-0.57231069,0.35573379,0.53749327
6.40000000,0.14560912,0.90513280,-0.12011193,-0.68083642,0.77354329,0.55410631,-0.40422881,-0.24564667,-0.89603498,0.23218192,-0.49934563,-0.57231069,0.35573379,0.53749327
6.42000000,0.14560912,0.90513280,-0.12011193,-0.68083642,0.77354329,0.55410631,-0.40422881,-0.24564667,-0.89603498,0.23218192,-0.49934563,-0.57231069,0.35573379,0.53749327
6.44000000,0.14560912,0.90513280,-0.12011193,-0.68083642,0.77354329,0.55410631,-0.40422881,-0.24564667,-0.89603498,0.23218192,-0.49934563,-0.57231069,0.35573379,0.53749327
6.46000000,0.14560912,0.90513280,-0.12011193,-0.68083642,0.77354329,0.55410631,-0.40422881,-0.24564667,-0.89603498,0.23218192,-0.49934563,-0.57231069,0.35573379,0.53749327
6.48000000,0.14560912,0.90513280,-0.12011193,-0.68083642,0.77354329,0.55410631,-0.40422881,-0.24564667,-0.89603498,0.23218192,-0.49934563,-0.57231069,0.35573379,0.53749327
6.50000000,0.14560912,0.90513280,-0.12011193,-0.68083642,0.77354329,0.55410631,-0.40422881,-0.24564667,-0.89603498,0.23218192,-0.49934563,-0.57231069,0.35573379,0.53749327
6.52000000,0.14560912,0.90513280,-0.12011193,-0.68083642,0.77354329,0.55410631,-0.40422881,-0.24564667,-0.89603498,0.23218192,-0.49934563,-0.57231069,0.35573379,0.53749327
6.54000000,0.14560912,0.90513280,-0.12011193,-0.68083642,0.77354329,0.55410631,-0.40422881,-0.24564667,-0.89603498,0.23218192,-0.49934563,-0.57231069,0.35573379,0.53749327
6.56000000,0.14560912,0.90513280,-0.12011193,-0.68083642,0.77354329,0.55410631,-0.40422881,-0.24564667,-0.89603498,0.23218192,-0.49934563,-0.57231069,0.35573379,0.53749327
6.58000000,0.14560912,0.90513280,-0.12011193,-0.68083642,0.77354329,0.55410631,-0.40422881,-0.24564667,-0.89603498,0.23218192,-0.49934563,-0.57231069,0.35573379,0.53749327
6.60000000,0.14560912,0.90513280,-0.12011193,-0.68083642,0.77354329,0.55410631,-0.40422881,-0.24564667,-0.89603498,0.23218192,-0.49934563,-0.57231069,0.35573379,0.53749327
6.62000000,0.14560912,0.90513280,-0.12011193,-0.68083642,0.77354329,0.55410631,-0.40422881,-0.24564667,-0.89603498,0.23218192,-0.49934563,-0.57231069,0.35573379,0.53749327
6.64000000,0.14560912,0.90513280,-0.12011193,-0.68083642,0.77354329,0.55410631,-0.40422881,-0.24564667,-0.89603498,0.23218192,-0.49934563,-0.57231069,0.35573379,0.53749327
6.66000000,0.14560912,0.90513280,-0.12011193,-0.68083642,0.77354329,0.55410631,-0.40422881,-0.24564667,-0.89603498,0.23218192,-0.49934563,-0.57231069,0.35573379,0.53749327
6.68000000,0.14560912,0.90513280,-0.12011193,-0.68083642,0.77354329,0.55410631,-0.40422881,-0.24564667,-0.89603498,0.23218192,-0.49934563,-0.57231069,0.35573379,0.53749327
6.70000000,0.14560912,0.90513280,-0.12011193,-0.68083642,0.77354329,0.55410631,-0.40422881,-0.24564667,-0.89603498,0.23218192,-0.49934563,-0.57231069,0.35573379,0.53749327
6.72000000,0.14560912,0.90513280,-0.12011193,-0.68083642,0.77354329,0.55410631,-0.40422881,-0.24564667,-0.89603498,0.23218192,-0.49934563,-0.57231069,0.35573379,0.53749327
6.74000000,0.14560912,0.90513280,-0.12011193,-0.68083642,0.77354329,0.55410631,-0.40422881,-0.24564667,-0.89603498,0.23218192,-0.49934563,-0.57231069,0.35573379,0.53749327
6.76000000,0.14560912,0.90513280,-0.12011193,-0.68083642,0.77354329,0.55410631,-0.40422881,-0.24564667,-0.89603498,0.23218192,-0.49934563,-0.57231069,0.35573379,0.53749327
6.78000000,0.14560912,0.90513280,-0.12011193,-0.68083642,0.77354329,0.55410631,-0.40422881,-0.24564667,-0.89603498,0.23218192,-0.49934563,-0.57231069,0.35573379,0.53749327
6.80000000,0.14560912,0.90513280,-0.12011193,-0.68083642,0.77354329,0.55410631,-0.40422881,-0.24564667,-0.89603498,0.23218192,-0.49934563,-0.57231069,0.35573379,0.53749327
6.82000000,0.14560912,0.90513280,-0.12011193,-0.68083642,0.77354329,0.55410631,-0.40422881,-0.24564667,-0.89603498,0.23218192,-0.49934563,-0.57231069,0.35573379,0.53749327
6.84000000,0.14560912,0.90513280,-0.12011193,-0.68083642,0.77354329,0.55410631,-0.40422881,-0.24564667,-0.89603498,0.23218192,-0.49934563,-0.57231069,0.35573379,0.53749327
6.86000000,0.14560912,0.90513280,-0.12011193,-0.68083642,0.77354329,0.55410631,-0.40422881,-0.24564667,-0.89603498,0.23218192,-0.49934563,-0.57231069,0.35573379,0.53749327
6.88000000,0.14560912,0.90513280,-0.12011193,-0.68083642,0.77354329,0.55410631,-0.40422881,-0.24564667,-0.89603498,0.23218192,-0.49934563,-0.57231069,0.35573379,0.53749327
6.90000000,0.14560912,0.90513280,-0.12011193,-0.68083642,0.77354329,0.55410631,-0.40422881,-0.24564667,-0.89603498,0.23218192,-0.49934563,-0.57231069,0.35573379,0.53749327
6.92000000,0.14560912,0.90513280,-0.12011193,-0.68083642,0.77354329,0.55410631,-0.40422881,-0.24564667,-0.89603498,0.23218192,-0.49934563,-0.57231069,0.35573379,0.53749327
6.94000000,0.14560912,0.90513280,-0.12011193,-0.68083642,0.77354329,0.55410631,-0.40422881,-0.24564667,-0.89603498,0.23218192,-0.49934563,-0.57231069,0.35573379,0.53749327
6.96000000,0.14560912,0.90513280,-0.12011193,-0.68083642,0.77354329,0.55410631,-0.40422881,-0.24564667,-0.89603498,0.23218192,-0.49934563,-0.57231069,0.35573379,0.53749327
6.98000000,0.14560912,0.90513280,-0.12011193,-0.68083642,0.77354329,0.55410631,-0.40422881,-0.24564667,-0.89603498,0.23218192,-0.49934563,-0.57231069,0.35573379,0.53749327
7.00000000,0.14560912,0.90513280,-0.12011193,-0.68083642,0.77354329,0.55410631,-0.40422881,-0.24564667,-0.89603498,0.23218192,-0.49934563,-0.57231069,0.35573379,0.53749327
7.02000000,0.14560912,0.90513280,-0.12011193,-0.68083642,0.77354329,0.55410631,-0.40422881,-0.24564667,-0.89603498,0.23218192,-0.49934563,-0.57231069,0.35573379,0.53749327
7.04000000,0.14560912,0.90513280,-0.12011193,-0.68083642,0.77354329,0.55410631,-0.40422881,-0.24564667,-0.89603498,0.23218192,-0.49934563,-0.57231069,0.35573379,0.53749327
7.06000000,0.14560912,0.90513280,-0.12011193,-0.68083642,0.77354329,0.55410631,-0.40422881,-0.24564667,-0.89603498,0.23218192,-0.49934563,-0.57231069,0.35573379,0.53749327
7.08000000,0.14560912,0.90513280,-0.12011193,-0.68083642,0.77354329,0.55410631,-0.40422881,-0.24564667,-0.89603498,0.23218192,-0.49934563,-0.57231069,0.35573379,0.53749327
7.10000000,0.14560912,0.90513280,-0.12011193,-0.68083642,0.77354329,0.55410631,-0.40422881,-0.24564667,-0.89603498,0.23218192,-0.49934563,-0.57231069,0.35573379,0.53749327
7.12000000,0.14560912,0.90513280,-0.12011193,-0.68083642,0.77354329,0.55410631,-0.40422881,-0.24564667,-0.89603498,0.23218192,-0.49934563,-0.57231069,0.35573379,0.53749327
7.14000000,0.14560912,0.90513280,-0.12011193,-0.68083642,0.77354329,0.55410631,-0.40422881,-0.24564667,-0.89603498,0.23218192,-0.49934563,-0.57231069,0.35573379,0.53749327
7.16000000,0.14560912,0.90513280,-0.12011193,-0.68083642,0.77354329,0.55410631,-0.40422881,-0.24564667,-0.89603498,0.23218192,-0.49934563,-0.57231069,0.35573379,0.53749327
7.18000000,0.14560912,0.90513280,-0.12011193,-0.68083642,0.77354329,0.55410631,-0.40422881,-0.24564667,-0.89603498,0.23218192,-0.49934563,-0.57231069,0.35573379,0.53749327
7.20000000,0.14560912,0.90513280,-0.12011193,-0.68083642,0.77354329,0.55410631,-0.40422881,-0.24564667,-0.89603498,0.23218192,-0.49934563,-0.57231069,0.35573379,0.53749327
7.22000000,0.14560912,0.90513280,-0.12011193,-0.68083642,0.77354329,0.55410631,-0.40422881,-0.24564667,-0.89603498,0.23218192,-0.49934563,-0.57231069,0.35573379,0.53749327
7.24000000,0.14560912,0.90513280,-0.12011193,-0.68083642,0.77354329,0.55410631,-0.40422881,-0.24564667,-0.89603498,0.23218192,-0.49934563,-0.57231069,0.35573379,0.53749327
7.26000000,0.14560912,0.90513280,-0.12011193,-0.68083642,0.77354329,0.55410631,-0.40422881,-0.24564667,-0.89603498,0.23218192,-0.49934563,-0.57231069,0.35573379,0.53749327
7.28000000,0.14560912,0.90513280,-0.12011193,-0.68083642,0.77354329,0.55410631,-0.40422881,-0.24564667,-0.89603498,0.23218192,-0.49934563,-0.57231069,0.35573379,0.53749327
7.30000000,0.14560912,0.90513280,-0.12011193,-0.68083642,0.77354329,0.55410631,-0.40422881,-0.24564667,-0.89603498,0.23218192,-0.49934563,-0.57231069,0.35573379,0.53749327
7.32000000,0.14560912,0.90513280,-0.12011193,-0.68083642,0.77354329,0.55410631,-0.40422881,-0.24564667,-0.89603498,0.23218192,-0.49934563,-0.57231069,0.35573379,0.53749327
7.34000000,0.14560912,0.90513280,-0.12011193,-0.68083642,0.77354329,0.55410631,-0.40422881,-0.24564667,-0.89603498,0.23218192,-0.49934563,-0.57231069,0.35573379,0.53749327
7.36000000,0.14560912,0.90513280,-0.12011193,-0.68083642,0.77354329,0.55410631,-0.40422881,-0.24564667,-0.89603498,0.23218192,-0.49934563,-0.57231069,0.35573379,0.53749327
7.38000000,0.14560912,0.90513280,-0.12011193,-0.68083642,0.77354329,0.55410631,-0.40422881,-0.24564667,-0.89603498,0.23218192,-0.49934563,-0.57231069,0.35573379,0.53749327
7.40000000,0.14560912,0.90513280,-0.12011193,-0.68083642,0.77354329,0.55410631,-0.40422881,-0.24564667,-0.89603498,0.23218192,-0.49934563,-0.57231069,0.35573379,0.53749327
7.42000000,0.14560912,0.90513280,-0.12011193,-0.68083642,0.77354329,0.55410631,-0.40422881,-0.24564667,-0.89603498,0.23218192,-0.49934563,-0.57231069,0.35573379,0.53749327
7.44000000,0.14560912,0.90513280,-0.12011193,-0.68083642,0.77354329,0.55410631,-0.40422881,-0.24564667,-0.89603498,0.23218192,-0.49934563,-0.57231069,0.35573379,0.53749327
7.46000000,0.14560912,0.90513280,-0.12011193,-0.68083642,0.77354329,0.55410631,-0.40422881,-0.24564667,-0.89603498,0.23218192,-0.49934563,-0.57231069,0.35573379,0.53749327
7.48000000,0.14560912,0.90513280,-0.12011193,-0.68083642,0.77354329,0.55410631,-0.40422881,-0.24564667,-0.89603498,0.23218192,-0.49934563,-0.57231069,0.35573379,0.53749327
7.50000000,0.14560912,0.90513280,-0.12011193,-0.68083642,0.77354329,0.55410631,-0.40422881,-0.24564667,-0.89603498,0.23218192,-0.49934563,-0.57231069,0.35573379,0.53749327
7.52000000,0.14560912,0.90513280,-0.12011193,-0.68083642,0.77354329,0.55410631,-0.40422881,-0.24564667,-0.89603498,0.23218192,-0.49934563,-0.57231069,0.35573379,0.53749327
7.54000000,0.14560912,0.90513280,-0.12011193,-0.68083642,0.77354329,0.55410631,-0.40422881,-0.24564667,-0.89603498,0.23218192,-0.49934563,-0.57231069,0.35573379,0.53749327
7.56000000,0.14560912,0.90513280,-0.12011193,-0.68083642,0.77354329,0.55410631,-0.40422881,-0.24564667,-0.89603498,0.23218192,-0.49934563,-0.57231069,0.35573379,0.53749327
7.58000000,0.14560912,0.90513280,-0.12011193,-0.68083642,0.77354329,0.55410631,-0.40422881,-0.24564667,-0.89603498,0.23218192,-0.49934563,-0.57231069,0.35573379,0.53749327
7.60000000,0.14560912,0.90513280,-0.12011193,-0.68083642,0.77354329,0.55410631,-0.40422881,-0.24564667,-0.89603498,0.23218192,-0.49934563,-0.57231069,0.35573379,0.53749327
7.62000000,0.14560912,0.90513280,-0.12011193,-0.68083642,0.77354329,0.55410631,-0.40422881,-0.24564667,-0.89603498,0.23218192,-0.49934563,-0.57231069,0.35573379,0.53749327
7.64000000,0.14560912,0.90513280,-0.12011193,-0.68083642,0.77354329,0.55410631,-0.40422881,-0.24564667,-0.89603498,0.23218192,-0.49934563,-0.57231069,0.35573379,0.53749327
7.66000000,0.14560912,0.90513280,-0.12011193,-0.68083642,0.77354329,0.55410631,-0.40422881,-0.24564667,-0.89603498,0.23218192,-0.49934563,-0.57231069,0.35573379,0.53749327
7.68000000,0.14560912,0.90513280,-0.12011193,-0.68083642,0.77354329,0.55410631,-0.40422881,-0.24564667,-0.89603498,0.23218192,-0.49934563,-0.57231069,0.35573379,0.53749327
7.70000000,0.14560912,0.90513280,-0.12011193,-0.68083642,0.77354329,0.55410631,-0.40422881,-0.24564667,-0.89603498,0.23218192,-0.49934563,-0.57231069,0.35573379,0.53749327
7.72000000,0.14560912,0.90513280,-0.12011193,-0.68083642,0.77354329,0.55410631,-0.40422881,-0.24564667,-0.89603498,0.23218192,-0.49934563,-0.57231069,0.35573379,0.53749327
7.74000000,0.14560912,0.90513280,-0.12011193,-0.68083642,0.77354329,0.55410631,-0.40422881,-0.24564667,-0.89603498,0.23218192,-0.49934563,-0.57231069,0.35573379,0.53749327
7.76000000,0.14560912,0.90513280,-0.12011193,-0.68083642,0.77354329,0.55410631,-0.40422881,-0.24564667,-0.89603498,0.23218192,-0.49934563,-0.57231069,0.35573379,0.53749327
7.78000000,0.14560912,0.90513280,-0.12011193,-0.68083642,0.77354329,0.55410631,-0.40422881,-0.24564667,-0.89603498,0.23218192,-0.49934563,-0.57231069,0.35573379,0.53749327
7.80000000,0.14560912,0.90513280,-0.12011193,-0.68083642,0.77354329,0.55410631,-0.40422881,-0.24564667,-0.89603498,0.23218192,-0.49934563,-0.57231069,0.35573379,0.53749327
7.82000000,0.14560912,0.90513280,-0.12011193,-0.68083642,0.77354329,0.55410631,-0.40422881,-0.24564667,-0.89603498,0.23218192,-0.49934563,-0.57231069,0.35573379,0.53749327
7.84000000,0.14560912,0.90513280,-0.12011193,-0.68083642,0.77354329,0.55410631,-0.40422881,-0.24564667,-0.89603498,0.23218192,-0.49934563,-0.57231069,0.35573379,0.53749327
7.86000000,0.14560912,0.90513280,-0.12011193,-0.68083642,0.77354329,0.55410631,-0.40422881,-0.24564667,-0.89603498,0.23218192,-0.49934563,-0.57231069,0.35573379,0.53749327
7.88000000,0.14560912,0.90513280,-0.12011193,-0.68083642,0.77354329,0.55410631,-0.40422881,-0.24564667,-0.89603498,0.23218192,-0.49934563,-0.57231069,0.35573379,0.53749327
7.90000000,0.14560912,0.90513280,-0.12011193,-0.68083642,0.77354329,0.55410631,-0.40422881,-0.24564667,-0.89603498,0.23218192,-0.49934563,-0.57231069,0.35573379,0.53749327
7.92000000,0.14560912,0.90513280,-0.12011193,-0.68083642,0.77354329,0.55410631,-0.40422881,-0.24564667,-0.89603498,0.23218192,-0.49934563,-0.57231069,0.35573379,0.53749327
7.94000000,0.14560912,0.90513280,-0.12011193,-0.68083642,0.77354329,0.55410631,-0.40422881,-0.24564667,-0.89603498,0.23218192,-0.49934563,-0.57231069,0.35573379,0.53749327
7.96000000,0.14560912,0.90513280,-0.12011193,-0.68083642,0.77354329,0.55410631,-0.40422881,-0.24564667,-0.89603498,0.23218192,-0.49934563,-0.57231069,0.35573379,0.53749327
7.98000000,0.14560912,0.90513280,-0.12011193,-0.68083642,0.77354329,0.55410631,-0.40422881,-0.24564667,-0.89603498,0.23218192,-0.49934563,-0.57231069,0.35573379,0.53749327
8.00000000,0.14560912,0.90513280,-0.12011193,-0.68083642,0.77354329,0.55410631,-0.40422881,-0.24564667,-0.89603498,0.23218192,-0.49934563,-0.57231069,0.35573379,0.53749327
8.02000000,0.14560912,0.90513280,-0.12011193,-0.68083642,0.77354329,0.55410631,-0.40422881,-0.24564667,-0.89603498,0.23218192,-0.49934563,-0.57231069,0.35573379,0.53749327
8.04000000,0.14560912,0.90513280,-0.12011193,-0.68083642,0.77354329,0.55410631,-0.40422881,-0.24564667,-0.89603498,0.23218192,-0.49934563,-0.57231069,0.35573379,0.53749327
8.06000000,0.14560912,0.90513280,-0.12011193,-0.68083642,0.77354329,0.55410631,-0.40422881,-0.24564667,-0.89603498,0.23218192,-0.49934563,-0.57231069,0.35573379,0.53749327
8.08000000,0.14560912,0.90513280,-0.12011193,-0.68083642,0.77354329,0.55410631,-0.40422881,-0.24564667,-0.89603498,0.23218192,-0.49934563,-0.57231069,0.35573379,0.53749327
8.10000000,0.14560912,0.90513280,-0.12011193,-0.68083642,0.77354329,0.55410631,-0.40422881,-0.24564667,-0.89603498,0.23218192,-0.49934563,-0.57231069,0.35573379,0.53749327
8.12000000,0.14560912,0.90513280,-0.12011193,-0.68083642,0.77354329,0.55410631,-0.40422881,-0.24564667,-0.89603498,0.23218192,-0.49934563,-0.57231069,0.35573379,0.53749327
8.14000000,0.14560912,0.90513280,-0.12011193,-0.68083642,0.77354329,0.55410631,-0.40422881,-0.24564667,-0.89603498,0.23218192,-0.49934563,-0.57231069,0.35573379,0.53749327
8.16000000,0.14560912,0.90513280,-0.12011193,-0.68083642,0.77354329,0.55410631,-0.40422881,-0.24564667,-0.89603498,0.23218192,-0.49934563,-0.57231069,0.35573379,0.53749327
8.18000000,0.14560912,0.90513280,-0.12011193,-0.68083642,0.77354329,0.55410631,-0.40422881,-0.24564667,-0.89603498,0.23218192,-0.49934563,-0.57231069,0.35573379,0.53749327
8.20000000,0.14560912,0.90513280,-0.12011193,-0.68083642,0.77354329,0.55410631,-0.40422881,-0.24564667,-0.89603498,0.23218192,-0.49934563,-0.57231069,0.35573379,0.53749327
8.22000000,0.14560912,0.90513280,-0.12011193,-0.68083642,0.77354329,0.55410631,-0.40422881,-0.24564667,-0.89603498,0.23218192,-0.49934563,-0.57231069,0.35573379,0.53749327
8.24000000,0.14560912,0.90513280,-0.12011193,-0.68083642,0.77354329,0.55410631,-0.40422881,-0.24564667,-0.89603498,0.23218192,-0.49934563,-0.57231069,0.35573379,0.53749327
8.26000000,0.14560912,0.90513280,-0.12011193,-0.68083642,0.77354329,0.55410631,-0.40422881,-0.24564667,-0.89603498,0.23218192,-0.49934563,-0.57231069,0.35573379,0.53749327
8.28000000,0.14560912,0.90513280,-0.12011193,-0.68083642,0.77354329,0.55410631,-0.40422881,-0.24564667,-0.89603498,0.23218192,-0.49934563,-0.57231069,0.35573379,0.53749327
8.30000000,0.14560912,0.90513280,-0.12011193,-0.68083642,0.77354329,0.55410631,-0.40422881,-0.24564667,-0.89603498,0.23218192,-0.49934563,-0.57231069,0.35573379,0.53749327
8.32000000,0.14560912,0.90513280,-0.12011193,-0.68083642,0.77354329,0.55410631,-0.40422881,-0.24564667,-0.89603498,0.23218192,-0.49934563,-0.57231069,0.35573379,0.53749327
8.34000000,0.14560912,0.90513280,-0.12011193,-0.68083642,0.77354329,0.55410631,-0.40422881,-0.24564667,-0.89603498,0.23218192,-0.49934563,-0.57231069,0.35573379,0.53749327
8.36000000,0.14560912,0.90513280,-0.12011193,-0.68083642,0.77354329,0.55410631,-0.40422881,-0.24564667,-0.89603498,0.23218192,-0.49934563,-0.57231069,0.35573379,0.53749327
8.38000000,0.14560912,0.90513280,-0.12011193,-0.68083642,0.77354329,0.55410631,-0.40422881,-0.24564667,-0.89603498,0.23218192,-0.49934563,-0.57231069,0.35573379,0.53749327
8.40000000,0.14560912,0.90513280,-0.12011193,-0.68083642,0.77354329,0.55410631,-0.40422881,-0.24564667,-0.89603498,0.23218192,-0.49934563,-0.57231069,0.35573379,0.53749327
8.42000000,0.14560912,0.90513280,-0.12011193,-0.68083642,0.77354329,0.55410631,-0.40422881,-0.24564667,-0.89603498,0.23218192,-0.49934563,-0.57231069,0.35573379,0.53749327
8.44000000,0.14560912,0.90513280,-0.12011193,-0.68083642,0.77354329,0.55410631,-0.40422881,-0.24564667,-0.89603498,0.23218192,-0.49934563,-0.57231069,0.35573379,0.53749327
8.46000000,0.14560912,0.90513280,-0.12011193,-0.68083642,0.77354329,0.55410631,-0.40422881,-0.24564667,-0.89603498,0.23218192,-0.49934563,-0.57231069,0.35573379,0.53749327
8.48000000,0.14560912,0.90513280,-0.12011193,-0.68083642,0.77354329,0.55410631,-0.40422881,-0.24564667,-0.89603498,0.23218192,-0.49934563,-0.57231069,0.35573379,0.53749327
8.50000000,0.14560912,0.90513280,-0.12011193,-0.68083642,0.77354329,0.55410631,-0.40422881,-0.24564667,-0.89603498,0.23218192,-0.49934563,-0.57231069,0.35573379,0.53749327
8.52000000,0.14560912,0.90513280,-0.12011193,-0.68083642,0.77354329,0.55410631,-0.40422881,-0.24564667,-0.89603498,0.23218192,-0.49934563,-0.57231069,0.35573379,0.53749327
8.54000000,0.14560912,0.90513280,-0.12011193,-0.68083642,0.77354329,0.55410631,-0.40422881,-0.24564667,-0.89603498,0.23218192,-0.49934563,-0.57231069,0.35573379,0.53749327
8.56000000,0.14560912,0.90513280,-0.12011193,-0.68083642,0.77354329,0.55410631,-0.40422881,-0.24564667,-0.89603498,0.23218192,-0.49934563,-0.57231069,0.35573379,0.53749327
8.58000000,0.14560912,0.90513280,-0.12011193,-0.68083642,0.77354329,0.55410631,-0.40422881,-0.24564667,-0.89603498,0.23218192,-0.49934563,-0.57231069,0.35573379,0.53749327
8.60000000,0.14560912,0.90513280,-0.12011193,-0.68083642,0.77354329,0.55410631,-0.40422881,-0.24564667,-0.89603498,0.23218192,-0.49934563,-0.57231069,0.35573379,0.53749327
8.62000000,0.14560912,0.90513280,-0.12011193,-0.68083642,0.77354329,0.55410631,-0.40422881,-0.24564667,-0.89603498,0.23218192,-0.49934563,-0.57231069,0.35573379,0.53749327
8.64000000,0.14560912,0.90513280,-0.12011193,-0.68083642,0.77354329,0.55410631,-0.40422881,-0.24564667,-0.89603498,0.23218192,-0.49934563,-0.57231069,0.35573379,0.53749327
8.66000000,0.14560912,0.90513280,-0.12011193,-0.68083642,0.77354329,0.55410631,-0.40422881,-0.24564667,-0.89603498,0.23218192,-0.49934563,-0.57231069,0.35573379,0.53749327
8.68000000,0.14560912,0.90513280,-0.12011193,-0.68083642,0.77354329,0.55410631,-0.40422881,-0.24564667,-0.89603498,0.23218192,-0.49934563,-0.57231069,0.35573379,0.53749327
8.70000000,0.14560912,0.90513280,-0.12011193,-0.68083642,0.77354329,0.55410631,-0.40422881,-0.24564667,-0.89603498,0.23218192,-0.49934563,-0.57231069,0.35573379,0.53749327
8.72000000,0.14560912,0.90513280,-0.12011193,-0.68083642,0.77354329,0.55410631,-0.40422881,-0.24564667,-0.89603498,0.23218192,-0.49934563,-0.57231069,0.35573379,0.53749327
8.74000000,0.14560912,0.90513280,-0.12011193,-0.68083642,0.77354329,0.55410631,-0.40422881,-0.24564667,-0.89603498,0.23218192,-0.49934563,-0.57231069,0.35573379,0.53749327
8.76000000,0.14560912,0.90513280,-0.12011193,-0.68083642,0.77354329,0.55410631,-0.40422881,-0.24564667,-0.89603498,0.23218192,-0.49934563,-0.57231069,0.35573379,0.53749327
8.78000000,0.14560912,0.90513280,-0.12011193,-0.68083642,0.77354329,0.55410631,-0.40422881,-0.24564667,-0.89603498,0.23218192,-0.49934563,-0.57231069,0.35573379,0.53749327
8.80000000,0.14560912,0.90513280,-0.12011193,-0.68083642,0.77354329,0.55410631,-0.40422881,-0.24564667,-0.89603498,0.23218192,-0.49934563,-0.57231069,0.35573379,0.53749327
8.82000000,0.14560912,0.90513280,-0.12011193,-0.68083642,0.77354329,0.55410631,-0.40422881,-0.24564667,-0.89603498,0.23218192,-0.49934563,-0.57231069,0.35573379,0.53749327
8.84000000,0.14560912,0.90513280,-0.12011193,-0.68083642,0.77354329,0.55410631,-0.40422881,-0.24564667,-0.89603498,0.23218192,-0.49934563,-0.57231069,0.35573379,0.53749327
8.86000000,0.14560912,0.90513280,-0.12011193,-0.68083642,0.77354329,0.55410631,-0.40422881,-0.24564667,-0.89603498,0.23218192,-0.49934563,-0.57231069,0.35573379,0.53749327
8.88000000,0.14560912,0.90513280,-0.12011193,-0.68083642,0.77354329,0.55410631,-0.40422881,-0.24564667,-0.89603498,0.23218192,-0.49934563,-0.57231069,0.35573379,0.53749327
8.90000000,0.14560912,0.90513280,-0.12011193,-0.68083642,0.77354329,0.55410631,-0.40422881,-0.24564667,-0.89603498,0.23218192,-0.49934563,-0.57231069,0.35573379,0.53749327
8.92000000,0.14560912,0.90513280,-0.12011193,-0.68083642,0.77354329,0.55410631,-0.40422881,-0.24564667,-0.89603498,0.23218192,-0.49934563,-0.57231069,0.35573379,0.53749327
8.94000000,0.14560912,0.90513280,-0.12011193,-0.68083642,0.77354329,0.55410631,-0.40422881,-0.24564667,-0.89603498,0.23218192,-0.49934563,-0.57231069,0.35573379,0.53749327
8.96000000,0.14560912,0.90513280,-0.12011193,-0.68083642,0.77354329,0.55410631,-0.40422881,-0.24564667,-0.89603498,0.23218192,-0.49934563,-0.57231069,0.35573379,0.53749327
8.98000000,0.14560912,0.90513280,-0.12011193,-0.68083642,0.77354329,0.55410631,-0.40422881,-0.24564667,-0.89603498,0.23218192,-0.49934563,-0.57231069,0.35573379,0.53749327
9.00000000,0.14560912,0.90513280,-0.12011193,-0.68083642,0.77354329,0.55410631,-0.40422881,-0.24564667,-0.89603498,0.23218192,-0.49934563,-0.57231069,0.35573379,0.53749327
9.02000000,0.14560912,0.90513280,-0.12011193,-0.68083642,0.77354329,0.55410631,-0.40422881,-0.24564667,-0.89603498,0.23218192,-0.49934563,-0.57231069,0.35573379,0.53749327
9.04000000,0.14560912,0.90513280,-0.12011193,-0.68083642,0.77354329,0.55410631,-0.40422881,-0.24564667,-0.89603498,0.23218192,-0.49934563,-0.57231069,0.35573379,0.53749327
9.06000000,0.14560912,0.90513280,-0.12011193,-0.68083642,0.77354329,0.55410631,-0.40422881,-0.24564667,-0.89603498,0.23218192,-0.49934563,-0.57231069,0.35573379,0.53749327
9.08000000,0.14560912,0.90513280,-0.12011193,-0.68083642,0.77354329,0.55410631,-0.40422881,-0.24564667,-0.89603498,0.23218192,-0.49934563,-0.57231069,0.35573379,0.53749327
9.10000000,0.14560912,0.90513280,-0.12011193,-0.68083642,0.77354329,0.55410631,-0.40422881,-0.24564667,-0.89603498,0.23218192,-0.49934563,-0.57231069,0.35573379,0.53749327
9.12000000,0.14560912,0.90513280,-0.12011193,-0.68083642,0.77354329,0.55410631,-0.40422881,-0.24564667,-0.89603498,0.23218192,-0.49934563,-0.57231069,0.35573379,0.53749327
9.14000000,0.14560912,0.90513280,-0.12011193,-0.68083642,0.77354329,0.55410631,-0.40422881,-0.24564667,-0.89603498,0.23218192,-0.49934563,-0.57231069,0.35573379,0.53749327
9.16000000,0.14560912,0.90513280,-0.12011193,-0.68083642,0.77354329,0.55410631,-0.40422881,-0.24564667,-0.89603498,0.23218192,-0.49934563,-0.57231069,0.35573379,0.53749327
9.18000000,0.14560912,0.90513280,-0.12011193,-0.68083642,0.77354329,0.55410631,-0.40422881,-0.24564667,-0.89603498,0.23218192,-0.49934563,-0.57231069,0.35573379,0.53749327
9.20000000,0.14560912,0.90513280,-0.12011193,-0.68083642,0.77354329,0.55410631,-0.40422881,-0.24564667,-0.89603498,0.23218192,-0.49934563,-0.57231069,0.35573379,0.53749327
9.22000000,0.14560912,0.90513280,-0.12011193,-0.68083642,0.77354329,0.55410631,-0.40422881,-0.24564667,-0.89603498,0.23218192,-0.49934563,-0.57231069,0.35573379,0.53749327
9.24000000,0.14560912,0.90513280,-0.12011193,-0.68083642,0.77354329,0.55410631,-0.40422881,-0.24564667,-0.89603498,0.23218192,-0.49934563,-0.57231069,0.35573379,0.53749327
9.26000000,0.14560912,0.90513280,-0.12011193,-0.68083642,0.77354329,0.55410631,-0.40422881,-0.24564667,-0.89603498,0.23218192,-0.49934563,-0.57231069,0.35573379,0.53749327
9.28000000,0.14560912,0.90513280,-0.12011193,-0.68083642,0.77354329,0.55410631,-0.40422881,-0.24564667,-0.89603498,0.23218192,-0.49934563,-0.57231069,0.35573379,0.53749327
9.30000000,0.14560912,0.90513280,-0.12011193,-0.68083642,0.77354329,0.55410631,-0.40422881,-0.24564667,-0.89603498,0.23218192,-0.49934563,-0.57231069,0.35573379,0.53749327
9.32000000,0.14560912,0.90513280,-0.12011193,-0.68083642,0.77354329,0.55410631,-0.40422881,-0.24564667,-0.89603498,0.23218192,-0.49934563,-0.57231069,0.35573379,0.53749327
9.34000000,0.14560912,0.90513280,-0.12011193,-0.68083642,0.77354329,0.55410631,-0.40422881,-0.24564667,-0.89603498,0.23218192,-0.49934563,-0.57231069,0.35573379,0.53749327
9.36000000,0.14560912,0.90513280,-0.12011193,-0.68083642,0.77354329,0.55410631,-0.40422881,-0.24564667,-0.89603498,0.23218192,-0.49934563,-0.57231069,0.35573379,0.53749327
9.38000000,0.14560912,0.90513280,-0.12011193,-0.68083642,0.77354329,0.55410631,-0.40422881,-0.24564667,-0.89603498,0.23218192,-0.49934563,-0.57231069,0.35573379,0.53749327
9.40000000,0.14560912,0.90513280,-0.12011193,-0.68083642,0.77354329,0.55410631,-0.40422881,-0.24564667,-0.89603498,0.23218192,-0.49934563,-0.57231069,0.35573379,0.53749327
9.42000000,0.14560912,0.90513280,-0.12011193,-0.68083642,0.77354329,0.55410631,-0.40422881,-0.24564667,-0.89603498,0.23218192,-0.49934563,-0.57231069,0.35573379,0.53749327
9.44000000,0.14560912,0.90513280,-0.12011193,-0.68083642,0.77354329,0.55410631,-0.40422881,-0.24564667,-0.89603498,0.23218192,-0.49934563,-0.57231069,0.35573379,0.53749327
9.46000000,0.14560912,0.90513280,-0.12011193,-0.68083642,0.77354329,0.55410631,-0.40422881,-0.24564667,-0.89603498,0.23218192,-0.49934563,-0.57231069,0.35573379,0.53749327
9.48000000,0.14560912,0.90513280,-0.12011193,-0.68083642,0.77354329,0.55410631,-0.40422881,-0.24564667,-0.89603498,0.23218192,-0.49934563,-0.57231069,0.35573379,0.53749327
9.50000000,0.14560912,0.90513280,-0.12011193,-0.68083642,0.77354329,0.55410631,-0.40422881,-0.24564667,-0.89603498,0.23218192,-0.49934563,-0.57231069,0.35573379,0.53749327
9.52000000,0.14560912,0.90513280,-0.12011193,-0.68083642,0.77354329,0.55410631,-0.40422881,-0.24564667,-0.89603498,0.23218192,-0.49934563,-0.57231069,0.35573379,0.53749327
9.54000000,0.14560912,0.90513280,-0.12011193,-0.68083642,0.77354329,0.55410631,-0.40422881,-0.24564667,-0.89603498,0.23218192,-0.49934563,-0.57231069,0.35573379,0.53749327
9.56000000,0.14560912,0.90513280,-0.12011193,-0.68083642,0.77354329,0.55410631,-0.40422881,-0.24564667,-0.89603498,0.23218192,-0.49934563,-0.57231069,0.35573379,0.53749327
9.58000000,0.14560912,0.90513280,-0.12011193,-0.68083642,0.77354329,0.55410631,-0.40422881,-0.24564667,-0.89603498,0.23218192,-0.49934563,-0.57231069,0.35573379,0.53749327
9.60000000,0.14560912,0.90513280,-0.12011193,-0.68083642,0.77354329,0.55410631,-0.40422881,-0.24564667,-0.89603498,0.23218192,-0.49934563,-0.57231069,0.35573379,0.53749327
9.62000000,0.14560912,0.90513280,-0.12011193,-0.68083642,0.77354329,0.55410631,-0.40422881,-0.24564667,-0.89603498,0.23218192,-0.49934563,-0.57231069,0.35573379,0.53749327
9.64000000,0.14560912,0.90513280,-0.12011193,-0.68083642,0.77354329,0.55410631,-0.40422881,-0.24564667,-0.89603498,0.23218192,-0.49934563,-0.57231069,0.35573379,0.53749327
9.66000000,0.14560912,0.90513280,-0.12011193,-0.68083642,0.77354329,0.55410631,-0.40422881,-0.24564667,-0.89603498,0.23218192,-0.49934563,-0.57231069,0.35573379,0.53749327
9.68000000,0.14560912,0.90513280,-0.12011193,-0.68083642,0.77354329,0.55410631,-0.40422881,-0.24564667,-0.89603498,0.23218192,-0.49934563,-0.57231069,0.35573379,0.53749327
9.70000000,0.14560912,0.90513280,-0.12011193,-0.68083642,0.77354329,0.55410631,-0.40422881,-0.24564667,-0.89603498,0.23218192,-0.49934563,-0.57231069,0.35573379,0.53749327
9.72000000,0.14560912,0.90513280,-0.12011193,-0.68083642,0.77354329,0.55410631,-0.40422881,-0.24564667,-0.89603498,0.23218192,-0.49934563,-0.57231069,0.35573379,0.53749327
9.74000000,0.14560912,0.90513280,-0.12011193,-0.68083642,0.77354329,0.55410631,-0.40422881,-0.24564667,-0.89603498,0.23218192,-0.49934563,-0.57231069,0.35573379,0.53749327
9.76000000,0.14560912,0.90513280,-0.12011193,-0.68083642,0.77354329,0.55410631,-0.40422881,-0.24564667,-0.89603498,0.23218192,-0.49934563,-0.57231069,0.35573379,0.53749327
9.78000000,0.14560912,0.90513280,-0.12011193,-0.68083642,0.77354329,0.55410631,-0.40422881,-0.24564667,-0.89603498,0.23218192,-0.49934563,-0.57231069,0.35573379,0.53749327
9.80000000,0.14560912,0.90513280,-0.12011193,-0.68083642,0.77354329,0.55410631,-0.40422881,-0.24564667,-0.89603498,0.23218192,-0.49934563,-0.57231069,0.35573379,0.53749327
9.82000000,0.14560912,0.90513280,-0.12011193,-0.68083642,0.77354329,0.55410631,-0.40422881,-0.24564667,-0.89603498,0.23218192,-0.49934563,-0.57231069,0.35573379,0.53749327
9.84000000,0.14560912,0.90513280,-0.12011193,-0.68083642,0.77354329,0.55410631,-0.40422881,-0.24564667,-0.89603498,0.23218192,-0.49934563,-0.57231069,0.35573379,0.53749327
9.86000000,0.14560912,0.90513280,-0.12011193,-0.68083642,0.77354329,0.55410631,-0.40422881,-0.24564667,-0.89603498,0.23218192,-0.49934563,-0.57231069,0.35573379,0.53749327
9.88000000,0.14560912,0.90513280,-0.12011193,-0.68083642,0.77354329,0.55410631,-0.40422881,-0.24564667,-0.89603498,0.23218192,-0.49934563,-0.57231069,0.35573379,0.53749327
9.90000000,0.14560912,0.90513280,-0.12011193,-0.68083642,0.77354329,0.55410631,-0.40422881,-0.24564667,-0.89603498,0.23218192,-0.49934563,-0.57231069,0.35573379,0.53749327
9.92000000,0.14560912,0.90513280,-0.12011193,-0.68083642,0.77354329,0.55410631,-0.40422881,-0.24564667,-0.89603498,0.23218192,-0.49934563,-0.57231069,0.35573379,0.53749327
9.94000000,0.14560912,0.90513280,-0.12011193,-0.68083642,0.77354329,0.55410631,-0.40422881,-0.24564667,-0.89603498,0.23218192,-0.49934563,-0.57231069,0.35573379,0.53749327
9.96000000,0.14560912,0.90513280,-0.12011193,-0.68083642,0.77354329,0.55410631,-0.40422881,-0.24564667,-0.89603498,0.23218192,-0.49934563,-0.57231069,0.35573379,0.53749327
9.98000000,0.14560912,0.90513280,-0.12011193,-0.68083642,0.77354329,0.55410631,-0.40422881,-0.24564667,-0.89603498,0.23218192,-0.49934563,-0.57231069,0.35573379,0.53749327
10.00000000,0.14560375,0.90513002,-0.12011570,-0.68082849,0.77354316,0.55410251,-0.40422701,-0.24564440,-0.89603448,0.23218191,-0.49934553,-0.57231188,0.35573398,0.53749075
10.02000000,0.14556686,0.90511087,-0.12014163,-0.68077399,0.77354225,0.55407640,-0.40421458,-0.24562882,-0.89603099,0.23218183,-0.49934484,-0.57232006,0.35573531,0.53747341
10.04000000,0.14546865,0.90505990,-0.12021064,-0.68062893,0.77353983,0.55400691,-0.40418149,-0.24558733,-0.89602171,0.23218164,-0.49934300,-0.57234183,0.35573886,0.53742726
10.06000000,0.14528124,0.90496264,-0.12034233,-0.68035211,0.77353522,0.55387428,-0.40411835,-0.24550816,-0.89600399,0.23218128,-0.49933950,-0.57238339,0.35574562,0.53733920
10.08000000,0.14497858,0.90480556,-0.12055502,-0.67990504,0.77352776,0.55366010,-0.40401637,-0.24538031,-0.89597539,0.23218068,-0.49933384,-0.57245051,0.35575655,0.53719698
10.10000000,0.14453642,0.90457608,-0.12086573,-0.67925191,0.77351686,0.55334719,-0.40386740,-0.24519352,-0.89593359,0.23217982,-0.49932558,-0.57254855,0.35577251,0.53698921
10.12000000,0.14393227,0.90426253,-0.12129027,-0.67835950,0.77350198,0.55291965,-0.40366384,-0.24493830,-0.89587649,0.23217863,-0.49931429,-0.57268252,0.35579433,0.53670532
10.14000000,0.14314537,0.90385413,-0.12184324,-0.67719715,0.77348259,0.55236279,-0.40339872,-0.24460588,-0.89580211,0.23217709,-0.49929958,-0.57285701,0.35582273,0.53633556
10.16000000,0.14215666,0.90334099,-0.12253802,-0.67573669,0.77345823,0.55166310,-0.40306559,-0.24418820,-0.89570866,0.23217516,-0.49928110,-0.57307626,0.35585843,0.53587096
10.18000000,0.14094869,0.90271406,-0.12338687,-0.67395237,0.77342847,0.55080825,-0.40265860,-0.24367790,-0.89559448,0.23217279,-0.49925852,-0.57334412,0.35590204,0.53530334
10.20000000,0.13950566,0.90196514,-0.12440091,-0.67182082,0.77339291,0.54978706,-0.40217241,-0.24306830,-0.89545809,0.23216996,-0.49923155,-0.57366411,0.35595414,0.53462526
10.22000000,0.13781330,0.90108682,-0.12559014,-0.66932100,0.77335121,0.54858943,-0.40160221,-0.24235337,-0.89529813,0.23216665,-0.49919991,-0.57403938,0.35601524,0.53383003
10.24000000,0.13585890,0.90007249,-0.12696352,-0.66643410,0.77330306,0.54720636,-0.40094372,-0.24152775,-0.89511340,0.23216282,-0.49916338,-0.57447276,0.35608579,0.53291166
10.26000000,0.13363123,0.89891634,-0.12852894,-0.66314353,0.77324817,0.54562989,-0.40019316,-0.24058668,-0.89490284,0.23215846,-0.49912175,-0.57496674,0.35616622,0.53186488
10.28000000,0.13112049,0.89761328,-0.13029327,-0.65943485,0.77318630,0.54385311,-0.39934723,-0.23952603,-0.89466553,0.23215354,-0.49907482,-0.57552348,0.35625686,0.53068509
10.30000000,0.12831831,0.89615897,-0.13226239,-0.65529568,0.77311726,0.54187009,-0.39840311,-0.23834227,-0.89440067,0.23214806,-0.49902244,-0.57614485,0.35635803,0.52936835
10.32000000,0.12521770,0.89454977,-0.13444122,-0.65071568,0.77304086,0.53967588,-0.39735844,-0.23703243,-0.89410760,0.23214199,-0.49896449,-0.57683240,0.35646997,0.52791138
10.34000000,0.12181299,0.89278275,-0.13683375,-0.64568649,0.77295697,0.53726646,-0.39621130,-0.23559413,-0.89378579,0.23213532,-0.49890085,-0.57758738,0.35659289,0.52631151
10.36000000,0.11809980,0.89085562,-0.13944305,-0.64020163,0.77286548,0.53463874,-0.39496024,-0.23402552,-0.89343482,0.23212805,-0.49883144,-0.57841077,0.35672694,0.52456669
10.38000000,0.11407502,0.88876678,-0.14227132,-0.63425651,0.77276632,0.53179051,-0.39360419,-0.23232527,-0.89305440,0.23212016,-0.49875621,-0.57930325,0.35687225,0.52267546
10.40000000,0.10973674,0.88651524,-0.14531988,-0.62784830,0.77265942,0.52872043,-0.39214251,-0.23049259,-0.89264435,0.23211167,-0.49867513,-0.58026525,0.35702887,0.52063690
10.42000000,0.10508422,0.88410061,-0.14858926,-0.62097594,0.77254479,0.52542798,-0.39057496,-0.22852716,-0.89220460,0.23210256,-0.49858816,-0.58129692,0.35719684,0.51845070
10.44000000,0.10011789,0.88152311,-0.15207916,-0.61364003,0.77242242,0.52191344,-0.38890168,-0.22642916,-0.89173518,0.23209283,-0.49849534,-0.58239819,0.35737613,0.51611703
10.46000000,0.09483924,0.87878352,-0.15578853,-0.60584279,0.77229236,0.51817789,-0.38712317,-0.22419923,-0.89123625,0.23208250,-0.49839667,-0.58356871,0.35756671,0.51363660
10.48000000,0.08925084,0.87588317,-0.15971557,-0.59758800,0.77215466,0.51422313,-0.38524030,-0.22183844,-0.89070803,0.23207155,-0.49829222,-0.58480791,0.35776846,0.51101062
10.50000000,0.08335627,0.87282392,-0.16385775,-0.58888097,0.77200943,0.51005171,-0.38325427,-0.21934831,-0.89015088,0.23206001,-0.49818204,-0.58611501,0.35798127,0.50824077
10.52000000,0.07716010,0.86960815,-0.16821187,-0.57972843,0.77185676,0.50566686,-0.38116663,-0.21673077,-0.88956522,0.23204788,-0.49806623,-0.58748899,0.35820497,0.50532921
10.54000000,0.07066783,0.86623870,-0.17277407,-0.57013851,0.77169679,0.50107246,-0.37897922,-0.21398815,-0.88895158,0.23203516,-0.49794488,-0.58892862,0.35843935,0.50227850
10.56000000,0.06388586,0.86271889,-0.17753984,-0.56012068,0.77152969,0.49627306,-0.37669420,-0.21112315,-0.88831055,0.23202188,-0.49781811,-0.59043249,0.35868420,0.49909167
10.58000000,0.05682147,0.85905252,-0.18250407,-0.54968567,0.77135563,0.49127379,-0.37431403,-0.20813884,-0.88764283,0.23200805,-0.49768607,-0.59199899,0.35893924,0.49577213
10.60000000,0.04948275,0.85524376,-0.18766107,-0.53884543,0.77117480,0.48608038,-0.37184143,-0.20503864,-0.88694918,0.23199368,-0.49754890,-0.59362633,0.35920419,0.49232367
10.62000000,0.04187857,0.85129724,-0.19300462,-0.52761308,0.77098744,0.48069911,-0.36927940,-0.20182630,-0.88623044,0.23197878,-0.49740677,-0.59531252,0.35947872,0.48875048
10.64000000,0.03401855,0.84721793,-0.19852795,-0.51600283,0.77079378,0.47513680,-0.36663116,-0.19850588,-0.88548751,0.23196339,-0.49725985,-0.59705545,0.35976248,0.48505708
10.66000000,0.02591302,0.84301121,-0.20422380,-0.50402992,0.77059406,0.46940074,-0.36390020,-0.19508174,-0.88472138,0.23194752,-0.49710835,-0.59885282,0.36005511,0.48124830
10.68000000,0.01757297,0.83868277,-0.21008446,-0.49171059,0.77038857,0.46349872,-0.36109023,-0.19155853,-0.88393309,0.23193119,-0.49695247,-0.60070219,0.36035621,0.47732933
10.70000000,0.00901002,0.83423865,-0.21610174,-0.47906202,0.77017758,0.45743896,-0.35820516,-0.18794117,-0.88312372,0.23191442,-0.49679241,-0.60260099,0.36066535,0.47330562
10.72000000,0.00023638,0.82968517,-0.22226709,-0.46610222,0.76996141,0.45123010,-0.35524910,-0.18423479,-0.88229444,0.23189724,-0.49662842,-0.60454651,0.36098210,0.46918290
10.74000000,-0.00873520,0.82502898,-0.22857152,-0.45285004,0.76974035,0.44488117,-0.35222635,-0.18044480,-0.88144645,0.23187967,-0.49646073,-0.60653593,0.36130600,0.46496717
10.76000000,-0.01789145,0.82027693,-0.23500573,-0.43932509,0.76951475,0.43840155,-0.34914138,-0.17657679,-0.88058101,0.23186174,-0.49628959,-0.60856629,0.36163656,0.46066467
10.78000000,-0.02721863,0.81543618,-0.24156005,-0.42554764,0.76928493,0.43180096,-0.34599882,-0.17263658,-0.87969941,0.23184347,-0.49611525,-0.61063455,0.36197330,0.45628184
10.80000000,-0.03670258,0.81051406,-0.24822453,-0.41153863,0.76905125,0.42508944,-0.34280344,-0.16863014,-0.87880299,0.23182490,-0.49593798,-0.61273758,0.36231569,0.45182535
10.82000000,-0.04632874,0.80551814,-0.25498895,-0.39731956,0.76881407,0.41827727,-0.33956014,-0.16456362,-0.87789314,0.23180605,-0.49575806,-0.61487215,0.36266322,0.44730204
10.84000000,-0.05608219,0.80045616,-0.26184282,-0.38291246,0.76857375,0.41137503,-0.33627396,-0.16044333,-0.87697124,0.23178695,-0.49557575,-0.61703493,0.36301535,0.44271891
10.86000000,-0.06594772,0.79533601,-0.26877544,-0.36833982,0.76833067,0.40439348,-0.33295002,-0.15627570,-0.87603876,0.23176763,-0.49539135,-0.61922257,0.36337151,0.43808312
10.88000000,-0.07590981,0.79016574,-0.27577592,-0.35362453,0.76808521,0.39734359,-0.32959354,-0.15206727,-0.87509715,0.23174812,-0.49520515,-0.62143163,0.36373117,0.43340195
10.90000000,-0.08595273,0.78495352,-0.28283320,-0.33878984,0.76783776,0.39023649,-0.32620983,-0.14782470,-0.87414790,0.23172846,-0.49501743,-0.62365861,0.36409375,0.42868280
10.92000000,-0.09606056,0.77970761,-0.28993609,-0.32385928,0.76758871,0.38308347,-0.32280425,-0.14355470,-0.87319251,0.23170866,-0.49482851,-0.62589998,0.36445866,0.42393316
10.94000000,-0.10621719,0.77443638,-0.29707328,-0.30885662,0.76733846,0.37589590,-0.31938222,-0.13926409,-0.87223252,0.23168877,-0.49463866,-0.62815217,0.36482534,0.41916057
10.96000000,-0.11640644,0.76914821,-0.30423338,-0.29380580,0.76708740,0.36868525,-0.31594921,-0.13495970,-0.87126943,0.23166882,-0.49444821,-0.63041160,0.36519320,0.41437266
10.98000000,-0.12661201,0.76385158,-0.31140496,-0.27873086,0.76683595,0.36146306,-0.31251070,-0.13064842,-0.87030481,0.23164883,-0.49425746,-0.63267464,0.36556165,0.40957709
11.00000000,-0.13681758,0.75855495,-0.31857653,-0.26365592,0.76658449,0.35424086,-0.30907219,-0.12633713,-0.86934019,0.23162885,-0.49406670,-0.63493769,0.36593009,0.40478151
11.02000000,-0.14700683,0.75326679,-0.32573664,-0.24860510,0.76633343,0.34703022,-0.30563918,-0.12203274,-0.86837710,0.23160889,-0.49387625,-0.63719711,0.36629795,0.39999360
11.04000000,-0.15716347,0.74799555,-0.33287383,-0.23360244,0.76608318,0.33984265,-0.30221715,-0.11774213,-0.86741710,0.23158901,-0.49368641,-0.63944931,0.36666463,0.39522102
11.06000000,-0.16727129,0.74274965,-0.33997672,-0.21867188,0.76583413,0.33268963,-0.29881157,-0.11347213,-0.86646172,0.23156921,-0.49349748,-0.64169068,0.36702955,0.39047137
11.08000000,-0.17731422,0.73753742,-0.34703400,-0.20383719,0.76558668,0.32558253,-0.29542786,-0.10922956,-0.86551247,0.23154954,-0.49330977,-0.64391765,0.36739212,0.38575222
11.10000000,-0.18727631,0.73236716,-0.35403448,-0.18912191,0.76534122,0.31853264,-0.29207138,-0.10502113,-0.86457086,0.23153004,-0.49312356,-0.64612671,0.36775178,0.38107105
11.12000000,-0.19714183,0.72724701,-0.36096710,-0.17454927,0.76509814,0.31155109,-0.28874744,-0.10085350,-0.86363837,0.23151072,-0.49293916,-0.64831435,0.36810795,0.37643526
11.14000000,-0.20689528,0.72218502,-0.36782097,-0.16014216,0.76485782,0.30464884,-0.28546126,-0.09673321,-0.86271648,0.23149162,-0.49275686,-0.65047714,0.36846007,0.37185213
11.16000000,-0.21652144,0.71718910,-0.37458538,-0.14592309,0.76462064,0.29783668,-0.28221796,-0.09266669,-0.86180663,0.23147277,-0.49257693,-0.65261170,0.36880760,0.36732882
11.18000000,-0.22600539,0.71226698,-0.38124987,-0.13191408,0.76438696,0.29112516,-0.27902258,-0.08866025,-0.86091021,0.23145419,-0.49239967,-0.65471473,0.36914999,0.36287233
11.20000000,-0.23533257,0.70742623,-0.38780419,-0.11813663,0.76415714,0.28452457,-0.27588002,-0.08472004,-0.86002861,0.23143593,-0.49222533,-0.65678299,0.36948673,0.35848951
11.22000000,-0.24448882,0.70267419,-0.39423840,-0.10461168,0.76393154,0.27804495,-0.27279505,-0.08085203,-0.85916317,0.23141800,-0.49205419,-0.65881336,0.36981729,0.35418700
11.24000000,-0.25346040,0.69801799,-0.40054283,-0.09135950,0.76371049,0.27169601,-0.26977230,-0.07706204,-0.85831518,0.23140043,-0.49188650,-0.66080277,0.37014119,0.34997127
11.26000000,-0.26223404,0.69346452,-0.40670817,-0.07839971,0.76349431,0.26548715,-0.26681624,-0.07335566,-0.85748590,0.23138325,-0.49172251,-0.66274829,0.37045794,0.34584856
11.28000000,-0.27079699,0.68902039,-0.41272546,-0.06575113,0.76328332,0.25942739,-0.26393117,-0.06973830,-0.85667653,0.23136648,-0.49156245,-0.66464709,0.37076708,0.34182484
11.30000000,-0.27913704,0.68469196,-0.41858611,-0.05343181,0.76307783,0.25352538,-0.26112120,-0.06621509,-0.85588824,0.23135015,-0.49140657,-0.66649646,0.37106818,0.33790587
11.32000000,-0.28724258,0.68048523,-0.42428197,-0.04145890,0.76287811,0.24778932,-0.25839024,-0.06279095,-0.85512211,0.23133427,-0.49125506,-0.66829383,0.37136081,0.33409710
11.34000000,-0.29510259,0.67640593,-0.42980529,-0.02984864,0.76268445,0.24222700,-0.25574200,-0.05947054,-0.85437918,0.23131888,-0.49110815,-0.67003676,0.37164458,0.33040369
11.36000000,-0.30270677,0.67245940,-0.43514884,-0.01861629,0.76249709,0.23684574,-0.25317997,-0.05625819,-0.85366044,0.23130399,-0.49096602,-0.67172296,0.37191911,0.32683050
11.38000000,-0.31004550,0.66865065,-0.44030585,-0.00777605,0.76231627,0.23165233,-0.25070737,-0.05315799,-0.85296679,0.23128962,-0.49082885,-0.67335029,0.37218405,0.32338205
11.40000000,-0.31710989,0.66498427,-0.44527008,0.00265895,0.76214220,0.22665306,-0.24832720,-0.05017368,-0.85229907,0.23127579,-0.49069680,-0.67491679,0.37243909,0.32006251
11.42000000,-0.32389185,0.66146447,-0.45003585,0.01267679,0.76197510,0.22185366,-0.24604218,-0.04730868,-0.85165804,0.23126251,-0.49057004,-0.67642066,0.37268394,0.31687567
11.44000000,-0.33038412,0.65809502,-0.45459804,0.02226670,0.76181514,0.21725926,-0.24385477,-0.04456606,-0.85104439,0.23124979,-0.49044869,-0.67786030,0.37291833,0.31382497
11.46000000,-0.33658029,0.65487924,-0.45895217,0.03141924,0.76166247,0.21287440,-0.24176713,-0.04194852,-0.85045874,0.23123766,-0.49033288,-0.67923427,0.37314202,0.31091340
11.48000000,-0.34247486,0.65181999,-0.46309435,0.04012628,0.76151723,0.20870298,-0.23978110,-0.03945839,-0.84990158,0.23122611,-0.49022270,-0.68054137,0.37335483,0.30814355
11.50000000,-0.34806326,0.64891964,-0.46702138,0.04838106,0.76137953,0.20474823,-0.23789823,-0.03709761,-0.84937337,0.23121517,-0.49011825,-0.68178058,0.37355659,0.30551758
11.52000000,-0.35334191,0.64618005,-0.47073075,0.05617831,0.76124947,0.20101268,-0.23611972,-0.03486767,-0.84887444,0.23120483,-0.49001958,-0.68295110,0.37374716,0.30303715
