gracetata/LocomotionHEC/legged_lab/Reference Data/ArmHack/StandPerturb/TestData/ArmOnly/sequences/synthesized_poses_arm_only_sequence_50hz.csv
time_s,left_shoulder_pitch_joint,left_shoulder_roll_joint,left_shoulder_yaw_joint,left_elbow_joint,left_wrist_roll_joint,left_wrist_pitch_joint,left_wrist_yaw_joint,right_shoulder_pitch_joint,right_shoulder_roll_joint,right_shoulder_yaw_joint,right_elbow_joint,right_wrist_roll_joint,right_wrist_pitch_joint,right_wrist_yaw_joint
0.00000000,-0.34488541,0.76838958,-0.36848763,-0.22734424,0.69565446,0.30600785,-0.45442463,0.27848299,-0.77838009,0.22941790,-0.47526225,-0.84818573,0.40058927,-0.04662855
0.02000000,-0.34488541,0.76838958,-0.36848763,-0.22734424,0.69565446,0.30600785,-0.45442463,0.27848299,-0.77838009,0.22941790,-0.47526225,-0.84818573,0.40058927,-0.04662855
0.04000000,-0.34488541,0.76838958,-0.36848763,-0.22734424,0.69565446,0.30600785,-0.45442463,0.27848299,-0.77838009,0.22941790,-0.47526225,-0.84818573,0.40058927,-0.04662855
0.06000000,-0.34488541,0.76838958,-0.36848763,-0.22734424,0.69565446,0.30600785,-0.45442463,0.27848299,-0.77838009,0.22941790,-0.47526225,-0.84818573,0.40058927,-0.04662855
0.08000000,-0.34488541,0.76838958,-0.36848763,-0.22734424,0.69565446,0.30600785,-0.45442463,0.27848299,-0.77838009,0.22941790,-0.47526225,-0.84818573,0.40058927,-0.04662855
0.10000000,-0.34488541,0.76838958,-0.36848763,-0.22734424,0.69565446,0.30600785,-0.45442463,0.27848299,-0.77838009,0.22941790,-0.47526225,-0.84818573,0.40058927,-0.04662855
0.12000000,-0.34488541,0.76838958,-0.36848763,-0.22734424,0.69565446,0.30600785,-0.45442463,0.27848299,-0.77838009,0.22941790,-0.47526225,-0.84818573,0.40058927,-0.04662855
0.14000000,-0.34488541,0.76838958,-0.36848763,-0.22734424,0.69565446,0.30600785,-0.45442463,0.27848299,-0.77838009,0.22941790,-0.47526225,-0.84818573,0.40058927,-0.04662855
0.16000000,-0.34488541,0.76838958,-0.36848763,-0.22734424,0.69565446,0.30600785,-0.45442463,0.27848299,-0.77838009,0.22941790,-0.47526225,-0.84818573,0.40058927,-0.04662855
0.18000000,-0.34488541,0.76838958,-0.36848763,-0.22734424,0.69565446,0.30600785,-0.45442463,0.27848299,-0.77838009,0.22941790,-0.47526225,-0.84818573,0.40058927,-0.04662855
0.20000000,-0.34488541,0.76838958,-0.36848763,-0.22734424,0.69565446,0.30600785,-0.45442463,0.27848299,-0.77838009,0.22941790,-0.47526225,-0.84818573,0.40058927,-0.04662855
0.22000000,-0.34488541,0.76838958,-0.36848763,-0.22734424,0.69565446,0.30600785,-0.45442463,0.27848299,-0.77838009,0.22941790,-0.47526225,-0.84818573,0.40058927,-0.04662855
0.24000000,-0.34488541,0.76838958,-0.36848763,-0.22734424,0.69565446,0.30600785,-0.45442463,0.27848299,-0.77838009,0.22941790,-0.47526225,-0.84818573,0.40058927,-0.04662855
0.26000000,-0.34488541,0.76838958,-0.36848763,-0.22734424,0.69565446,0.30600785,-0.45442463,0.27848299,-0.77838009,0.22941790,-0.47526225,-0.84818573,0.40058927,-0.04662855
0.28000000,-0.34488541,0.76838958,-0.36848763,-0.22734424,0.69565446,0.30600785,-0.45442463,0.27848299,-0.77838009,0.22941790,-0.47526225,-0.84818573,0.40058927,-0.04662855
0.30000000,-0.34488541,0.76838958,-0.36848763,-0.22734424,0.69565446,0.30600785,-0.45442463,0.27848299,-0.77838009,0.22941790,-0.47526225,-0.84818573,0.40058927,-0.04662855
0.32000000,-0.34488541,0.76838958,-0.36848763,-0.22734424,0.69565446,0.30600785,-0.45442463,0.27848299,-0.77838009,0.22941790,-0.47526225,-0.84818573,0.40058927,-0.04662855
0.34000000,-0.34488541,0.76838958,-0.36848763,-0.22734424,0.69565446,0.30600785,-0.45442463,0.27848299,-0.77838009,0.22941790,-0.47526225,-0.84818573,0.40058927,-0.04662855
0.36000000,-0.34488541,0.76838958,-0.36848763,-0.22734424,0.69565446,0.30600785,-0.45442463,0.27848299,-0.77838009,0.22941790,-0.47526225,-0.84818573,0.40058927,-0.04662855
0.38000000,-0.34488541,0.76838958,-0.36848763,-0.22734424,0.69565446,0.30600785,-0.45442463,0.27848299,-0.77838009,0.22941790,-0.47526225,-0.84818573,0.40058927,-0.04662855
0.40000000,-0.34488541,0.76838958,-0.36848763,-0.22734424,0.69565446,0.30600785,-0.45442463,0.27848299,-0.77838009,0.22941790,-0.47526225,-0.84818573,0.40058927,-0.04662855
0.42000000,-0.34488541,0.76838958,-0.36848763,-0.22734424,0.69565446,0.30600785,-0.45442463,0.27848299,-0.77838009,0.22941790,-0.47526225,-0.84818573,0.40058927,-0.04662855
0.44000000,-0.34488541,0.76838958,-0.36848763,-0.22734424,0.69565446,0.30600785,-0.45442463,0.27848299,-0.77838009,0.22941790,-0.47526225,-0.84818573,0.40058927,-0.04662855
0.46000000,-0.34488541,0.76838958,-0.36848763,-0.22734424,0.69565446,0.30600785,-0.45442463,0.27848299,-0.77838009,0.22941790,-0.47526225,-0.84818573,0.40058927,-0.04662855
0.48000000,-0.34488541,0.76838958,-0.36848763,-0.22734424,0.69565446,0.30600785,-0.45442463,0.27848299,-0.77838009,0.22941790,-0.47526225,-0.84818573,0.40058927,-0.04662855
0.50000000,-0.34488541,0.76838958,-0.36848763,-0.22734424,0.69565446,0.30600785,-0.45442463,0.27848299,-0.77838009,0.22941790,-0.47526225,-0.84818573,0.40058927,-0.04662855
0.52000000,-0.34488541,0.76838958,-0.36848763,-0.22734424,0.69565446,0.30600785,-0.45442463,0.27848299,-0.77838009,0.22941790,-0.47526225,-0.84818573,0.40058927,-0.04662855
0.54000000,-0.34488541,0.76838958,-0.36848763,-0.22734424,0.69565446,0.30600785,-0.45442463,0.27848299,-0.77838009,0.22941790,-0.47526225,-0.84818573,0.40058927,-0.04662855
0.56000000,-0.34488541,0.76838958,-0.36848763,-0.22734424,0.69565446,0.30600785,-0.45442463,0.27848299,-0.77838009,0.22941790,-0.47526225,-0.84818573,0.40058927,-0.04662855
0.58000000,-0.34488541,0.76838958,-0.36848763,-0.22734424,0.69565446,0.30600785,-0.45442463,0.27848299,-0.77838009,0.22941790,-0.47526225,-0.84818573,0.40058927,-0.04662855
0.60000000,-0.34488541,0.76838958,-0.36848763,-0.22734424,0.69565446,0.30600785,-0.45442463,0.27848299,-0.77838009,0.22941790,-0.47526225,-0.84818573,0.40058927,-0.04662855
0.62000000,-0.34488541,0.76838958,-0.36848763,-0.22734424,0.69565446,0.30600785,-0.45442463,0.27848299,-0.77838009,0.22941790,-0.47526225,-0.84818573,0.40058927,-0.04662855
0.64000000,-0.34488541,0.76838958,-0.36848763,-0.22734424,0.69565446,0.30600785,-0.45442463,0.27848299,-0.77838009,0.22941790,-0.47526225,-0.84818573,0.40058927,-0.04662855
0.66000000,-0.34488541,0.76838958,-0.36848763,-0.22734424,0.69565446,0.30600785,-0.45442463,0.27848299,-0.77838009,0.22941790,-0.47526225,-0.84818573,0.40058927,-0.04662855
0.68000000,-0.34488541,0.76838958,-0.36848763,-0.22734424,0.69565446,0.30600785,-0.45442463,0.27848299,-0.77838009,0.22941790,-0.47526225,-0.84818573,0.40058927,-0.04662855
0.70000000,-0.34488541,0.76838958,-0.36848763,-0.22734424,0.69565446,0.30600785,-0.45442463,0.27848299,-0.77838009,0.22941790,-0.47526225,-0.84818573,0.40058927,-0.04662855
0.72000000,-0.34488541,0.76838958,-0.36848763,-0.22734424,0.69565446,0.30600785,-0.45442463,0.27848299,-0.77838009,0.22941790,-0.47526225,-0.84818573,0.40058927,-0.04662855
0.74000000,-0.34488541,0.76838958,-0.36848763,-0.22734424,0.69565446,0.30600785,-0.45442463,0.27848299,-0.77838009,0.22941790,-0.47526225,-0.84818573,0.40058927,-0.04662855
0.76000000,-0.34488541,0.76838958,-0.36848763,-0.22734424,0.69565446,0.30600785,-0.45442463,0.27848299,-0.77838009,0.22941790,-0.47526225,-0.84818573,0.40058927,-0.04662855
0.78000000,-0.34488541,0.76838958,-0.36848763,-0.22734424,0.69565446,0.30600785,-0.45442463,0.27848299,-0.77838009,0.22941790,-0.47526225,-0.84818573,0.40058927,-0.04662855
0.80000000,-0.34488541,0.76838958,-0.36848763,-0.22734424,0.69565446,0.30600785,-0.45442463,0.27848299,-0.77838009,0.22941790,-0.47526225,-0.84818573,0.40058927,-0.04662855
0.82000000,-0.34488541,0.76838958,-0.36848763,-0.22734424,0.69565446,0.30600785,-0.45442463,0.27848299,-0.77838009,0.22941790,-0.47526225,-0.84818573,0.40058927,-0.04662855
0.84000000,-0.34488541,0.76838958,-0.36848763,-0.22734424,0.69565446,0.30600785,-0.45442463,0.27848299,-0.77838009,0.22941790,-0.47526225,-0.84818573,0.40058927,-0.04662855
0.86000000,-0.34488541,0.76838958,-0.36848763,-0.22734424,0.69565446,0.30600785,-0.45442463,0.27848299,-0.77838009,0.22941790,-0.47526225,-0.84818573,0.40058927,-0.04662855
0.88000000,-0.34488541,0.76838958,-0.36848763,-0.22734424,0.69565446,0.30600785,-0.45442463,0.27848299,-0.77838009,0.22941790,-0.47526225,-0.84818573,0.40058927,-0.04662855
0.90000000,-0.34488541,0.76838958,-0.36848763,-0.22734424,0.69565446,0.30600785,-0.45442463,0.27848299,-0.77838009,0.22941790,-0.47526225,-0.84818573,0.40058927,-0.04662855
0.92000000,-0.34488541,0.76838958,-0.36848763,-0.22734424,0.69565446,0.30600785,-0.45442463,0.27848299,-0.77838009,0.22941790,-0.47526225,-0.84818573,0.40058927,-0.04662855
0.94000000,-0.34488541,0.76838958,-0.36848763,-0.22734424,0.69565446,0.30600785,-0.45442463,0.27848299,-0.77838009,0.22941790,-0.47526225,-0.84818573,0.40058927,-0.04662855
0.96000000,-0.34488541,0.76838958,-0.36848763,-0.22734424,0.69565446,0.30600785,-0.45442463,0.27848299,-0.77838009,0.22941790,-0.47526225,-0.84818573,0.40058927,-0.04662855
0.98000000,-0.34488541,0.76838958,-0.36848763,-0.22734424,0.69565446,0.30600785,-0.45442463,0.27848299,-0.77838009,0.22941790,-0.47526225,-0.84818573,0.40058927,-0.04662855
1.00000000,-0.34488541,0.76838958,-0.36848763,-0.22734424,0.69565446,0.30600785,-0.45442463,0.27848299,-0.77838009,0.22941790,-0.47526225,-0.84818573,0.40058927,-0.04662855
1.02000000,-0.34488541,0.76838958,-0.36848763,-0.22734424,0.69565446,0.30600785,-0.45442463,0.27848299,-0.77838009,0.22941790,-0.47526225,-0.84818573,0.40058927,-0.04662855
1.04000000,-0.34488541,0.76838958,-0.36848763,-0.22734424,0.69565446,0.30600785,-0.45442463,0.27848299,-0.77838009,0.22941790,-0.47526225,-0.84818573,0.40058927,-0.04662855
1.06000000,-0.34488541,0.76838958,-0.36848763,-0.22734424,0.69565446,0.30600785,-0.45442463,0.27848299,-0.77838009,0.22941790,-0.47526225,-0.84818573,0.40058927,-0.04662855
1.08000000,-0.34488541,0.76838958,-0.36848763,-0.22734424,0.69565446,0.30600785,-0.45442463,0.27848299,-0.77838009,0.22941790,-0.47526225,-0.84818573,0.40058927,-0.04662855
1.10000000,-0.34488541,0.76838958,-0.36848763,-0.22734424,0.69565446,0.30600785,-0.45442463,0.27848299,-0.77838009,0.22941790,-0.47526225,-0.84818573,0.40058927,-0.04662855
1.12000000,-0.34488541,0.76838958,-0.36848763,-0.22734424,0.69565446,0.30600785,-0.45442463,0.27848299,-0.77838009,0.22941790,-0.47526225,-0.84818573,0.40058927,-0.04662855
1.14000000,-0.34488541,0.76838958,-0.36848763,-0.22734424,0.69565446,0.30600785,-0.45442463,0.27848299,-0.77838009,0.22941790,-0.47526225,-0.84818573,0.40058927,-0.04662855
1.16000000,-0.34488541,0.76838958,-0.36848763,-0.22734424,0.69565446,0.30600785,-0.45442463,0.27848299,-0.77838009,0.22941790,-0.47526225,-0.84818573,0.40058927,-0.04662855
1.18000000,-0.34488541,0.76838958,-0.36848763,-0.22734424,0.69565446,0.30600785,-0.45442463,0.27848299,-0.77838009,0.22941790,-0.47526225,-0.84818573,0.40058927,-0.04662855
1.20000000,-0.34488541,0.76838958,-0.36848763,-0.22734424,0.69565446,0.30600785,-0.45442463,0.27848299,-0.77838009,0.22941790,-0.47526225,-0.84818573,0.40058927,-0.04662855
1.22000000,-0.34488541,0.76838958,-0.36848763,-0.22734424,0.69565446,0.30600785,-0.45442463,0.27848299,-0.77838009,0.22941790,-0.47526225,-0.84818573,0.40058927,-0.04662855
1.24000000,-0.34488541,0.76838958,-0.36848763,-0.22734424,0.69565446,0.30600785,-0.45442463,0.27848299,-0.77838009,0.22941790,-0.47526225,-0.84818573,0.40058927,-0.04662855
1.26000000,-0.34488541,0.76838958,-0.36848763,-0.22734424,0.69565446,0.30600785,-0.45442463,0.27848299,-0.77838009,0.22941790,-0.47526225,-0.84818573,0.40058927,-0.04662855
1.28000000,-0.34488541,0.76838958,-0.36848763,-0.22734424,0.69565446,0.30600785,-0.45442463,0.27848299,-0.77838009,0.22941790,-0.47526225,-0.84818573,0.40058927,-0.04662855
1.30000000,-0.34488541,0.76838958,-0.36848763,-0.22734424,0.69565446,0.30600785,-0.45442463,0.27848299,-0.77838009,0.22941790,-0.47526225,-0.84818573,0.40058927,-0.04662855
1.32000000,-0.34488541,0.76838958,-0.36848763,-0.22734424,0.69565446,0.30600785,-0.45442463,0.27848299,-0.77838009,0.22941790,-0.47526225,-0.84818573,0.40058927,-0.04662855
1.34000000,-0.34488541,0.76838958,-0.36848763,-0.22734424,0.69565446,0.30600785,-0.45442463,0.27848299,-0.77838009,0.22941790,-0.47526225,-0.84818573,0.40058927,-0.04662855
1.36000000,-0.34488541,0.76838958,-0.36848763,-0.22734424,0.69565446,0.30600785,-0.45442463,0.27848299,-0.77838009,0.22941790,-0.47526225,-0.84818573,0.40058927,-0.04662855
1.38000000,-0.34488541,0.76838958,-0.36848763,-0.22734424,0.69565446,0.30600785,-0.45442463,0.27848299,-0.77838009,0.22941790,-0.47526225,-0.84818573,0.40058927,-0.04662855
1.40000000,-0.34488541,0.76838958,-0.36848763,-0.22734424,0.69565446,0.30600785,-0.45442463,0.27848299,-0.77838009,0.22941790,-0.47526225,-0.84818573,0.40058927,-0.04662855
1.42000000,-0.34488541,0.76838958,-0.36848763,-0.22734424,0.69565446,0.30600785,-0.45442463,0.27848299,-0.77838009,0.22941790,-0.47526225,-0.84818573,0.40058927,-0.04662855
1.44000000,-0.34488541,0.76838958,-0.36848763,-0.22734424,0.69565446,0.30600785,-0.45442463,0.27848299,-0.77838009,0.22941790,-0.47526225,-0.84818573,0.40058927,-0.04662855
1.46000000,-0.34488541,0.76838958,-0.36848763,-0.22734424,0.69565446,0.30600785,-0.45442463,0.27848299,-0.77838009,0.22941790,-0.47526225,-0.84818573,0.40058927,-0.04662855
1.48000000,-0.34488541,0.76838958,-0.36848763,-0.22734424,0.69565446,0.30600785,-0.45442463,0.27848299,-0.77838009,0.22941790,-0.47526225,-0.84818573,0.40058927,-0.04662855
1.50000000,-0.34488541,0.76838958,-0.36848763,-0.22734424,0.69565446,0.30600785,-0.45442463,0.27848299,-0.77838009,0.22941790,-0.47526225,-0.84818573,0.40058927,-0.04662855
1.52000000,-0.34488541,0.76838958,-0.36848763,-0.22734424,0.69565446,0.30600785,-0.45442463,0.27848299,-0.77838009,0.22941790,-0.47526225,-0.84818573,0.40058927,-0.04662855
1.54000000,-0.34488541,0.76838958,-0.36848763,-0.22734424,0.69565446,0.30600785,-0.45442463,0.27848299,-0.77838009,0.22941790,-0.47526225,-0.84818573,0.40058927,-0.04662855
1.56000000,-0.34488541,0.76838958,-0.36848763,-0.22734424,0.69565446,0.30600785,-0.45442463,0.27848299,-0.77838009,0.22941790,-0.47526225,-0.84818573,0.40058927,-0.04662855
1.58000000,-0.34488541,0.76838958,-0.36848763,-0.22734424,0.69565446,0.30600785,-0.45442463,0.27848299,-0.77838009,0.22941790,-0.47526225,-0.84818573,0.40058927,-0.04662855
1.60000000,-0.34488541,0.76838958,-0.36848763,-0.22734424,0.69565446,0.30600785,-0.45442463,0.27848299,-0.77838009,0.22941790,-0.47526225,-0.84818573,0.40058927,-0.04662855
1.62000000,-0.34488541,0.76838958,-0.36848763,-0.22734424,0.69565446,0.30600785,-0.45442463,0.27848299,-0.77838009,0.22941790,-0.47526225,-0.84818573,0.40058927,-0.04662855
1.64000000,-0.34488541,0.76838958,-0.36848763,-0.22734424,0.69565446,0.30600785,-0.45442463,0.27848299,-0.77838009,0.22941790,-0.47526225,-0.84818573,0.40058927,-0.04662855
1.66000000,-0.34488541,0.76838958,-0.36848763,-0.22734424,0.69565446,0.30600785,-0.45442463,0.27848299,-0.77838009,0.22941790,-0.47526225,-0.84818573,0.40058927,-0.04662855
1.68000000,-0.34488541,0.76838958,-0.36848763,-0.22734424,0.69565446,0.30600785,-0.45442463,0.27848299,-0.77838009,0.22941790,-0.47526225,-0.84818573,0.40058927,-0.04662855
1.70000000,-0.34488541,0.76838958,-0.36848763,-0.22734424,0.69565446,0.30600785,-0.45442463,0.27848299,-0.77838009,0.22941790,-0.47526225,-0.84818573,0.40058927,-0.04662855
1.72000000,-0.34488541,0.76838958,-0.36848763,-0.22734424,0.69565446,0.30600785,-0.45442463,0.27848299,-0.77838009,0.22941790,-0.47526225,-0.84818573,0.40058927,-0.04662855
1.74000000,-0.34488541,0.76838958,-0.36848763,-0.22734424,0.69565446,0.30600785,-0.45442463,0.27848299,-0.77838009,0.22941790,-0.47526225,-0.84818573,0.40058927,-0.04662855
1.76000000,-0.34488541,0.76838958,-0.36848763,-0.22734424,0.69565446,0.30600785,-0.45442463,0.27848299,-0.77838009,0.22941790,-0.47526225,-0.84818573,0.40058927,-0.04662855
1.78000000,-0.34488541,0.76838958,-0.36848763,-0.22734424,0.69565446,0.30600785,-0.45442463,0.27848299,-0.77838009,0.22941790,-0.47526225,-0.84818573,0.40058927,-0.04662855
1.80000000,-0.34488541,0.76838958,-0.36848763,-0.22734424,0.69565446,0.30600785,-0.45442463,0.27848299,-0.77838009,0.22941790,-0.47526225,-0.84818573,0.40058927,-0.04662855
1.82000000,-0.34488541,0.76838958,-0.36848763,-0.22734424,0.69565446,0.30600785,-0.45442463,0.27848299,-0.77838009,0.22941790,-0.47526225,-0.84818573,0.40058927,-0.04662855
1.84000000,-0.34488541,0.76838958,-0.36848763,-0.22734424,0.69565446,0.30600785,-0.45442463,0.27848299,-0.77838009,0.22941790,-0.47526225,-0.84818573,0.40058927,-0.04662855
1.86000000,-0.34488541,0.76838958,-0.36848763,-0.22734424,0.69565446,0.30600785,-0.45442463,0.27848299,-0.77838009,0.22941790,-0.47526225,-0.84818573,0.40058927,-0.04662855
1.88000000,-0.34488541,0.76838958,-0.36848763,-0.22734424,0.69565446,0.30600785,-0.45442463,0.27848299,-0.77838009,0.22941790,-0.47526225,-0.84818573,0.40058927,-0.04662855
1.90000000,-0.34488541,0.76838958,-0.36848763,-0.22734424,0.69565446,0.30600785,-0.45442463,0.27848299,-0.77838009,0.22941790,-0.47526225,-0.84818573,0.40058927,-0.04662855
1.92000000,-0.34488541,0.76838958,-0.36848763,-0.22734424,0.69565446,0.30600785,-0.45442463,0.27848299,-0.77838009,0.22941790,-0.47526225,-0.84818573,0.40058927,-0.04662855
1.94000000,-0.34488541,0.76838958,-0.36848763,-0.22734424,0.69565446,0.30600785,-0.45442463,0.27848299,-0.77838009,0.22941790,-0.47526225,-0.84818573,0.40058927,-0.04662855
1.96000000,-0.34488541,0.76838958,-0.36848763,-0.22734424,0.69565446,0.30600785,-0.45442463,0.27848299,-0.77838009,0.22941790,-0.47526225,-0.84818573,0.40058927,-0.04662855
1.98000000,-0.34488541,0.76838958,-0.36848763,-0.22734424,0.69565446,0.30600785,-0.45442463,0.27848299,-0.77838009,0.22941790,-0.47526225,-0.84818573,0.40058927,-0.04662855
2.00000000,-0.34488541,0.76838958,-0.36848763,-0.22734424,0.69565446,0.30600785,-0.45442463,0.27848299,-0.77838009,0.22941790,-0.47526225,-0.84818573,0.40058927,-0.04662855
2.02000000,-0.34488541,0.76838958,-0.36848763,-0.22734424,0.69565446,0.30600785,-0.45442463,0.27848299,-0.77838009,0.22941790,-0.47526225,-0.84818573,0.40058927,-0.04662855
2.04000000,-0.34488541,0.76838958,-0.36848763,-0.22734424,0.69565446,0.30600785,-0.45442463,0.27848299,-0.77838009,0.22941790,-0.47526225,-0.84818573,0.40058927,-0.04662855
2.06000000,-0.34488541,0.76838958,-0.36848763,-0.22734424,0.69565446,0.30600785,-0.45442463,0.27848299,-0.77838009,0.22941790,-0.47526225,-0.84818573,0.40058927,-0.04662855
2.08000000,-0.34488541,0.76838958,-0.36848763,-0.22734424,0.69565446,0.30600785,-0.45442463,0.27848299,-0.77838009,0.22941790,-0.47526225,-0.84818573,0.40058927,-0.04662855
2.10000000,-0.34488541,0.76838958,-0.36848763,-0.22734424,0.69565446,0.30600785,-0.45442463,0.27848299,-0.77838009,0.22941790,-0.47526225,-0.84818573,0.40058927,-0.04662855
2.12000000,-0.34488541,0.76838958,-0.36848763,-0.22734424,0.69565446,0.30600785,-0.45442463,0.27848299,-0.77838009,0.22941790,-0.47526225,-0.84818573,0.40058927,-0.04662855
2.14000000,-0.34488541,0.76838958,-0.36848763,-0.22734424,0.69565446,0.30600785,-0.45442463,0.27848299,-0.77838009,0.22941790,-0.47526225,-0.84818573,0.40058927,-0.04662855
2.16000000,-0.34488541,0.76838958,-0.36848763,-0.22734424,0.69565446,0.30600785,-0.45442463,0.27848299,-0.77838009,0.22941790,-0.47526225,-0.84818573,0.40058927,-0.04662855
2.18000000,-0.34488541,0.76838958,-0.36848763,-0.22734424,0.69565446,0.30600785,-0.45442463,0.27848299,-0.77838009,0.22941790,-0.47526225,-0.84818573,0.40058927,-0.04662855
2.20000000,-0.34488541,0.76838958,-0.36848763,-0.22734424,0.69565446,0.30600785,-0.45442463,0.27848299,-0.77838009,0.22941790,-0.47526225,-0.84818573,0.40058927,-0.04662855
2.22000000,-0.34488541,0.76838958,-0.36848763,-0.22734424,0.69565446,0.30600785,-0.45442463,0.27848299,-0.77838009,0.22941790,-0.47526225,-0.84818573,0.40058927,-0.04662855
2.24000000,-0.34488541,0.76838958,-0.36848763,-0.22734424,0.69565446,0.30600785,-0.45442463,0.27848299,-0.77838009,0.22941790,-0.47526225,-0.84818573,0.40058927,-0.04662855
2.26000000,-0.34488541,0.76838958,-0.36848763,-0.22734424,0.69565446,0.30600785,-0.45442463,0.27848299,-0.77838009,0.22941790,-0.47526225,-0.84818573,0.40058927,-0.04662855
2.28000000,-0.34488541,0.76838958,-0.36848763,-0.22734424,0.69565446,0.30600785,-0.45442463,0.27848299,-0.77838009,0.22941790,-0.47526225,-0.84818573,0.40058927,-0.04662855
2.30000000,-0.34488541,0.76838958,-0.36848763,-0.22734424,0.69565446,0.30600785,-0.45442463,0.27848299,-0.77838009,0.22941790,-0.47526225,-0.84818573,0.40058927,-0.04662855
2.32000000,-0.34488541,0.76838958,-0.36848763,-0.22734424,0.69565446,0.30600785,-0.45442463,0.27848299,-0.77838009,0.22941790,-0.47526225,-0.84818573,0.40058927,-0.04662855
2.34000000,-0.34488541,0.76838958,-0.36848763,-0.22734424,0.69565446,0.30600785,-0.45442463,0.27848299,-0.77838009,0.22941790,-0.47526225,-0.84818573,0.40058927,-0.04662855
2.36000000,-0.34488541,0.76838958,-0.36848763,-0.22734424,0.69565446,0.30600785,-0.45442463,0.27848299,-0.77838009,0.22941790,-0.47526225,-0.84818573,0.40058927,-0.04662855
2.38000000,-0.34488541,0.76838958,-0.36848763,-0.22734424,0.69565446,0.30600785,-0.45442463,0.27848299,-0.77838009,0.22941790,-0.47526225,-0.84818573,0.40058927,-0.04662855
2.40000000,-0.34488541,0.76838958,-0.36848763,-0.22734424,0.69565446,0.30600785,-0.45442463,0.27848299,-0.77838009,0.22941790,-0.47526225,-0.84818573,0.40058927,-0.04662855
2.42000000,-0.34488541,0.76838958,-0.36848763,-0.22734424,0.69565446,0.30600785,-0.45442463,0.27848299,-0.77838009,0.22941790,-0.47526225,-0.84818573,0.40058927,-0.04662855
2.44000000,-0.34488541,0.76838958,-0.36848763,-0.22734424,0.69565446,0.30600785,-0.45442463,0.27848299,-0.77838009,0.22941790,-0.47526225,-0.84818573,0.40058927,-0.04662855
2.46000000,-0.34488541,0.76838958,-0.36848763,-0.22734424,0.69565446,0.30600785,-0.45442463,0.27848299,-0.77838009,0.22941790,-0.47526225,-0.84818573,0.40058927,-0.04662855
2.48000000,-0.34488541,0.76838958,-0.36848763,-0.22734424,0.69565446,0.30600785,-0.45442463,0.27848299,-0.77838009,0.22941790,-0.47526225,-0.84818573,0.40058927,-0.04662855
2.50000000,-0.34488541,0.76838958,-0.36848763,-0.22734424,0.69565446,0.30600785,-0.45442463,0.27848299,-0.77838009,0.22941790,-0.47526225,-0.84818573,0.40058927,-0.04662855
2.52000000,-0.34488541,0.76838958,-0.36848763,-0.22734424,0.69565446,0.30600785,-0.45442463,0.27848299,-0.77838009,0.22941790,-0.47526225,-0.84818573,0.40058927,-0.04662855
2.54000000,-0.34488541,0.76838958,-0.36848763,-0.22734424,0.69565446,0.30600785,-0.45442463,0.27848299,-0.77838009,0.22941790,-0.47526225,-0.84818573,0.40058927,-0.04662855
2.56000000,-0.34488541,0.76838958,-0.36848763,-0.22734424,0.69565446,0.30600785,-0.45442463,0.27848299,-0.77838009,0.22941790,-0.47526225,-0.84818573,0.40058927,-0.04662855
2.58000000,-0.34488541,0.76838958,-0.36848763,-0.22734424,0.69565446,0.30600785,-0.45442463,0.27848299,-0.77838009,0.22941790,-0.47526225,-0.84818573,0.40058927,-0.04662855
2.60000000,-0.34488541,0.76838958,-0.36848763,-0.22734424,0.69565446,0.30600785,-0.45442463,0.27848299,-0.77838009,0.22941790,-0.47526225,-0.84818573,0.40058927,-0.04662855
2.62000000,-0.34488541,0.76838958,-0.36848763,-0.22734424,0.69565446,0.30600785,-0.45442463,0.27848299,-0.77838009,0.22941790,-0.47526225,-0.84818573,0.40058927,-0.04662855
2.64000000,-0.34488541,0.76838958,-0.36848763,-0.22734424,0.69565446,0.30600785,-0.45442463,0.27848299,-0.77838009,0.22941790,-0.47526225,-0.84818573,0.40058927,-0.04662855
2.66000000,-0.34488541,0.76838958,-0.36848763,-0.22734424,0.69565446,0.30600785,-0.45442463,0.27848299,-0.77838009,0.22941790,-0.47526225,-0.84818573,0.40058927,-0.04662855
2.68000000,-0.34488541,0.76838958,-0.36848763,-0.22734424,0.69565446,0.30600785,-0.45442463,0.27848299,-0.77838009,0.22941790,-0.47526225,-0.84818573,0.40058927,-0.04662855
2.70000000,-0.34488541,0.76838958,-0.36848763,-0.22734424,0.69565446,0.30600785,-0.45442463,0.27848299,-0.77838009,0.22941790,-0.47526225,-0.84818573,0.40058927,-0.04662855
2.72000000,-0.34488541,0.76838958,-0.36848763,-0.22734424,0.69565446,0.30600785,-0.45442463,0.27848299,-0.77838009,0.22941790,-0.47526225,-0.84818573,0.40058927,-0.04662855
2.74000000,-0.34488541,0.76838958,-0.36848763,-0.22734424,0.69565446,0.30600785,-0.45442463,0.27848299,-0.77838009,0.22941790,-0.47526225,-0.84818573,0.40058927,-0.04662855
2.76000000,-0.34488541,0.76838958,-0.36848763,-0.22734424,0.69565446,0.30600785,-0.45442463,0.27848299,-0.77838009,0.22941790,-0.47526225,-0.84818573,0.40058927,-0.04662855
2.78000000,-0.34488541,0.76838958,-0.36848763,-0.22734424,0.69565446,0.30600785,-0.45442463,0.27848299,-0.77838009,0.22941790,-0.47526225,-0.84818573,0.40058927,-0.04662855
2.80000000,-0.34488541,0.76838958,-0.36848763,-0.22734424,0.69565446,0.30600785,-0.45442463,0.27848299,-0.77838009,0.22941790,-0.47526225,-0.84818573,0.40058927,-0.04662855
2.82000000,-0.34488541,0.76838958,-0.36848763,-0.22734424,0.69565446,0.30600785,-0.45442463,0.27848299,-0.77838009,0.22941790,-0.47526225,-0.84818573,0.40058927,-0.04662855
2.84000000,-0.34488541,0.76838958,-0.36848763,-0.22734424,0.69565446,0.30600785,-0.45442463,0.27848299,-0.77838009,0.22941790,-0.47526225,-0.84818573,0.40058927,-0.04662855
2.86000000,-0.34488541,0.76838958,-0.36848763,-0.22734424,0.69565446,0.30600785,-0.45442463,0.27848299,-0.77838009,0.22941790,-0.47526225,-0.84818573,0.40058927,-0.04662855
2.88000000,-0.34488541,0.76838958,-0.36848763,-0.22734424,0.69565446,0.30600785,-0.45442463,0.27848299,-0.77838009,0.22941790,-0.47526225,-0.84818573,0.40058927,-0.04662855
2.90000000,-0.34488541,0.76838958,-0.36848763,-0.22734424,0.69565446,0.30600785,-0.45442463,0.27848299,-0.77838009,0.22941790,-0.47526225,-0.84818573,0.40058927,-0.04662855
2.92000000,-0.34488541,0.76838958,-0.36848763,-0.22734424,0.69565446,0.30600785,-0.45442463,0.27848299,-0.77838009,0.22941790,-0.47526225,-0.84818573,0.40058927,-0.04662855
2.94000000,-0.34488541,0.76838958,-0.36848763,-0.22734424,0.69565446,0.30600785,-0.45442463,0.27848299,-0.77838009,0.22941790,-0.47526225,-0.84818573,0.40058927,-0.04662855
2.96000000,-0.34488541,0.76838958,-0.36848763,-0.22734424,0.69565446,0.30600785,-0.45442463,0.27848299,-0.77838009,0.22941790,-0.47526225,-0.84818573,0.40058927,-0.04662855
2.98000000,-0.34488541,0.76838958,-0.36848763,-0.22734424,0.69565446,0.30600785,-0.45442463,0.27848299,-0.77838009,0.22941790,-0.47526225,-0.84818573,0.40058927,-0.04662855
3.00000000,-0.34488541,0.76838958,-0.36848763,-0.22734424,0.69565446,0.30600785,-0.45442463,0.27848299,-0.77838009,0.22941790,-0.47526225,-0.84818573,0.40058927,-0.04662855
3.02000000,-0.34488541,0.76838958,-0.36848763,-0.22734424,0.69565446,0.30600785,-0.45442463,0.27848299,-0.77838009,0.22941790,-0.47526225,-0.84818573,0.40058927,-0.04662855
3.04000000,-0.34488541,0.76838958,-0.36848763,-0.22734424,0.69565446,0.30600785,-0.45442463,0.27848299,-0.77838009,0.22941790,-0.47526225,-0.84818573,0.40058927,-0.04662855
3.06000000,-0.34488541,0.76838958,-0.36848763,-0.22734424,0.69565446,0.30600785,-0.45442463,0.27848299,-0.77838009,0.22941790,-0.47526225,-0.84818573,0.40058927,-0.04662855
3.08000000,-0.34488541,0.76838958,-0.36848763,-0.22734424,0.69565446,0.30600785,-0.45442463,0.27848299,-0.77838009,0.22941790,-0.47526225,-0.84818573,0.40058927,-0.04662855
3.10000000,-0.34488541,0.76838958,-0.36848763,-0.22734424,0.69565446,0.30600785,-0.45442463,0.27848299,-0.77838009,0.22941790,-0.47526225,-0.84818573,0.40058927,-0.04662855
3.12000000,-0.34488541,0.76838958,-0.36848763,-0.22734424,0.69565446,0.30600785,-0.45442463,0.27848299,-0.77838009,0.22941790,-0.47526225,-0.84818573,0.40058927,-0.04662855
3.14000000,-0.34488541,0.76838958,-0.36848763,-0.22734424,0.69565446,0.30600785,-0.45442463,0.27848299,-0.77838009,0.22941790,-0.47526225,-0.84818573,0.40058927,-0.04662855
3.16000000,-0.34488541,0.76838958,-0.36848763,-0.22734424,0.69565446,0.30600785,-0.45442463,0.27848299,-0.77838009,0.22941790,-0.47526225,-0.84818573,0.40058927,-0.04662855
3.18000000,-0.34488541,0.76838958,-0.36848763,-0.22734424,0.69565446,0.30600785,-0.45442463,0.27848299,-0.77838009,0.22941790,-0.47526225,-0.84818573,0.40058927,-0.04662855
3.20000000,-0.34488541,0.76838958,-0.36848763,-0.22734424,0.69565446,0.30600785,-0.45442463,0.27848299,-0.77838009,0.22941790,-0.47526225,-0.84818573,0.40058927,-0.04662855
3.22000000,-0.34488541,0.76838958,-0.36848763,-0.22734424,0.69565446,0.30600785,-0.45442463,0.27848299,-0.77838009,0.22941790,-0.47526225,-0.84818573,0.40058927,-0.04662855
3.24000000,-0.34488541,0.76838958,-0.36848763,-0.22734424,0.69565446,0.30600785,-0.45442463,0.27848299,-0.77838009,0.22941790,-0.47526225,-0.84818573,0.40058927,-0.04662855
3.26000000,-0.34488541,0.76838958,-0.36848763,-0.22734424,0.69565446,0.30600785,-0.45442463,0.27848299,-0.77838009,0.22941790,-0.47526225,-0.84818573,0.40058927,-0.04662855
3.28000000,-0.34488541,0.76838958,-0.36848763,-0.22734424,0.69565446,0.30600785,-0.45442463,0.27848299,-0.77838009,0.22941790,-0.47526225,-0.84818573,0.40058927,-0.04662855
3.30000000,-0.34488541,0.76838958,-0.36848763,-0.22734424,0.69565446,0.30600785,-0.45442463,0.27848299,-0.77838009,0.22941790,-0.47526225,-0.84818573,0.40058927,-0.04662855
3.32000000,-0.34488541,0.76838958,-0.36848763,-0.22734424,0.69565446,0.30600785,-0.45442463,0.27848299,-0.77838009,0.22941790,-0.47526225,-0.84818573,0.40058927,-0.04662855
3.34000000,-0.34488541,0.76838958,-0.36848763,-0.22734424,0.69565446,0.30600785,-0.45442463,0.27848299,-0.77838009,0.22941790,-0.47526225,-0.84818573,0.40058927,-0.04662855
3.36000000,-0.34488541,0.76838958,-0.36848763,-0.22734424,0.69565446,0.30600785,-0.45442463,0.27848299,-0.77838009,0.22941790,-0.47526225,-0.84818573,0.40058927,-0.04662855
3.38000000,-0.34488541,0.76838958,-0.36848763,-0.22734424,0.69565446,0.30600785,-0.45442463,0.27848299,-0.77838009,0.22941790,-0.47526225,-0.84818573,0.40058927,-0.04662855
3.40000000,-0.34488541,0.76838958,-0.36848763,-0.22734424,0.69565446,0.30600785,-0.45442463,0.27848299,-0.77838009,0.22941790,-0.47526225,-0.84818573,0.40058927,-0.04662855
3.42000000,-0.34488541,0.76838958,-0.36848763,-0.22734424,0.69565446,0.30600785,-0.45442463,0.27848299,-0.77838009,0.22941790,-0.47526225,-0.84818573,0.40058927,-0.04662855
3.44000000,-0.34488541,0.76838958,-0.36848763,-0.22734424,0.69565446,0.30600785,-0.45442463,0.27848299,-0.77838009,0.22941790,-0.47526225,-0.84818573,0.40058927,-0.04662855
3.46000000,-0.34488541,0.76838958,-0.36848763,-0.22734424,0.69565446,0.30600785,-0.45442463,0.27848299,-0.77838009,0.22941790,-0.47526225,-0.84818573,0.40058927,-0.04662855
3.48000000,-0.34488541,0.76838958,-0.36848763,-0.22734424,0.69565446,0.30600785,-0.45442463,0.27848299,-0.77838009,0.22941790,-0.47526225,-0.84818573,0.40058927,-0.04662855
3.50000000,-0.34488541,0.76838958,-0.36848763,-0.22734424,0.69565446,0.30600785,-0.45442463,0.27848299,-0.77838009,0.22941790,-0.47526225,-0.84818573,0.40058927,-0.04662855
3.52000000,-0.34488541,0.76838958,-0.36848763,-0.22734424,0.69565446,0.30600785,-0.45442463,0.27848299,-0.77838009,0.22941790,-0.47526225,-0.84818573,0.40058927,-0.04662855
3.54000000,-0.34488541,0.76838958,-0.36848763,-0.22734424,0.69565446,0.30600785,-0.45442463,0.27848299,-0.77838009,0.22941790,-0.47526225,-0.84818573,0.40058927,-0.04662855
3.56000000,-0.34488541,0.76838958,-0.36848763,-0.22734424,0.69565446,0.30600785,-0.45442463,0.27848299,-0.77838009,0.22941790,-0.47526225,-0.84818573,0.40058927,-0.04662855
3.58000000,-0.34488541,0.76838958,-0.36848763,-0.22734424,0.69565446,0.30600785,-0.45442463,0.27848299,-0.77838009,0.22941790,-0.47526225,-0.84818573,0.40058927,-0.04662855
3.60000000,-0.34488541,0.76838958,-0.36848763,-0.22734424,0.69565446,0.30600785,-0.45442463,0.27848299,-0.77838009,0.22941790,-0.47526225,-0.84818573,0.40058927,-0.04662855
3.62000000,-0.34488541,0.76838958,-0.36848763,-0.22734424,0.69565446,0.30600785,-0.45442463,0.27848299,-0.77838009,0.22941790,-0.47526225,-0.84818573,0.40058927,-0.04662855
3.64000000,-0.34488541,0.76838958,-0.36848763,-0.22734424,0.69565446,0.30600785,-0.45442463,0.27848299,-0.77838009,0.22941790,-0.47526225,-0.84818573,0.40058927,-0.04662855
3.66000000,-0.34488541,0.76838958,-0.36848763,-0.22734424,0.69565446,0.30600785,-0.45442463,0.27848299,-0.77838009,0.22941790,-0.47526225,-0.84818573,0.40058927,-0.04662855
3.68000000,-0.34488541,0.76838958,-0.36848763,-0.22734424,0.69565446,0.30600785,-0.45442463,0.27848299,-0.77838009,0.22941790,-0.47526225,-0.84818573,0.40058927,-0.04662855
3.70000000,-0.34488541,0.76838958,-0.36848763,-0.22734424,0.69565446,0.30600785,-0.45442463,0.27848299,-0.77838009,0.22941790,-0.47526225,-0.84818573,0.40058927,-0.04662855
3.72000000,-0.34488541,0.76838958,-0.36848763,-0.22734424,0.69565446,0.30600785,-0.45442463,0.27848299,-0.77838009,0.22941790,-0.47526225,-0.84818573,0.40058927,-0.04662855
3.74000000,-0.34488541,0.76838958,-0.36848763,-0.22734424,0.69565446,0.30600785,-0.45442463,0.27848299,-0.77838009,0.22941790,-0.47526225,-0.84818573,0.40058927,-0.04662855
3.76000000,-0.34488541,0.76838958,-0.36848763,-0.22734424,0.69565446,0.30600785,-0.45442463,0.27848299,-0.77838009,0.22941790,-0.47526225,-0.84818573,0.40058927,-0.04662855
3.78000000,-0.34488541,0.76838958,-0.36848763,-0.22734424,0.69565446,0.30600785,-0.45442463,0.27848299,-0.77838009,0.22941790,-0.47526225,-0.84818573,0.40058927,-0.04662855
3.80000000,-0.34488541,0.76838958,-0.36848763,-0.22734424,0.69565446,0.30600785,-0.45442463,0.27848299,-0.77838009,0.22941790,-0.47526225,-0.84818573,0.40058927,-0.04662855
3.82000000,-0.34488541,0.76838958,-0.36848763,-0.22734424,0.69565446,0.30600785,-0.45442463,0.27848299,-0.77838009,0.22941790,-0.47526225,-0.84818573,0.40058927,-0.04662855
3.84000000,-0.34488541,0.76838958,-0.36848763,-0.22734424,0.69565446,0.30600785,-0.45442463,0.27848299,-0.77838009,0.22941790,-0.47526225,-0.84818573,0.40058927,-0.04662855
3.86000000,-0.34488541,0.76838958,-0.36848763,-0.22734424,0.69565446,0.30600785,-0.45442463,0.27848299,-0.77838009,0.22941790,-0.47526225,-0.84818573,0.40058927,-0.04662855
3.88000000,-0.34488541,0.76838958,-0.36848763,-0.22734424,0.69565446,0.30600785,-0.45442463,0.27848299,-0.77838009,0.22941790,-0.47526225,-0.84818573,0.40058927,-0.04662855
3.90000000,-0.34488541,0.76838958,-0.36848763,-0.22734424,0.69565446,0.30600785,-0.45442463,0.27848299,-0.77838009,0.22941790,-0.47526225,-0.84818573,0.40058927,-0.04662855
3.92000000,-0.34488541,0.76838958,-0.36848763,-0.22734424,0.69565446,0.30600785,-0.45442463,0.27848299,-0.77838009,0.22941790,-0.47526225,-0.84818573,0.40058927,-0.04662855
3.94000000,-0.34488541,0.76838958,-0.36848763,-0.22734424,0.69565446,0.30600785,-0.45442463,0.27848299,-0.77838009,0.22941790,-0.47526225,-0.84818573,0.40058927,-0.04662855
3.96000000,-0.34488541,0.76838958,-0.36848763,-0.22734424,0.69565446,0.30600785,-0.45442463,0.27848299,-0.77838009,0.22941790,-0.47526225,-0.84818573,0.40058927,-0.04662855
3.98000000,-0.34488541,0.76838958,-0.36848763,-0.22734424,0.69565446,0.30600785,-0.45442463,0.27848299,-0.77838009,0.22941790,-0.47526225,-0.84818573,0.40058927,-0.04662855
4.00000000,-0.34488358,0.76838869,-0.36848800,-0.22734288,0.69565540,0.30600731,-0.45442139,0.27847797,-0.77838130,0.22941797,-0.47526249,-0.84818379,0.40058972,-0.04662266
4.02000000,-0.34487100,0.76838253,-0.36849053,-0.22733350,0.69566186,0.30600357,-0.45439914,0.27844339,-0.77838958,0.22941842,-0.47526415,-0.84817037,0.40059282,-0.04658216
4.04000000,-0.34483750,0.76836615,-0.36849727,-0.22730853,0.69567907,0.30599361,-0.45433991,0.27835137,-0.77841163,0.22941963,-0.47526855,-0.84813468,0.40060106,-0.04647438
4.06000000,-0.34477358,0.76833488,-0.36851015,-0.22726089,0.69571192,0.30597461,-0.45422689,0.27817577,-0.77845371,0.22942193,-0.47527695,-0.84806656,0.40061679,-0.04626869
4.08000000,-0.34467036,0.76828438,-0.36853093,-0.22718394,0.69576496,0.30594394,-0.45404435,0.27789216,-0.77852166,0.22942564,-0.47529052,-0.84795656,0.40064219,-0.04593651
4.10000000,-0.34451955,0.76821060,-0.36856130,-0.22707153,0.69584245,0.30589912,-0.45377768,0.27747784,-0.77862094,0.22943107,-0.47531033,-0.84779585,0.40067930,-0.04545122
4.12000000,-0.34431350,0.76810980,-0.36860279,-0.22691794,0.69594833,0.30583788,-0.45341332,0.27691173,-0.77875659,0.22943849,-0.47533741,-0.84757626,0.40073001,-0.04478814
4.14000000,-0.34404512,0.76797851,-0.36865683,-0.22671789,0.69608624,0.30575811,-0.45293874,0.27617438,-0.77893327,0.22944815,-0.47537269,-0.84729025,0.40079605,-0.04392449
4.16000000,-0.34370791,0.76781354,-0.36872474,-0.22646652,0.69625952,0.30565789,-0.45234244,0.27524792,-0.77915526,0.22946029,-0.47541700,-0.84693088,0.40087903,-0.04283934
4.18000000,-0.34329592,0.76761199,-0.36880770,-0.22615942,0.69647122,0.30553544,-0.45161391,0.27411602,-0.77942648,0.22947512,-0.47547115,-0.84649183,0.40098041,-0.04151355
4.20000000,-0.34280375,0.76737122,-0.36890681,-0.22579256,0.69672412,0.30538917,-0.45074361,0.27276385,-0.77975048,0.22949284,-0.47553583,-0.84596733,0.40110152,-0.03992976
4.22000000,-0.34222656,0.76708885,-0.36902304,-0.22536231,0.69702072,0.30521762,-0.44972295,0.27117806,-0.78013046,0.22951361,-0.47561169,-0.84535222,0.40124356,-0.03807234
4.24000000,-0.34155999,0.76676275,-0.36915726,-0.22486545,0.69736324,0.30501952,-0.44854424,0.26934672,-0.78056927,0.22953761,-0.47569929,-0.84464186,0.40140759,-0.03592731
4.26000000,-0.34080021,0.76639107,-0.36931026,-0.22429910,0.69775365,0.30479371,-0.44720072,0.26725931,-0.78106944,0.22956496,-0.47579914,-0.84383218,0.40159455,-0.03348235
4.28000000,-0.33994390,0.76597215,-0.36948269,-0.22366080,0.69819367,0.30453921,-0.44568649,0.26490667,-0.78163317,0.22959579,-0.47591168,-0.84291961,0.40180527,-0.03072671
4.30000000,-0.33898818,0.76550460,-0.36967514,-0.22294840,0.69868477,0.30425516,-0.44399648,0.26228094,-0.78226233,0.22963019,-0.47603729,-0.84190111,0.40204045,-0.02765122
4.32000000,-0.33793069,0.76498726,-0.36988809,-0.22216013,0.69922817,0.30394087,-0.44212650,0.25937556,-0.78295850,0.22966826,-0.47617627,-0.84077414,0.40230068,-0.02424818
4.34000000,-0.33676947,0.76441919,-0.37012192,-0.22129455,0.69982487,0.30359575,-0.44007310,0.25618524,-0.78372295,0.22971006,-0.47632888,-0.83953665,0.40258643,-0.02051138
4.36000000,-0.33550304,0.76379964,-0.37037694,-0.22035055,0.70047562,0.30321936,-0.43783367,0.25270585,-0.78455666,0.22975565,-0.47649531,-0.83818703,0.40289807,-0.01643601
4.38000000,-0.33413035,0.76312810,-0.37065336,-0.21932733,0.70118099,0.30281139,-0.43540630,0.24893450,-0.78546033,0.22980506,-0.47667572,-0.83672415,0.40323586,-0.01201865
4.40000000,-0.33265072,0.76240426,-0.37095131,-0.21822441,0.70194130,0.30237164,-0.43278987,0.24486938,-0.78643439,0.22985832,-0.47687018,-0.83514733,0.40359997,-0.00725722
4.42000000,-0.33106393,0.76162798,-0.37127084,-0.21704160,0.70275668,0.30190003,-0.42998392,0.24050982,-0.78747900,0.22991544,-0.47707872,-0.83345630,0.40399044,-0.00215090
4.44000000,-0.32937011,0.76079935,-0.37161193,-0.21577901,0.70362706,0.30139662,-0.42698871,0.23585620,-0.78859408,0.22997642,-0.47730133,-0.83165121,0.40440726,0.00329984
4.46000000,-0.32756976,0.75991860,-0.37197446,-0.21443702,0.70455217,0.30086155,-0.42380513,0.23090993,-0.78977927,0.23004122,-0.47753793,-0.82973260,0.40485028,0.00909337
4.48000000,-0.32566377,0.75898617,-0.37235827,-0.21301628,0.70553157,0.30029508,-0.42043475,0.22567341,-0.79103402,0.23010984,-0.47778843,-0.82770140,0.40531931,0.01522685
4.50000000,-0.32365336,0.75800266,-0.37276310,-0.21151770,0.70656463,0.29969757,-0.41687972,0.22015001,-0.79235751,0.23018221,-0.47805264,-0.82555892,0.40581403,0.02169637
4.52000000,-0.32154009,0.75696883,-0.37318865,-0.20994245,0.70765055,0.29906950,-0.41314278,0.21434399,-0.79374871,0.23025828,-0.47833037,-0.82330682,0.40633406,0.02849691
4.54000000,-0.31932583,0.75588559,-0.37363453,-0.20829192,0.70878835,0.29841141,-0.40922727,0.20826052,-0.79520640,0.23033799,-0.47862138,-0.82094710,0.40687894,0.03562243
4.56000000,-0.31701276,0.75475401,-0.37410031,-0.20656774,0.70997693,0.29772395,-0.40513704,0.20190559,-0.79672913,0.23042125,-0.47892537,-0.81848209,0.40744814,0.04306590
4.58000000,-0.31460337,0.75357532,-0.37458549,-0.20477176,0.71121501,0.29700787,-0.40087649,0.19528602,-0.79831527,0.23050798,-0.47924202,-0.81591442,0.40804104,0.05081934
4.60000000,-0.31210042,0.75235085,-0.37508951,-0.20290604,0.71250116,0.29626398,-0.39645048,0.18840940,-0.79996301,0.23059808,-0.47957097,-0.81324704,0.40865696,0.05887387
4.62000000,-0.30950692,0.75108208,-0.37561175,-0.20097282,0.71383384,0.29549318,-0.39186437,0.18128403,-0.80167035,0.23069144,-0.47991181,-0.81048318,0.40929516,0.06721975
4.64000000,-0.30682617,0.74977064,-0.37615157,-0.19897457,0.71521135,0.29469644,-0.38712396,0.17391893,-0.80343513,0.23078794,-0.48026413,-0.80762633,0.40995484,0.07584643
4.66000000,-0.30406169,0.74841822,-0.37670825,-0.19691390,0.71663189,0.29387483,-0.38223549,0.16632378,-0.80525504,0.23088746,-0.48062745,-0.80468024,0.41063512,0.08474256
4.68000000,-0.30121722,0.74702668,-0.37728104,-0.19479361,0.71809354,0.29302943,-0.37720558,0.15850887,-0.80712760,0.23098985,-0.48100127,-0.80164891,0.41133508,0.09389609
4.70000000,-0.29829673,0.74559795,-0.37786914,-0.19261665,0.71959424,0.29216145,-0.37204123,0.15048510,-0.80905021,0.23109498,-0.48138510,-0.79853657,0.41205375,0.10329426
4.72000000,-0.29530438,0.74413406,-0.37847170,-0.19038613,0.72113188,0.29127211,-0.36674982,0.14226391,-0.81102012,0.23120270,-0.48177836,-0.79534765,0.41279011,0.11292367
4.74000000,-0.29224452,0.74263715,-0.37908787,-0.18810528,0.72270420,0.29036270,-0.36133902,0.13385724,-0.81303448,0.23131285,-0.48218050,-0.79208678,0.41354307,0.12277033
4.76000000,-0.28912168,0.74110942,-0.37971671,-0.18577749,0.72430888,0.28943458,-0.35581686,0.12527753,-0.81509030,0.23142526,-0.48259091,-0.78875879,0.41431154,0.13281967
4.78000000,-0.28594053,0.73955318,-0.38035729,-0.18340624,0.72594353,0.28848912,-0.35019160,0.11653765,-0.81718450,0.23153978,-0.48300899,-0.78536868,0.41509435,0.14305661
4.80000000,-0.28270592,0.73797078,-0.38100864,-0.18099514,0.72760564,0.28752778,-0.34447180,0.10765088,-0.81931390,0.23165622,-0.48343409,-0.78192158,0.41589032,0.15346562
4.82000000,-0.27942281,0.73636465,-0.38166976,-0.17854788,0.72929268,0.28655202,-0.33866623,0.09863085,-0.82147523,0.23177440,-0.48386557,-0.77842280,0.41669822,0.16403070
4.84000000,-0.27609629,0.73473728,-0.38233962,-0.17606826,0.73100203,0.28556336,-0.33278389,0.08949154,-0.82366514,0.23189415,-0.48430275,-0.77487775,0.41751681,0.17473549
4.86000000,-0.27273154,0.73309121,-0.38301717,-0.17356015,0.73273102,0.28456334,-0.32683395,0.08024722,-0.82588021,0.23201527,-0.48474496,-0.77129196,0.41834480,0.18556328
4.88000000,-0.26933385,0.73142903,-0.38370136,-0.17102748,0.73447694,0.28355353,-0.32082578,0.07091241,-0.82811696,0.23213758,-0.48519150,-0.76767108,0.41918090,0.19649706
4.90000000,-0.26590860,0.72975336,-0.38439110,-0.16847427,0.73623702,0.28253553,-0.31476886,0.06150185,-0.83037186,0.23226088,-0.48564165,-0.76402081,0.42002378,0.20751956
4.92000000,-0.26246121,0.72806687,-0.38508530,-0.16590456,0.73800847,0.28151094,-0.30867279,0.05203049,-0.83264134,0.23238498,-0.48609472,-0.76034696,0.42087211,0.21861329
4.94000000,-0.25899717,0.72637223,-0.38578285,-0.16332244,0.73978848,0.28048141,-0.30254729,0.04251338,-0.83492177,0.23250967,-0.48654998,-0.75665536,0.42172454,0.22976060
4.96000000,-0.25552202,0.72467214,-0.38648264,-0.16073202,0.74157421,0.27944858,-0.29640212,0.03296571,-0.83720953,0.23263477,-0.48700670,-0.75295192,0.42257970,0.24094369
4.98000000,-0.25204129,0.72296934,-0.38718355,-0.15813746,0.74336279,0.27841409,-0.29024710,0.02340276,-0.83950095,0.23276007,-0.48746414,-0.74924254,0.42343623,0.25214470
5.00000000,-0.24856056,0.72126653,-0.38788446,-0.15554290,0.74515138,0.27737960,-0.28409209,0.01383980,-0.84179237,0.23288537,-0.48792159,-0.74553316,0.42429276,0.26334571
5.02000000,-0.24508540,0.71956645,-0.38858424,-0.15295249,0.74693710,0.27634676,-0.27794692,0.00429214,-0.84408013,0.23301047,-0.48837831,-0.74182971,0.42514792,0.27452880
5.04000000,-0.24162137,0.71787181,-0.38928179,-0.15037036,0.74871711,0.27531723,-0.27182141,-0.00522497,-0.84636056,0.23313516,-0.48883357,-0.73813811,0.42600035,0.28567611
5.06000000,-0.23817398,0.71618532,-0.38997599,-0.14780065,0.75048857,0.27429265,-0.26572535,-0.01469634,-0.84863003,0.23325926,-0.48928663,-0.73446426,0.42684868,0.29676984
5.08000000,-0.23474872,0.71450965,-0.39066573,-0.14524744,0.75224865,0.27327465,-0.25966842,-0.02410689,-0.85088494,0.23338256,-0.48973679,-0.73081399,0.42769156,0.30779234
5.10000000,-0.23135104,0.71284747,-0.39134992,-0.14271478,0.75399456,0.27226484,-0.25366025,-0.03344170,-0.85312169,0.23350487,-0.49018333,-0.72719311,0.42852766,0.31872612
5.12000000,-0.22798629,0.71120140,-0.39202747,-0.14020667,0.75572355,0.27126482,-0.24771032,-0.04268603,-0.85533676,0.23362599,-0.49062553,-0.72360733,0.42935565,0.32955391
5.14000000,-0.22465976,0.70957403,-0.39269733,-0.13772704,0.75743290,0.27027616,-0.24182798,-0.05182533,-0.85752667,0.23374574,-0.49106272,-0.72006228,0.43017424,0.34025870
5.16000000,-0.22137665,0.70796790,-0.39335845,-0.13527979,0.75911994,0.26930040,-0.23602241,-0.06084536,-0.85968800,0.23386392,-0.49149420,-0.71656349,0.43098214,0.35082378
5.18000000,-0.21814204,0.70638550,-0.39400980,-0.13286868,0.76078206,0.26833906,-0.23030260,-0.06973214,-0.86181740,0.23398036,-0.49191930,-0.71311640,0.43177811,0.36123279
5.20000000,-0.21496090,0.70482926,-0.39465038,-0.13049743,0.76241670,0.26739360,-0.22467735,-0.07847202,-0.86391160,0.23409488,-0.49233738,-0.70972628,0.43256092,0.37146973
5.22000000,-0.21183806,0.70330153,-0.39527923,-0.12816964,0.76402139,0.26646548,-0.21915518,-0.08705173,-0.86596742,0.23420729,-0.49274779,-0.70639829,0.43332939,0.38151907
5.24000000,-0.20877820,0.70180462,-0.39589539,-0.12588879,0.76559371,0.26555607,-0.21374439,-0.09545840,-0.86798177,0.23431744,-0.49314993,-0.70313742,0.43408235,0.39136573
5.26000000,-0.20578585,0.70034073,-0.39649795,-0.12365827,0.76713134,0.26466673,-0.20845297,-0.10367959,-0.86995169,0.23442516,-0.49354319,-0.69994850,0.43481871,0.40099514
5.28000000,-0.20286536,0.69891200,-0.39708605,-0.12148131,0.76863205,0.26379874,-0.20328863,-0.11170336,-0.87187430,0.23453029,-0.49392701,-0.69683616,0.43553738,0.41039331
5.30000000,-0.20002089,0.69752046,-0.39765884,-0.11936102,0.77009369,0.26295335,-0.19825871,-0.11951826,-0.87374686,0.23463268,-0.49430084,-0.69380483,0.43623734,0.41954684
5.32000000,-0.19725640,0.69616804,-0.39821552,-0.11730035,0.77151423,0.26213173,-0.19337024,-0.12711342,-0.87556677,0.23473220,-0.49466416,-0.69085874,0.43691762,0.42844297
5.34000000,-0.19457566,0.69485659,-0.39875534,-0.11530210,0.77289175,0.26133500,-0.18862984,-0.13447851,-0.87733155,0.23482870,-0.49501647,-0.68800189,0.43757730,0.43706965
5.36000000,-0.19198216,0.69358783,-0.39927759,-0.11336889,0.77422442,0.26056420,-0.18404373,-0.14160388,-0.87903889,0.23492206,-0.49535732,-0.68523803,0.43821550,0.44541553
5.38000000,-0.18947921,0.69236336,-0.39978160,-0.11150316,0.77551058,0.25982031,-0.17961772,-0.14848051,-0.88068663,0.23501216,-0.49568627,-0.68257065,0.43883142,0.45347006
5.40000000,-0.18706982,0.69118467,-0.40026678,-0.10970718,0.77674865,0.25910423,-0.17535716,-0.15510008,-0.88227277,0.23509889,-0.49600292,-0.68000298,0.43942432,0.46122350
5.42000000,-0.18475675,0.69005309,-0.40073256,-0.10798301,0.77793723,0.25841677,-0.17126693,-0.16145500,-0.88379550,0.23518215,-0.49630691,-0.67753797,0.43999352,0.46866697
5.44000000,-0.18254249,0.68896985,-0.40117844,-0.10633248,0.77907504,0.25775868,-0.16735142,-0.16753848,-0.88525319,0.23526186,-0.49659791,-0.67517825,0.44053840,0.47579249
5.46000000,-0.18042921,0.68793602,-0.40160399,-0.10475722,0.78016096,0.25713060,-0.16361449,-0.17334449,-0.88664439,0.23533793,-0.49687565,-0.67292615,0.44105843,0.48259303
5.48000000,-0.17841880,0.68695251,-0.40200882,-0.10325865,0.78119401,0.25653310,-0.16005945,-0.17886790,-0.88796788,0.23541030,-0.49713986,-0.67078367,0.44155315,0.48906255
5.50000000,-0.17651282,0.68602008,-0.40239263,-0.10183791,0.78217341,0.25596663,-0.15668907,-0.18410442,-0.88922262,0.23547892,-0.49739035,-0.66875248,0.44202218,0.49519603
5.52000000,-0.17471247,0.68513933,-0.40275516,-0.10049592,0.78309853,0.25543156,-0.15350550,-0.18905069,-0.89040782,0.23554372,-0.49762696,-0.66683387,0.44246520,0.50098956
5.54000000,-0.17301865,0.68431070,-0.40309625,-0.09923333,0.78396891,0.25492814,-0.15051028,-0.19370431,-0.89152289,0.23560470,-0.49784957,-0.66502877,0.44288202,0.50644030
5.56000000,-0.17143185,0.68353442,-0.40341578,-0.09805052,0.78478429,0.25445654,-0.14770434,-0.19806387,-0.89256751,0.23566182,-0.49805811,-0.66333774,0.44327249,0.51154662
5.58000000,-0.16995223,0.68281058,-0.40371373,-0.09694759,0.78554460,0.25401679,-0.14508790,-0.20212899,-0.89354157,0.23571508,-0.49825257,-0.66176092,0.44363660,0.51630805
5.60000000,-0.16857953,0.68213904,-0.40399015,-0.09592437,0.78624996,0.25360882,-0.14266054,-0.20590034,-0.89444524,0.23576449,-0.49843297,-0.66029804,0.44397439,0.52072541
5.62000000,-0.16731311,0.68151949,-0.40424517,-0.09498037,0.78690072,0.25323243,-0.14042110,-0.20937972,-0.89527895,0.23581008,-0.49859941,-0.65894843,0.44428603,0.52480078
5.64000000,-0.16615189,0.68095141,-0.40447900,-0.09411479,0.78749742,0.25288731,-0.13836771,-0.21257005,-0.89604339,0.23585188,-0.49875202,-0.65771093,0.44457178,0.52853758
5.66000000,-0.16509440,0.68043408,-0.40469195,-0.09332652,0.78804082,0.25257301,-0.13649772,-0.21547542,-0.89673956,0.23588995,-0.49889100,-0.65658396,0.44483201,0.53194062
5.68000000,-0.16413868,0.67996653,-0.40488440,-0.09261413,0.78853191,0.25228897,-0.13480772,-0.21810115,-0.89736873,0.23592435,-0.49901661,-0.65556547,0.44506719,0.53501611
5.70000000,-0.16328237,0.67954761,-0.40505683,-0.09197582,0.78897193,0.25203447,-0.13329348,-0.22045380,-0.89793245,0.23595518,-0.49912915,-0.65465290,0.44527791,0.53777175
5.72000000,-0.16252259,0.67917592,-0.40520983,-0.09140948,0.78936235,0.25180866,-0.13194996,-0.22254121,-0.89843263,0.23598253,-0.49922900,-0.65384321,0.44546487,0.54021671
5.74000000,-0.16185602,0.67884983,-0.40534405,-0.09091261,0.78970487,0.25161055,-0.13077126,-0.22437254,-0.89887144,0.23600653,-0.49931660,-0.65313285,0.44562890,0.54236174
5.76000000,-0.16127882,0.67856746,-0.40546028,-0.09048236,0.79000146,0.25143901,-0.12975059,-0.22595834,-0.89925142,0.23602730,-0.49939246,-0.65251774,0.44577094,0.54421916
5.78000000,-0.16078666,0.67832669,-0.40555939,-0.09011550,0.79025436,0.25129273,-0.12888030,-0.22731051,-0.89957542,0.23604502,-0.49945714,-0.65199325,0.44589205,0.54580295
5.80000000,-0.16037467,0.67812514,-0.40564235,-0.08980840,0.79046607,0.25117029,-0.12815177,-0.22844241,-0.89984664,0.23605985,-0.49951128,-0.65155419,0.44599343,0.54712874
5.82000000,-0.16003746,0.67796017,-0.40571026,-0.08955704,0.79063934,0.25107007,-0.12755547,-0.22936887,-0.90006863,0.23607199,-0.49955560,-0.65119483,0.44607641,0.54821389
5.84000000,-0.15976908,0.67782888,-0.40576430,-0.08935699,0.79077725,0.25099030,-0.12708089,-0.23010622,-0.90024531,0.23608165,-0.49959087,-0.65090882,0.44614245,0.54907754
5.86000000,-0.15956303,0.67772808,-0.40580579,-0.08920339,0.79088313,0.25092906,-0.12671652,-0.23067233,-0.90038096,0.23608907,-0.49961795,-0.65068923,0.44619316,0.54974062
5.88000000,-0.15941222,0.67765430,-0.40583616,-0.08909098,0.79096062,0.25088424,-0.12644985,-0.23108665,-0.90048024,0.23609450,-0.49963777,-0.65052852,0.44623027,0.55022591
5.90000000,-0.15930899,0.67760380,-0.40585695,-0.08901404,0.79101367,0.25085356,-0.12626732,-0.23137025,-0.90054819,0.23609821,-0.49965134,-0.65041851,0.44625567,0.55055809
5.92000000,-0.15924508,0.67757253,-0.40586982,-0.08896639,0.79104651,0.25083457,-0.12615429,-0.23154586,-0.90059027,0.23610051,-0.49965974,-0.65035039,0.44627140,0.55076378
5.94000000,-0.15921158,0.67755615,-0.40587656,-0.08894142,0.79106372,0.25082461,-0.12609506,-0.23163788,-0.90061232,0.23610172,-0.49966414,-0.65031470,0.44627964,0.55087156
5.96000000,-0.15919900,0.67754999,-0.40587910,-0.08893204,0.79107019,0.25082087,-0.12607281,-0.23167245,-0.90062060,0.23610217,-0.49966580,-0.65030129,0.44628274,0.55091206
5.98000000,-0.15919717,0.67754910,-0.40587946,-0.08893068,0.79107113,0.25082033,-0.12606958,-0.23167748,-0.90062181,0.23610224,-0.49966604,-0.65029934,0.44628319,0.55091795
6.00000000,-0.15919717,0.67754910,-0.40587946,-0.08893068,0.79107113,0.25082033,-0.12606958,-0.23167748,-0.90062181,0.23610224,-0.49966604,-0.65029934,0.44628319,0.55091795
6.02000000,-0.15919717,0.67754910,-0.40587946,-0.08893068,0.79107113,0.25082033,-0.12606958,-0.23167748,-0.90062181,0.23610224,-0.49966604,-0.65029934,0.44628319,0.55091795
6.04000000,-0.15919717,0.67754910,-0.40587946,-0.08893068,0.79107113,0.25082033,-0.12606958,-0.23167748,-0.90062181,0.23610224,-0.49966604,-0.65029934,0.44628319,0.55091795
6.06000000,-0.15919717,0.67754910,-0.40587946,-0.08893068,0.79107113,0.25082033,-0.12606958,-0.23167748,-0.90062181,0.23610224,-0.49966604,-0.65029934,0.44628319,0.55091795
6.08000000,-0.15919717,0.67754910,-0.40587946,-0.08893068,0.79107113,0.25082033,-0.12606958,-0.23167748,-0.90062181,0.23610224,-0.49966604,-0.65029934,0.44628319,0.55091795
6.10000000,-0.15919717,0.67754910,-0.40587946,-0.08893068,0.79107113,0.25082033,-0.12606958,-0.23167748,-0.90062181,0.23610224,-0.49966604,-0.65029934,0.44628319,0.55091795
6.12000000,-0.15919717,0.67754910,-0.40587946,-0.08893068,0.79107113,0.25082033,-0.12606958,-0.23167748,-0.90062181,0.23610224,-0.49966604,-0.65029934,0.44628319,0.55091795
6.14000000,-0.15919717,0.67754910,-0.40587946,-0.08893068,0.79107113,0.25082033,-0.12606958,-0.23167748,-0.90062181,0.23610224,-0.49966604,-0.65029934,0.44628319,0.55091795
6.16000000,-0.15919717,0.67754910,-0.40587946,-0.08893068,0.79107113,0.25082033,-0.12606958,-0.23167748,-0.90062181,0.23610224,-0.49966604,-0.65029934,0.44628319,0.55091795
6.18000000,-0.15919717,0.67754910,-0.40587946,-0.08893068,0.79107113,0.25082033,-0.12606958,-0.23167748,-0.90062181,0.23610224,-0.49966604,-0.65029934,0.44628319,0.55091795
6.20000000,-0.15919717,0.67754910,-0.40587946,-0.08893068,0.79107113,0.25082033,-0.12606958,-0.23167748,-0.90062181,0.23610224,-0.49966604,-0.65029934,0.44628319,0.55091795
6.22000000,-0.15919717,0.67754910,-0.40587946,-0.08893068,0.79107113,0.25082033,-0.12606958,-0.23167748,-0.90062181,0.23610224,-0.49966604,-0.65029934,0.44628319,0.55091795
6.24000000,-0.15919717,0.67754910,-0.40587946,-0.08893068,0.79107113,0.25082033,-0.12606958,-0.23167748,-0.90062181,0.23610224,-0.49966604,-0.65029934,0.44628319,0.55091795
6.26000000,-0.15919717,0.67754910,-0.40587946,-0.08893068,0.79107113,0.25082033,-0.12606958,-0.23167748,-0.90062181,0.23610224,-0.49966604,-0.65029934,0.44628319,0.55091795
6.28000000,-0.15919717,0.67754910,-0.40587946,-0.08893068,0.79107113,0.25082033,-0.12606958,-0.23167748,-0.90062181,0.23610224,-0.49966604,-0.65029934,0.44628319,0.55091795
6.30000000,-0.15919717,0.67754910,-0.40587946,-0.08893068,0.79107113,0.25082033,-0.12606958,-0.23167748,-0.90062181,0.23610224,-0.49966604,-0.65029934,0.44628319,0.55091795
6.32000000,-0.15919717,0.67754910,-0.40587946,-0.08893068,0.79107113,0.25082033,-0.12606958,-0.23167748,-0.90062181,0.23610224,-0.49966604,-0.65029934,0.44628319,0.55091795
6.34000000,-0.15919717,0.67754910,-0.40587946,-0.08893068,0.79107113,0.25082033,-0.12606958,-0.23167748,-0.90062181,0.23610224,-0.49966604,-0.65029934,0.44628319,0.55091795
6.36000000,-0.15919717,0.67754910,-0.40587946,-0.08893068,0.79107113,0.25082033,-0.12606958,-0.23167748,-0.90062181,0.23610224,-0.49966604,-0.65029934,0.44628319,0.55091795
6.38000000,-0.15919717,0.67754910,-0.40587946,-0.08893068,0.79107113,0.25082033,-0.12606958,-0.23167748,-0.90062181,0.23610224,-0.49966604,-0.65029934,0.44628319,0.55091795
6.40000000,-0.15919717,0.67754910,-0.40587946,-0.08893068,0.79107113,0.25082033,-0.12606958,-0.23167748,-0.90062181,0.23610224,-0.49966604,-0.65029934,0.44628319,0.55091795
6.42000000,-0.15919717,0.67754910,-0.40587946,-0.08893068,0.79107113,0.25082033,-0.12606958,-0.23167748,-0.90062181,0.23610224,-0.49966604,-0.65029934,0.44628319,0.55091795
6.44000000,-0.15919717,0.67754910,-0.40587946,-0.08893068,0.79107113,0.25082033,-0.12606958,-0.23167748,-0.90062181,0.23610224,-0.49966604,-0.65029934,0.44628319,0.55091795
6.46000000,-0.15919717,0.67754910,-0.40587946,-0.08893068,0.79107113,0.25082033,-0.12606958,-0.23167748,-0.90062181,0.23610224,-0.49966604,-0.65029934,0.44628319,0.55091795
6.48000000,-0.15919717,0.67754910,-0.40587946,-0.08893068,0.79107113,0.25082033,-0.12606958,-0.23167748,-0.90062181,0.23610224,-0.49966604,-0.65029934,0.44628319,0.55091795
6.50000000,-0.15919717,0.67754910,-0.40587946,-0.08893068,0.79107113,0.25082033,-0.12606958,-0.23167748,-0.90062181,0.23610224,-0.49966604,-0.65029934,0.44628319,0.55091795
6.52000000,-0.15919717,0.67754910,-0.40587946,-0.08893068,0.79107113,0.25082033,-0.12606958,-0.23167748,-0.90062181,0.23610224,-0.49966604,-0.65029934,0.44628319,0.55091795
6.54000000,-0.15919717,0.67754910,-0.40587946,-0.08893068,0.79107113,0.25082033,-0.12606958,-0.23167748,-0.90062181,0.23610224,-0.49966604,-0.65029934,0.44628319,0.55091795
6.56000000,-0.15919717,0.67754910,-0.40587946,-0.08893068,0.79107113,0.25082033,-0.12606958,-0.23167748,-0.90062181,0.23610224,-0.49966604,-0.65029934,0.44628319,0.55091795
6.58000000,-0.15919717,0.67754910,-0.40587946,-0.08893068,0.79107113,0.25082033,-0.12606958,-0.23167748,-0.90062181,0.23610224,-0.49966604,-0.65029934,0.44628319,0.55091795
6.60000000,-0.15919717,0.67754910,-0.40587946,-0.08893068,0.79107113,0.25082033,-0.12606958,-0.23167748,-0.90062181,0.23610224,-0.49966604,-0.65029934,0.44628319,0.55091795
6.62000000,-0.15919717,0.67754910,-0.40587946,-0.08893068,0.79107113,0.25082033,-0.12606958,-0.23167748,-0.90062181,0.23610224,-0.49966604,-0.65029934,0.44628319,0.55091795
6.64000000,-0.15919717,0.67754910,-0.40587946,-0.08893068,0.79107113,0.25082033,-0.12606958,-0.23167748,-0.90062181,0.23610224,-0.49966604,-0.65029934,0.44628319,0.55091795
6.66000000,-0.15919717,0.67754910,-0.40587946,-0.08893068,0.79107113,0.25082033,-0.12606958,-0.23167748,-0.90062181,0.23610224,-0.49966604,-0.65029934,0.44628319,0.55091795
6.68000000,-0.15919717,0.67754910,-0.40587946,-0.08893068,0.79107113,0.25082033,-0.12606958,-0.23167748,-0.90062181,0.23610224,-0.49966604,-0.65029934,0.44628319,0.55091795
6.70000000,-0.15919717,0.67754910,-0.40587946,-0.08893068,0.79107113,0.25082033,-0.12606958,-0.23167748,-0.90062181,0.23610224,-0.49966604,-0.65029934,0.44628319,0.55091795
6.72000000,-0.15919717,0.67754910,-0.40587946,-0.08893068,0.79107113,0.25082033,-0.12606958,-0.23167748,-0.90062181,0.23610224,-0.49966604,-0.65029934,0.44628319,0.55091795
6.74000000,-0.15919717,0.67754910,-0.40587946,-0.08893068,0.79107113,0.25082033,-0.12606958,-0.23167748,-0.90062181,0.23610224,-0.49966604,-0.65029934,0.44628319,0.55091795
6.76000000,-0.15919717,0.67754910,-0.40587946,-0.08893068,0.79107113,0.25082033,-0.12606958,-0.23167748,-0.90062181,0.23610224,-0.49966604,-0.65029934,0.44628319,0.55091795
6.78000000,-0.15919717,0.67754910,-0.40587946,-0.08893068,0.79107113,0.25082033,-0.12606958,-0.23167748,-0.90062181,0.23610224,-0.49966604,-0.65029934,0.44628319,0.55091795
6.80000000,-0.15919717,0.67754910,-0.40587946,-0.08893068,0.79107113,0.25082033,-0.12606958,-0.23167748,-0.90062181,0.23610224,-0.49966604,-0.65029934,0.44628319,0.55091795
6.82000000,-0.15919717,0.67754910,-0.40587946,-0.08893068,0.79107113,0.25082033,-0.12606958,-0.23167748,-0.90062181,0.23610224,-0.49966604,-0.65029934,0.44628319,0.55091795
6.84000000,-0.15919717,0.67754910,-0.40587946,-0.08893068,0.79107113,0.25082033,-0.12606958,-0.23167748,-0.90062181,0.23610224,-0.49966604,-0.65029934,0.44628319,0.55091795
6.86000000,-0.15919717,0.67754910,-0.40587946,-0.08893068,0.79107113,0.25082033,-0.12606958,-0.23167748,-0.90062181,0.23610224,-0.49966604,-0.65029934,0.44628319,0.55091795
6.88000000,-0.15919717,0.67754910,-0.40587946,-0.08893068,0.79107113,0.25082033,-0.12606958,-0.23167748,-0.90062181,0.23610224,-0.49966604,-0.65029934,0.44628319,0.55091795
6.90000000,-0.15919717,0.67754910,-0.40587946,-0.08893068,0.79107113,0.25082033,-0.12606958,-0.23167748,-0.90062181,0.23610224,-0.49966604,-0.65029934,0.44628319,0.55091795
6.92000000,-0.15919717,0.67754910,-0.40587946,-0.08893068,0.79107113,0.25082033,-0.12606958,-0.23167748,-0.90062181,0.23610224,-0.49966604,-0.65029934,0.44628319,0.55091795
6.94000000,-0.15919717,0.67754910,-0.40587946,-0.08893068,0.79107113,0.25082033,-0.12606958,-0.23167748,-0.90062181,0.23610224,-0.49966604,-0.65029934,0.44628319,0.55091795
6.96000000,-0.15919717,0.67754910,-0.40587946,-0.08893068,0.79107113,0.25082033,-0.12606958,-0.23167748,-0.90062181,0.23610224,-0.49966604,-0.65029934,0.44628319,0.55091795
6.98000000,-0.15919717,0.67754910,-0.40587946,-0.08893068,0.79107113,0.25082033,-0.12606958,-0.23167748,-0.90062181,0.23610224,-0.49966604,-0.65029934,0.44628319,0.55091795
7.00000000,-0.15919717,0.67754910,-0.40587946,-0.08893068,0.79107113,0.25082033,-0.12606958,-0.23167748,-0.90062181,0.23610224,-0.49966604,-0.65029934,0.44628319,0.55091795
7.02000000,-0.15919717,0.67754910,-0.40587946,-0.08893068,0.79107113,0.25082033,-0.12606958,-0.23167748,-0.90062181,0.23610224,-0.49966604,-0.65029934,0.44628319,0.55091795
7.04000000,-0.15919717,0.67754910,-0.40587946,-0.08893068,0.79107113,0.25082033,-0.12606958,-0.23167748,-0.90062181,0.23610224,-0.49966604,-0.65029934,0.44628319,0.55091795
7.06000000,-0.15919717,0.67754910,-0.40587946,-0.08893068,0.79107113,0.25082033,-0.12606958,-0.23167748,-0.90062181,0.23610224,-0.49966604,-0.65029934,0.44628319,0.55091795
7.08000000,-0.15919717,0.67754910,-0.40587946,-0.08893068,0.79107113,0.25082033,-0.12606958,-0.23167748,-0.90062181,0.23610224,-0.49966604,-0.65029934,0.44628319,0.55091795
7.10000000,-0.15919717,0.67754910,-0.40587946,-0.08893068,0.79107113,0.25082033,-0.12606958,-0.23167748,-0.90062181,0.23610224,-0.49966604,-0.65029934,0.44628319,0.55091795
7.12000000,-0.15919717,0.67754910,-0.40587946,-0.08893068,0.79107113,0.25082033,-0.12606958,-0.23167748,-0.90062181,0.23610224,-0.49966604,-0.65029934,0.44628319,0.55091795
7.14000000,-0.15919717,0.67754910,-0.40587946,-0.08893068,0.79107113,0.25082033,-0.12606958,-0.23167748,-0.90062181,0.23610224,-0.49966604,-0.65029934,0.44628319,0.55091795
7.16000000,-0.15919717,0.67754910,-0.40587946,-0.08893068,0.79107113,0.25082033,-0.12606958,-0.23167748,-0.90062181,0.23610224,-0.49966604,-0.65029934,0.44628319,0.55091795
7.18000000,-0.15919717,0.67754910,-0.40587946,-0.08893068,0.79107113,0.25082033,-0.12606958,-0.23167748,-0.90062181,0.23610224,-0.49966604,-0.65029934,0.44628319,0.55091795
7.20000000,-0.15919717,0.67754910,-0.40587946,-0.08893068,0.79107113,0.25082033,-0.12606958,-0.23167748,-0.90062181,0.23610224,-0.49966604,-0.65029934,0.44628319,0.55091795
7.22000000,-0.15919717,0.67754910,-0.40587946,-0.08893068,0.79107113,0.25082033,-0.12606958,-0.23167748,-0.90062181,0.23610224,-0.49966604,-0.65029934,0.44628319,0.55091795
7.24000000,-0.15919717,0.67754910,-0.40587946,-0.08893068,0.79107113,0.25082033,-0.12606958,-0.23167748,-0.90062181,0.23610224,-0.49966604,-0.65029934,0.44628319,0.55091795
7.26000000,-0.15919717,0.67754910,-0.40587946,-0.08893068,0.79107113,0.25082033,-0.12606958,-0.23167748,-0.90062181,0.23610224,-0.49966604,-0.65029934,0.44628319,0.55091795
7.28000000,-0.15919717,0.67754910,-0.40587946,-0.08893068,0.79107113,0.25082033,-0.12606958,-0.23167748,-0.90062181,0.23610224,-0.49966604,-0.65029934,0.44628319,0.55091795
7.30000000,-0.15919717,0.67754910,-0.40587946,-0.08893068,0.79107113,0.25082033,-0.12606958,-0.23167748,-0.90062181,0.23610224,-0.49966604,-0.65029934,0.44628319,0.55091795
7.32000000,-0.15919717,0.67754910,-0.40587946,-0.08893068,0.79107113,0.25082033,-0.12606958,-0.23167748,-0.90062181,0.23610224,-0.49966604,-0.65029934,0.44628319,0.55091795
7.34000000,-0.15919717,0.67754910,-0.40587946,-0.08893068,0.79107113,0.25082033,-0.12606958,-0.23167748,-0.90062181,0.23610224,-0.49966604,-0.65029934,0.44628319,0.55091795
7.36000000,-0.15919717,0.67754910,-0.40587946,-0.08893068,0.79107113,0.25082033,-0.12606958,-0.23167748,-0.90062181,0.23610224,-0.49966604,-0.65029934,0.44628319,0.55091795
7.38000000,-0.15919717,0.67754910,-0.40587946,-0.08893068,0.79107113,0.25082033,-0.12606958,-0.23167748,-0.90062181,0.23610224,-0.49966604,-0.65029934,0.44628319,0.55091795
7.40000000,-0.15919717,0.67754910,-0.40587946,-0.08893068,0.79107113,0.25082033,-0.12606958,-0.23167748,-0.90062181,0.23610224,-0.49966604,-0.65029934,0.44628319,0.55091795
7.42000000,-0.15919717,0.67754910,-0.40587946,-0.08893068,0.79107113,0.25082033,-0.12606958,-0.23167748,-0.90062181,0.23610224,-0.49966604,-0.65029934,0.44628319,0.55091795
7.44000000,-0.15919717,0.67754910,-0.40587946,-0.08893068,0.79107113,0.25082033,-0.12606958,-0.23167748,-0.90062181,0.23610224,-0.49966604,-0.65029934,0.44628319,0.55091795
7.46000000,-0.15919717,0.67754910,-0.40587946,-0.08893068,0.79107113,0.25082033,-0.12606958,-0.23167748,-0.90062181,0.23610224,-0.49966604,-0.65029934,0.44628319,0.55091795
7.48000000,-0.15919717,0.67754910,-0.40587946,-0.08893068,0.79107113,0.25082033,-0.12606958,-0.23167748,-0.90062181,0.23610224,-0.49966604,-0.65029934,0.44628319,0.55091795
7.50000000,-0.15919717,0.67754910,-0.40587946,-0.08893068,0.79107113,0.25082033,-0.12606958,-0.23167748,-0.90062181,0.23610224,-0.49966604,-0.65029934,0.44628319,0.55091795
7.52000000,-0.15919717,0.67754910,-0.40587946,-0.08893068,0.79107113,0.25082033,-0.12606958,-0.23167748,-0.90062181,0.23610224,-0.49966604,-0.65029934,0.44628319,0.55091795
7.54000000,-0.15919717,0.67754910,-0.40587946,-0.08893068,0.79107113,0.25082033,-0.12606958,-0.23167748,-0.90062181,0.23610224,-0.49966604,-0.65029934,0.44628319,0.55091795
7.56000000,-0.15919717,0.67754910,-0.40587946,-0.08893068,0.79107113,0.25082033,-0.12606958,-0.23167748,-0.90062181,0.23610224,-0.49966604,-0.65029934,0.44628319,0.55091795
7.58000000,-0.15919717,0.67754910,-0.40587946,-0.08893068,0.79107113,0.25082033,-0.12606958,-0.23167748,-0.90062181,0.23610224,-0.49966604,-0.65029934,0.44628319,0.55091795
7.60000000,-0.15919717,0.67754910,-0.40587946,-0.08893068,0.79107113,0.25082033,-0.12606958,-0.23167748,-0.90062181,0.23610224,-0.49966604,-0.65029934,0.44628319,0.55091795
7.62000000,-0.15919717,0.67754910,-0.40587946,-0.08893068,0.79107113,0.25082033,-0.12606958,-0.23167748,-0.90062181,0.23610224,-0.49966604,-0.65029934,0.44628319,0.55091795
7.64000000,-0.15919717,0.67754910,-0.40587946,-0.08893068,0.79107113,0.25082033,-0.12606958,-0.23167748,-0.90062181,0.23610224,-0.49966604,-0.65029934,0.44628319,0.55091795
7.66000000,-0.15919717,0.67754910,-0.40587946,-0.08893068,0.79107113,0.25082033,-0.12606958,-0.23167748,-0.90062181,0.23610224,-0.49966604,-0.65029934,0.44628319,0.55091795
7.68000000,-0.15919717,0.67754910,-0.40587946,-0.08893068,0.79107113,0.25082033,-0.12606958,-0.23167748,-0.90062181,0.23610224,-0.49966604,-0.65029934,0.44628319,0.55091795
7.70000000,-0.15919717,0.67754910,-0.40587946,-0.08893068,0.79107113,0.25082033,-0.12606958,-0.23167748,-0.90062181,0.23610224,-0.49966604,-0.65029934,0.44628319,0.55091795
7.72000000,-0.15919717,0.67754910,-0.40587946,-0.08893068,0.79107113,0.25082033,-0.12606958,-0.23167748,-0.90062181,0.23610224,-0.49966604,-0.65029934,0.44628319,0.55091795
7.74000000,-0.15919717,0.67754910,-0.40587946,-0.08893068,0.79107113,0.25082033,-0.12606958,-0.23167748,-0.90062181,0.23610224,-0.49966604,-0.65029934,0.44628319,0.55091795
7.76000000,-0.15919717,0.67754910,-0.40587946,-0.08893068,0.79107113,0.25082033,-0.12606958,-0.23167748,-0.90062181,0.23610224,-0.49966604,-0.65029934,0.44628319,0.55091795
7.78000000,-0.15919717,0.67754910,-0.40587946,-0.08893068,0.79107113,0.25082033,-0.12606958,-0.23167748,-0.90062181,0.23610224,-0.49966604,-0.65029934,0.44628319,0.55091795
7.80000000,-0.15919717,0.67754910,-0.40587946,-0.08893068,0.79107113,0.25082033,-0.12606958,-0.23167748,-0.90062181,0.23610224,-0.49966604,-0.65029934,0.44628319,0.55091795
7.82000000,-0.15919717,0.67754910,-0.40587946,-0.08893068,0.79107113,0.25082033,-0.12606958,-0.23167748,-0.90062181,0.23610224,-0.49966604,-0.65029934,0.44628319,0.55091795
7.84000000,-0.15919717,0.67754910,-0.40587946,-0.08893068,0.79107113,0.25082033,-0.12606958,-0.23167748,-0.90062181,0.23610224,-0.49966604,-0.65029934,0.44628319,0.55091795
7.86000000,-0.15919717,0.67754910,-0.40587946,-0.08893068,0.79107113,0.25082033,-0.12606958,-0.23167748,-0.90062181,0.23610224,-0.49966604,-0.65029934,0.44628319,0.55091795
7.88000000,-0.15919717,0.67754910,-0.40587946,-0.08893068,0.79107113,0.25082033,-0.12606958,-0.23167748,-0.90062181,0.23610224,-0.49966604,-0.65029934,0.44628319,0.55091795
7.90000000,-0.15919717,0.67754910,-0.40587946,-0.08893068,0.79107113,0.25082033,-0.12606958,-0.23167748,-0.90062181,0.23610224,-0.49966604,-0.65029934,0.44628319,0.55091795
7.92000000,-0.15919717,0.67754910,-0.40587946,-0.08893068,0.79107113,0.25082033,-0.12606958,-0.23167748,-0.90062181,0.23610224,-0.49966604,-0.65029934,0.44628319,0.55091795
7.94000000,-0.15919717,0.67754910,-0.40587946,-0.08893068,0.79107113,0.25082033,-0.12606958,-0.23167748,-0.90062181,0.23610224,-0.49966604,-0.65029934,0.44628319,0.55091795
7.96000000,-0.15919717,0.67754910,-0.40587946,-0.08893068,0.79107113,0.25082033,-0.12606958,-0.23167748,-0.90062181,0.23610224,-0.49966604,-0.65029934,0.44628319,0.55091795
7.98000000,-0.15919717,0.67754910,-0.40587946,-0.08893068,0.79107113,0.25082033,-0.12606958,-0.23167748,-0.90062181,0.23610224,-0.49966604,-0.65029934,0.44628319,0.55091795
8.00000000,-0.15919717,0.67754910,-0.40587946,-0.08893068,0.79107113,0.25082033,-0.12606958,-0.23167748,-0.90062181,0.23610224,-0.49966604,-0.65029934,0.44628319,0.55091795
8.02000000,-0.15919717,0.67754910,-0.40587946,-0.08893068,0.79107113,0.25082033,-0.12606958,-0.23167748,-0.90062181,0.23610224,-0.49966604,-0.65029934,0.44628319,0.55091795
8.04000000,-0.15919717,0.67754910,-0.40587946,-0.08893068,0.79107113,0.25082033,-0.12606958,-0.23167748,-0.90062181,0.23610224,-0.49966604,-0.65029934,0.44628319,0.55091795
8.06000000,-0.15919717,0.67754910,-0.40587946,-0.08893068,0.79107113,0.25082033,-0.12606958,-0.23167748,-0.90062181,0.23610224,-0.49966604,-0.65029934,0.44628319,0.55091795
8.08000000,-0.15919717,0.67754910,-0.40587946,-0.08893068,0.79107113,0.25082033,-0.12606958,-0.23167748,-0.90062181,0.23610224,-0.49966604,-0.65029934,0.44628319,0.55091795
8.10000000,-0.15919717,0.67754910,-0.40587946,-0.08893068,0.79107113,0.25082033,-0.12606958,-0.23167748,-0.90062181,0.23610224,-0.49966604,-0.65029934,0.44628319,0.55091795
8.12000000,-0.15919717,0.67754910,-0.40587946,-0.08893068,0.79107113,0.25082033,-0.12606958,-0.23167748,-0.90062181,0.23610224,-0.49966604,-0.65029934,0.44628319,0.55091795
8.14000000,-0.15919717,0.67754910,-0.40587946,-0.08893068,0.79107113,0.25082033,-0.12606958,-0.23167748,-0.90062181,0.23610224,-0.49966604,-0.65029934,0.44628319,0.55091795
8.16000000,-0.15919717,0.67754910,-0.40587946,-0.08893068,0.79107113,0.25082033,-0.12606958,-0.23167748,-0.90062181,0.23610224,-0.49966604,-0.65029934,0.44628319,0.55091795
8.18000000,-0.15919717,0.67754910,-0.40587946,-0.08893068,0.79107113,0.25082033,-0.12606958,-0.23167748,-0.90062181,0.23610224,-0.49966604,-0.65029934,0.44628319,0.55091795
8.20000000,-0.15919717,0.67754910,-0.40587946,-0.08893068,0.79107113,0.25082033,-0.12606958,-0.23167748,-0.90062181,0.23610224,-0.49966604,-0.65029934,0.44628319,0.55091795
8.22000000,-0.15919717,0.67754910,-0.40587946,-0.08893068,0.79107113,0.25082033,-0.12606958,-0.23167748,-0.90062181,0.23610224,-0.49966604,-0.65029934,0.44628319,0.55091795
8.24000000,-0.15919717,0.67754910,-0.40587946,-0.08893068,0.79107113,0.25082033,-0.12606958,-0.23167748,-0.90062181,0.23610224,-0.49966604,-0.65029934,0.44628319,0.55091795
8.26000000,-0.15919717,0.67754910,-0.40587946,-0.08893068,0.79107113,0.25082033,-0.12606958,-0.23167748,-0.90062181,0.23610224,-0.49966604,-0.65029934,0.44628319,0.55091795
8.28000000,-0.15919717,0.67754910,-0.40587946,-0.08893068,0.79107113,0.25082033,-0.12606958,-0.23167748,-0.90062181,0.23610224,-0.49966604,-0.65029934,0.44628319,0.55091795
8.30000000,-0.15919717,0.67754910,-0.40587946,-0.08893068,0.79107113,0.25082033,-0.12606958,-0.23167748,-0.90062181,0.23610224,-0.49966604,-0.65029934,0.44628319,0.55091795
8.32000000,-0.15919717,0.67754910,-0.40587946,-0.08893068,0.79107113,0.25082033,-0.12606958,-0.23167748,-0.90062181,0.23610224,-0.49966604,-0.65029934,0.44628319,0.55091795
8.34000000,-0.15919717,0.67754910,-0.40587946,-0.08893068,0.79107113,0.25082033,-0.12606958,-0.23167748,-0.90062181,0.23610224,-0.49966604,-0.65029934,0.44628319,0.55091795
8.36000000,-0.15919717,0.67754910,-0.40587946,-0.08893068,0.79107113,0.25082033,-0.12606958,-0.23167748,-0.90062181,0.23610224,-0.49966604,-0.65029934,0.44628319,0.55091795
8.38000000,-0.15919717,0.67754910,-0.40587946,-0.08893068,0.79107113,0.25082033,-0.12606958,-0.23167748,-0.90062181,0.23610224,-0.49966604,-0.65029934,0.44628319,0.55091795
8.40000000,-0.15919717,0.67754910,-0.40587946,-0.08893068,0.79107113,0.25082033,-0.12606958,-0.23167748,-0.90062181,0.23610224,-0.49966604,-0.65029934,0.44628319,0.55091795
8.42000000,-0.15919717,0.67754910,-0.40587946,-0.08893068,0.79107113,0.25082033,-0.12606958,-0.23167748,-0.90062181,0.23610224,-0.49966604,-0.65029934,0.44628319,0.55091795
8.44000000,-0.15919717,0.67754910,-0.40587946,-0.08893068,0.79107113,0.25082033,-0.12606958,-0.23167748,-0.90062181,0.23610224,-0.49966604,-0.65029934,0.44628319,0.55091795
8.46000000,-0.15919717,0.67754910,-0.40587946,-0.08893068,0.79107113,0.25082033,-0.12606958,-0.23167748,-0.90062181,0.23610224,-0.49966604,-0.65029934,0.44628319,0.55091795
8.48000000,-0.15919717,0.67754910,-0.40587946,-0.08893068,0.79107113,0.25082033,-0.12606958,-0.23167748,-0.90062181,0.23610224,-0.49966604,-0.65029934,0.44628319,0.55091795
8.50000000,-0.15919717,0.67754910,-0.40587946,-0.08893068,0.79107113,0.25082033,-0.12606958,-0.23167748,-0.90062181,0.23610224,-0.49966604,-0.65029934,0.44628319,0.55091795
8.52000000,-0.15919717,0.67754910,-0.40587946,-0.08893068,0.79107113,0.25082033,-0.12606958,-0.23167748,-0.90062181,0.23610224,-0.49966604,-0.65029934,0.44628319,0.55091795
8.54000000,-0.15919717,0.67754910,-0.40587946,-0.08893068,0.79107113,0.25082033,-0.12606958,-0.23167748,-0.90062181,0.23610224,-0.49966604,-0.65029934,0.44628319,0.55091795
8.56000000,-0.15919717,0.67754910,-0.40587946,-0.08893068,0.79107113,0.25082033,-0.12606958,-0.23167748,-0.90062181,0.23610224,-0.49966604,-0.65029934,0.44628319,0.55091795
8.58000000,-0.15919717,0.67754910,-0.40587946,-0.08893068,0.79107113,0.25082033,-0.12606958,-0.23167748,-0.90062181,0.23610224,-0.49966604,-0.65029934,0.44628319,0.55091795
8.60000000,-0.15919717,0.67754910,-0.40587946,-0.08893068,0.79107113,0.25082033,-0.12606958,-0.23167748,-0.90062181,0.23610224,-0.49966604,-0.65029934,0.44628319,0.55091795
8.62000000,-0.15919717,0.67754910,-0.40587946,-0.08893068,0.79107113,0.25082033,-0.12606958,-0.23167748,-0.90062181,0.23610224,-0.49966604,-0.65029934,0.44628319,0.55091795
8.64000000,-0.15919717,0.67754910,-0.40587946,-0.08893068,0.79107113,0.25082033,-0.12606958,-0.23167748,-0.90062181,0.23610224,-0.49966604,-0.65029934,0.44628319,0.55091795
8.66000000,-0.15919717,0.67754910,-0.40587946,-0.08893068,0.79107113,0.25082033,-0.12606958,-0.23167748,-0.90062181,0.23610224,-0.49966604,-0.65029934,0.44628319,0.55091795
8.68000000,-0.15919717,0.67754910,-0.40587946,-0.08893068,0.79107113,0.25082033,-0.12606958,-0.23167748,-0.90062181,0.23610224,-0.49966604,-0.65029934,0.44628319,0.55091795
8.70000000,-0.15919717,0.67754910,-0.40587946,-0.08893068,0.79107113,0.25082033,-0.12606958,-0.23167748,-0.90062181,0.23610224,-0.49966604,-0.65029934,0.44628319,0.55091795
8.72000000,-0.15919717,0.67754910,-0.40587946,-0.08893068,0.79107113,0.25082033,-0.12606958,-0.23167748,-0.90062181,0.23610224,-0.49966604,-0.65029934,0.44628319,0.55091795
8.74000000,-0.15919717,0.67754910,-0.40587946,-0.08893068,0.79107113,0.25082033,-0.12606958,-0.23167748,-0.90062181,0.23610224,-0.49966604,-0.65029934,0.44628319,0.55091795
8.76000000,-0.15919717,0.67754910,-0.40587946,-0.08893068,0.79107113,0.25082033,-0.12606958,-0.23167748,-0.90062181,0.23610224,-0.49966604,-0.65029934,0.44628319,0.55091795
8.78000000,-0.15919717,0.67754910,-0.40587946,-0.08893068,0.79107113,0.25082033,-0.12606958,-0.23167748,-0.90062181,0.23610224,-0.49966604,-0.65029934,0.44628319,0.55091795
8.80000000,-0.15919717,0.67754910,-0.40587946,-0.08893068,0.79107113,0.25082033,-0.12606958,-0.23167748,-0.90062181,0.23610224,-0.49966604,-0.65029934,0.44628319,0.55091795
8.82000000,-0.15919717,0.67754910,-0.40587946,-0.08893068,0.79107113,0.25082033,-0.12606958,-0.23167748,-0.90062181,0.23610224,-0.49966604,-0.65029934,0.44628319,0.55091795
8.84000000,-0.15919717,0.67754910,-0.40587946,-0.08893068,0.79107113,0.25082033,-0.12606958,-0.23167748,-0.90062181,0.23610224,-0.49966604,-0.65029934,0.44628319,0.55091795
8.86000000,-0.15919717,0.67754910,-0.40587946,-0.08893068,0.79107113,0.25082033,-0.12606958,-0.23167748,-0.90062181,0.23610224,-0.49966604,-0.65029934,0.44628319,0.55091795
8.88000000,-0.15919717,0.67754910,-0.40587946,-0.08893068,0.79107113,0.25082033,-0.12606958,-0.23167748,-0.90062181,0.23610224,-0.49966604,-0.65029934,0.44628319,0.55091795
8.90000000,-0.15919717,0.67754910,-0.40587946,-0.08893068,0.79107113,0.25082033,-0.12606958,-0.23167748,-0.90062181,0.23610224,-0.49966604,-0.65029934,0.44628319,0.55091795
8.92000000,-0.15919717,0.67754910,-0.40587946,-0.08893068,0.79107113,0.25082033,-0.12606958,-0.23167748,-0.90062181,0.23610224,-0.49966604,-0.65029934,0.44628319,0.55091795
8.94000000,-0.15919717,0.67754910,-0.40587946,-0.08893068,0.79107113,0.25082033,-0.12606958,-0.23167748,-0.90062181,0.23610224,-0.49966604,-0.65029934,0.44628319,0.55091795
8.96000000,-0.15919717,0.67754910,-0.40587946,-0.08893068,0.79107113,0.25082033,-0.12606958,-0.23167748,-0.90062181,0.23610224,-0.49966604,-0.65029934,0.44628319,0.55091795
8.98000000,-0.15919717,0.67754910,-0.40587946,-0.08893068,0.79107113,0.25082033,-0.12606958,-0.23167748,-0.90062181,0.23610224,-0.49966604,-0.65029934,0.44628319,0.55091795
9.00000000,-0.15919717,0.67754910,-0.40587946,-0.08893068,0.79107113,0.25082033,-0.12606958,-0.23167748,-0.90062181,0.23610224,-0.49966604,-0.65029934,0.44628319,0.55091795
9.02000000,-0.15919717,0.67754910,-0.40587946,-0.08893068,0.79107113,0.25082033,-0.12606958,-0.23167748,-0.90062181,0.23610224,-0.49966604,-0.65029934,0.44628319,0.55091795
9.04000000,-0.15919717,0.67754910,-0.40587946,-0.08893068,0.79107113,0.25082033,-0.12606958,-0.23167748,-0.90062181,0.23610224,-0.49966604,-0.65029934,0.44628319,0.55091795
9.06000000,-0.15919717,0.67754910,-0.40587946,-0.08893068,0.79107113,0.25082033,-0.12606958,-0.23167748,-0.90062181,0.23610224,-0.49966604,-0.65029934,0.44628319,0.55091795
9.08000000,-0.15919717,0.67754910,-0.40587946,-0.08893068,0.79107113,0.25082033,-0.12606958,-0.23167748,-0.90062181,0.23610224,-0.49966604,-0.65029934,0.44628319,0.55091795
9.10000000,-0.15919717,0.67754910,-0.40587946,-0.08893068,0.79107113,0.25082033,-0.12606958,-0.23167748,-0.90062181,0.23610224,-0.49966604,-0.65029934,0.44628319,0.55091795
9.12000000,-0.15919717,0.67754910,-0.40587946,-0.08893068,0.79107113,0.25082033,-0.12606958,-0.23167748,-0.90062181,0.23610224,-0.49966604,-0.65029934,0.44628319,0.55091795
9.14000000,-0.15919717,0.67754910,-0.40587946,-0.08893068,0.79107113,0.25082033,-0.12606958,-0.23167748,-0.90062181,0.23610224,-0.49966604,-0.65029934,0.44628319,0.55091795
9.16000000,-0.15919717,0.67754910,-0.40587946,-0.08893068,0.79107113,0.25082033,-0.12606958,-0.23167748,-0.90062181,0.23610224,-0.49966604,-0.65029934,0.44628319,0.55091795
9.18000000,-0.15919717,0.67754910,-0.40587946,-0.08893068,0.79107113,0.25082033,-0.12606958,-0.23167748,-0.90062181,0.23610224,-0.49966604,-0.65029934,0.44628319,0.55091795
9.20000000,-0.15919717,0.67754910,-0.40587946,-0.08893068,0.79107113,0.25082033,-0.12606958,-0.23167748,-0.90062181,0.23610224,-0.49966604,-0.65029934,0.44628319,0.55091795
9.22000000,-0.15919717,0.67754910,-0.40587946,-0.08893068,0.79107113,0.25082033,-0.12606958,-0.23167748,-0.90062181,0.23610224,-0.49966604,-0.65029934,0.44628319,0.55091795
9.24000000,-0.15919717,0.67754910,-0.40587946,-0.08893068,0.79107113,0.25082033,-0.12606958,-0.23167748,-0.90062181,0.23610224,-0.49966604,-0.65029934,0.44628319,0.55091795
9.26000000,-0.15919717,0.67754910,-0.40587946,-0.08893068,0.79107113,0.25082033,-0.12606958,-0.23167748,-0.90062181,0.23610224,-0.49966604,-0.65029934,0.44628319,0.55091795
9.28000000,-0.15919717,0.67754910,-0.40587946,-0.08893068,0.79107113,0.25082033,-0.12606958,-0.23167748,-0.90062181,0.23610224,-0.49966604,-0.65029934,0.44628319,0.55091795
9.30000000,-0.15919717,0.67754910,-0.40587946,-0.08893068,0.79107113,0.25082033,-0.12606958,-0.23167748,-0.90062181,0.23610224,-0.49966604,-0.65029934,0.44628319,0.55091795
9.32000000,-0.15919717,0.67754910,-0.40587946,-0.08893068,0.79107113,0.25082033,-0.12606958,-0.23167748,-0.90062181,0.23610224,-0.49966604,-0.65029934,0.44628319,0.55091795
9.34000000,-0.15919717,0.67754910,-0.40587946,-0.08893068,0.79107113,0.25082033,-0.12606958,-0.23167748,-0.90062181,0.23610224,-0.49966604,-0.65029934,0.44628319,0.55091795
9.36000000,-0.15919717,0.67754910,-0.40587946,-0.08893068,0.79107113,0.25082033,-0.12606958,-0.23167748,-0.90062181,0.23610224,-0.49966604,-0.65029934,0.44628319,0.55091795
9.38000000,-0.15919717,0.67754910,-0.40587946,-0.08893068,0.79107113,0.25082033,-0.12606958,-0.23167748,-0.90062181,0.23610224,-0.49966604,-0.65029934,0.44628319,0.55091795
9.40000000,-0.15919717,0.67754910,-0.40587946,-0.08893068,0.79107113,0.25082033,-0.12606958,-0.23167748,-0.90062181,0.23610224,-0.49966604,-0.65029934,0.44628319,0.55091795
9.42000000,-0.15919717,0.67754910,-0.40587946,-0.08893068,0.79107113,0.25082033,-0.12606958,-0.23167748,-0.90062181,0.23610224,-0.49966604,-0.65029934,0.44628319,0.55091795
9.44000000,-0.15919717,0.67754910,-0.40587946,-0.08893068,0.79107113,0.25082033,-0.12606958,-0.23167748,-0.90062181,0.23610224,-0.49966604,-0.65029934,0.44628319,0.55091795
9.46000000,-0.15919717,0.67754910,-0.40587946,-0.08893068,0.79107113,0.25082033,-0.12606958,-0.23167748,-0.90062181,0.23610224,-0.49966604,-0.65029934,0.44628319,0.55091795
9.48000000,-0.15919717,0.67754910,-0.40587946,-0.08893068,0.79107113,0.25082033,-0.12606958,-0.23167748,-0.90062181,0.23610224,-0.49966604,-0.65029934,0.44628319,0.55091795
9.50000000,-0.15919717,0.67754910,-0.40587946,-0.08893068,0.79107113,0.25082033,-0.12606958,-0.23167748,-0.90062181,0.23610224,-0.49966604,-0.65029934,0.44628319,0.55091795
9.52000000,-0.15919717,0.67754910,-0.40587946,-0.08893068,0.79107113,0.25082033,-0.12606958,-0.23167748,-0.90062181,0.23610224,-0.49966604,-0.65029934,0.44628319,0.55091795
9.54000000,-0.15919717,0.67754910,-0.40587946,-0.08893068,0.79107113,0.25082033,-0.12606958,-0.23167748,-0.90062181,0.23610224,-0.49966604,-0.65029934,0.44628319,0.55091795
9.56000000,-0.15919717,0.67754910,-0.40587946,-0.08893068,0.79107113,0.25082033,-0.12606958,-0.23167748,-0.90062181,0.23610224,-0.49966604,-0.65029934,0.44628319,0.55091795
9.58000000,-0.15919717,0.67754910,-0.40587946,-0.08893068,0.79107113,0.25082033,-0.12606958,-0.23167748,-0.90062181,0.23610224,-0.49966604,-0.65029934,0.44628319,0.55091795
9.60000000,-0.15919717,0.67754910,-0.40587946,-0.08893068,0.79107113,0.25082033,-0.12606958,-0.23167748,-0.90062181,0.23610224,-0.49966604,-0.65029934,0.44628319,0.55091795
9.62000000,-0.15919717,0.67754910,-0.40587946,-0.08893068,0.79107113,0.25082033,-0.12606958,-0.23167748,-0.90062181,0.23610224,-0.49966604,-0.65029934,0.44628319,0.55091795
9.64000000,-0.15919717,0.67754910,-0.40587946,-0.08893068,0.79107113,0.25082033,-0.12606958,-0.23167748,-0.90062181,0.23610224,-0.49966604,-0.65029934,0.44628319,0.55091795
9.66000000,-0.15919717,0.67754910,-0.40587946,-0.08893068,0.79107113,0.25082033,-0.12606958,-0.23167748,-0.90062181,0.23610224,-0.49966604,-0.65029934,0.44628319,0.55091795
9.68000000,-0.15919717,0.67754910,-0.40587946,-0.08893068,0.79107113,0.25082033,-0.12606958,-0.23167748,-0.90062181,0.23610224,-0.49966604,-0.65029934,0.44628319,0.55091795
9.70000000,-0.15919717,0.67754910,-0.40587946,-0.08893068,0.79107113,0.25082033,-0.12606958,-0.23167748,-0.90062181,0.23610224,-0.49966604,-0.65029934,0.44628319,0.55091795
9.72000000,-0.15919717,0.67754910,-0.40587946,-0.08893068,0.79107113,0.25082033,-0.12606958,-0.23167748,-0.90062181,0.23610224,-0.49966604,-0.65029934,0.44628319,0.55091795
9.74000000,-0.15919717,0.67754910,-0.40587946,-0.08893068,0.79107113,0.25082033,-0.12606958,-0.23167748,-0.90062181,0.23610224,-0.49966604,-0.65029934,0.44628319,0.55091795
9.76000000,-0.15919717,0.67754910,-0.40587946,-0.08893068,0.79107113,0.25082033,-0.12606958,-0.23167748,-0.90062181,0.23610224,-0.49966604,-0.65029934,0.44628319,0.55091795
9.78000000,-0.15919717,0.67754910,-0.40587946,-0.08893068,0.79107113,0.25082033,-0.12606958,-0.23167748,-0.90062181,0.23610224,-0.49966604,-0.65029934,0.44628319,0.55091795
9.80000000,-0.15919717,0.67754910,-0.40587946,-0.08893068,0.79107113,0.25082033,-0.12606958,-0.23167748,-0.90062181,0.23610224,-0.49966604,-0.65029934,0.44628319,0.55091795
9.82000000,-0.15919717,0.67754910,-0.40587946,-0.08893068,0.79107113,0.25082033,-0.12606958,-0.23167748,-0.90062181,0.23610224,-0.49966604,-0.65029934,0.44628319,0.55091795
9.84000000,-0.15919717,0.67754910,-0.40587946,-0.08893068,0.79107113,0.25082033,-0.12606958,-0.23167748,-0.90062181,0.23610224,-0.49966604,-0.65029934,0.44628319,0.55091795
9.86000000,-0.15919717,0.67754910,-0.40587946,-0.08893068,0.79107113,0.25082033,-0.12606958,-0.23167748,-0.90062181,0.23610224,-0.49966604,-0.65029934,0.44628319,0.55091795
9.88000000,-0.15919717,0.67754910,-0.40587946,-0.08893068,0.79107113,0.25082033,-0.12606958,-0.23167748,-0.90062181,0.23610224,-0.49966604,-0.65029934,0.44628319,0.55091795
9.90000000,-0.15919717,0.67754910,-0.40587946,-0.08893068,0.79107113,0.25082033,-0.12606958,-0.23167748,-0.90062181,0.23610224,-0.49966604,-0.65029934,0.44628319,0.55091795
9.92000000,-0.15919717,0.67754910,-0.40587946,-0.08893068,0.79107113,0.25082033,-0.12606958,-0.23167748,-0.90062181,0.23610224,-0.49966604,-0.65029934,0.44628319,0.55091795
9.94000000,-0.15919717,0.67754910,-0.40587946,-0.08893068,0.79107113,0.25082033,-0.12606958,-0.23167748,-0.90062181,0.23610224,-0.49966604,-0.65029934,0.44628319,0.55091795
9.96000000,-0.15919717,0.67754910,-0.40587946,-0.08893068,0.79107113,0.25082033,-0.12606958,-0.23167748,-0.90062181,0.23610224,-0.49966604,-0.65029934,0.44628319,0.55091795
9.98000000,-0.15919717,0.67754910,-0.40587946,-0.08893068,0.79107113,0.25082033,-0.12606958,-0.23167748,-0.90062181,0.23610224,-0.49966604,-0.65029934,0.44628319,0.55091795
10.00000000,-0.15919287,0.67755008,-0.40587773,-0.08893449,0.79107168,0.25082180,-0.12606788,-0.23168239,-0.90061929,0.23610533,-0.49965944,-0.65029933,0.44628002,0.55091783
10.02000000,-0.15916328,0.67755686,-0.40586578,-0.08896068,0.79107550,0.25083192,-0.12605619,-0.23171616,-0.90060198,0.23612663,-0.49961406,-0.65029929,0.44625822,0.55091702
10.04000000,-0.15908453,0.67757491,-0.40583398,-0.08903041,0.79108566,0.25085885,-0.12602509,-0.23180605,-0.90055590,0.23618330,-0.49949326,-0.65029918,0.44620020,0.55091487
10.06000000,-0.15893425,0.67760935,-0.40577330,-0.08916347,0.79110504,0.25091024,-0.12596574,-0.23197759,-0.90046797,0.23629146,-0.49926275,-0.65029896,0.44608947,0.55091077
10.08000000,-0.15869154,0.67766498,-0.40567530,-0.08937836,0.79113634,0.25099324,-0.12586988,-0.23225462,-0.90032595,0.23646614,-0.49889048,-0.65029862,0.44591065,0.55090414
10.10000000,-0.15833696,0.67774624,-0.40553213,-0.08969230,0.79118207,0.25111450,-0.12572985,-0.23265933,-0.90011849,0.23672133,-0.49834662,-0.65029811,0.44564941,0.55089446
10.12000000,-0.15785248,0.67785727,-0.40533652,-0.09012125,0.79124455,0.25128018,-0.12553851,-0.23321232,-0.89983501,0.23707000,-0.49760351,-0.65029743,0.44529246,0.55088123
10.14000000,-0.15722145,0.67800189,-0.40508173,-0.09067994,0.79132593,0.25149597,-0.12528929,-0.23393258,-0.89946579,0.23752415,-0.49663562,-0.65029653,0.44482753,0.55086401
10.16000000,-0.15642858,0.67818360,-0.40476159,-0.09138194,0.79142818,0.25176711,-0.12497616,-0.23483757,-0.89900188,0.23809477,-0.49541950,-0.65029540,0.44424337,0.55084236
10.18000000,-0.15545990,0.67840561,-0.40437046,-0.09223959,0.79155310,0.25209838,-0.12459359,-0.23594323,-0.89843509,0.23879193,-0.49393370,-0.65029402,0.44352967,0.55081592
10.20000000,-0.15430270,0.67867081,-0.40390322,-0.09326415,0.79170234,0.25249411,-0.12413657,-0.23726406,-0.89775801,0.23962475,-0.49215876,-0.65029238,0.44267708,0.55078432
10.22000000,-0.15294558,0.67898184,-0.40335525,-0.09446573,0.79187736,0.25295821,-0.12360059,-0.23881310,-0.89696394,0.24060146,-0.49007716,-0.65029045,0.44167719,0.55074727
10.24000000,-0.15137831,0.67934103,-0.40272243,-0.09585336,0.79207948,0.25349417,-0.12298162,-0.24060199,-0.89604691,0.24172941,-0.48767325,-0.65028822,0.44052247,0.55070449
10.26000000,-0.14959190,0.67975044,-0.40200113,-0.09743501,0.79230986,0.25410508,-0.12227610,-0.24264101,-0.89500167,0.24301508,-0.48493320,-0.65028568,0.43920629,0.55065572
10.28000000,-0.14757849,0.68021187,-0.40118818,-0.09921764,0.79256952,0.25479361,-0.12148093,-0.24493913,-0.89382361,0.24446411,-0.48184498,-0.65028281,0.43772288,0.55060075
10.30000000,-0.14533138,0.68072687,-0.40028086,-0.10120719,0.79285932,0.25556207,-0.12059347,-0.24750400,-0.89250880,0.24608134,-0.47839830,-0.65027962,0.43606727,0.55053940
10.32000000,-0.14284495,0.68129671,-0.39927691,-0.10340863,0.79317998,0.25641236,-0.11961149,-0.25034203,-0.89105396,0.24787081,-0.47458454,-0.65027608,0.43423534,0.55047152
10.34000000,-0.14011465,0.68192244,-0.39817450,-0.10582599,0.79353209,0.25734605,-0.11853319,-0.25345841,-0.88945644,0.24983578,-0.47039674,-0.65027220,0.43222373,0.55039698
10.36000000,-0.13713699,0.68260486,-0.39697220,-0.10846236,0.79391610,0.25836433,-0.11735720,-0.25685714,-0.88771418,0.25197878,-0.46582950,-0.65026796,0.43002987,0.55031569
10.38000000,-0.13390944,0.68334455,-0.39566901,-0.11131996,0.79433234,0.25946807,-0.11608253,-0.26054108,-0.88582571,0.25430162,-0.46087901,-0.65026337,0.42765191,0.55022758
10.40000000,-0.13043050,0.68414186,-0.39426431,-0.11440016,0.79478100,0.26065778,-0.11470856,-0.26451198,-0.88379015,0.25680539,-0.45554291,-0.65025842,0.42508872,0.55013260
10.42000000,-0.12669957,0.68499692,-0.39275787,-0.11770345,0.79526215,0.26193366,-0.11323508,-0.26877049,-0.88160714,0.25949051,-0.44982030,-0.65025312,0.42233988,0.55003074
10.44000000,-0.12271698,0.68590965,-0.39114982,-0.12122956,0.79577576,0.26329560,-0.11166221,-0.27331625,-0.87927689,0.26235675,-0.44371169,-0.65024745,0.41940562,0.54992202
10.46000000,-0.11848394,0.68687978,-0.38944064,-0.12497742,0.79632167,0.26474319,-0.10999043,-0.27814787,-0.87680010,0.26540324,-0.43721894,-0.65024143,0.41628684,0.54980645
10.48000000,-0.11400251,0.68790684,-0.38763116,-0.12894520,0.79689962,0.26627572,-0.10822055,-0.28326301,-0.87417797,0.26862849,-0.43034519,-0.65023506,0.41298504,0.54968411
10.50000000,-0.10927555,0.68899016,-0.38572256,-0.13313035,0.79750922,0.26789221,-0.10635370,-0.28865839,-0.87141218,0.27203044,-0.42309486,-0.65022833,0.40950236,0.54955506
10.52000000,-0.10430674,0.69012892,-0.38371629,-0.13752965,0.79815002,0.26959142,-0.10439134,-0.29432984,-0.86850488,0.27560646,-0.41547355,-0.65022127,0.40584148,0.54941941
10.54000000,-0.09910048,0.69132210,-0.38161415,-0.14213918,0.79882144,0.27137182,-0.10233519,-0.30027230,-0.86545865,0.27935337,-0.40748804,-0.65021386,0.40200565,0.54927727
10.56000000,-0.09366190,0.69256851,-0.37941822,-0.14695439,0.79952282,0.27323167,-0.10018730,-0.30647993,-0.86227649,0.28326747,-0.39914620,-0.65020613,0.39799866,0.54912880
10.58000000,-0.08799685,0.69386683,-0.37713083,-0.15197012,0.80025341,0.27516897,-0.09794996,-0.31294607,-0.85896181,0.28734456,-0.39045698,-0.65019807,0.39382481,0.54897414
10.60000000,-0.08211180,0.69521557,-0.37475462,-0.15718063,0.80101237,0.27718151,-0.09562574,-0.31966330,-0.85551841,0.29157999,-0.38143033,-0.65018970,0.38948888,0.54881347
10.62000000,-0.07601388,0.69661310,-0.37229245,-0.16257962,0.80179878,0.27926684,-0.09321745,-0.32662352,-0.85195046,0.29596861,-0.37207717,-0.65018103,0.38499610,0.54864700
10.64000000,-0.06971080,0.69805764,-0.36974745,-0.16816025,0.80261165,0.28142233,-0.09072813,-0.33381790,-0.84826246,0.30050489,-0.36240932,-0.65017206,0.38035217,0.54847492
10.66000000,-0.06321084,0.69954731,-0.36712295,-0.17391520,0.80344991,0.28364514,-0.08816106,-0.34123701,-0.84445927,0.30518287,-0.35243950,-0.65016282,0.37556318,0.54829746
10.68000000,-0.05652281,0.70108007,-0.36442252,-0.17983665,0.80431243,0.28593227,-0.08551971,-0.34887078,-0.84054604,0.30999619,-0.34218121,-0.65015330,0.37063563,0.54811488
10.70000000,-0.04965603,0.70265380,-0.36164992,-0.18591637,0.80519800,0.28828053,-0.08280777,-0.35670857,-0.83652823,0.31493816,-0.33164876,-0.65014354,0.36557639,0.54792741
10.72000000,-0.04262030,0.70426626,-0.35880909,-0.19214568,0.80610535,0.29068657,-0.08002910,-0.36473920,-0.83241155,0.32000172,-0.32085715,-0.65013353,0.36039266,0.54773533
10.74000000,-0.03542584,0.70591509,-0.35590417,-0.19851552,0.80703318,0.29314688,-0.07718775,-0.37295102,-0.82820200,0.32517952,-0.30982209,-0.65012330,0.35509198,0.54753892
10.76000000,-0.02808329,0.70759786,-0.35293946,-0.20501648,0.80798011,0.29565784,-0.07428791,-0.38133186,-0.82390580,0.33046390,-0.29855987,-0.65011285,0.34968220,0.54733846
10.78000000,-0.02060366,0.70931205,-0.34991941,-0.21163880,0.80894471,0.29821568,-0.07133393,-0.38986917,-0.81952940,0.33584693,-0.28708741,-0.65010222,0.34417142,0.54713427
10.80000000,-0.01299832,0.71105504,-0.34684859,-0.21837243,0.80992552,0.30081651,-0.06833030,-0.39854996,-0.81507944,0.34132043,-0.27542212,-0.65009140,0.33856802,0.54692664
10.82000000,-0.00527894,0.71282418,-0.34373173,-0.22520702,0.81092105,0.30345633,-0.06528163,-0.40736092,-0.81056276,0.34687601,-0.26358192,-0.65008042,0.33288060,0.54671589
10.84000000,0.00254252,0.71461670,-0.34057365,-0.23213200,0.81192973,0.30613107,-0.06219265,-0.41628839,-0.80598635,0.35250506,-0.25158515,-0.65006929,0.32711798,0.54650236
10.86000000,0.01045385,0.71642983,-0.33737928,-0.23913654,0.81295001,0.30883654,-0.05906818,-0.42531844,-0.80135735,0.35819878,-0.23945053,-0.65005804,0.32128913,0.54628638
10.88000000,0.01844262,0.71826070,-0.33415365,-0.24620965,0.81398027,0.31156849,-0.05591312,-0.43443688,-0.79668305,0.36394824,-0.22719713,-0.65004668,0.31540323,0.54606828
10.90000000,0.02649621,0.72010642,-0.33090184,-0.25334015,0.81501890,0.31432260,-0.05273246,-0.44362932,-0.79197081,0.36974434,-0.21484431,-0.65003522,0.30946958,0.54584841
10.92000000,0.03460185,0.72196408,-0.32762902,-0.26051673,0.81606423,0.31709452,-0.04953125,-0.45288115,-0.78722813,0.37557791,-0.20241165,-0.65002370,0.30349757,0.54562712
10.94000000,0.04274663,0.72383071,-0.32434039,-0.26772797,0.81711462,0.31987982,-0.04631458,-0.46217767,-0.78246253,0.38143965,-0.18991896,-0.65001211,0.29749673,0.54540477
10.96000000,0.05091756,0.72570332,-0.32104120,-0.27496236,0.81816837,0.32267407,-0.04308758,-0.47150403,-0.77768164,0.38732020,-0.17738615,-0.65000049,0.29147662,0.54518170
10.98000000,0.05910158,0.72757894,-0.31773673,-0.28220834,0.81922382,0.32547279,-0.03985541,-0.48084533,-0.77289309,0.39321018,-0.16483327,-0.64998885,0.28544687,0.54495827
11.00000000,0.06728560,0.72945456,-0.31443226,-0.28945432,0.82027926,0.32827151,-0.03662324,-0.49018663,-0.76810455,0.39910016,-0.15228039,-0.64997721,0.27941711,0.54473484
11.02000000,0.07545653,0.73132718,-0.31113308,-0.29668871,0.82133302,0.33106575,-0.03339624,-0.49951300,-0.76332365,0.40498071,-0.13974759,-0.64996559,0.27339700,0.54451177
11.04000000,0.08360131,0.73319381,-0.30784445,-0.30389995,0.82238340,0.33385105,-0.03017957,-0.50880951,-0.75855806,0.41084245,-0.12725489,-0.64995400,0.26739616,0.54428941
11.06000000,0.09170695,0.73505146,-0.30457163,-0.31107653,0.82342874,0.33662297,-0.02697836,-0.51806135,-0.75381538,0.41667602,-0.11482224,-0.64994247,0.26142415,0.54406812
11.08000000,0.09976054,0.73689719,-0.30131982,-0.31820703,0.82446736,0.33937709,-0.02379770,-0.52725378,-0.74910314,0.42247212,-0.10246941,-0.64993102,0.25549050,0.54384826
11.10000000,0.10774931,0.73872806,-0.29809418,-0.32528014,0.82549763,0.34210904,-0.02064264,-0.53637222,-0.74442884,0.42822158,-0.09021601,-0.64991966,0.24960460,0.54363016
11.12000000,0.11566064,0.74054119,-0.29489982,-0.33228468,0.82651790,0.34481451,-0.01751817,-0.54540227,-0.73979984,0.43391530,-0.07808140,-0.64990840,0.24377576,0.54341417
11.14000000,0.12348210,0.74233371,-0.29174174,-0.33920966,0.82752659,0.34748924,-0.01442919,-0.55432975,-0.73522343,0.43954435,-0.06608462,-0.64989728,0.23801313,0.54320064
11.16000000,0.13120148,0.74410284,-0.28862487,-0.34604425,0.82852211,0.35012907,-0.01138052,-0.56314070,-0.73070675,0.44509993,-0.05424442,-0.64988630,0.23232571,0.54298990
11.18000000,0.13880682,0.74584584,-0.28555406,-0.35277788,0.82950293,0.35272989,-0.00837690,-0.57182150,-0.72625679,0.45057343,-0.04257913,-0.64987548,0.22672231,0.54278227
11.20000000,0.14628645,0.74756003,-0.28253400,-0.35940020,0.83046753,0.35528773,-0.00542292,-0.58035880,-0.72188039,0.45595646,-0.03110667,-0.64986485,0.22121153,0.54257807
11.22000000,0.15362900,0.74924280,-0.27956929,-0.36590116,0.83141446,0.35779869,-0.00252307,-0.58873965,-0.71758419,0.46124084,-0.01984446,-0.64985440,0.21580175,0.54237762
11.24000000,0.16082346,0.75089163,-0.27666437,-0.37227100,0.83234228,0.36025901,0.00031828,-0.59695146,-0.71337464,0.46641864,-0.00880939,-0.64984417,0.21050107,0.54218120
11.26000000,0.16785919,0.75250408,-0.27382355,-0.37850031,0.83324964,0.36266505,0.00309695,-0.60498210,-0.70925796,0.47148220,0.00198222,-0.64983416,0.20531734,0.54198912
11.28000000,0.17472597,0.75407782,-0.27105094,-0.38458003,0.83413521,0.36501330,0.00580889,-0.61281989,-0.70524015,0.47642417,0.01251467,-0.64982440,0.20025810,0.54180166
11.30000000,0.18141400,0.75561058,-0.26835051,-0.39050148,0.83499772,0.36730043,0.00845024,-0.62045365,-0.70132692,0.48123749,0.02277295,-0.64981488,0.19533055,0.54161907
11.32000000,0.18791396,0.75710025,-0.26572601,-0.39625643,0.83583598,0.36952325,0.01101731,-0.62787276,-0.69752372,0.48591546,0.03274278,-0.64980564,0.19054156,0.54144162
11.34000000,0.19421704,0.75854479,-0.26318101,-0.40183706,0.83664885,0.37167874,0.01350663,-0.63506715,-0.69383573,0.49045175,0.04241062,-0.64979667,0.18589763,0.54126954
11.36000000,0.20031496,0.75994232,-0.26071885,-0.40723605,0.83743527,0.37376407,0.01591492,-0.64202736,-0.69026778,0.49484037,0.05176379,-0.64978800,0.18140485,0.54110306
11.38000000,0.20620001,0.76129106,-0.25834263,-0.41244656,0.83819423,0.37577660,0.01823914,-0.64874460,-0.68682438,0.49907580,0.06079044,-0.64977963,0.17706892,0.54094240
11.40000000,0.21186506,0.76258938,-0.25605525,-0.41746229,0.83892481,0.37771390,0.02047648,-0.65521073,-0.68350970,0.50315289,0.06947966,-0.64977157,0.17289507,0.54078774
11.42000000,0.21730364,0.76383579,-0.25385931,-0.42227750,0.83962619,0.37957375,0.02262437,-0.66141836,-0.68032754,0.50706699,0.07782149,-0.64976384,0.16888808,0.54063926
11.44000000,0.22250990,0.76502897,-0.25175717,-0.42688703,0.84029761,0.38135416,0.02468051,-0.66736083,-0.67728131,0.51081390,0.08580700,-0.64975643,0.16505226,0.54049713
11.46000000,0.22747871,0.76616772,-0.24975091,-0.43128633,0.84093841,0.38305336,0.02664288,-0.67303227,-0.67437400,0.51438992,0.09342831,-0.64974936,0.16139137,0.54036148
11.48000000,0.23220567,0.76725105,-0.24784230,-0.43547148,0.84154802,0.38466985,0.02850973,-0.67842765,-0.67160822,0.51779187,0.10067865,-0.64974264,0.15790869,0.54023243
11.50000000,0.23668710,0.76827811,-0.24603283,-0.43943926,0.84212596,0.38620239,0.03027961,-0.68354279,-0.66898609,0.52101712,0.10755239,-0.64973627,0.15460690,0.54011008
