gracetata/LocomotionHEC/legged_lab/Reference Data/ArmHack/StandPerturb/TestData/ArmOnly/trajectories/synthesized/synthesized_arm_trajectory_02_seed20260714_minimum_jerk_50hz.csv
time_s,left_shoulder_pitch_joint,left_shoulder_roll_joint,left_shoulder_yaw_joint,left_elbow_joint,left_wrist_roll_joint,left_wrist_pitch_joint,left_wrist_yaw_joint,right_shoulder_pitch_joint,right_shoulder_roll_joint,right_shoulder_yaw_joint,right_elbow_joint,right_wrist_roll_joint,right_wrist_pitch_joint,right_wrist_yaw_joint
0.00000000,0.25855446,0.52635717,-0.16204366,0.19271219,0.41674604,0.20690810,0.02442922,0.26398269,-0.52286355,0.16522315,0.17275746,-0.41806763,0.20736355,-0.02173894
0.02000000,0.25855446,0.52635717,-0.16204366,0.19271219,0.41674604,0.20690810,0.02442922,0.26398269,-0.52286355,0.16522315,0.17275746,-0.41806763,0.20736355,-0.02173894
0.04000000,0.25855446,0.52635717,-0.16204366,0.19271219,0.41674604,0.20690810,0.02442922,0.26398269,-0.52286355,0.16522315,0.17275746,-0.41806763,0.20736355,-0.02173894
0.06000000,0.25855446,0.52635717,-0.16204366,0.19271219,0.41674604,0.20690810,0.02442922,0.26398269,-0.52286355,0.16522315,0.17275746,-0.41806763,0.20736355,-0.02173894
0.08000000,0.25855446,0.52635717,-0.16204366,0.19271219,0.41674604,0.20690810,0.02442922,0.26398269,-0.52286355,0.16522315,0.17275746,-0.41806763,0.20736355,-0.02173894
0.10000000,0.25855446,0.52635717,-0.16204366,0.19271219,0.41674604,0.20690810,0.02442922,0.26398269,-0.52286355,0.16522315,0.17275746,-0.41806763,0.20736355,-0.02173894
0.12000000,0.25855446,0.52635717,-0.16204366,0.19271219,0.41674604,0.20690810,0.02442922,0.26398269,-0.52286355,0.16522315,0.17275746,-0.41806763,0.20736355,-0.02173894
0.14000000,0.25855446,0.52635717,-0.16204366,0.19271219,0.41674604,0.20690810,0.02442922,0.26398269,-0.52286355,0.16522315,0.17275746,-0.41806763,0.20736355,-0.02173894
0.16000000,0.25855446,0.52635717,-0.16204366,0.19271219,0.41674604,0.20690810,0.02442922,0.26398269,-0.52286355,0.16522315,0.17275746,-0.41806763,0.20736355,-0.02173894
0.18000000,0.25855446,0.52635717,-0.16204366,0.19271219,0.41674604,0.20690810,0.02442922,0.26398269,-0.52286355,0.16522315,0.17275746,-0.41806763,0.20736355,-0.02173894
0.20000000,0.25855446,0.52635717,-0.16204366,0.19271219,0.41674604,0.20690810,0.02442922,0.26398269,-0.52286355,0.16522315,0.17275746,-0.41806763,0.20736355,-0.02173894
0.22000000,0.25855446,0.52635717,-0.16204366,0.19271219,0.41674604,0.20690810,0.02442922,0.26398269,-0.52286355,0.16522315,0.17275746,-0.41806763,0.20736355,-0.02173894
0.24000000,0.25855446,0.52635717,-0.16204366,0.19271219,0.41674604,0.20690810,0.02442922,0.26398269,-0.52286355,0.16522315,0.17275746,-0.41806763,0.20736355,-0.02173894
0.26000000,0.25855446,0.52635717,-0.16204366,0.19271219,0.41674604,0.20690810,0.02442922,0.26398269,-0.52286355,0.16522315,0.17275746,-0.41806763,0.20736355,-0.02173894
0.28000000,0.25855446,0.52635717,-0.16204366,0.19271219,0.41674604,0.20690810,0.02442922,0.26398269,-0.52286355,0.16522315,0.17275746,-0.41806763,0.20736355,-0.02173894
0.30000000,0.25855446,0.52635717,-0.16204366,0.19271219,0.41674604,0.20690810,0.02442922,0.26398269,-0.52286355,0.16522315,0.17275746,-0.41806763,0.20736355,-0.02173894
0.32000000,0.25855446,0.52635717,-0.16204366,0.19271219,0.41674604,0.20690810,0.02442922,0.26398269,-0.52286355,0.16522315,0.17275746,-0.41806763,0.20736355,-0.02173894
0.34000000,0.25855446,0.52635717,-0.16204366,0.19271219,0.41674604,0.20690810,0.02442922,0.26398269,-0.52286355,0.16522315,0.17275746,-0.41806763,0.20736355,-0.02173894
0.36000000,0.25855446,0.52635717,-0.16204366,0.19271219,0.41674604,0.20690810,0.02442922,0.26398269,-0.52286355,0.16522315,0.17275746,-0.41806763,0.20736355,-0.02173894
0.38000000,0.25855446,0.52635717,-0.16204366,0.19271219,0.41674604,0.20690810,0.02442922,0.26398269,-0.52286355,0.16522315,0.17275746,-0.41806763,0.20736355,-0.02173894
0.40000000,0.25855446,0.52635717,-0.16204366,0.19271219,0.41674604,0.20690810,0.02442922,0.26398269,-0.52286355,0.16522315,0.17275746,-0.41806763,0.20736355,-0.02173894
0.42000000,0.25855446,0.52635717,-0.16204366,0.19271219,0.41674604,0.20690810,0.02442922,0.26398269,-0.52286355,0.16522315,0.17275746,-0.41806763,0.20736355,-0.02173894
0.44000000,0.25855446,0.52635717,-0.16204366,0.19271219,0.41674604,0.20690810,0.02442922,0.26398269,-0.52286355,0.16522315,0.17275746,-0.41806763,0.20736355,-0.02173894
0.46000000,0.25855446,0.52635717,-0.16204366,0.19271219,0.41674604,0.20690810,0.02442922,0.26398269,-0.52286355,0.16522315,0.17275746,-0.41806763,0.20736355,-0.02173894
0.48000000,0.25855446,0.52635717,-0.16204366,0.19271219,0.41674604,0.20690810,0.02442922,0.26398269,-0.52286355,0.16522315,0.17275746,-0.41806763,0.20736355,-0.02173894
0.50000000,0.25855446,0.52635717,-0.16204366,0.19271219,0.41674604,0.20690810,0.02442922,0.26398269,-0.52286355,0.16522315,0.17275746,-0.41806763,0.20736355,-0.02173894
0.52000000,0.25855446,0.52635717,-0.16204366,0.19271219,0.41674604,0.20690810,0.02442922,0.26398269,-0.52286355,0.16522315,0.17275746,-0.41806763,0.20736355,-0.02173894
0.54000000,0.25855446,0.52635717,-0.16204366,0.19271219,0.41674604,0.20690810,0.02442922,0.26398269,-0.52286355,0.16522315,0.17275746,-0.41806763,0.20736355,-0.02173894
0.56000000,0.25855446,0.52635717,-0.16204366,0.19271219,0.41674604,0.20690810,0.02442922,0.26398269,-0.52286355,0.16522315,0.17275746,-0.41806763,0.20736355,-0.02173894
0.58000000,0.25855446,0.52635717,-0.16204366,0.19271219,0.41674604,0.20690810,0.02442922,0.26398269,-0.52286355,0.16522315,0.17275746,-0.41806763,0.20736355,-0.02173894
0.60000000,0.25855446,0.52635717,-0.16204366,0.19271219,0.41674604,0.20690810,0.02442922,0.26398269,-0.52286355,0.16522315,0.17275746,-0.41806763,0.20736355,-0.02173894
0.62000000,0.25855446,0.52635717,-0.16204366,0.19271219,0.41674604,0.20690810,0.02442922,0.26398269,-0.52286355,0.16522315,0.17275746,-0.41806763,0.20736355,-0.02173894
0.64000000,0.25855446,0.52635717,-0.16204366,0.19271219,0.41674604,0.20690810,0.02442922,0.26398269,-0.52286355,0.16522315,0.17275746,-0.41806763,0.20736355,-0.02173894
0.66000000,0.25855446,0.52635717,-0.16204366,0.19271219,0.41674604,0.20690810,0.02442922,0.26398269,-0.52286355,0.16522315,0.17275746,-0.41806763,0.20736355,-0.02173894
0.68000000,0.25855446,0.52635717,-0.16204366,0.19271219,0.41674604,0.20690810,0.02442922,0.26398269,-0.52286355,0.16522315,0.17275746,-0.41806763,0.20736355,-0.02173894
0.70000000,0.25855446,0.52635717,-0.16204366,0.19271219,0.41674604,0.20690810,0.02442922,0.26398269,-0.52286355,0.16522315,0.17275746,-0.41806763,0.20736355,-0.02173894
0.72000000,0.25855446,0.52635717,-0.16204366,0.19271219,0.41674604,0.20690810,0.02442922,0.26398269,-0.52286355,0.16522315,0.17275746,-0.41806763,0.20736355,-0.02173894
0.74000000,0.25855446,0.52635717,-0.16204366,0.19271219,0.41674604,0.20690810,0.02442922,0.26398269,-0.52286355,0.16522315,0.17275746,-0.41806763,0.20736355,-0.02173894
0.76000000,0.25855446,0.52635717,-0.16204366,0.19271219,0.41674604,0.20690810,0.02442922,0.26398269,-0.52286355,0.16522315,0.17275746,-0.41806763,0.20736355,-0.02173894
0.78000000,0.25855446,0.52635717,-0.16204366,0.19271219,0.41674604,0.20690810,0.02442922,0.26398269,-0.52286355,0.16522315,0.17275746,-0.41806763,0.20736355,-0.02173894
0.80000000,0.25855446,0.52635717,-0.16204366,0.19271219,0.41674604,0.20690810,0.02442922,0.26398269,-0.52286355,0.16522315,0.17275746,-0.41806763,0.20736355,-0.02173894
0.82000000,0.25855446,0.52635717,-0.16204366,0.19271219,0.41674604,0.20690810,0.02442922,0.26398269,-0.52286355,0.16522315,0.17275746,-0.41806763,0.20736355,-0.02173894
0.84000000,0.25855446,0.52635717,-0.16204366,0.19271219,0.41674604,0.20690810,0.02442922,0.26398269,-0.52286355,0.16522315,0.17275746,-0.41806763,0.20736355,-0.02173894
0.86000000,0.25855446,0.52635717,-0.16204366,0.19271219,0.41674604,0.20690810,0.02442922,0.26398269,-0.52286355,0.16522315,0.17275746,-0.41806763,0.20736355,-0.02173894
0.88000000,0.25855446,0.52635717,-0.16204366,0.19271219,0.41674604,0.20690810,0.02442922,0.26398269,-0.52286355,0.16522315,0.17275746,-0.41806763,0.20736355,-0.02173894
0.90000000,0.25855446,0.52635717,-0.16204366,0.19271219,0.41674604,0.20690810,0.02442922,0.26398269,-0.52286355,0.16522315,0.17275746,-0.41806763,0.20736355,-0.02173894
0.92000000,0.25855446,0.52635717,-0.16204366,0.19271219,0.41674604,0.20690810,0.02442922,0.26398269,-0.52286355,0.16522315,0.17275746,-0.41806763,0.20736355,-0.02173894
0.94000000,0.25855446,0.52635717,-0.16204366,0.19271219,0.41674604,0.20690810,0.02442922,0.26398269,-0.52286355,0.16522315,0.17275746,-0.41806763,0.20736355,-0.02173894
0.96000000,0.25855446,0.52635717,-0.16204366,0.19271219,0.41674604,0.20690810,0.02442922,0.26398269,-0.52286355,0.16522315,0.17275746,-0.41806763,0.20736355,-0.02173894
0.98000000,0.25855446,0.52635717,-0.16204366,0.19271219,0.41674604,0.20690810,0.02442922,0.26398269,-0.52286355,0.16522315,0.17275746,-0.41806763,0.20736355,-0.02173894
1.00000000,0.25855446,0.52635717,-0.16204366,0.19271219,0.41674604,0.20690810,0.02442922,0.26398269,-0.52286355,0.16522315,0.17275746,-0.41806763,0.20736355,-0.02173894
1.02000000,0.25855446,0.52635717,-0.16204366,0.19271219,0.41674604,0.20690810,0.02442922,0.26398269,-0.52286355,0.16522315,0.17275746,-0.41806763,0.20736355,-0.02173894
1.04000000,0.25855446,0.52635717,-0.16204366,0.19271219,0.41674604,0.20690810,0.02442922,0.26398269,-0.52286355,0.16522315,0.17275746,-0.41806763,0.20736355,-0.02173894
1.06000000,0.25855446,0.52635717,-0.16204366,0.19271219,0.41674604,0.20690810,0.02442922,0.26398269,-0.52286355,0.16522315,0.17275746,-0.41806763,0.20736355,-0.02173894
1.08000000,0.25855446,0.52635717,-0.16204366,0.19271219,0.41674604,0.20690810,0.02442922,0.26398269,-0.52286355,0.16522315,0.17275746,-0.41806763,0.20736355,-0.02173894
1.10000000,0.25855446,0.52635717,-0.16204366,0.19271219,0.41674604,0.20690810,0.02442922,0.26398269,-0.52286355,0.16522315,0.17275746,-0.41806763,0.20736355,-0.02173894
1.12000000,0.25855446,0.52635717,-0.16204366,0.19271219,0.41674604,0.20690810,0.02442922,0.26398269,-0.52286355,0.16522315,0.17275746,-0.41806763,0.20736355,-0.02173894
1.14000000,0.25855446,0.52635717,-0.16204366,0.19271219,0.41674604,0.20690810,0.02442922,0.26398269,-0.52286355,0.16522315,0.17275746,-0.41806763,0.20736355,-0.02173894
1.16000000,0.25855446,0.52635717,-0.16204366,0.19271219,0.41674604,0.20690810,0.02442922,0.26398269,-0.52286355,0.16522315,0.17275746,-0.41806763,0.20736355,-0.02173894
1.18000000,0.25855446,0.52635717,-0.16204366,0.19271219,0.41674604,0.20690810,0.02442922,0.26398269,-0.52286355,0.16522315,0.17275746,-0.41806763,0.20736355,-0.02173894
1.20000000,0.25855446,0.52635717,-0.16204366,0.19271219,0.41674604,0.20690810,0.02442922,0.26398269,-0.52286355,0.16522315,0.17275746,-0.41806763,0.20736355,-0.02173894
1.22000000,0.25855446,0.52635717,-0.16204366,0.19271219,0.41674604,0.20690810,0.02442922,0.26398269,-0.52286355,0.16522315,0.17275746,-0.41806763,0.20736355,-0.02173894
1.24000000,0.25855446,0.52635717,-0.16204366,0.19271219,0.41674604,0.20690810,0.02442922,0.26398269,-0.52286355,0.16522315,0.17275746,-0.41806763,0.20736355,-0.02173894
1.26000000,0.25855446,0.52635717,-0.16204366,0.19271219,0.41674604,0.20690810,0.02442922,0.26398269,-0.52286355,0.16522315,0.17275746,-0.41806763,0.20736355,-0.02173894
1.28000000,0.25855446,0.52635717,-0.16204366,0.19271219,0.41674604,0.20690810,0.02442922,0.26398269,-0.52286355,0.16522315,0.17275746,-0.41806763,0.20736355,-0.02173894
1.30000000,0.25855446,0.52635717,-0.16204366,0.19271219,0.41674604,0.20690810,0.02442922,0.26398269,-0.52286355,0.16522315,0.17275746,-0.41806763,0.20736355,-0.02173894
1.32000000,0.25855446,0.52635717,-0.16204366,0.19271219,0.41674604,0.20690810,0.02442922,0.26398269,-0.52286355,0.16522315,0.17275746,-0.41806763,0.20736355,-0.02173894
1.34000000,0.25855446,0.52635717,-0.16204366,0.19271219,0.41674604,0.20690810,0.02442922,0.26398269,-0.52286355,0.16522315,0.17275746,-0.41806763,0.20736355,-0.02173894
1.36000000,0.25855446,0.52635717,-0.16204366,0.19271219,0.41674604,0.20690810,0.02442922,0.26398269,-0.52286355,0.16522315,0.17275746,-0.41806763,0.20736355,-0.02173894
1.38000000,0.25855446,0.52635717,-0.16204366,0.19271219,0.41674604,0.20690810,0.02442922,0.26398269,-0.52286355,0.16522315,0.17275746,-0.41806763,0.20736355,-0.02173894
1.40000000,0.25855446,0.52635717,-0.16204366,0.19271219,0.41674604,0.20690810,0.02442922,0.26398269,-0.52286355,0.16522315,0.17275746,-0.41806763,0.20736355,-0.02173894
1.42000000,0.25855446,0.52635717,-0.16204366,0.19271219,0.41674604,0.20690810,0.02442922,0.26398269,-0.52286355,0.16522315,0.17275746,-0.41806763,0.20736355,-0.02173894
1.44000000,0.25855446,0.52635717,-0.16204366,0.19271219,0.41674604,0.20690810,0.02442922,0.26398269,-0.52286355,0.16522315,0.17275746,-0.41806763,0.20736355,-0.02173894
1.46000000,0.25855446,0.52635717,-0.16204366,0.19271219,0.41674604,0.20690810,0.02442922,0.26398269,-0.52286355,0.16522315,0.17275746,-0.41806763,0.20736355,-0.02173894
1.48000000,0.25855446,0.52635717,-0.16204366,0.19271219,0.41674604,0.20690810,0.02442922,0.26398269,-0.52286355,0.16522315,0.17275746,-0.41806763,0.20736355,-0.02173894
1.50000000,0.25855446,0.52635717,-0.16204366,0.19271219,0.41674604,0.20690810,0.02442922,0.26398269,-0.52286355,0.16522315,0.17275746,-0.41806763,0.20736355,-0.02173894
1.52000000,0.25855446,0.52635717,-0.16204366,0.19271219,0.41674604,0.20690810,0.02442922,0.26398269,-0.52286355,0.16522315,0.17275746,-0.41806763,0.20736355,-0.02173894
1.54000000,0.25855446,0.52635717,-0.16204366,0.19271219,0.41674604,0.20690810,0.02442922,0.26398269,-0.52286355,0.16522315,0.17275746,-0.41806763,0.20736355,-0.02173894
1.56000000,0.25855446,0.52635717,-0.16204366,0.19271219,0.41674604,0.20690810,0.02442922,0.26398269,-0.52286355,0.16522315,0.17275746,-0.41806763,0.20736355,-0.02173894
1.58000000,0.25855446,0.52635717,-0.16204366,0.19271219,0.41674604,0.20690810,0.02442922,0.26398269,-0.52286355,0.16522315,0.17275746,-0.41806763,0.20736355,-0.02173894
1.60000000,0.25855446,0.52635717,-0.16204366,0.19271219,0.41674604,0.20690810,0.02442922,0.26398269,-0.52286355,0.16522315,0.17275746,-0.41806763,0.20736355,-0.02173894
1.62000000,0.25855446,0.52635717,-0.16204366,0.19271219,0.41674604,0.20690810,0.02442922,0.26398269,-0.52286355,0.16522315,0.17275746,-0.41806763,0.20736355,-0.02173894
1.64000000,0.25855446,0.52635717,-0.16204366,0.19271219,0.41674604,0.20690810,0.02442922,0.26398269,-0.52286355,0.16522315,0.17275746,-0.41806763,0.20736355,-0.02173894
1.66000000,0.25855446,0.52635717,-0.16204366,0.19271219,0.41674604,0.20690810,0.02442922,0.26398269,-0.52286355,0.16522315,0.17275746,-0.41806763,0.20736355,-0.02173894
1.68000000,0.25855446,0.52635717,-0.16204366,0.19271219,0.41674604,0.20690810,0.02442922,0.26398269,-0.52286355,0.16522315,0.17275746,-0.41806763,0.20736355,-0.02173894
1.70000000,0.25855446,0.52635717,-0.16204366,0.19271219,0.41674604,0.20690810,0.02442922,0.26398269,-0.52286355,0.16522315,0.17275746,-0.41806763,0.20736355,-0.02173894
1.72000000,0.25855446,0.52635717,-0.16204366,0.19271219,0.41674604,0.20690810,0.02442922,0.26398269,-0.52286355,0.16522315,0.17275746,-0.41806763,0.20736355,-0.02173894
1.74000000,0.25855446,0.52635717,-0.16204366,0.19271219,0.41674604,0.20690810,0.02442922,0.26398269,-0.52286355,0.16522315,0.17275746,-0.41806763,0.20736355,-0.02173894
1.76000000,0.25855446,0.52635717,-0.16204366,0.19271219,0.41674604,0.20690810,0.02442922,0.26398269,-0.52286355,0.16522315,0.17275746,-0.41806763,0.20736355,-0.02173894
1.78000000,0.25855446,0.52635717,-0.16204366,0.19271219,0.41674604,0.20690810,0.02442922,0.26398269,-0.52286355,0.16522315,0.17275746,-0.41806763,0.20736355,-0.02173894
1.80000000,0.25855446,0.52635717,-0.16204366,0.19271219,0.41674604,0.20690810,0.02442922,0.26398269,-0.52286355,0.16522315,0.17275746,-0.41806763,0.20736355,-0.02173894
1.82000000,0.25855446,0.52635717,-0.16204366,0.19271219,0.41674604,0.20690810,0.02442922,0.26398269,-0.52286355,0.16522315,0.17275746,-0.41806763,0.20736355,-0.02173894
1.84000000,0.25855446,0.52635717,-0.16204366,0.19271219,0.41674604,0.20690810,0.02442922,0.26398269,-0.52286355,0.16522315,0.17275746,-0.41806763,0.20736355,-0.02173894
1.86000000,0.25855446,0.52635717,-0.16204366,0.19271219,0.41674604,0.20690810,0.02442922,0.26398269,-0.52286355,0.16522315,0.17275746,-0.41806763,0.20736355,-0.02173894
1.88000000,0.25855446,0.52635717,-0.16204366,0.19271219,0.41674604,0.20690810,0.02442922,0.26398269,-0.52286355,0.16522315,0.17275746,-0.41806763,0.20736355,-0.02173894
1.90000000,0.25855446,0.52635717,-0.16204366,0.19271219,0.41674604,0.20690810,0.02442922,0.26398269,-0.52286355,0.16522315,0.17275746,-0.41806763,0.20736355,-0.02173894
1.92000000,0.25855446,0.52635717,-0.16204366,0.19271219,0.41674604,0.20690810,0.02442922,0.26398269,-0.52286355,0.16522315,0.17275746,-0.41806763,0.20736355,-0.02173894
1.94000000,0.25855446,0.52635717,-0.16204366,0.19271219,0.41674604,0.20690810,0.02442922,0.26398269,-0.52286355,0.16522315,0.17275746,-0.41806763,0.20736355,-0.02173894
1.96000000,0.25855446,0.52635717,-0.16204366,0.19271219,0.41674604,0.20690810,0.02442922,0.26398269,-0.52286355,0.16522315,0.17275746,-0.41806763,0.20736355,-0.02173894
1.98000000,0.25855446,0.52635717,-0.16204366,0.19271219,0.41674604,0.20690810,0.02442922,0.26398269,-0.52286355,0.16522315,0.17275746,-0.41806763,0.20736355,-0.02173894
2.00000000,0.25855446,0.52635717,-0.16204366,0.19271219,0.41674604,0.20690810,0.02442922,0.26398269,-0.52286355,0.16522315,0.17275746,-0.41806763,0.20736355,-0.02173894
2.02000000,0.25855387,0.52635723,-0.16204392,0.19271221,0.41674620,0.20690803,0.02442893,0.26398270,-0.52286371,0.16522319,0.17275705,-0.41806790,0.20736367,-0.02173895
2.04000000,0.25854975,0.52635765,-0.16204572,0.19271235,0.41674733,0.20690752,0.02442686,0.26398276,-0.52286484,0.16522348,0.17275418,-0.41806980,0.20736453,-0.02173906
2.06000000,0.25853865,0.52635878,-0.16205056,0.19271273,0.41675036,0.20690614,0.02442129,0.26398295,-0.52286788,0.16522424,0.17274645,-0.41807492,0.20736683,-0.02173936
2.08000000,0.25851721,0.52636096,-0.16205991,0.19271346,0.41675621,0.20690349,0.02441053,0.26398330,-0.52287376,0.16522573,0.17273152,-0.41808482,0.20737127,-0.02173993
2.10000000,0.25848214,0.52636452,-0.16207520,0.19271466,0.41676578,0.20689914,0.02439294,0.26398387,-0.52288338,0.16522816,0.17270710,-0.41810100,0.20737855,-0.02174087
2.12000000,0.25843025,0.52636980,-0.16209782,0.19271644,0.41677994,0.20689272,0.02436691,0.26398471,-0.52289761,0.16523175,0.17267097,-0.41812494,0.20738931,-0.02174226
2.14000000,0.25835842,0.52637711,-0.16212914,0.19271890,0.41679955,0.20688382,0.02433087,0.26398588,-0.52291730,0.16523673,0.17262095,-0.41815809,0.20740421,-0.02174418
2.16000000,0.25826361,0.52638675,-0.16217047,0.19272214,0.41682542,0.20687208,0.02428331,0.26398743,-0.52294330,0.16524330,0.17255494,-0.41820183,0.20742387,-0.02174671
2.18000000,0.25814288,0.52639903,-0.16222311,0.19272628,0.41685837,0.20685713,0.02422274,0.26398940,-0.52297641,0.16525166,0.17247087,-0.41825754,0.20744891,-0.02174994
2.20000000,0.25799335,0.52641424,-0.16228830,0.19273139,0.41689919,0.20683861,0.02414772,0.26399184,-0.52301741,0.16526202,0.17236674,-0.41832654,0.20747993,-0.02175394
2.22000000,0.25781222,0.52643266,-0.16236727,0.19273759,0.41694862,0.20681618,0.02405685,0.26399479,-0.52306708,0.16527457,0.17224062,-0.41841012,0.20751750,-0.02175879
2.24000000,0.25759679,0.52645458,-0.16246119,0.19274497,0.41700742,0.20678950,0.02394877,0.26399830,-0.52312616,0.16528950,0.17209061,-0.41850953,0.20756218,-0.02176455
2.26000000,0.25734441,0.52648025,-0.16257122,0.19275361,0.41707630,0.20675824,0.02382215,0.26400241,-0.52319536,0.16530698,0.17191487,-0.41862598,0.20761452,-0.02177130
2.28000000,0.25705253,0.52650993,-0.16269848,0.19276360,0.41715597,0.20672209,0.02367572,0.26400717,-0.52327540,0.16532721,0.17171163,-0.41876067,0.20767506,-0.02177910
2.30000000,0.25671867,0.52654389,-0.16284404,0.19277503,0.41724709,0.20668074,0.02350822,0.26401262,-0.52336695,0.16535034,0.17147915,-0.41891472,0.20774431,-0.02178803
2.32000000,0.25634041,0.52658237,-0.16300895,0.19278798,0.41735033,0.20663390,0.02331845,0.26401878,-0.52347068,0.16537654,0.17121576,-0.41908926,0.20782276,-0.02179814
2.34000000,0.25591544,0.52662559,-0.16319423,0.19280252,0.41746632,0.20658127,0.02310525,0.26402571,-0.52358721,0.16540599,0.17091984,-0.41928535,0.20791090,-0.02180951
2.36000000,0.25544150,0.52667380,-0.16340086,0.19281875,0.41759567,0.20652257,0.02286747,0.26403344,-0.52371717,0.16543882,0.17058982,-0.41950405,0.20800920,-0.02182218
2.38000000,0.25491640,0.52672721,-0.16362979,0.19283672,0.41773899,0.20645754,0.02260404,0.26404200,-0.52386116,0.16547520,0.17022418,-0.41974634,0.20811811,-0.02183623
2.40000000,0.25433805,0.52678603,-0.16388194,0.19285652,0.41789684,0.20638592,0.02231388,0.26405142,-0.52401976,0.16551527,0.16982145,-0.42001322,0.20823807,-0.02185169
2.42000000,0.25370440,0.52685048,-0.16415820,0.19287821,0.41806979,0.20630744,0.02199598,0.26406175,-0.52419352,0.16555917,0.16938023,-0.42030560,0.20836950,-0.02186864
2.44000000,0.25301349,0.52692076,-0.16445943,0.19290186,0.41825836,0.20622188,0.02164936,0.26407302,-0.52438298,0.16560704,0.16889913,-0.42062441,0.20851280,-0.02188711
2.46000000,0.25226343,0.52699705,-0.16478644,0.19292753,0.41846308,0.20612899,0.02127306,0.26408525,-0.52458865,0.16565900,0.16837684,-0.42097051,0.20866836,-0.02190717
2.48000000,0.25145241,0.52707954,-0.16514003,0.19295530,0.41868443,0.20602854,0.02086618,0.26409847,-0.52481105,0.16571519,0.16781211,-0.42134474,0.20883658,-0.02192886
2.50000000,0.25057867,0.52716841,-0.16552096,0.19298520,0.41892291,0.20592034,0.02042783,0.26411271,-0.52505064,0.16577573,0.16720370,-0.42174791,0.20901780,-0.02195222
2.52000000,0.24964054,0.52726383,-0.16592997,0.19301732,0.41917896,0.20580415,0.01995718,0.26412800,-0.52530790,0.16584072,0.16655045,-0.42218080,0.20921237,-0.02197731
2.54000000,0.24863640,0.52736597,-0.16636776,0.19305169,0.41945302,0.20567979,0.01945341,0.26414437,-0.52558325,0.16591029,0.16585124,-0.42264414,0.20942064,-0.02200416
2.56000000,0.24756470,0.52747497,-0.16683499,0.19308838,0.41974552,0.20554707,0.01891575,0.26416184,-0.52587713,0.16598454,0.16510498,-0.42313865,0.20964292,-0.02203282
2.58000000,0.24642398,0.52759100,-0.16733233,0.19312742,0.42005687,0.20540580,0.01834345,0.26418044,-0.52618993,0.16606358,0.16431067,-0.42366502,0.20987952,-0.02206333
2.60000000,0.24521282,0.52771419,-0.16786037,0.19316888,0.42038743,0.20525580,0.01773582,0.26420019,-0.52652205,0.16614749,0.16346730,-0.42422389,0.21013072,-0.02209572
2.62000000,0.24392987,0.52784468,-0.16841971,0.19321280,0.42073759,0.20509691,0.01709218,0.26422110,-0.52687386,0.16623637,0.16257395,-0.42481588,0.21039682,-0.02213003
2.64000000,0.24257387,0.52798261,-0.16901090,0.19325922,0.42110769,0.20492898,0.01641188,0.26424321,-0.52724570,0.16633032,0.16162973,-0.42544158,0.21067807,-0.02216629
2.66000000,0.24114359,0.52812809,-0.16963448,0.19330818,0.42149807,0.20475185,0.01569432,0.26426652,-0.52763791,0.16642941,0.16063378,-0.42610156,0.21097472,-0.02220454
2.68000000,0.23963788,0.52828124,-0.17029094,0.19335972,0.42190903,0.20456537,0.01493892,0.26429107,-0.52805080,0.16653373,0.15958532,-0.42679634,0.21128702,-0.02224480
2.70000000,0.23805567,0.52844217,-0.17098075,0.19341388,0.42234087,0.20436942,0.01414514,0.26431686,-0.52848467,0.16664335,0.15848358,-0.42752643,0.21161518,-0.02228711
2.72000000,0.23639592,0.52861099,-0.17170437,0.19347069,0.42279387,0.20416387,0.01331245,0.26434392,-0.52893980,0.16675834,0.15732785,-0.42829229,0.21195943,-0.02233150
2.74000000,0.23465767,0.52878779,-0.17246222,0.19353019,0.42326830,0.20394860,0.01244039,0.26437226,-0.52941645,0.16687877,0.15611746,-0.42909437,0.21231996,-0.02237798
2.76000000,0.23284002,0.52897267,-0.17325468,0.19359241,0.42376440,0.20372349,0.01152849,0.26440189,-0.52991489,0.16700470,0.15485178,-0.42993309,0.21269695,-0.02242659
2.78000000,0.23094213,0.52916571,-0.17408212,0.19365738,0.42428239,0.20348845,0.01057633,0.26443283,-0.53043532,0.16713619,0.15353022,-0.43080884,0.21309059,-0.02247734
2.80000000,0.22896322,0.52936699,-0.17494489,0.19372512,0.42482251,0.20324337,0.00958353,0.26446509,-0.53097797,0.16727329,0.15215225,-0.43172197,0.21350104,-0.02253026
2.82000000,0.22690257,0.52957659,-0.17584330,0.19379566,0.42538493,0.20298816,0.00854971,0.26449868,-0.53154304,0.16741606,0.15071736,-0.43267282,0.21392843,-0.02258537
2.84000000,0.22475951,0.52979457,-0.17677763,0.19386902,0.42596985,0.20272276,0.00747456,0.26453362,-0.53213070,0.16756454,0.14922509,-0.43366170,0.21437292,-0.02264268
2.86000000,0.22253344,0.53002099,-0.17774816,0.19394522,0.42657742,0.20244707,0.00635775,0.26456991,-0.53274113,0.16771876,0.14767501,-0.43468888,0.21483463,-0.02270221
2.88000000,0.22022380,0.53025591,-0.17875511,0.19402428,0.42720780,0.20216103,0.00519903,0.26460756,-0.53337447,0.16787878,0.14606675,-0.43575462,0.21531367,-0.02276397
2.90000000,0.21783011,0.53049938,-0.17979872,0.19410622,0.42786112,0.20186458,0.00399813,0.26464658,-0.53403086,0.16804462,0.14439995,-0.43685915,0.21581014,-0.02282798
2.92000000,0.21535193,0.53075144,-0.18087916,0.19419105,0.42853750,0.20155767,0.00275485,0.26468698,-0.53471042,0.16821632,0.14267433,-0.43800266,0.21632414,-0.02289425
2.94000000,0.21278887,0.53101214,-0.18199660,0.19427878,0.42923704,0.20124025,0.00146898,0.26472877,-0.53541325,0.16839389,0.14088960,-0.43918533,0.21685574,-0.02296280
2.96000000,0.21014062,0.53128150,-0.18315119,0.19436943,0.42995984,0.20091228,0.00014037,0.26477194,-0.53613945,0.16857737,0.13904554,-0.44040732,0.21740501,-0.02303362
2.98000000,0.20740688,0.53155956,-0.18434305,0.19446301,0.43070597,0.20057372,-0.00123112,0.26481650,-0.53688909,0.16876677,0.13714197,-0.44166876,0.21797201,-0.02310672
3.00000000,0.20458745,0.53184633,-0.18557227,0.19455952,0.43147549,0.20022454,-0.00264561,0.26486247,-0.53766222,0.16896210,0.13517872,-0.44296973,0.21855679,-0.02318212
3.02000000,0.20168216,0.53214184,-0.18683892,0.19465897,0.43226845,0.19986474,-0.00410317,0.26490983,-0.53845890,0.16916339,0.13315568,-0.44431033,0.21915937,-0.02325981
3.04000000,0.19869088,0.53244609,-0.18814307,0.19476137,0.43308487,0.19949428,-0.00560387,0.26495859,-0.53927916,0.16937063,0.13107277,-0.44569060,0.21977979,-0.02333980
3.06000000,0.19561355,0.53275910,-0.18948472,0.19486671,0.43392478,0.19911317,-0.00714775,0.26500876,-0.54012302,0.16958383,0.12892994,-0.44711058,0.22041806,-0.02342210
3.08000000,0.19245015,0.53308086,-0.19086390,0.19497499,0.43478818,0.19872140,-0.00873480,0.26506033,-0.54099048,0.16980300,0.12672718,-0.44857027,0.22107417,-0.02350669
3.10000000,0.18920073,0.53341137,-0.19228059,0.19508622,0.43567506,0.19831897,-0.01036501,0.26511330,-0.54188153,0.17002813,0.12446451,-0.45006966,0.22174813,-0.02359359
3.12000000,0.18586534,0.53375062,-0.19373476,0.19520040,0.43658540,0.19790590,-0.01203835,0.26516768,-0.54279614,0.17025921,0.12214199,-0.45160871,0.22243992,-0.02368278
3.14000000,0.18244414,0.53409860,-0.19522634,0.19531751,0.43751917,0.19748220,-0.01375474,0.26522345,-0.54373430,0.17049624,0.11975971,-0.45318736,0.22314951,-0.02377427
3.16000000,0.17893729,0.53445530,-0.19675526,0.19543755,0.43847631,0.19704790,-0.01551410,0.26528062,-0.54469593,0.17073920,0.11731779,-0.45480554,0.22387686,-0.02386805
3.18000000,0.17534502,0.53482068,-0.19832142,0.19556052,0.43945676,0.19660301,-0.01731631,0.26533918,-0.54568100,0.17098808,0.11481639,-0.45646312,0.22462193,-0.02396412
3.20000000,0.17166760,0.53519472,-0.19992471,0.19568640,0.44046045,0.19614758,-0.01916124,0.26539913,-0.54668941,0.17124286,0.11225570,-0.45816000,0.22538466,-0.02406246
3.22000000,0.16790534,0.53557739,-0.20156498,0.19581518,0.44148730,0.19568164,-0.02104874,0.26546046,-0.54772108,0.17150352,0.10963594,-0.45989603,0.22616499,-0.02416307
3.24000000,0.16405861,0.53596866,-0.20324208,0.19594686,0.44253721,0.19520524,-0.02297861,0.26552317,-0.54877592,0.17177003,0.10695735,-0.46167104,0.22696283,-0.02426594
3.26000000,0.16012781,0.53636847,-0.20495584,0.19608141,0.44361006,0.19471843,-0.02495067,0.26558725,-0.54985382,0.17204237,0.10422022,-0.46348483,0.22777812,-0.02437105
3.28000000,0.15611338,0.53677680,-0.20670606,0.19621883,0.44470574,0.19422126,-0.02696468,0.26565270,-0.55095464,0.17232049,0.10142486,-0.46533722,0.22861074,-0.02447841
3.30000000,0.15201581,0.53719357,-0.20849252,0.19635909,0.44582410,0.19371380,-0.02902039,0.26571950,-0.55207826,0.17260438,0.09857161,-0.46722797,0.22946062,-0.02458798
3.32000000,0.14783564,0.53761875,-0.21031500,0.19650219,0.44696502,0.19319611,-0.03111755,0.26578764,-0.55322454,0.17289399,0.09566084,-0.46915683,0.23032762,-0.02469977
3.34000000,0.14357344,0.53805227,-0.21217324,0.19664808,0.44812832,0.19266825,-0.03325587,0.26585713,-0.55439331,0.17318929,0.09269295,-0.47112355,0.23121164,-0.02481375
3.36000000,0.13922982,0.53849408,-0.21406697,0.19679677,0.44931384,0.19213032,-0.03543503,0.26592794,-0.55558440,0.17349022,0.08966837,-0.47312783,0.23211254,-0.02492990
3.38000000,0.13480544,0.53894410,-0.21599592,0.19694822,0.45052141,0.19158238,-0.03765470,0.26600006,-0.55679764,0.17379675,0.08658755,-0.47516938,0.23303020,-0.02504822
3.40000000,0.13030099,0.53940226,-0.21795978,0.19710241,0.45175083,0.19102452,-0.03991455,0.26607350,-0.55803284,0.17410883,0.08345097,-0.47724788,0.23396446,-0.02516868
3.42000000,0.12571719,0.53986849,-0.21995822,0.19725932,0.45300190,0.19045684,-0.04221421,0.26614822,-0.55928979,0.17442641,0.08025914,-0.47936299,0.23491518,-0.02529126
3.44000000,0.12105483,0.54034272,-0.22199093,0.19741891,0.45427442,0.18987943,-0.04455328,0.26622423,-0.56056829,0.17474943,0.07701261,-0.48151436,0.23588220,-0.02541594
3.46000000,0.11631470,0.54082485,-0.22405754,0.19758117,0.45556817,0.18929239,-0.04693137,0.26630150,-0.56186812,0.17507783,0.07371192,-0.48370161,0.23686535,-0.02554270
3.48000000,0.11149764,0.54131481,-0.22615768,0.19774607,0.45688291,0.18869582,-0.04934805,0.26638003,-0.56318904,0.17541157,0.07035767,-0.48592435,0.23786445,-0.02567152
3.50000000,0.10660453,0.54181251,-0.22829099,0.19791356,0.45821840,0.18808983,-0.05180288,0.26645980,-0.56453081,0.17575058,0.06695046,-0.48818218,0.23887932,-0.02580237
3.52000000,0.10163630,0.54231784,-0.23045704,0.19808363,0.45957441,0.18747454,-0.05429541,0.26654079,-0.56589319,0.17609479,0.06349094,-0.49047469,0.23990978,-0.02593523
3.54000000,0.09659387,0.54283072,-0.23265545,0.19825623,0.46095066,0.18685006,-0.05682515,0.26662300,-0.56727591,0.17644414,0.05997976,-0.49280142,0.24095562,-0.02607007
3.56000000,0.09147825,0.54335105,-0.23488576,0.19843135,0.46234689,0.18621651,-0.05939162,0.26670639,-0.56867870,0.17679856,0.05641760,-0.49516194,0.24201665,-0.02620687
3.58000000,0.08629043,0.54387872,-0.23714756,0.19860893,0.46376282,0.18557403,-0.06199431,0.26679096,-0.57010129,0.17715798,0.05280518,-0.49755576,0.24309265,-0.02634560
3.60000000,0.08103146,0.54441363,-0.23944037,0.19878895,0.46519818,0.18492273,-0.06463270,0.26687670,-0.57154339,0.17752234,0.04914321,-0.49998242,0.24418341,-0.02648624
3.62000000,0.07570243,0.54495566,-0.24176373,0.19897137,0.46665265,0.18426275,-0.06730623,0.26696357,-0.57300470,0.17789154,0.04543246,-0.50244141,0.24528869,-0.02662875
3.64000000,0.07030443,0.54550471,-0.24411715,0.19915614,0.46812595,0.18359424,-0.07001436,0.26705157,-0.57448492,0.17826553,0.04167368,-0.50493221,0.24640829,-0.02677310
3.66000000,0.06483862,0.54606066,-0.24650014,0.19934324,0.46961776,0.18291732,-0.07275652,0.26714067,-0.57598374,0.17864421,0.03786768,-0.50745431,0.24754194,-0.02691927
3.68000000,0.05930616,0.54662338,-0.24891219,0.19953262,0.47112776,0.18223215,-0.07553211,0.26723087,-0.57750083,0.17902751,0.03401527,-0.51000717,0.24868943,-0.02706722
3.70000000,0.05370824,0.54719277,-0.25135278,0.19972425,0.47265562,0.18153888,-0.07834054,0.26732212,-0.57903588,0.17941535,0.03011729,-0.51259023,0.24985048,-0.02721691
3.72000000,0.04804610,0.54776868,-0.25382137,0.19991807,0.47420102,0.18083765,-0.08118120,0.26741443,-0.58058854,0.17980763,0.02617458,-0.51520292,0.25102486,-0.02736833
3.74000000,0.04232098,0.54835100,-0.25631741,0.20011404,0.47576360,0.18012862,-0.08405345,0.26750776,-0.58215846,0.18020428,0.02218801,-0.51784467,0.25221231,-0.02752143
3.76000000,0.03653416,0.54893960,-0.25884036,0.20031213,0.47734302,0.17941195,-0.08695665,0.26760210,-0.58374531,0.18060521,0.01815849,-0.52051490,0.25341254,-0.02767618
3.78000000,0.03068695,0.54953434,-0.26138963,0.20051228,0.47893892,0.17868780,-0.08989015,0.26769742,-0.58534871,0.18101031,0.01408692,-0.52321299,0.25462531,-0.02783255
3.80000000,0.02478069,0.55013509,-0.26396465,0.20071446,0.48055095,0.17795634,-0.09285327,0.26779371,-0.58696831,0.18141951,0.00997422,-0.52593833,0.25585032,-0.02799049
3.82000000,0.01881672,0.55074170,-0.26656483,0.20091861,0.48217872,0.17721773,-0.09584535,0.26789093,-0.58860373,0.18183271,0.00582134,-0.52869029,0.25708730,-0.02814998
3.84000000,0.01279643,0.55135405,-0.26918956,0.20112469,0.48382186,0.17647215,-0.09886568,0.26798907,-0.59025460,0.18224981,0.00162924,-0.53146825,0.25833596,-0.02831097
3.86000000,0.00672122,0.55197198,-0.27183824,0.20133265,0.48548000,0.17571976,-0.10191357,0.26808811,-0.59192052,0.18267071,-0.00260110,-0.53427154,0.25959601,-0.02847344
3.88000000,0.00059251,0.55259535,-0.27451024,0.20154244,0.48715273,0.17496075,-0.10498829,0.26818802,-0.59360112,0.18309532,-0.00686869,-0.53709952,0.26086716,-0.02863733
3.90000000,-0.00558824,0.55322401,-0.27720493,0.20175401,0.48883967,0.17419530,-0.10808913,0.26828878,-0.59529599,0.18352354,-0.01117252,-0.53995152,0.26214910,-0.02880262
3.92000000,-0.01181956,0.55385782,-0.27992167,0.20196732,0.49054041,0.17342358,-0.11121534,0.26839037,-0.59700472,0.18395526,-0.01551156,-0.54282685,0.26344154,-0.02896925
3.94000000,-0.01809997,0.55449662,-0.28265981,0.20218230,0.49225456,0.17264578,-0.11436617,0.26849275,-0.59872692,0.18439038,-0.01988479,-0.54572483,0.26474415,-0.02913720
3.96000000,-0.02442796,0.55514026,-0.28541870,0.20239891,0.49398168,0.17186209,-0.11754087,0.26859591,-0.60046216,0.18482880,-0.02429114,-0.54864477,0.26605663,-0.02930643
3.98000000,-0.03080199,0.55578859,-0.28819766,0.20261710,0.49572137,0.17107269,-0.12073867,0.26869982,-0.60221003,0.18527040,-0.02872956,-0.55158595,0.26737866,-0.02947688
4.00000000,-0.03722053,0.55644144,-0.29099602,0.20283681,0.49747321,0.17027779,-0.12395880,0.26880446,-0.60397010,0.18571509,-0.03319897,-0.55454767,0.26870992,-0.02964852
4.02000000,-0.04368199,0.55709866,-0.29381310,0.20305800,0.49923677,0.16947757,-0.12720047,0.26890979,-0.60574195,0.18616276,-0.03769827,-0.55752920,0.27005009,-0.02982131
4.04000000,-0.05018481,0.55776008,-0.29664820,0.20328059,0.50101161,0.16867222,-0.13046288,0.26901580,-0.60752513,0.18661329,-0.04222636,-0.56052980,0.27139883,-0.02999521
4.06000000,-0.05672738,0.55842555,-0.29950064,0.20350455,0.50279730,0.16786196,-0.13374524,0.26912246,-0.60931921,0.18706657,-0.04678214,-0.56354875,0.27275582,-0.03017017
4.08000000,-0.06330808,0.55909489,-0.30236970,0.20372981,0.50459340,0.16704697,-0.13704673,0.26922974,-0.61112376,0.18752250,-0.05136447,-0.56658530,0.27412072,-0.03034615
4.10000000,-0.06992530,0.55976795,-0.30525468,0.20395633,0.50639947,0.16622746,-0.14036653,0.26933762,-0.61293831,0.18798095,-0.05597222,-0.56963870,0.27549319,-0.03052311
4.12000000,-0.07657737,0.56044455,-0.30815486,0.20418403,0.50821505,0.16540363,-0.14370383,0.26944606,-0.61476242,0.18844182,-0.06060424,-0.57270818,0.27687289,-0.03070100
4.14000000,-0.08326265,0.56112454,-0.31106952,0.20441287,0.51003969,0.16457569,-0.14705778,0.26955505,-0.61659564,0.18890499,-0.06525939,-0.57579298,0.27825947,-0.03087978
4.16000000,-0.08997946,0.56180773,-0.31399792,0.20464280,0.51187294,0.16374385,-0.15042755,0.26966454,-0.61843750,0.18937035,-0.06993650,-0.57889233,0.27965260,-0.03105940
4.18000000,-0.09672612,0.56249395,-0.31693934,0.20487374,0.51371434,0.16290831,-0.15381230,0.26977453,-0.62028755,0.18983777,-0.07463438,-0.58200545,0.28105192,-0.03123982
4.20000000,-0.10350093,0.56318304,-0.31989303,0.20510565,0.51556342,0.16206928,-0.15721117,0.26988497,-0.62214532,0.19030715,-0.07935188,-0.58513157,0.28245707,-0.03142099
4.22000000,-0.11030219,0.56387482,-0.32285826,0.20533846,0.51741971,0.16122698,-0.16062331,0.26999585,-0.62401034,0.19077835,-0.08408779,-0.58826989,0.28386772,-0.03160287
4.24000000,-0.11712818,0.56456911,-0.32583426,0.20557212,0.51928276,0.16038161,-0.16404786,0.27010713,-0.62588215,0.19125127,-0.08884092,-0.59141962,0.28528349,-0.03178541
4.26000000,-0.12397718,0.56526575,-0.32882029,0.20580657,0.52115209,0.15953339,-0.16748395,0.27021878,-0.62776026,0.19172579,-0.09361006,-0.59457996,0.28670403,-0.03196856
4.28000000,-0.13084744,0.56596455,-0.33181560,0.20604174,0.52302722,0.15868254,-0.17093070,0.27033078,-0.62964420,0.19220177,-0.09839402,-0.59775012,0.28812898,-0.03215228
4.30000000,-0.13773723,0.56666533,-0.33481942,0.20627759,0.52490768,0.15782928,-0.17438726,0.27044310,-0.63153350,0.19267911,-0.10319157,-0.60092929,0.28955799,-0.03233653
4.32000000,-0.14464480,0.56736792,-0.33783099,0.20651404,0.52679299,0.15697381,-0.17785273,0.27055571,-0.63342767,0.19315769,-0.10800151,-0.60411666,0.29099068,-0.03252125
4.34000000,-0.15156838,0.56807214,-0.34084954,0.20675104,0.52868268,0.15611636,-0.18132624,0.27066858,-0.63532624,0.19363737,-0.11282259,-0.60731143,0.29242669,-0.03270640
4.36000000,-0.15850621,0.56877781,-0.34387431,0.20698853,0.53057625,0.15525714,-0.18480689,0.27078168,-0.63722871,0.19411804,-0.11765360,-0.61051276,0.29386566,-0.03289193
4.38000000,-0.16545653,0.56948475,-0.34690451,0.20722644,0.53247323,0.15439638,-0.18829381,0.27089498,-0.63913460,0.19459957,-0.12249330,-0.61371986,0.29530722,-0.03307780
4.40000000,-0.17241755,0.57019278,-0.34993939,0.20746472,0.53437313,0.15353429,-0.19178611,0.27100846,-0.64104344,0.19508184,-0.12734046,-0.61693190,0.29675100,-0.03326395
4.42000000,-0.17938751,0.57090172,-0.35297816,0.20770331,0.53627547,0.15267109,-0.19528288,0.27112209,-0.64295472,0.19556474,-0.13219383,-0.62014806,0.29819663,-0.03345034
4.44000000,-0.18636461,0.57161139,-0.35602005,0.20794214,0.53817977,0.15180701,-0.19878324,0.27123583,-0.64486796,0.19604813,-0.13705219,-0.62336752,0.29964374,-0.03363692
4.46000000,-0.19334708,0.57232160,-0.35906427,0.20818116,0.54008552,0.15094226,-0.20228629,0.27134966,-0.64678267,0.19653189,-0.14191427,-0.62658946,0.30109197,-0.03382364
4.48000000,-0.20033313,0.57303217,-0.36211006,0.20842030,0.54199225,0.15007708,-0.20579113,0.27146355,-0.64869836,0.19701590,-0.14677885,-0.62981304,0.30254094,-0.03401046
4.50000000,-0.20732096,0.57374293,-0.36515662,0.20865949,0.54389947,0.14921167,-0.20929688,0.27157746,-0.65061455,0.19750003,-0.15164468,-0.63303745,0.30399027,-0.03419733
4.52000000,-0.21430879,0.57445368,-0.36820318,0.20889869,0.54580669,0.14834626,-0.21280262,0.27169138,-0.65253073,0.19798416,-0.15651050,-0.63626186,0.30543961,-0.03438420
4.54000000,-0.22129484,0.57516426,-0.37124897,0.20913783,0.54771343,0.14748107,-0.21630746,0.27180527,-0.65444642,0.19846817,-0.16137508,-0.63948544,0.30688858,-0.03457102
4.56000000,-0.22827730,0.57587447,-0.37429319,0.20937685,0.54961918,0.14661632,-0.21981051,0.27191910,-0.65636113,0.19895193,-0.16623717,-0.64270738,0.30833681,-0.03475774
4.58000000,-0.23525441,0.57658413,-0.37733508,0.20961568,0.55152347,0.14575224,-0.22331087,0.27203284,-0.65827437,0.19943532,-0.17109552,-0.64592684,0.30978392,-0.03494433
4.60000000,-0.24222436,0.57729307,-0.38037385,0.20985427,0.55342581,0.14488905,-0.22680764,0.27214646,-0.66018566,0.19991821,-0.17594890,-0.64914300,0.31122955,-0.03513072
4.62000000,-0.24918539,0.57800110,-0.38340873,0.21009255,0.55532572,0.14402696,-0.23029994,0.27225994,-0.66209449,0.20040049,-0.18079606,-0.65235504,0.31267333,-0.03531687
4.64000000,-0.25613571,0.57870804,-0.38643893,0.21033046,0.55722270,0.14316620,-0.23378686,0.27237325,-0.66400038,0.20088202,-0.18563576,-0.65556214,0.31411489,-0.03550273
4.66000000,-0.26307354,0.57941371,-0.38946370,0.21056795,0.55911627,0.14230698,-0.23726751,0.27248635,-0.66590286,0.20136269,-0.19046676,-0.65876347,0.31555386,-0.03568826
4.68000000,-0.26999712,0.58011793,-0.39248225,0.21080495,0.56100595,0.14144953,-0.24074102,0.27259922,-0.66780142,0.20184237,-0.19528785,-0.66195824,0.31698987,-0.03587341
4.70000000,-0.27690468,0.58082052,-0.39549382,0.21104140,0.56289127,0.14059406,-0.24420649,0.27271183,-0.66969559,0.20232094,-0.20009778,-0.66514561,0.31842256,-0.03605813
4.72000000,-0.28379447,0.58152130,-0.39849764,0.21127725,0.56477173,0.13974079,-0.24766305,0.27282415,-0.67158489,0.20279828,-0.20489533,-0.66832478,0.31985156,-0.03624238
4.74000000,-0.29066474,0.58222010,-0.40149295,0.21151242,0.56664686,0.13888994,-0.25110981,0.27293615,-0.67346883,0.20327427,-0.20967929,-0.67149494,0.32127652,-0.03642610
4.76000000,-0.29751373,0.58291674,-0.40447898,0.21174687,0.56851619,0.13804173,-0.25454589,0.27304780,-0.67534695,0.20374878,-0.21444844,-0.67465528,0.32269706,-0.03660926
4.78000000,-0.30433972,0.58361103,-0.40745498,0.21198053,0.57037923,0.13719636,-0.25797044,0.27315908,-0.67721875,0.20422170,-0.21920157,-0.67780501,0.32411283,-0.03679180
4.80000000,-0.31114098,0.58430281,-0.41042021,0.21221334,0.57223553,0.13635406,-0.26138258,0.27326995,-0.67908377,0.20469291,-0.22393748,-0.68094333,0.32552348,-0.03697368
4.82000000,-0.31791580,0.58499190,-0.41337390,0.21244525,0.57408461,0.13551503,-0.26478145,0.27338040,-0.68094154,0.20516228,-0.22865497,-0.68406945,0.32692863,-0.03715485
4.84000000,-0.32466246,0.58567812,-0.41631532,0.21267619,0.57592601,0.13467949,-0.26816620,0.27349038,-0.68279159,0.20562971,-0.23335286,-0.68718257,0.32832795,-0.03733527
4.86000000,-0.33137927,0.58636131,-0.41924372,0.21290612,0.57775926,0.13384764,-0.27153597,0.27359988,-0.68463345,0.20609506,-0.23802996,-0.69028192,0.32972108,-0.03751489
4.88000000,-0.33806455,0.58704130,-0.42215837,0.21313496,0.57958390,0.13301970,-0.27488992,0.27370887,-0.68646667,0.20655823,-0.24268511,-0.69336672,0.33110766,-0.03769366
4.90000000,-0.34471662,0.58771790,-0.42505855,0.21336266,0.58139948,0.13219587,-0.27822722,0.27381731,-0.68829078,0.20701910,-0.24731714,-0.69643620,0.33248736,-0.03787155
4.92000000,-0.35133383,0.58839096,-0.42794354,0.21358918,0.58320554,0.13137636,-0.28154702,0.27392518,-0.69010534,0.20747756,-0.25192489,-0.69948960,0.33385983,-0.03804851
4.94000000,-0.35791454,0.58906031,-0.43081260,0.21381444,0.58500164,0.13056138,-0.28484851,0.27403246,-0.69190988,0.20793349,-0.25650722,-0.70252615,0.33522473,-0.03822449
4.96000000,-0.36445711,0.58972577,-0.43366504,0.21403840,0.58678734,0.12975111,-0.28813087,0.27413912,-0.69370396,0.20838677,-0.26106299,-0.70554510,0.33658172,-0.03839945
4.98000000,-0.37095993,0.59038720,-0.43650014,0.21426099,0.58856218,0.12894577,-0.29139328,0.27424513,-0.69548715,0.20883730,-0.26559109,-0.70854570,0.33793046,-0.03857335
5.00000000,-0.37742139,0.59104441,-0.43931722,0.21448218,0.59032574,0.12814555,-0.29463495,0.27435047,-0.69725899,0.20928496,-0.27009039,-0.71152723,0.33927062,-0.03874614
5.02000000,-0.38383992,0.59169726,-0.44211558,0.21470189,0.59207757,0.12735064,-0.29785508,0.27445510,-0.69901906,0.20972965,-0.27455979,-0.71448895,0.34060189,-0.03891778
5.04000000,-0.39021396,0.59234559,-0.44489454,0.21492008,0.59381727,0.12656125,-0.30105288,0.27455901,-0.70076693,0.21017126,-0.27899821,-0.71743013,0.34192392,-0.03908824
5.06000000,-0.39654194,0.59298923,-0.44765342,0.21513669,0.59554439,0.12577756,-0.30422758,0.27466217,-0.70250217,0.21060968,-0.28340456,-0.72035007,0.34323640,-0.03925746
5.08000000,-0.40282236,0.59362803,-0.45039157,0.21535167,0.59725853,0.12499976,-0.30737842,0.27476456,-0.70422437,0.21104480,-0.28777779,-0.72324805,0.34453901,-0.03942541
5.10000000,-0.40905368,0.59426184,-0.45310831,0.21556498,0.59895928,0.12422804,-0.31050462,0.27486614,-0.70593310,0.21147652,-0.29211684,-0.72612338,0.34583144,-0.03959205
5.12000000,-0.41523443,0.59489050,-0.45580300,0.21577655,0.60064621,0.12346258,-0.31360546,0.27496690,-0.70762797,0.21190473,-0.29642067,-0.72897538,0.34711339,-0.03975733
5.14000000,-0.42136313,0.59551388,-0.45847500,0.21598634,0.60231895,0.12270357,-0.31668018,0.27506681,-0.70930857,0.21232934,-0.30068826,-0.73180336,0.34838453,-0.03992123
5.16000000,-0.42743834,0.59613181,-0.46112368,0.21619430,0.60397708,0.12195119,-0.31972807,0.27516585,-0.71097449,0.21275025,-0.30491859,-0.73460665,0.34964459,-0.04008369
5.18000000,-0.43345864,0.59674415,-0.46374841,0.21640038,0.60562023,0.12120560,-0.32274840,0.27526400,-0.71262536,0.21316735,-0.30911069,-0.73738461,0.35089325,-0.04024468
5.20000000,-0.43942260,0.59735077,-0.46634859,0.21660453,0.60724800,0.12046699,-0.32574048,0.27536122,-0.71426078,0.21358054,-0.31326357,-0.74013657,0.35213023,-0.04040417
5.22000000,-0.44532887,0.59795151,-0.46892361,0.21680671,0.60886002,0.11973553,-0.32870361,0.27545751,-0.71588038,0.21398974,-0.31737627,-0.74286191,0.35335524,-0.04056212
5.24000000,-0.45117608,0.59854625,-0.47147288,0.21700686,0.61045593,0.11901138,-0.33163710,0.27555283,-0.71748379,0.21439485,-0.32144785,-0.74556000,0.35456801,-0.04071848
5.26000000,-0.45696289,0.59913485,-0.47399583,0.21720495,0.61203535,0.11829471,-0.33454031,0.27564717,-0.71907063,0.21479577,-0.32547737,-0.74823022,0.35576824,-0.04087323
5.28000000,-0.46268802,0.59971717,-0.47649187,0.21740092,0.61359793,0.11758568,-0.33741255,0.27574050,-0.72064056,0.21519242,-0.32946393,-0.75087198,0.35695568,-0.04102633
5.30000000,-0.46835016,0.60029308,-0.47896046,0.21759474,0.61514333,0.11688446,-0.34025321,0.27583280,-0.72219321,0.21558471,-0.33340664,-0.75348467,0.35813006,-0.04117775
5.32000000,-0.47394808,0.60086247,-0.48140105,0.21778637,0.61667119,0.11619118,-0.34306164,0.27592406,-0.72372826,0.21597255,-0.33730463,-0.75606773,0.35929112,-0.04132745
5.34000000,-0.47948054,0.60142519,-0.48381310,0.21797575,0.61818119,0.11550601,-0.34583723,0.27601425,-0.72524535,0.21635585,-0.34115704,-0.75862059,0.36043860,-0.04147540
5.36000000,-0.48494635,0.60198114,-0.48619609,0.21816285,0.61967300,0.11482910,-0.34857939,0.27610336,-0.72674417,0.21673453,-0.34496304,-0.76114269,0.36157226,-0.04162156
5.38000000,-0.49034434,0.60253019,-0.48854951,0.21834762,0.62114629,0.11416058,-0.35128752,0.27619136,-0.72822439,0.21710852,-0.34872181,-0.76363349,0.36269185,-0.04176592
5.40000000,-0.49567338,0.60307222,-0.49087287,0.21853004,0.62260077,0.11350061,-0.35396106,0.27627823,-0.72968571,0.21747772,-0.35243257,-0.76609248,0.36379714,-0.04190842
5.42000000,-0.50093234,0.60360713,-0.49316568,0.21871006,0.62403612,0.11284931,-0.35659944,0.27636396,-0.73112780,0.21784208,-0.35609453,-0.76851914,0.36488790,-0.04204906
5.44000000,-0.50612016,0.60413480,-0.49542747,0.21888764,0.62545206,0.11220682,-0.35920213,0.27644854,-0.73255039,0.21820150,-0.35970696,-0.77091296,0.36596390,-0.04218779
5.46000000,-0.51123579,0.60465513,-0.49765779,0.21906276,0.62684829,0.11157328,-0.36176860,0.27653193,-0.73395319,0.21855592,-0.36326911,-0.77327348,0.36702493,-0.04232459
5.48000000,-0.51627821,0.60516801,-0.49985620,0.21923536,0.62822454,0.11094880,-0.36429834,0.27661413,-0.73533590,0.21890527,-0.36678029,-0.77560021,0.36807077,-0.04245944
5.50000000,-0.52124645,0.60567334,-0.50202225,0.21940543,0.62958054,0.11033350,-0.36679087,0.27669513,-0.73669828,0.21924948,-0.37023982,-0.77789272,0.36910123,-0.04259230
5.52000000,-0.52613956,0.60617104,-0.50415556,0.21957292,0.63091604,0.10972752,-0.36924570,0.27677490,-0.73804005,0.21958849,-0.37364702,-0.78015055,0.37011610,-0.04272315
5.54000000,-0.53095661,0.60666100,-0.50625570,0.21973782,0.63223078,0.10913095,-0.37166238,0.27685342,-0.73936097,0.21992222,-0.37700127,-0.78237329,0.37111520,-0.04285196
5.56000000,-0.53569675,0.60714313,-0.50832231,0.21990007,0.63352453,0.10854390,-0.37404047,0.27693070,-0.74066080,0.22025063,-0.38030196,-0.78456054,0.37209835,-0.04297873
5.58000000,-0.54035911,0.60761736,-0.51035502,0.22005967,0.63479705,0.10796649,-0.37637954,0.27700670,-0.74193930,0.22057365,-0.38354850,-0.78671191,0.37306536,-0.04310341
5.60000000,-0.54494291,0.60808359,-0.51235346,0.22021658,0.63604812,0.10739881,-0.37867920,0.27708143,-0.74319625,0.22089122,-0.38674032,-0.78882702,0.37401608,-0.04322599
5.62000000,-0.54944736,0.60854175,-0.51431732,0.22037077,0.63727754,0.10684096,-0.38093905,0.27715486,-0.74443145,0.22120330,-0.38987690,-0.79090552,0.37495035,-0.04334644
5.64000000,-0.55387174,0.60899177,-0.51624627,0.22052222,0.63848511,0.10629302,-0.38315873,0.27722699,-0.74564469,0.22150983,-0.39295772,-0.79294707,0.37586800,-0.04346476
5.66000000,-0.55821536,0.60943358,-0.51814000,0.22067091,0.63967063,0.10575508,-0.38533788,0.27729780,-0.74683579,0.22181077,-0.39598230,-0.79495135,0.37676891,-0.04358092
5.68000000,-0.56247756,0.60986710,-0.51999824,0.22081680,0.64083393,0.10522723,-0.38747620,0.27736728,-0.74800455,0.22210606,-0.39895019,-0.79691807,0.37765293,-0.04369490
5.70000000,-0.56665773,0.61029228,-0.52182072,0.22095990,0.64197484,0.10470954,-0.38957336,0.27743543,-0.74915083,0.22239568,-0.40186096,-0.79884693,0.37851993,-0.04380668
5.72000000,-0.57075529,0.61070906,-0.52360718,0.22110016,0.64309321,0.10420207,-0.39162907,0.27750223,-0.75027445,0.22267956,-0.40471421,-0.80073768,0.37936980,-0.04391626
5.74000000,-0.57476972,0.61111738,-0.52535740,0.22123758,0.64418889,0.10370490,-0.39364308,0.27756767,-0.75137528,0.22295769,-0.40750957,-0.80259007,0.38020243,-0.04402361
5.76000000,-0.57870053,0.61151719,-0.52707115,0.22137213,0.64526174,0.10321809,-0.39561514,0.27763175,-0.75245317,0.22323003,-0.41024670,-0.80440386,0.38101772,-0.04412873
5.78000000,-0.58254726,0.61190846,-0.52874826,0.22150381,0.64631164,0.10274169,-0.39754501,0.27769446,-0.75350801,0.22349654,-0.41292529,-0.80617887,0.38181556,-0.04423160
5.80000000,-0.58630952,0.61229113,-0.53038853,0.22163259,0.64733849,0.10227576,-0.39943251,0.27775580,-0.75453968,0.22375720,-0.41554506,-0.80791490,0.38259589,-0.04433221
5.82000000,-0.58998694,0.61266517,-0.53199182,0.22175847,0.64834219,0.10182032,-0.40127744,0.27781575,-0.75554810,0.22401198,-0.41810575,-0.80961178,0.38335862,-0.04443055
5.84000000,-0.59357921,0.61303055,-0.53355798,0.22188144,0.64932264,0.10137544,-0.40307966,0.27787431,-0.75653316,0.22426086,-0.42060715,-0.81126936,0.38410369,-0.04452661
5.86000000,-0.59708606,0.61338725,-0.53508690,0.22200148,0.65027978,0.10094113,-0.40483901,0.27793148,-0.75749480,0.22450382,-0.42304906,-0.81288754,0.38483104,-0.04462039
5.88000000,-0.60050726,0.61373523,-0.53657848,0.22211859,0.65121355,0.10051743,-0.40655541,0.27798725,-0.75843295,0.22474085,-0.42543134,-0.81446619,0.38554063,-0.04471188
5.90000000,-0.60384264,0.61407448,-0.53803265,0.22223277,0.65212389,0.10010436,-0.40822874,0.27804162,-0.75934757,0.22497193,-0.42775386,-0.81600524,0.38623242,-0.04480108
5.92000000,-0.60709207,0.61440499,-0.53944934,0.22234400,0.65301077,0.09970194,-0.40985895,0.27809460,-0.76023862,0.22519706,-0.43001653,-0.81750463,0.38690638,-0.04488797
5.94000000,-0.61025547,0.61472675,-0.54082852,0.22245228,0.65387417,0.09931016,-0.41144601,0.27814617,-0.76110607,0.22541622,-0.43221929,-0.81896432,0.38756249,-0.04497257
5.96000000,-0.61333280,0.61503976,-0.54217017,0.22255762,0.65471408,0.09892905,-0.41298988,0.27819633,-0.76194993,0.22562943,-0.43436212,-0.82038430,0.38820076,-0.04505486
5.98000000,-0.61632408,0.61534401,-0.54347432,0.22266002,0.65553050,0.09855860,-0.41449058,0.27824510,-0.76277019,0.22583667,-0.43644504,-0.82176457,0.38882118,-0.04513485
6.00000000,-0.61922937,0.61563952,-0.54474097,0.22275947,0.65632345,0.09819879,-0.41594814,0.27829246,-0.76356687,0.22603796,-0.43846807,-0.82310517,0.38942376,-0.04521255
6.02000000,-0.62204880,0.61592629,-0.54597019,0.22285598,0.65709297,0.09784962,-0.41736263,0.27833842,-0.76434001,0.22623329,-0.44043132,-0.82440614,0.39000854,-0.04528794
6.04000000,-0.62478253,0.61620435,-0.54716205,0.22294956,0.65783910,0.09751106,-0.41873412,0.27838299,-0.76508964,0.22642269,-0.44233490,-0.82566758,0.39057554,-0.04536105
6.06000000,-0.62743079,0.61647371,-0.54831664,0.22304021,0.65856190,0.09718308,-0.42006273,0.27842616,-0.76581584,0.22660617,-0.44417895,-0.82688957,0.39112481,-0.04543187
6.08000000,-0.62999385,0.61673441,-0.54943408,0.22312794,0.65926145,0.09686566,-0.42134860,0.27846794,-0.76651867,0.22678374,-0.44596368,-0.82807224,0.39165641,-0.04550041
6.10000000,-0.63247203,0.61698647,-0.55051452,0.22321277,0.65993783,0.09655875,-0.42259188,0.27850834,-0.76719823,0.22695544,-0.44768931,-0.82921575,0.39217041,-0.04556668
6.12000000,-0.63486572,0.61722994,-0.55155812,0.22329471,0.66059115,0.09626230,-0.42379278,0.27854737,-0.76785462,0.22712128,-0.44935610,-0.83032028,0.39266688,-0.04563069
6.14000000,-0.63717535,0.61746486,-0.55256508,0.22337377,0.66122153,0.09597627,-0.42495150,0.27858502,-0.76848797,0.22728129,-0.45096437,-0.83138602,0.39314592,-0.04569246
6.16000000,-0.63940143,0.61769129,-0.55353561,0.22344997,0.66182910,0.09570058,-0.42606831,0.27862131,-0.76909839,0.22743552,-0.45251444,-0.83241320,0.39360763,-0.04575199
6.18000000,-0.64154449,0.61790926,-0.55446994,0.22352333,0.66241402,0.09543517,-0.42714346,0.27865625,-0.76968606,0.22758400,-0.45400672,-0.83340208,0.39405212,-0.04580930
6.20000000,-0.64360514,0.61811886,-0.55536835,0.22359387,0.66297644,0.09517997,-0.42817728,0.27868984,-0.77025112,0.22772676,-0.45544161,-0.83435293,0.39447951,-0.04586440
6.22000000,-0.64558405,0.61832014,-0.55623112,0.22366161,0.66351655,0.09493489,-0.42917008,0.27872210,-0.77079377,0.22786387,-0.45681958,-0.83526606,0.39488996,-0.04591732
6.24000000,-0.64748194,0.61851318,-0.55705856,0.22372658,0.66403455,0.09469985,-0.43012224,0.27875304,-0.77131421,0.22799536,-0.45814113,-0.83614181,0.39528360,-0.04596807
6.26000000,-0.64929959,0.61869806,-0.55785102,0.22378880,0.66453065,0.09447474,-0.43103414,0.27878267,-0.77181264,0.22812129,-0.45940681,-0.83698053,0.39566059,-0.04601668
6.28000000,-0.65103784,0.61887486,-0.55860887,0.22384830,0.66500508,0.09425946,-0.43190620,0.27881101,-0.77228929,0.22824172,-0.46061720,-0.83778261,0.39602112,-0.04606317
6.30000000,-0.65269759,0.61904368,-0.55933249,0.22390511,0.66545808,0.09405391,-0.43273889,0.27883806,-0.77274443,0.22835671,-0.46177293,-0.83854847,0.39636537,-0.04610755
6.32000000,-0.65427980,0.61920461,-0.56002230,0.22395927,0.66588992,0.09385796,-0.43353267,0.27886386,-0.77317830,0.22846633,-0.46287467,-0.83927856,0.39669353,-0.04614986
6.34000000,-0.65578550,0.61935776,-0.56067876,0.22401081,0.66630088,0.09367149,-0.43428807,0.27888840,-0.77359119,0.22857065,-0.46392314,-0.83997334,0.39700583,-0.04619013
6.36000000,-0.65721578,0.61950324,-0.56130233,0.22405977,0.66669125,0.09349436,-0.43500563,0.27891172,-0.77398339,0.22866974,-0.46491908,-0.84063331,0.39730248,-0.04622838
6.38000000,-0.65857179,0.61964117,-0.56189353,0.22410619,0.66706135,0.09332642,-0.43568593,0.27893383,-0.77435523,0.22876369,-0.46586330,-0.84125902,0.39758373,-0.04626464
6.40000000,-0.65985473,0.61977166,-0.56245287,0.22415011,0.66741151,0.09316753,-0.43632957,0.27895474,-0.77470704,0.22885257,-0.46675665,-0.84185101,0.39784982,-0.04629895
6.42000000,-0.66106589,0.61989485,-0.56298091,0.22419157,0.66774208,0.09301754,-0.43693720,0.27897449,-0.77503916,0.22893648,-0.46760002,-0.84240988,0.39810103,-0.04633133
6.44000000,-0.66220662,0.62001088,-0.56347825,0.22423061,0.66805342,0.09287626,-0.43750950,0.27899308,-0.77535197,0.22901551,-0.46839434,-0.84293625,0.39833763,-0.04636184
6.46000000,-0.66327831,0.62011988,-0.56394548,0.22426730,0.66834593,0.09274354,-0.43804716,0.27901055,-0.77564584,0.22908976,-0.46914059,-0.84343076,0.39855991,-0.04639050
6.48000000,-0.66428246,0.62022202,-0.56438327,0.22430167,0.66861999,0.09261918,-0.43855093,0.27902692,-0.77592120,0.22915933,-0.46983980,-0.84389410,0.39876817,-0.04641735
6.50000000,-0.66522059,0.62031744,-0.56479228,0.22433379,0.66887604,0.09250300,-0.43902158,0.27904222,-0.77617845,0.22922433,-0.47049305,-0.84432699,0.39896275,-0.04644244
6.52000000,-0.66609433,0.62040631,-0.56517321,0.22436369,0.66911451,0.09239479,-0.43945993,0.27905646,-0.77641804,0.22928486,-0.47110146,-0.84473016,0.39914397,-0.04646580
6.54000000,-0.66690535,0.62048880,-0.56552680,0.22439146,0.66933587,0.09229435,-0.43986681,0.27906968,-0.77664044,0.22934105,-0.47166620,-0.84510439,0.39931218,-0.04648749
6.56000000,-0.66765541,0.62056509,-0.56585381,0.22441713,0.66954058,0.09220146,-0.44024311,0.27908191,-0.77684612,0.22939302,-0.47218848,-0.84545049,0.39946775,-0.04650755
6.58000000,-0.66834631,0.62063537,-0.56615504,0.22444078,0.66972916,0.09211589,-0.44058973,0.27909317,-0.77703557,0.22944089,-0.47266958,-0.84576930,0.39961105,-0.04652603
6.60000000,-0.66897996,0.62069982,-0.56643130,0.22446247,0.66990210,0.09203742,-0.44090763,0.27910350,-0.77720933,0.22948479,-0.47311081,-0.84606168,0.39974248,-0.04654297
6.62000000,-0.66955832,0.62075864,-0.56668345,0.22448227,0.67005996,0.09196579,-0.44119779,0.27911293,-0.77736793,0.22952486,-0.47351354,-0.84632856,0.39986243,-0.04655844
6.64000000,-0.67008342,0.62081205,-0.56691238,0.22450024,0.67020327,0.09190076,-0.44146122,0.27912149,-0.77751192,0.22956124,-0.47387917,-0.84657085,0.39997134,-0.04657248
6.66000000,-0.67055736,0.62086026,-0.56711901,0.22451647,0.67033263,0.09184207,-0.44169900,0.27912922,-0.77764188,0.22959407,-0.47420919,-0.84678954,0.40006964,-0.04658515
6.68000000,-0.67098233,0.62090349,-0.56730429,0.22453101,0.67044862,0.09178943,-0.44191220,0.27913615,-0.77775842,0.22962351,-0.47450511,-0.84698564,0.40015779,-0.04659652
6.70000000,-0.67136058,0.62094196,-0.56746920,0.22454396,0.67055185,0.09174259,-0.44210197,0.27914231,-0.77786214,0.22964972,-0.47476850,-0.84716018,0.40023624,-0.04660663
6.72000000,-0.67169445,0.62097592,-0.56761476,0.22455539,0.67064298,0.09170124,-0.44226947,0.27914775,-0.77795369,0.22967285,-0.47500098,-0.84731423,0.40030549,-0.04661556
6.74000000,-0.67198633,0.62100561,-0.56774201,0.22456538,0.67072264,0.09166509,-0.44241590,0.27915251,-0.77803373,0.22969307,-0.47520422,-0.84744892,0.40036602,-0.04662337
6.76000000,-0.67223870,0.62103128,-0.56785205,0.22457402,0.67079152,0.09163384,-0.44254252,0.27915663,-0.77810293,0.22971056,-0.47537996,-0.84756537,0.40041837,-0.04663012
6.78000000,-0.67245414,0.62105319,-0.56794597,0.22458140,0.67085032,0.09160716,-0.44265060,0.27916014,-0.77816201,0.22972549,-0.47552998,-0.84766478,0.40046305,-0.04663588
6.80000000,-0.67263527,0.62107161,-0.56802494,0.22458760,0.67089976,0.09158473,-0.44274147,0.27916309,-0.77821168,0.22973803,-0.47565610,-0.84774836,0.40050062,-0.04664072
6.82000000,-0.67278480,0.62108682,-0.56809013,0.22459271,0.67094057,0.09156621,-0.44281649,0.27916553,-0.77825268,0.22974839,-0.47576022,-0.84781736,0.40053163,-0.04664472
6.84000000,-0.67290553,0.62109910,-0.56814277,0.22459685,0.67097352,0.09155126,-0.44287706,0.27916750,-0.77828579,0.22975676,-0.47584429,-0.84787307,0.40055668,-0.04664795
6.86000000,-0.67300034,0.62110874,-0.56818410,0.22460009,0.67099940,0.09153951,-0.44292462,0.27916904,-0.77831179,0.22976333,-0.47591031,-0.84791681,0.40057634,-0.04665048
6.88000000,-0.67307217,0.62111605,-0.56821542,0.22460255,0.67101901,0.09153062,-0.44296066,0.27917021,-0.77833148,0.22976830,-0.47596032,-0.84794996,0.40059124,-0.04665241
6.90000000,-0.67312406,0.62112133,-0.56823804,0.22460433,0.67103317,0.09152419,-0.44298669,0.27917106,-0.77834571,0.22977190,-0.47599646,-0.84797390,0.40060200,-0.04665379
6.92000000,-0.67315912,0.62112489,-0.56825333,0.22460553,0.67104274,0.09151985,-0.44300428,0.27917163,-0.77835533,0.22977433,-0.47602088,-0.84799008,0.40060927,-0.04665473
6.94000000,-0.67318057,0.62112708,-0.56826268,0.22460626,0.67104859,0.09151719,-0.44301504,0.27917198,-0.77836121,0.22977581,-0.47603581,-0.84799998,0.40061372,-0.04665530
6.96000000,-0.67319167,0.62112820,-0.56826752,0.22460664,0.67105162,0.09151582,-0.44302061,0.27917216,-0.77836425,0.22977658,-0.47604354,-0.84800510,0.40061602,-0.04665560
6.98000000,-0.67319579,0.62112862,-0.56826932,0.22460678,0.67105275,0.09151531,-0.44302268,0.27917223,-0.77836538,0.22977687,-0.47604641,-0.84800700,0.40061688,-0.04665571
7.00000000,-0.67319638,0.62112868,-0.56826958,0.22460680,0.67105291,0.09151524,-0.44302297,0.27917224,-0.77836555,0.22977691,-0.47604682,-0.84800727,0.40061700,-0.04665573
7.02000000,-0.67319577,0.62112878,-0.56826936,0.22460636,0.67105302,0.09151543,-0.44302266,0.27917201,-0.77836560,0.22977691,-0.47604683,-0.84800715,0.40061698,-0.04665547
7.04000000,-0.67319157,0.62112948,-0.56826786,0.22460326,0.67105380,0.09151680,-0.44302050,0.27917040,-0.77836596,0.22977691,-0.47604689,-0.84800631,0.40061684,-0.04665368
7.06000000,-0.67318025,0.62113134,-0.56826383,0.22459492,0.67105590,0.09152047,-0.44301467,0.27916608,-0.77836693,0.22977693,-0.47604707,-0.84800404,0.40061647,-0.04664888
7.08000000,-0.67315838,0.62113494,-0.56825603,0.22457881,0.67105996,0.09152758,-0.44300341,0.27915772,-0.77836880,0.22977695,-0.47604741,-0.84799967,0.40061576,-0.04663959
7.10000000,-0.67312261,0.62114084,-0.56824329,0.22455246,0.67106659,0.09153919,-0.44298499,0.27914405,-0.77837187,0.22977699,-0.47604796,-0.84799251,0.40061459,-0.04662439
7.12000000,-0.67306968,0.62114956,-0.56822442,0.22451347,0.67107641,0.09155638,-0.44295773,0.27912382,-0.77837640,0.22977705,-0.47604878,-0.84798191,0.40061287,-0.04660191
7.14000000,-0.67299641,0.62116163,-0.56819831,0.22445950,0.67109001,0.09158017,-0.44292001,0.27909582,-0.77838268,0.22977713,-0.47604992,-0.84796725,0.40061048,-0.04657079
7.16000000,-0.67289971,0.62117756,-0.56816385,0.22438826,0.67110795,0.09161158,-0.44287021,0.27905886,-0.77839097,0.22977724,-0.47605141,-0.84794789,0.40060732,-0.04652971
7.18000000,-0.67277656,0.62119784,-0.56811997,0.22429754,0.67113080,0.09165157,-0.44280680,0.27901180,-0.77840152,0.22977738,-0.47605332,-0.84792324,0.40060331,-0.04647740
7.20000000,-0.67262404,0.62122297,-0.56806561,0.22418518,0.67115909,0.09170110,-0.44272826,0.27895350,-0.77841459,0.22977755,-0.47605569,-0.84789271,0.40059833,-0.04641261
7.22000000,-0.67243929,0.62125341,-0.56799978,0.22404908,0.67119337,0.09176109,-0.44263313,0.27888290,-0.77843042,0.22977776,-0.47605855,-0.84785573,0.40059231,-0.04633413
7.24000000,-0.67221954,0.62128961,-0.56792147,0.22388721,0.67123414,0.09183245,-0.44251998,0.27879891,-0.77844925,0.22977801,-0.47606195,-0.84781174,0.40058514,-0.04624079
7.26000000,-0.67196211,0.62133202,-0.56782973,0.22369757,0.67128190,0.09191605,-0.44238742,0.27870053,-0.77847131,0.22977830,-0.47606594,-0.84776021,0.40057674,-0.04613144
7.28000000,-0.67166439,0.62138106,-0.56772363,0.22347825,0.67133714,0.09201273,-0.44223412,0.27858675,-0.77849682,0.22977864,-0.47607055,-0.84770062,0.40056703,-0.04600497
7.30000000,-0.67132385,0.62143717,-0.56760228,0.22322739,0.67140032,0.09212332,-0.44205876,0.27845660,-0.77852600,0.22977902,-0.47607583,-0.84763245,0.40055592,-0.04586031
7.32000000,-0.67093803,0.62150073,-0.56746479,0.22294317,0.67147190,0.09224861,-0.44186009,0.27830915,-0.77855906,0.22977945,-0.47608181,-0.84755522,0.40054334,-0.04569642
7.34000000,-0.67050455,0.62157214,-0.56731031,0.22262385,0.67155233,0.09238938,-0.44163688,0.27814349,-0.77859620,0.22977994,-0.47608852,-0.84746845,0.40052920,-0.04551229
7.36000000,-0.67002113,0.62165178,-0.56713804,0.22226773,0.67164202,0.09254636,-0.44138796,0.27795873,-0.77863763,0.22978049,-0.47609601,-0.84737169,0.40051343,-0.04530694
7.38000000,-0.66948552,0.62174001,-0.56694717,0.22187317,0.67174139,0.09272030,-0.44111216,0.27775404,-0.77868352,0.22978109,-0.47610431,-0.84726448,0.40049596,-0.04507943
7.40000000,-0.66889560,0.62183720,-0.56673694,0.22143859,0.67185084,0.09291187,-0.44080839,0.27752858,-0.77873407,0.22978176,-0.47611345,-0.84714639,0.40047672,-0.04482884
7.42000000,-0.66824927,0.62194368,-0.56650662,0.22096247,0.67197075,0.09312176,-0.44047558,0.27728157,-0.77878945,0.22978248,-0.47612347,-0.84701702,0.40045564,-0.04455429
7.44000000,-0.66754453,0.62205977,-0.56625548,0.22044332,0.67210150,0.09335061,-0.44011269,0.27701224,-0.77884984,0.22978328,-0.47613439,-0.84687595,0.40043265,-0.04425493
7.46000000,-0.66677947,0.62218581,-0.56598284,0.21987973,0.67224345,0.09359906,-0.43971874,0.27671985,-0.77891540,0.22978414,-0.47614624,-0.84672281,0.40040770,-0.04392995
7.48000000,-0.66595222,0.62232209,-0.56568804,0.21927033,0.67239693,0.09386770,-0.43929277,0.27640369,-0.77898628,0.22978507,-0.47615906,-0.84655722,0.40038071,-0.04357855
7.50000000,-0.66506100,0.62246891,-0.56537044,0.21861380,0.67256228,0.09415711,-0.43883386,0.27606309,-0.77906265,0.22978608,-0.47617287,-0.84637883,0.40035164,-0.04319998
7.52000000,-0.66410410,0.62262655,-0.56502944,0.21790889,0.67273981,0.09446786,-0.43834112,0.27569738,-0.77914464,0.22978716,-0.47618769,-0.84618728,0.40032043,-0.04279350
7.54000000,-0.66307986,0.62279529,-0.56466444,0.21715438,0.67292984,0.09480047,-0.43781372,0.27530594,-0.77923241,0.22978831,-0.47620356,-0.84598226,0.40028702,-0.04235843
7.56000000,-0.66198672,0.62297537,-0.56427489,0.21634911,0.67313265,0.09515545,-0.43725083,0.27488817,-0.77932608,0.22978954,-0.47622050,-0.84576345,0.40025137,-0.04189408
7.58000000,-0.66082317,0.62316706,-0.56386024,0.21549197,0.67334853,0.09553330,-0.43665169,0.27444349,-0.77942578,0.22979085,-0.47623853,-0.84553055,0.40021341,-0.04139983
7.60000000,-0.65958777,0.62337058,-0.56341999,0.21458190,0.67357773,0.09593448,-0.43601555,0.27397135,-0.77953164,0.22979225,-0.47625767,-0.84528326,0.40017312,-0.04087506
7.62000000,-0.65827916,0.62358616,-0.56295366,0.21361790,0.67382052,0.09635944,-0.43534171,0.27347122,-0.77964377,0.22979372,-0.47627794,-0.84502131,0.40013043,-0.04031919
7.64000000,-0.65689602,0.62381402,-0.56246076,0.21259900,0.67407714,0.09680860,-0.43462950,0.27294262,-0.77976229,0.22979528,-0.47629937,-0.84474445,0.40008532,-0.03973166
7.66000000,-0.65543712,0.62405436,-0.56194086,0.21152429,0.67434781,0.09728236,-0.43387828,0.27238506,-0.77988730,0.22979692,-0.47632198,-0.84445243,0.40003773,-0.03911194
7.68000000,-0.65390129,0.62430737,-0.56139355,0.21039290,0.67463275,0.09778111,-0.43308744,0.27179810,-0.78001890,0.22979866,-0.47634577,-0.84414500,0.39998764,-0.03845955
7.70000000,-0.65228742,0.62457324,-0.56081843,0.20920403,0.67493218,0.09830519,-0.43225641,0.27118132,-0.78015719,0.22980047,-0.47637078,-0.84382196,0.39993500,-0.03777401
7.72000000,-0.65059446,0.62485214,-0.56021512,0.20795689,0.67524627,0.09885497,-0.43138466,0.27053431,-0.78030225,0.22980238,-0.47639701,-0.84348308,0.39987978,-0.03705488
7.74000000,-0.64882143,0.62514423,-0.55958329,0.20665077,0.67557523,0.09943074,-0.43047169,0.26985670,-0.78045418,0.22980438,-0.47642448,-0.84312817,0.39982194,-0.03630173
7.76000000,-0.64696741,0.62544967,-0.55892258,0.20528500,0.67591921,0.10003281,-0.42951700,0.26914814,-0.78061305,0.22980647,-0.47645320,-0.84275706,0.39976147,-0.03551418
7.78000000,-0.64503155,0.62576858,-0.55823272,0.20385892,0.67627837,0.10066146,-0.42852018,0.26840829,-0.78077893,0.22980865,-0.47648320,-0.84236956,0.39969833,-0.03469186
7.80000000,-0.64301304,0.62610111,-0.55751340,0.20237197,0.67665287,0.10131695,-0.42748080,0.26763687,-0.78095189,0.22981093,-0.47651447,-0.84196552,0.39963249,-0.03383444
7.82000000,-0.64091115,0.62644738,-0.55676437,0.20082360,0.67704283,0.10199951,-0.42639848,0.26683358,-0.78113199,0.22981330,-0.47654704,-0.84154478,0.39956393,-0.03294160
7.84000000,-0.63872521,0.62680749,-0.55598538,0.19921331,0.67744839,0.10270937,-0.42527288,0.26599816,-0.78131930,0.22981576,-0.47658091,-0.84110723,0.39949263,-0.03201305
7.86000000,-0.63645460,0.62718156,-0.55517622,0.19754064,0.67786966,0.10344673,-0.42410369,0.26513038,-0.78151387,0.22981832,-0.47661609,-0.84065272,0.39941857,-0.03104854
7.88000000,-0.63409875,0.62756966,-0.55433669,0.19580518,0.67830675,0.10421177,-0.42289060,0.26423003,-0.78171573,0.22982097,-0.47665259,-0.84018115,0.39934172,-0.03004782
7.90000000,-0.63165716,0.62797189,-0.55346660,0.19400656,0.67875974,0.10500465,-0.42163336,0.26329691,-0.78192495,0.22982373,-0.47669042,-0.83969243,0.39926208,-0.02901068
7.92000000,-0.62912939,0.62838832,-0.55256580,0.19214446,0.67922872,0.10582551,-0.42033175,0.26233086,-0.78214155,0.22982657,-0.47672958,-0.83918645,0.39917963,-0.02793694
7.94000000,-0.62651505,0.62881901,-0.55163415,0.19021858,0.67971376,0.10667449,-0.41898556,0.26133172,-0.78236556,0.22982952,-0.47677009,-0.83866314,0.39909436,-0.02682642
7.96000000,-0.62381380,0.62926401,-0.55067153,0.18822868,0.68021493,0.10755169,-0.41759462,0.26029936,-0.78259703,0.22983257,-0.47681194,-0.83812243,0.39900625,-0.02567898
7.98000000,-0.62102537,0.62972338,-0.54967784,0.18617456,0.68073227,0.10845721,-0.41615878,0.25923369,-0.78283596,0.22983571,-0.47685514,-0.83756428,0.39891530,-0.02449451
8.00000000,-0.61814952,0.63019715,-0.54865301,0.18405604,0.68126583,0.10939111,-0.41467793,0.25813461,-0.78308239,0.22983895,-0.47689970,-0.83698862,0.39882150,-0.02327291
8.02000000,-0.61518610,0.63068535,-0.54759695,0.18187300,0.68181564,0.11035345,-0.41315199,0.25700205,-0.78333632,0.22984229,-0.47694561,-0.83639544,0.39872483,-0.02201410
8.04000000,-0.61213496,0.63118799,-0.54650965,0.17962536,0.68238172,0.11134427,-0.41158088,0.25583598,-0.78359776,0.22984573,-0.47699289,-0.83578470,0.39862531,-0.02071804
8.06000000,-0.60899606,0.63170510,-0.54539106,0.17731306,0.68296409,0.11236360,-0.40996458,0.25463637,-0.78386673,0.22984927,-0.47704152,-0.83515639,0.39852293,-0.01938469
8.08000000,-0.60576937,0.63223667,-0.54424120,0.17493608,0.68356274,0.11341143,-0.40830307,0.25340320,-0.78414321,0.22985290,-0.47709151,-0.83451050,0.39841768,-0.01801406
8.10000000,-0.60245492,0.63278269,-0.54306005,0.17249447,0.68417767,0.11448776,-0.40659638,0.25213649,-0.78442722,0.22985664,-0.47714287,-0.83384705,0.39830957,-0.01660615
8.12000000,-0.59905280,0.63334316,-0.54184767,0.16998826,0.68480887,0.11559256,-0.40484454,0.25083628,-0.78471874,0.22986047,-0.47719558,-0.83316606,0.39819860,-0.01516099
8.14000000,-0.59556314,0.63391805,-0.54060409,0.16741757,0.68545632,0.11672579,-0.40304762,0.24950262,-0.78501776,0.22986441,-0.47724965,-0.83246754,0.39808478,-0.01367865
8.16000000,-0.59198612,0.63450733,-0.53932938,0.16478253,0.68611996,0.11788739,-0.40120573,0.24813556,-0.78532427,0.22986844,-0.47730507,-0.83175153,0.39796810,-0.01215921
8.18000000,-0.58832197,0.63511097,-0.53802362,0.16208330,0.68679978,0.11907728,-0.39931896,0.24673521,-0.78563824,0.22987257,-0.47736184,-0.83101808,0.39784859,-0.01060275
8.20000000,-0.58457097,0.63572891,-0.53668691,0.15932009,0.68749571,0.12029538,-0.39738747,0.24530166,-0.78595966,0.22987679,-0.47741996,-0.83026725,0.39772624,-0.00900940
8.22000000,-0.58073343,0.63636111,-0.53531936,0.15649313,0.68820769,0.12154158,-0.39541143,0.24383505,-0.78628849,0.22988112,-0.47747942,-0.82949909,0.39760107,-0.00737929
8.24000000,-0.57680973,0.63700750,-0.53392110,0.15360270,0.68893566,0.12281576,-0.39339101,0.24233550,-0.78662470,0.22988554,-0.47754021,-0.82871369,0.39747308,-0.00571257
8.26000000,-0.57280027,0.63766803,-0.53249228,0.15064910,0.68967954,0.12411779,-0.39132644,0.24080317,-0.78696826,0.22989006,-0.47760233,-0.82791112,0.39734230,-0.00400943
8.28000000,-0.56870551,0.63834260,-0.53103307,0.14763266,0.69043925,0.12544752,-0.38921794,0.23923825,-0.78731913,0.22989468,-0.47766577,-0.82709148,0.39720874,-0.00227006
8.30000000,-0.56452595,0.63903114,-0.52954364,0.14455375,0.69121469,0.12680478,-0.38706578,0.23764092,-0.78767727,0.22989939,-0.47773053,-0.82625487,0.39707241,-0.00049467
8.32000000,-0.56026214,0.63973357,-0.52802418,0.14141278,0.69200576,0.12818941,-0.38487024,0.23601139,-0.78804263,0.22990419,-0.47779659,-0.82540139,0.39693334,0.00131651
8.34000000,-0.55591466,0.64044978,-0.52647491,0.13821016,0.69281236,0.12960121,-0.38263160,0.23434989,-0.78841515,0.22990909,-0.47786395,-0.82453116,0.39679153,0.00316324
8.36000000,-0.55148413,0.64117966,-0.52489604,0.13494637,0.69363436,0.13103997,-0.38035021,0.23265664,-0.78879479,0.22991408,-0.47793260,-0.82364430,0.39664702,0.00504524
8.38000000,-0.54697122,0.64192313,-0.52328781,0.13162190,0.69447164,0.13250549,-0.37802640,0.23093191,-0.78918149,0.22991917,-0.47800252,-0.82274096,0.39649982,0.00696224
8.40000000,-0.54237663,0.64268004,-0.52165048,0.12823725,0.69532408,0.13399753,-0.37566053,0.22917597,-0.78957519,0.22992435,-0.47807371,-0.82182127,0.39634995,0.00891393
8.42000000,-0.53770112,0.64345029,-0.51998431,0.12479299,0.69619154,0.13551586,-0.37325299,0.22738910,-0.78997583,0.22992962,-0.47814615,-0.82088538,0.39619745,0.01089999
8.44000000,-0.53294546,0.64423374,-0.51828957,0.12128970,0.69707386,0.13706021,-0.37080418,0.22557159,-0.79038333,0.22993498,-0.47821983,-0.81993344,0.39604233,0.01292010
8.46000000,-0.52811048,0.64503026,-0.51656657,0.11772796,0.69797090,0.13863031,-0.36831452,0.22372378,-0.79079763,0.22994043,-0.47829474,-0.81896563,0.39588462,0.01497391
8.48000000,-0.52319704,0.64583970,-0.51481561,0.11410843,0.69888250,0.14022590,-0.36578446,0.22184597,-0.79121865,0.22994597,-0.47837087,-0.81798212,0.39572436,0.01706104
8.50000000,-0.51820603,0.64666193,-0.51303701,0.11043176,0.69980849,0.14184668,-0.36321446,0.21993852,-0.79164632,0.22995159,-0.47844820,-0.81698307,0.39556156,0.01918112
8.52000000,-0.51313838,0.64749678,-0.51123110,0.10669863,0.70074870,0.14349234,-0.36060500,0.21800179,-0.79208055,0.22995730,-0.47852672,-0.81596869,0.39539627,0.02133376
8.54000000,-0.50799506,0.64834409,-0.50939822,0.10290976,0.70170295,0.14516258,-0.35795657,0.21603613,-0.79252127,0.22996310,-0.47860641,-0.81493916,0.39522850,0.02351854
8.56000000,-0.50277707,0.64920371,-0.50753873,0.09906588,0.70267105,0.14685706,-0.35526970,0.21404193,-0.79296839,0.22996898,-0.47868725,-0.81389468,0.39505830,0.02573504
8.58000000,-0.49748544,0.65007545,-0.50565299,0.09516775,0.70365281,0.14857546,-0.35254490,0.21201960,-0.79342182,0.22997494,-0.47876924,-0.81283546,0.39488570,0.02798282
8.60000000,-0.49212125,0.65095916,-0.50374140,0.09121617,0.70464804,0.15031743,-0.34978274,0.20996953,-0.79388146,0.22998099,-0.47885235,-0.81176172,0.39471074,0.03026142
8.62000000,-0.48668559,0.65185463,-0.50180434,0.08721194,0.70565653,0.15208260,-0.34698378,0.20789214,-0.79434723,0.22998712,-0.47893657,-0.81067367,0.39453344,0.03257039
8.64000000,-0.48117958,0.65276170,-0.49984222,0.08315589,0.70667806,0.15387061,-0.34414860,0.20578788,-0.79481903,0.22999332,-0.47902188,-0.80957154,0.39435384,0.03490923
8.66000000,-0.47560441,0.65368016,-0.49785544,0.07904889,0.70771243,0.15568109,-0.34127779,0.20365717,-0.79529676,0.22999960,-0.47910826,-0.80845557,0.39417199,0.03727745
8.68000000,-0.46996124,0.65460982,-0.49584443,0.07489180,0.70875942,0.15751365,-0.33837198,0.20150049,-0.79578031,0.23000597,-0.47919569,-0.80732598,0.39398793,0.03967456
8.70000000,-0.46425131,0.65555047,-0.49380964,0.07068553,0.70981879,0.15936789,-0.33543179,0.19931828,-0.79626958,0.23001240,-0.47928416,-0.80618303,0.39380168,0.04210002
8.72000000,-0.45847587,0.65650193,-0.49175149,0.06643100,0.71089031,0.16124340,-0.33245787,0.19711104,-0.79676446,0.23001891,-0.47937364,-0.80502697,0.39361330,0.04455332
8.74000000,-0.45263619,0.65746396,-0.48967046,0.06212915,0.71197376,0.16313977,-0.32945087,0.19487925,-0.79726485,0.23002549,-0.47946412,-0.80385805,0.39342282,0.04703390
8.76000000,-0.44673359,0.65843636,-0.48756700,0.05778094,0.71306888,0.16505658,-0.32641147,0.19262341,-0.79777063,0.23003214,-0.47955558,-0.80267654,0.39323029,0.04954121
8.78000000,-0.44076938,0.65941891,-0.48544158,0.05338735,0.71417543,0.16699339,-0.32334034,0.19034403,-0.79828169,0.23003887,-0.47964798,-0.80148269,0.39303575,0.05207469
8.80000000,-0.43474493,0.66041138,-0.48329470,0.04894939,0.71529315,0.16894977,-0.32023820,0.18804163,-0.79879791,0.23004566,-0.47974132,-0.80027678,0.39283925,0.05463375
8.82000000,-0.42866163,0.66141355,-0.48112685,0.04446807,0.71642179,0.17092525,-0.31710575,0.18571673,-0.79931918,0.23005251,-0.47983558,-0.79905910,0.39264082,0.05721782
8.84000000,-0.42252088,0.66242518,-0.47893852,0.03994443,0.71756110,0.17291940,-0.31394372,0.18336988,-0.79984536,0.23005943,-0.47993072,-0.79782991,0.39244053,0.05982629
8.86000000,-0.41632410,0.66344604,-0.47673023,0.03537952,0.71871079,0.17493173,-0.31075284,0.18100162,-0.80037635,0.23006642,-0.48002673,-0.79658951,0.39223840,0.06245856
8.88000000,-0.41007277,0.66447589,-0.47450250,0.03077441,0.71987061,0.17696178,-0.30753387,0.17861250,-0.80091201,0.23007346,-0.48012359,-0.79533819,0.39203450,0.06511400
8.90000000,-0.40376835,0.66551449,-0.47225585,0.02613020,0.72104028,0.17900908,-0.30428756,0.17620310,-0.80145222,0.23008057,-0.48022127,-0.79407624,0.39182886,0.06779200
8.92000000,-0.39741234,0.66656158,-0.46999081,0.02144799,0.72221952,0.18107312,-0.30101469,0.17377398,-0.80199686,0.23008773,-0.48031975,-0.79280397,0.39162154,0.07049190
8.94000000,-0.39100626,0.66761693,-0.46770793,0.01672890,0.72340805,0.18315343,-0.29771603,0.17132572,-0.80254578,0.23009495,-0.48041900,-0.79152167,0.39141259,0.07321308
8.96000000,-0.38455165,0.66868026,-0.46540776,0.01197405,0.72460558,0.18524949,-0.29439239,0.16885892,-0.80309886,0.23010223,-0.48051901,-0.79022967,0.39120206,0.07595487
8.98000000,-0.37805008,0.66975134,-0.46309085,0.00718461,0.72581183,0.18736081,-0.29104456,0.16637417,-0.80365596,0.23010955,-0.48061974,-0.78892825,0.39098999,0.07871661
9.00000000,-0.37150312,0.67082989,-0.46075777,0.00236173,0.72702650,0.18948686,-0.28767337,0.16387207,-0.80421696,0.23011693,-0.48072118,-0.78761776,0.39077644,0.08149763
9.02000000,-0.36491236,0.67191566,-0.45840908,-0.00249341,0.72824929,0.19162714,-0.28427962,0.16135324,-0.80478171,0.23012436,-0.48082329,-0.78629850,0.39056147,0.08429725
9.04000000,-0.35827943,0.67300837,-0.45604535,-0.00737962,0.72947991,0.19378111,-0.28086415,0.15881829,-0.80535007,0.23013184,-0.48092606,-0.78497079,0.39034511,0.08711479
9.06000000,-0.35160594,0.67410777,-0.45366718,-0.01229570,0.73071805,0.19594825,-0.27742780,0.15626784,-0.80592190,0.23013936,-0.48102946,-0.78363497,0.39012744,0.08994956
9.08000000,-0.34489356,0.67521357,-0.45127515,-0.01724044,0.73196341,0.19812803,-0.27397142,0.15370252,-0.80649707,0.23014692,-0.48113346,-0.78229136,0.38990850,0.09280085
9.10000000,-0.33814394,0.67632551,-0.44886985,-0.02221261,0.73321567,0.20031989,-0.27049587,0.15112297,-0.80707543,0.23015453,-0.48123804,-0.78094030,0.38968834,0.09566795
9.12000000,-0.33135876,0.67744331,-0.44645187,-0.02721097,0.73447454,0.20252331,-0.26700201,0.14852984,-0.80765684,0.23016218,-0.48134316,-0.77958212,0.38946702,0.09855016
9.14000000,-0.32453972,0.67856668,-0.44402183,-0.03223428,0.73573968,0.20473772,-0.26349071,0.14592375,-0.80824115,0.23016986,-0.48144882,-0.77821716,0.38924460,0.10144676
9.16000000,-0.31768851,0.67969536,-0.44158032,-0.03728129,0.73701080,0.20696258,-0.25996284,0.14330538,-0.80882821,0.23017758,-0.48155497,-0.77684576,0.38902113,0.10435702
9.18000000,-0.31080685,0.68082905,-0.43912797,-0.04235072,0.73828756,0.20919732,-0.25641930,0.14067537,-0.80941789,0.23018534,-0.48166159,-0.77546827,0.38879667,0.10728021
9.20000000,-0.30389648,0.68196747,-0.43666538,-0.04744131,0.73956965,0.21144139,-0.25286097,0.13803439,-0.81001002,0.23019313,-0.48176866,-0.77408503,0.38857126,0.11021560
9.22000000,-0.29695913,0.68311033,-0.43419317,-0.05255177,0.74085675,0.21369422,-0.24928875,0.13538309,-0.81060447,0.23020095,-0.48187614,-0.77269639,0.38834498,0.11316245
9.24000000,-0.28999655,0.68425735,-0.43171198,-0.05768082,0.74214853,0.21595524,-0.24570354,0.13272216,-0.81120107,0.23020879,-0.48198402,-0.77130270,0.38811788,0.11612001
9.26000000,-0.28301051,0.68540824,-0.42922243,-0.06282715,0.74344466,0.21822388,-0.24210625,0.13005226,-0.81179969,0.23021667,-0.48209226,-0.76990432,0.38789001,0.11908755
9.28000000,-0.27600278,0.68656270,-0.42672514,-0.06798946,0.74474481,0.22049957,-0.23849779,0.12737406,-0.81240017,0.23022457,-0.48220084,-0.76850159,0.38766143,0.12206429
9.30000000,-0.26897513,0.68772044,-0.42422076,-0.07316644,0.74604866,0.22278172,-0.23487907,0.12468826,-0.81300235,0.23023249,-0.48230972,-0.76709488,0.38743221,0.12504950
9.32000000,-0.26192935,0.68888117,-0.42170991,-0.07835678,0.74735588,0.22506976,-0.23125102,0.12199552,-0.81360609,0.23024043,-0.48241889,-0.76568453,0.38720239,0.12804241
9.34000000,-0.25486723,0.69004459,-0.41919325,-0.08355915,0.74866612,0.22736311,-0.22761455,0.11929655,-0.81421122,0.23024839,-0.48252830,-0.76427092,0.38697204,0.13104226
9.36000000,-0.24779058,0.69121040,-0.41667140,-0.08877223,0.74997906,0.22966117,-0.22397060,0.11659201,-0.81481761,0.23025636,-0.48263795,-0.76285439,0.38674122,0.13404828
9.38000000,-0.24070119,0.69237831,-0.41414502,-0.09399469,0.75129437,0.23196338,-0.22032009,0.11388261,-0.81542508,0.23026435,-0.48274779,-0.76143532,0.38650998,0.13705972
9.40000000,-0.23360088,0.69354803,-0.41161474,-0.09922520,0.75261170,0.23426912,-0.21666396,0.11116904,-0.81603349,0.23027235,-0.48285780,-0.76001406,0.38627838,0.14007579
9.42000000,-0.22649146,0.69471924,-0.40908122,-0.10446242,0.75393072,0.23657783,-0.21300314,0.10845198,-0.81664268,0.23028037,-0.48296795,-0.75859098,0.38604649,0.14309573
9.44000000,-0.21937475,0.69589165,-0.40654510,-0.10970501,0.75525109,0.23888891,-0.20933856,0.10573214,-0.81725250,0.23028839,-0.48307822,-0.75716644,0.38581435,0.14611877
9.46000000,-0.21225256,0.69706497,-0.40400703,-0.11495163,0.75657248,0.24120176,-0.20567117,0.10301021,-0.81786278,0.23029642,-0.48318856,-0.75574080,0.38558205,0.14914413
9.48000000,-0.20512673,0.69823888,-0.40146766,-0.12020094,0.75789455,0.24351580,-0.20200189,0.10028688,-0.81847338,0.23030445,-0.48329897,-0.75431443,0.38534962,0.15217104
9.50000000,-0.19799908,0.69941310,-0.39892764,-0.12545159,0.75921695,0.24583042,-0.19833168,0.09756286,-0.81908413,0.23031248,-0.48340940,-0.75288770,0.38511713,0.15519873
9.52000000,-0.19087142,0.70058731,-0.39638762,-0.13070224,0.76053936,0.24814505,-0.19466147,0.09483883,-0.81969488,0.23032051,-0.48351984,-0.75146097,0.38488464,0.15822642
9.54000000,-0.18374559,0.70176123,-0.39384825,-0.13595155,0.76186142,0.25045909,-0.19099219,0.09211551,-0.82030548,0.23032854,-0.48363024,-0.75003460,0.38465221,0.16125333
9.56000000,-0.17662341,0.70293454,-0.39131018,-0.14119817,0.76318281,0.25277194,-0.18732480,0.08939357,-0.82091576,0.23033657,-0.48374059,-0.74860896,0.38441990,0.16427869
9.58000000,-0.16950670,0.70410696,-0.38877406,-0.14644076,0.76450319,0.25508302,-0.18366022,0.08667373,-0.82152558,0.23034459,-0.48385086,-0.74718442,0.38418777,0.16730173
9.60000000,-0.16239728,0.70527817,-0.38624053,-0.15167798,0.76582221,0.25739172,-0.17999940,0.08395668,-0.82213477,0.23035260,-0.48396101,-0.74576134,0.38395588,0.17032167
9.62000000,-0.15529697,0.70644788,-0.38371026,-0.15690849,0.76713954,0.25969747,-0.17634327,0.08124310,-0.82274318,0.23036061,-0.48407102,-0.74434008,0.38372428,0.17333775
9.64000000,-0.14820758,0.70761579,-0.38118387,-0.16213095,0.76845484,0.26199968,-0.17269276,0.07853370,-0.82335065,0.23036860,-0.48418086,-0.74292101,0.38349304,0.17634918
9.66000000,-0.14113092,0.70878161,-0.37866203,-0.16734403,0.76976778,0.26429774,-0.16904881,0.07582917,-0.82395703,0.23037657,-0.48429051,-0.74150448,0.38326222,0.17935520
9.68000000,-0.13406881,0.70994502,-0.37614536,-0.17254640,0.77107803,0.26659109,-0.16541234,0.07313019,-0.82456217,0.23038453,-0.48439992,-0.74009087,0.38303187,0.18235505
9.70000000,-0.12702302,0.71110575,-0.37363452,-0.17773674,0.77238524,0.26887913,-0.16178429,0.07043746,-0.82516591,0.23039247,-0.48450909,-0.73868052,0.38280205,0.18534796
9.72000000,-0.11999537,0.71226349,-0.37113014,-0.18291372,0.77368909,0.27116128,-0.15816557,0.06775165,-0.82576809,0.23040039,-0.48461797,-0.73727381,0.38257282,0.18833317
9.74000000,-0.11298764,0.71341795,-0.36863285,-0.18807603,0.77498925,0.27343697,-0.15455711,0.06507346,-0.82636857,0.23040829,-0.48472655,-0.73587108,0.38234425,0.19130992
9.76000000,-0.10600160,0.71456884,-0.36614330,-0.19322236,0.77628538,0.27570561,-0.15095982,0.06240356,-0.82696718,0.23041617,-0.48483479,-0.73447269,0.38211638,0.19427745
9.78000000,-0.09903903,0.71571586,-0.36366210,-0.19835141,0.77757716,0.27796663,-0.14737461,0.05974262,-0.82756379,0.23042401,-0.48494267,-0.73307901,0.38188927,0.19723501
9.80000000,-0.09210168,0.71685873,-0.36118990,-0.20346187,0.77886425,0.28021946,-0.14380239,0.05709133,-0.82815824,0.23043183,-0.48505015,-0.73169037,0.38166299,0.20018186
9.82000000,-0.08519130,0.71799715,-0.35872731,-0.20855246,0.78014634,0.28246353,-0.14024406,0.05445034,-0.82875037,0.23043962,-0.48515722,-0.73030713,0.38143759,0.20311725
9.84000000,-0.07830965,0.71913084,-0.35627496,-0.21362189,0.78142311,0.28469827,-0.13670052,0.05182033,-0.82934005,0.23044738,-0.48526384,-0.72892964,0.38121313,0.20604044
9.86000000,-0.07145844,0.72025951,-0.35383345,-0.21866890,0.78269422,0.28692313,-0.13317265,0.04920196,-0.82992711,0.23045510,-0.48536999,-0.72755824,0.38098966,0.20895070
9.88000000,-0.06463939,0.72138289,-0.35140340,-0.22369221,0.78395937,0.28913754,-0.12966135,0.04659588,-0.83051142,0.23046278,-0.48547565,-0.72619328,0.38076723,0.21184730
9.90000000,-0.05785421,0.72250068,-0.34898543,-0.22869057,0.78521823,0.29134096,-0.12616749,0.04400274,-0.83109283,0.23047043,-0.48558077,-0.72483510,0.38054592,0.21472951
9.92000000,-0.05110459,0.72361262,-0.34658013,-0.23366274,0.78647050,0.29353282,-0.12269194,0.04142319,-0.83167118,0.23047804,-0.48568535,-0.72348404,0.38032576,0.21759662
9.94000000,-0.04439221,0.72471842,-0.34418809,-0.23860748,0.78771586,0.29571259,-0.11923556,0.03885788,-0.83224635,0.23048560,-0.48578935,-0.72214043,0.38010682,0.22044790
9.96000000,-0.03771873,0.72581782,-0.34180992,-0.24352356,0.78895400,0.29787974,-0.11579921,0.03630743,-0.83281819,0.23049312,-0.48589275,-0.72080461,0.37988914,0.22328267
9.98000000,-0.03108580,0.72691053,-0.33944620,-0.24840977,0.79018462,0.30003371,-0.11238374,0.03377247,-0.83338655,0.23050060,-0.48599552,-0.71947690,0.37967279,0.22610021
10.00000000,-0.02449504,0.72799630,-0.33709751,-0.25326491,0.79140741,0.30217399,-0.10898999,0.03125364,-0.83395130,0.23050803,-0.48609763,-0.71815764,0.37945782,0.22889983
10.02000000,-0.01794808,0.72907485,-0.33476443,-0.25808779,0.79262208,0.30430004,-0.10561880,0.02875154,-0.83451229,0.23051541,-0.48619907,-0.71684714,0.37924427,0.23168085
10.04000000,-0.01144650,0.73014593,-0.33244752,-0.26287723,0.79382832,0.30641136,-0.10227097,0.02626679,-0.83506940,0.23052273,-0.48629980,-0.71554573,0.37903220,0.23444259
10.06000000,-0.00499190,0.73120927,-0.33014734,-0.26763208,0.79502586,0.30850742,-0.09894733,0.02379999,-0.83562248,0.23053001,-0.48639981,-0.71425372,0.37882167,0.23718438
10.08000000,0.00141418,0.73226461,-0.32786447,-0.27235117,0.79621439,0.31058773,-0.09564867,0.02135174,-0.83617140,0.23053723,-0.48649906,-0.71297143,0.37861271,0.23990556
10.10000000,0.00777019,0.73331170,-0.32559943,-0.27703338,0.79739363,0.31265177,-0.09237580,0.01892262,-0.83671603,0.23054439,-0.48659754,-0.71169916,0.37840540,0.24260547
10.12000000,0.01407461,0.73435030,-0.32335278,-0.28167759,0.79856329,0.31469906,-0.08912949,0.01651321,-0.83725624,0.23055150,-0.48669522,-0.71043721,0.37819976,0.24528346
10.14000000,0.02032595,0.73538015,-0.32112504,-0.28628270,0.79972311,0.31672912,-0.08591052,0.01412410,-0.83779191,0.23055854,-0.48679208,-0.70918589,0.37799585,0.24793890
10.16000000,0.02652272,0.73640101,-0.31891675,-0.29084761,0.80087281,0.31874145,-0.08271964,0.01175584,-0.83832289,0.23056553,-0.48688809,-0.70794549,0.37779373,0.25057117
10.18000000,0.03266347,0.73741264,-0.31672843,-0.29537125,0.80201211,0.32073560,-0.07955761,0.00940898,-0.83884908,0.23057245,-0.48698323,-0.70671630,0.37759343,0.25317964
10.20000000,0.03874678,0.73841481,-0.31456057,-0.29985257,0.80314076,0.32271108,-0.07642516,0.00708408,-0.83937035,0.23057930,-0.48707749,-0.70549862,0.37739501,0.25576371
10.22000000,0.04477123,0.73940729,-0.31241369,-0.30429053,0.80425848,0.32466746,-0.07332302,0.00478168,-0.83988657,0.23058609,-0.48717083,-0.70429271,0.37719850,0.25832278
10.24000000,0.05073543,0.74038983,-0.31028828,-0.30868412,0.80536503,0.32660427,-0.07025189,0.00250230,-0.84039763,0.23059282,-0.48726323,-0.70309886,0.37700397,0.26085625
10.26000000,0.05663804,0.74136223,-0.30818482,-0.31303233,0.80646015,0.32852108,-0.06721249,0.00024646,-0.84090341,0.23059947,-0.48735469,-0.70191735,0.37681144,0.26336357
10.28000000,0.06247772,0.74232427,-0.30610378,-0.31733418,0.80754359,0.33041745,-0.06420549,-0.00198533,-0.84140380,0.23060605,-0.48744517,-0.70074843,0.37662096,0.26584415
10.30000000,0.06825316,0.74327572,-0.30404564,-0.32158871,0.80861512,0.33229296,-0.06123157,-0.00419257,-0.84189868,0.23061256,-0.48753465,-0.69959237,0.37643258,0.26829744
10.32000000,0.07396309,0.74421638,-0.30201084,-0.32579498,0.80967449,0.33414720,-0.05829138,-0.00637477,-0.84238795,0.23061899,-0.48762312,-0.69844942,0.37624633,0.27072290
10.34000000,0.07960625,0.74514604,-0.29999984,-0.32995207,0.81072147,0.33597976,-0.05538557,-0.00853146,-0.84287150,0.23062535,-0.48771055,-0.69731983,0.37606226,0.27312001
10.36000000,0.08518143,0.74606450,-0.29801306,-0.33405907,0.81175584,0.33779023,-0.05251476,-0.01066216,-0.84334923,0.23063164,-0.48779693,-0.69620386,0.37588041,0.27548824
10.38000000,0.09068743,0.74697156,-0.29605093,-0.33811512,0.81277738,0.33957825,-0.04967958,-0.01276643,-0.84382102,0.23063784,-0.48788224,-0.69510173,0.37570082,0.27782708
10.40000000,0.09612310,0.74786704,-0.29411387,-0.34211935,0.81378587,0.34134342,-0.04688062,-0.01484381,-0.84428679,0.23064397,-0.48796646,-0.69401368,0.37552352,0.28013604
10.42000000,0.10148729,0.74875074,-0.29220228,-0.34607093,0.81478109,0.34308539,-0.04411846,-0.01689388,-0.84474644,0.23065002,-0.48804957,-0.69293994,0.37534855,0.28241464
10.44000000,0.10677891,0.74962249,-0.29031655,-0.34996906,0.81576286,0.34480378,-0.04139366,-0.01891622,-0.84519987,0.23065598,-0.48813156,-0.69188072,0.37517595,0.28466242
10.46000000,0.11199690,0.75048210,-0.28845706,-0.35381294,0.81673096,0.34649827,-0.03870679,-0.02091041,-0.84564698,0.23066186,-0.48821240,-0.69083624,0.37500575,0.28687892
10.48000000,0.11714022,0.75132942,-0.28662418,-0.35760181,0.81768521,0.34816851,-0.03605836,-0.02287607,-0.84608770,0.23066766,-0.48829209,-0.68980671,0.37483799,0.28906370
10.50000000,0.12220787,0.75216427,-0.28481827,-0.36133494,0.81862541,0.34981417,-0.03344890,-0.02481281,-0.84652194,0.23067337,-0.48837061,-0.68879233,0.37467269,0.29121634
10.52000000,0.12719888,0.75298649,-0.28303966,-0.36501161,0.81955140,0.35143495,-0.03087890,-0.02672026,-0.84694961,0.23067899,-0.48844794,-0.68779328,0.37450990,0.29333642
10.54000000,0.13211233,0.75379593,-0.28128870,-0.36863114,0.82046300,0.35303054,-0.02834884,-0.02859806,-0.84737063,0.23068453,-0.48852407,-0.68680977,0.37434963,0.29542356
10.56000000,0.13694731,0.75459245,-0.27956570,-0.37219288,0.82136004,0.35460064,-0.02585918,-0.03044588,-0.84778493,0.23068998,-0.48859898,-0.68584195,0.37419193,0.29747736
10.58000000,0.14170296,0.75537590,-0.27787097,-0.37569617,0.82224237,0.35614499,-0.02341037,-0.03226338,-0.84819243,0.23069534,-0.48867266,-0.68489002,0.37403681,0.29949747
10.60000000,0.14637848,0.75614615,-0.27620480,-0.37914043,0.82310982,0.35766332,-0.02100283,-0.03405025,-0.84859306,0.23070061,-0.48874510,-0.68395413,0.37388430,0.30148354
10.62000000,0.15097306,0.75690307,-0.27456747,-0.38252508,0.82396226,0.35915536,-0.01863696,-0.03580620,-0.84898676,0.23070579,-0.48881629,-0.68303444,0.37373444,0.30343523
10.64000000,0.15548597,0.75764653,-0.27295924,-0.38584955,0.82479955,0.36062088,-0.01631315,-0.03753093,-0.84937346,0.23071087,-0.48888621,-0.68213110,0.37358724,0.30535222
10.66000000,0.15991650,0.75837642,-0.27138037,-0.38911334,0.82562155,0.36205964,-0.01403176,-0.03922417,-0.84975311,0.23071587,-0.48895486,-0.68124424,0.37344272,0.30723422
10.68000000,0.16426399,0.75909263,-0.26983109,-0.39231596,0.82642815,0.36347144,-0.01179312,-0.04088568,-0.85012563,0.23072077,-0.48902222,-0.68037401,0.37330092,0.30908095
10.70000000,0.16852780,0.75979505,-0.26831164,-0.39545693,0.82721922,0.36485607,-0.00959758,-0.04251521,-0.85049099,0.23072557,-0.48908828,-0.67952053,0.37316184,0.31089213
10.72000000,0.17270736,0.76048359,-0.26682221,-0.39853584,0.82799466,0.36621333,-0.00744542,-0.04411254,-0.85084912,0.23073028,-0.48915304,-0.67868392,0.37302551,0.31266753
10.74000000,0.17680211,0.76115817,-0.26536299,-0.40155228,0.82875436,0.36754306,-0.00533692,-0.04567746,-0.85120000,0.23073490,-0.48921648,-0.67786427,0.37289195,0.31440690
10.76000000,0.18081157,0.76181869,-0.26393418,-0.40450588,0.82949824,0.36884509,-0.00327235,-0.04720978,-0.85154356,0.23073942,-0.48927860,-0.67706171,0.37276117,0.31611004
10.78000000,0.18473527,0.76246508,-0.26253592,-0.40739631,0.83022621,0.37011927,-0.00125193,-0.04870933,-0.85187977,0.23074384,-0.48933939,-0.67627631,0.37263319,0.31777675
10.80000000,0.18857281,0.76309728,-0.26116837,-0.41022327,0.83093820,0.37136547,0.00072411,-0.05017595,-0.85220860,0.23074816,-0.48939885,-0.67550815,0.37250802,0.31940686
10.82000000,0.19232381,0.76371523,-0.25983166,-0.41298648,0.83163413,0.37258357,0.00265560,-0.05160950,-0.85253001,0.23075239,-0.48945697,-0.67475732,0.37238567,0.32100021
10.84000000,0.19598796,0.76431886,-0.25852590,-0.41568571,0.83231394,0.37377346,0.00454237,-0.05300985,-0.85284399,0.23075652,-0.48951374,-0.67402387,0.37226615,0.32255667
10.86000000,0.19956498,0.76490814,-0.25725119,-0.41832075,0.83297759,0.37493506,0.00638426,-0.05437690,-0.85315049,0.23076055,-0.48956916,-0.67330786,0.37214948,0.32407612
10.88000000,0.20305464,0.76548303,-0.25600761,-0.42089144,0.83362503,0.37606829,0.00818118,-0.05571057,-0.85344952,0.23076449,-0.48962323,-0.67260934,0.37203565,0.32555846
10.90000000,0.20645676,0.76604350,-0.25479522,-0.42339764,0.83425623,0.37717309,0.00993302,-0.05701078,-0.85374104,0.23076832,-0.48967594,-0.67192835,0.37192468,0.32700361
10.92000000,0.20977121,0.76658953,-0.25361408,-0.42583926,0.83487117,0.37824942,0.01163971,-0.05827748,-0.85402504,0.23077206,-0.48972729,-0.67126490,0.37181657,0.32841152
10.94000000,0.21299790,0.76712109,-0.25246421,-0.42821624,0.83546982,0.37929725,0.01330122,-0.05951065,-0.85430153,0.23077569,-0.48977729,-0.67061901,0.37171133,0.32978216
10.96000000,0.21613681,0.76763820,-0.25134563,-0.43052854,0.83605219,0.38031658,0.01491752,-0.06071027,-0.85457050,0.23077923,-0.48982592,-0.66999070,0.37160894,0.33111550
10.98000000,0.21918794,0.76814085,-0.25025832,-0.43277618,0.83661827,0.38130740,0.01648863,-0.06187634,-0.85483194,0.23078267,-0.48987320,-0.66937996,0.37150942,0.33241156
11.00000000,0.22215137,0.76862904,-0.24920227,-0.43495922,0.83716808,0.38226974,0.01801457,-0.06300889,-0.85508587,0.23078601,-0.48991911,-0.66878678,0.37141276,0.33367037
11.02000000,0.22502721,0.76910281,-0.24817743,-0.43707774,0.83770164,0.38320364,0.01949542,-0.06410798,-0.85533230,0.23078925,-0.48996367,-0.66821112,0.37131896,0.33489197
11.04000000,0.22781565,0.76956218,-0.24718374,-0.43913186,0.83821898,0.38410916,0.02093126,-0.06517365,-0.85557123,0.23079239,-0.49000687,-0.66765297,0.37122801,0.33607644
11.06000000,0.23051689,0.77000719,-0.24622112,-0.44112176,0.83872014,0.38498636,0.02232220,-0.06620600,-0.85580269,0.23079544,-0.49004872,-0.66711226,0.37113990,0.33722388
11.08000000,0.23313123,0.77043788,-0.24528947,-0.44304764,0.83920519,0.38583534,0.02366839,-0.06720514,-0.85602671,0.23079838,-0.49008923,-0.66658895,0.37105462,0.33833440
11.10000000,0.23565900,0.77085430,-0.24438867,-0.44490974,0.83967417,0.38665620,0.02497000,-0.06817120,-0.85624331,0.23080123,-0.49012839,-0.66608297,0.37097217,0.33940815
11.12000000,0.23810059,0.77125653,-0.24351859,-0.44670836,0.84012716,0.38744908,0.02622724,-0.06910432,-0.85645252,0.23080399,-0.49016622,-0.66559425,0.37089253,0.34044528
11.14000000,0.24045644,0.77164464,-0.24267905,-0.44844382,0.84056424,0.38821412,0.02744033,-0.07000467,-0.85665439,0.23080664,-0.49020272,-0.66512268,0.37081569,0.34144600
11.16000000,0.24272706,0.77201870,-0.24186989,-0.45011649,0.84098551,0.38895147,0.02860952,-0.07087244,-0.85684895,0.23080920,-0.49023790,-0.66466817,0.37074163,0.34241052
11.18000000,0.24491300,0.77237881,-0.24109091,-0.45172678,0.84139108,0.38966134,0.02973512,-0.07170786,-0.85703626,0.23081166,-0.49027177,-0.66423062,0.37067033,0.34333906
11.20000000,0.24701488,0.77272508,-0.24034188,-0.45327515,0.84178104,0.39034390,0.03081744,-0.07251115,-0.85721637,0.23081403,-0.49030434,-0.66380988,0.37060177,0.34423190
11.22000000,0.24903339,0.77305761,-0.23962256,-0.45476210,0.84215554,0.39099939,0.03185682,-0.07328258,-0.85738933,0.23081631,-0.49033561,-0.66340584,0.37053593,0.34508932
11.24000000,0.25096925,0.77337653,-0.23893269,-0.45618818,0.84251470,0.39162804,0.03285364,-0.07402242,-0.85755521,0.23081849,-0.49036561,-0.66301834,0.37047279,0.34591164
11.26000000,0.25282327,0.77368196,-0.23827199,-0.45755395,0.84285868,0.39223011,0.03380833,-0.07473098,-0.85771408,0.23082058,-0.49039433,-0.66264723,0.37041231,0.34669919
11.28000000,0.25459630,0.77397405,-0.23764015,-0.45886007,0.84318763,0.39280588,0.03472130,-0.07540859,-0.85786600,0.23082258,-0.49042180,-0.66229232,0.37035448,0.34745234
11.30000000,0.25628926,0.77425295,-0.23703685,-0.46010721,0.84350173,0.39335565,0.03559305,-0.07605561,-0.85801107,0.23082448,-0.49044803,-0.66195344,0.37029926,0.34817147
11.32000000,0.25790314,0.77451882,-0.23646172,-0.46129608,0.84380115,0.39387974,0.03642408,-0.07667239,-0.85814936,0.23082630,-0.49047304,-0.66163040,0.37024662,0.34885702
11.34000000,0.25943897,0.77477183,-0.23591441,-0.46242747,0.84408610,0.39437849,0.03721492,-0.07725935,-0.85828096,0.23082803,-0.49049683,-0.66132297,0.37019652,0.34950941
11.36000000,0.26089787,0.77501218,-0.23539452,-0.46350218,0.84435677,0.39485225,0.03796614,-0.07781691,-0.85840597,0.23082968,-0.49051944,-0.66103095,0.37014894,0.35012912
11.38000000,0.26228100,0.77524003,-0.23490162,-0.46452108,0.84461339,0.39530141,0.03867835,-0.07834551,-0.85852449,0.23083124,-0.49054087,-0.66075409,0.37010382,0.35071665
11.40000000,0.26358962,0.77545562,-0.23443528,-0.46548508,0.84485618,0.39572637,0.03935219,-0.07884563,-0.85863662,0.23083271,-0.49056114,-0.66049214,0.37006114,0.35127252
11.42000000,0.26482502,0.77565914,-0.23399503,-0.46639515,0.84508538,0.39612755,0.03998833,-0.07931777,-0.85874248,0.23083410,-0.49058028,-0.66024485,0.37002084,0.35179729
11.44000000,0.26598857,0.77585082,-0.23358039,-0.46725229,0.84530126,0.39650540,0.04058747,-0.07976245,-0.85884218,0.23083542,-0.49059831,-0.66001195,0.36998289,0.35229155
11.46000000,0.26708170,0.77603091,-0.23319084,-0.46805756,0.84550407,0.39686038,0.04115036,-0.08018023,-0.85893585,0.23083665,-0.49061525,-0.65979314,0.36994723,0.35275589
11.48000000,0.26810594,0.77619964,-0.23282584,-0.46881207,0.84569410,0.39719299,0.04167776,-0.08057167,-0.85902361,0.23083780,-0.49063112,-0.65958812,0.36991383,0.35319097
11.50000000,0.26906285,0.77635728,-0.23248484,-0.46951698,0.84587163,0.39750374,0.04217050,-0.08093737,-0.85910561,0.23083888,-0.49064594,-0.65939657,0.36988261,0.35359744
11.52000000,0.26995407,0.77650410,-0.23216724,-0.47017351,0.84603698,0.39779315,0.04262941,-0.08127798,-0.85918198,0.23083989,-0.49065975,-0.65921818,0.36985354,0.35397601
11.54000000,0.27078132,0.77664038,-0.23187244,-0.47078291,0.84619046,0.39806179,0.04305538,-0.08159413,-0.85925286,0.23084082,-0.49067257,-0.65905259,0.36982656,0.35432741
11.56000000,0.27154638,0.77676642,-0.23159980,-0.47134650,0.84633240,0.39831024,0.04344933,-0.08188652,-0.85931842,0.23084168,-0.49068442,-0.65889945,0.36980161,0.35465240
11.58000000,0.27225111,0.77688252,-0.23134866,-0.47186565,0.84646315,0.39853909,0.04381222,-0.08215585,-0.85937880,0.23084247,-0.49069534,-0.65875838,0.36977862,0.35495175
11.60000000,0.27289744,0.77698900,-0.23111833,-0.47234177,0.84658307,0.39874898,0.04414503,-0.08240287,-0.85943419,0.23084320,-0.49070536,-0.65862901,0.36975754,0.35522630
11.62000000,0.27348737,0.77708618,-0.23090811,-0.47277635,0.84669252,0.39894055,0.04444880,-0.08262832,-0.85948474,0.23084387,-0.49071450,-0.65851092,0.36973830,0.35547689
