gracetata/LocomotionHEC/legged_lab/Reference Data/ArmHack/StandPerturb/TestData/ArmOnly/trajectories/synthesized/synthesized_arm_trajectory_01_seed20260714_minimum_jerk_50hz.csv
time_s,left_shoulder_pitch_joint,left_shoulder_roll_joint,left_shoulder_yaw_joint,left_elbow_joint,left_wrist_roll_joint,left_wrist_pitch_joint,left_wrist_yaw_joint,right_shoulder_pitch_joint,right_shoulder_roll_joint,right_shoulder_yaw_joint,right_elbow_joint,right_wrist_roll_joint,right_wrist_pitch_joint,right_wrist_yaw_joint
0.00000000,-0.14641775,0.68058631,-0.40064438,-0.10040348,0.79272595,0.25524550,-0.12098222,-0.25783146,-0.89893855,0.23221721,-0.49992022,-0.56581545,0.35470617,0.55119979
0.02000000,-0.14641775,0.68058631,-0.40064438,-0.10040348,0.79272595,0.25524550,-0.12098222,-0.25783146,-0.89893855,0.23221721,-0.49992022,-0.56581545,0.35470617,0.55119979
0.04000000,-0.14641775,0.68058631,-0.40064438,-0.10040348,0.79272595,0.25524550,-0.12098222,-0.25783146,-0.89893855,0.23221721,-0.49992022,-0.56581545,0.35470617,0.55119979
0.06000000,-0.14641775,0.68058631,-0.40064438,-0.10040348,0.79272595,0.25524550,-0.12098222,-0.25783146,-0.89893855,0.23221721,-0.49992022,-0.56581545,0.35470617,0.55119979
0.08000000,-0.14641775,0.68058631,-0.40064438,-0.10040348,0.79272595,0.25524550,-0.12098222,-0.25783146,-0.89893855,0.23221721,-0.49992022,-0.56581545,0.35470617,0.55119979
0.10000000,-0.14641775,0.68058631,-0.40064438,-0.10040348,0.79272595,0.25524550,-0.12098222,-0.25783146,-0.89893855,0.23221721,-0.49992022,-0.56581545,0.35470617,0.55119979
0.12000000,-0.14641775,0.68058631,-0.40064438,-0.10040348,0.79272595,0.25524550,-0.12098222,-0.25783146,-0.89893855,0.23221721,-0.49992022,-0.56581545,0.35470617,0.55119979
0.14000000,-0.14641775,0.68058631,-0.40064438,-0.10040348,0.79272595,0.25524550,-0.12098222,-0.25783146,-0.89893855,0.23221721,-0.49992022,-0.56581545,0.35470617,0.55119979
0.16000000,-0.14641775,0.68058631,-0.40064438,-0.10040348,0.79272595,0.25524550,-0.12098222,-0.25783146,-0.89893855,0.23221721,-0.49992022,-0.56581545,0.35470617,0.55119979
0.18000000,-0.14641775,0.68058631,-0.40064438,-0.10040348,0.79272595,0.25524550,-0.12098222,-0.25783146,-0.89893855,0.23221721,-0.49992022,-0.56581545,0.35470617,0.55119979
0.20000000,-0.14641775,0.68058631,-0.40064438,-0.10040348,0.79272595,0.25524550,-0.12098222,-0.25783146,-0.89893855,0.23221721,-0.49992022,-0.56581545,0.35470617,0.55119979
0.22000000,-0.14641775,0.68058631,-0.40064438,-0.10040348,0.79272595,0.25524550,-0.12098222,-0.25783146,-0.89893855,0.23221721,-0.49992022,-0.56581545,0.35470617,0.55119979
0.24000000,-0.14641775,0.68058631,-0.40064438,-0.10040348,0.79272595,0.25524550,-0.12098222,-0.25783146,-0.89893855,0.23221721,-0.49992022,-0.56581545,0.35470617,0.55119979
0.26000000,-0.14641775,0.68058631,-0.40064438,-0.10040348,0.79272595,0.25524550,-0.12098222,-0.25783146,-0.89893855,0.23221721,-0.49992022,-0.56581545,0.35470617,0.55119979
0.28000000,-0.14641775,0.68058631,-0.40064438,-0.10040348,0.79272595,0.25524550,-0.12098222,-0.25783146,-0.89893855,0.23221721,-0.49992022,-0.56581545,0.35470617,0.55119979
0.30000000,-0.14641775,0.68058631,-0.40064438,-0.10040348,0.79272595,0.25524550,-0.12098222,-0.25783146,-0.89893855,0.23221721,-0.49992022,-0.56581545,0.35470617,0.55119979
0.32000000,-0.14641775,0.68058631,-0.40064438,-0.10040348,0.79272595,0.25524550,-0.12098222,-0.25783146,-0.89893855,0.23221721,-0.49992022,-0.56581545,0.35470617,0.55119979
0.34000000,-0.14641775,0.68058631,-0.40064438,-0.10040348,0.79272595,0.25524550,-0.12098222,-0.25783146,-0.89893855,0.23221721,-0.49992022,-0.56581545,0.35470617,0.55119979
0.36000000,-0.14641775,0.68058631,-0.40064438,-0.10040348,0.79272595,0.25524550,-0.12098222,-0.25783146,-0.89893855,0.23221721,-0.49992022,-0.56581545,0.35470617,0.55119979
0.38000000,-0.14641775,0.68058631,-0.40064438,-0.10040348,0.79272595,0.25524550,-0.12098222,-0.25783146,-0.89893855,0.23221721,-0.49992022,-0.56581545,0.35470617,0.55119979
0.40000000,-0.14641775,0.68058631,-0.40064438,-0.10040348,0.79272595,0.25524550,-0.12098222,-0.25783146,-0.89893855,0.23221721,-0.49992022,-0.56581545,0.35470617,0.55119979
0.42000000,-0.14641775,0.68058631,-0.40064438,-0.10040348,0.79272595,0.25524550,-0.12098222,-0.25783146,-0.89893855,0.23221721,-0.49992022,-0.56581545,0.35470617,0.55119979
0.44000000,-0.14641775,0.68058631,-0.40064438,-0.10040348,0.79272595,0.25524550,-0.12098222,-0.25783146,-0.89893855,0.23221721,-0.49992022,-0.56581545,0.35470617,0.55119979
0.46000000,-0.14641775,0.68058631,-0.40064438,-0.10040348,0.79272595,0.25524550,-0.12098222,-0.25783146,-0.89893855,0.23221721,-0.49992022,-0.56581545,0.35470617,0.55119979
0.48000000,-0.14641775,0.68058631,-0.40064438,-0.10040348,0.79272595,0.25524550,-0.12098222,-0.25783146,-0.89893855,0.23221721,-0.49992022,-0.56581545,0.35470617,0.55119979
0.50000000,-0.14641775,0.68058631,-0.40064438,-0.10040348,0.79272595,0.25524550,-0.12098222,-0.25783146,-0.89893855,0.23221721,-0.49992022,-0.56581545,0.35470617,0.55119979
0.52000000,-0.14641775,0.68058631,-0.40064438,-0.10040348,0.79272595,0.25524550,-0.12098222,-0.25783146,-0.89893855,0.23221721,-0.49992022,-0.56581545,0.35470617,0.55119979
0.54000000,-0.14641775,0.68058631,-0.40064438,-0.10040348,0.79272595,0.25524550,-0.12098222,-0.25783146,-0.89893855,0.23221721,-0.49992022,-0.56581545,0.35470617,0.55119979
0.56000000,-0.14641775,0.68058631,-0.40064438,-0.10040348,0.79272595,0.25524550,-0.12098222,-0.25783146,-0.89893855,0.23221721,-0.49992022,-0.56581545,0.35470617,0.55119979
0.58000000,-0.14641775,0.68058631,-0.40064438,-0.10040348,0.79272595,0.25524550,-0.12098222,-0.25783146,-0.89893855,0.23221721,-0.49992022,-0.56581545,0.35470617,0.55119979
0.60000000,-0.14641775,0.68058631,-0.40064438,-0.10040348,0.79272595,0.25524550,-0.12098222,-0.25783146,-0.89893855,0.23221721,-0.49992022,-0.56581545,0.35470617,0.55119979
0.62000000,-0.14641775,0.68058631,-0.40064438,-0.10040348,0.79272595,0.25524550,-0.12098222,-0.25783146,-0.89893855,0.23221721,-0.49992022,-0.56581545,0.35470617,0.55119979
0.64000000,-0.14641775,0.68058631,-0.40064438,-0.10040348,0.79272595,0.25524550,-0.12098222,-0.25783146,-0.89893855,0.23221721,-0.49992022,-0.56581545,0.35470617,0.55119979
0.66000000,-0.14641775,0.68058631,-0.40064438,-0.10040348,0.79272595,0.25524550,-0.12098222,-0.25783146,-0.89893855,0.23221721,-0.49992022,-0.56581545,0.35470617,0.55119979
0.68000000,-0.14641775,0.68058631,-0.40064438,-0.10040348,0.79272595,0.25524550,-0.12098222,-0.25783146,-0.89893855,0.23221721,-0.49992022,-0.56581545,0.35470617,0.55119979
0.70000000,-0.14641775,0.68058631,-0.40064438,-0.10040348,0.79272595,0.25524550,-0.12098222,-0.25783146,-0.89893855,0.23221721,-0.49992022,-0.56581545,0.35470617,0.55119979
0.72000000,-0.14641775,0.68058631,-0.40064438,-0.10040348,0.79272595,0.25524550,-0.12098222,-0.25783146,-0.89893855,0.23221721,-0.49992022,-0.56581545,0.35470617,0.55119979
0.74000000,-0.14641775,0.68058631,-0.40064438,-0.10040348,0.79272595,0.25524550,-0.12098222,-0.25783146,-0.89893855,0.23221721,-0.49992022,-0.56581545,0.35470617,0.55119979
0.76000000,-0.14641775,0.68058631,-0.40064438,-0.10040348,0.79272595,0.25524550,-0.12098222,-0.25783146,-0.89893855,0.23221721,-0.49992022,-0.56581545,0.35470617,0.55119979
0.78000000,-0.14641775,0.68058631,-0.40064438,-0.10040348,0.79272595,0.25524550,-0.12098222,-0.25783146,-0.89893855,0.23221721,-0.49992022,-0.56581545,0.35470617,0.55119979
0.80000000,-0.14641775,0.68058631,-0.40064438,-0.10040348,0.79272595,0.25524550,-0.12098222,-0.25783146,-0.89893855,0.23221721,-0.49992022,-0.56581545,0.35470617,0.55119979
0.82000000,-0.14641775,0.68058631,-0.40064438,-0.10040348,0.79272595,0.25524550,-0.12098222,-0.25783146,-0.89893855,0.23221721,-0.49992022,-0.56581545,0.35470617,0.55119979
0.84000000,-0.14641775,0.68058631,-0.40064438,-0.10040348,0.79272595,0.25524550,-0.12098222,-0.25783146,-0.89893855,0.23221721,-0.49992022,-0.56581545,0.35470617,0.55119979
0.86000000,-0.14641775,0.68058631,-0.40064438,-0.10040348,0.79272595,0.25524550,-0.12098222,-0.25783146,-0.89893855,0.23221721,-0.49992022,-0.56581545,0.35470617,0.55119979
0.88000000,-0.14641775,0.68058631,-0.40064438,-0.10040348,0.79272595,0.25524550,-0.12098222,-0.25783146,-0.89893855,0.23221721,-0.49992022,-0.56581545,0.35470617,0.55119979
0.90000000,-0.14641775,0.68058631,-0.40064438,-0.10040348,0.79272595,0.25524550,-0.12098222,-0.25783146,-0.89893855,0.23221721,-0.49992022,-0.56581545,0.35470617,0.55119979
0.92000000,-0.14641775,0.68058631,-0.40064438,-0.10040348,0.79272595,0.25524550,-0.12098222,-0.25783146,-0.89893855,0.23221721,-0.49992022,-0.56581545,0.35470617,0.55119979
0.94000000,-0.14641775,0.68058631,-0.40064438,-0.10040348,0.79272595,0.25524550,-0.12098222,-0.25783146,-0.89893855,0.23221721,-0.49992022,-0.56581545,0.35470617,0.55119979
0.96000000,-0.14641775,0.68058631,-0.40064438,-0.10040348,0.79272595,0.25524550,-0.12098222,-0.25783146,-0.89893855,0.23221721,-0.49992022,-0.56581545,0.35470617,0.55119979
0.98000000,-0.14641775,0.68058631,-0.40064438,-0.10040348,0.79272595,0.25524550,-0.12098222,-0.25783146,-0.89893855,0.23221721,-0.49992022,-0.56581545,0.35470617,0.55119979
1.00000000,-0.14641775,0.68058631,-0.40064438,-0.10040348,0.79272595,0.25524550,-0.12098222,-0.25783146,-0.89893855,0.23221721,-0.49992022,-0.56581545,0.35470617,0.55119979
1.02000000,-0.14641775,0.68058631,-0.40064438,-0.10040348,0.79272595,0.25524550,-0.12098222,-0.25783146,-0.89893855,0.23221721,-0.49992022,-0.56581545,0.35470617,0.55119979
1.04000000,-0.14641775,0.68058631,-0.40064438,-0.10040348,0.79272595,0.25524550,-0.12098222,-0.25783146,-0.89893855,0.23221721,-0.49992022,-0.56581545,0.35470617,0.55119979
1.06000000,-0.14641775,0.68058631,-0.40064438,-0.10040348,0.79272595,0.25524550,-0.12098222,-0.25783146,-0.89893855,0.23221721,-0.49992022,-0.56581545,0.35470617,0.55119979
1.08000000,-0.14641775,0.68058631,-0.40064438,-0.10040348,0.79272595,0.25524550,-0.12098222,-0.25783146,-0.89893855,0.23221721,-0.49992022,-0.56581545,0.35470617,0.55119979
1.10000000,-0.14641775,0.68058631,-0.40064438,-0.10040348,0.79272595,0.25524550,-0.12098222,-0.25783146,-0.89893855,0.23221721,-0.49992022,-0.56581545,0.35470617,0.55119979
1.12000000,-0.14641775,0.68058631,-0.40064438,-0.10040348,0.79272595,0.25524550,-0.12098222,-0.25783146,-0.89893855,0.23221721,-0.49992022,-0.56581545,0.35470617,0.55119979
1.14000000,-0.14641775,0.68058631,-0.40064438,-0.10040348,0.79272595,0.25524550,-0.12098222,-0.25783146,-0.89893855,0.23221721,-0.49992022,-0.56581545,0.35470617,0.55119979
1.16000000,-0.14641775,0.68058631,-0.40064438,-0.10040348,0.79272595,0.25524550,-0.12098222,-0.25783146,-0.89893855,0.23221721,-0.49992022,-0.56581545,0.35470617,0.55119979
1.18000000,-0.14641775,0.68058631,-0.40064438,-0.10040348,0.79272595,0.25524550,-0.12098222,-0.25783146,-0.89893855,0.23221721,-0.49992022,-0.56581545,0.35470617,0.55119979
1.20000000,-0.14641775,0.68058631,-0.40064438,-0.10040348,0.79272595,0.25524550,-0.12098222,-0.25783146,-0.89893855,0.23221721,-0.49992022,-0.56581545,0.35470617,0.55119979
1.22000000,-0.14641775,0.68058631,-0.40064438,-0.10040348,0.79272595,0.25524550,-0.12098222,-0.25783146,-0.89893855,0.23221721,-0.49992022,-0.56581545,0.35470617,0.55119979
1.24000000,-0.14641775,0.68058631,-0.40064438,-0.10040348,0.79272595,0.25524550,-0.12098222,-0.25783146,-0.89893855,0.23221721,-0.49992022,-0.56581545,0.35470617,0.55119979
1.26000000,-0.14641775,0.68058631,-0.40064438,-0.10040348,0.79272595,0.25524550,-0.12098222,-0.25783146,-0.89893855,0.23221721,-0.49992022,-0.56581545,0.35470617,0.55119979
1.28000000,-0.14641775,0.68058631,-0.40064438,-0.10040348,0.79272595,0.25524550,-0.12098222,-0.25783146,-0.89893855,0.23221721,-0.49992022,-0.56581545,0.35470617,0.55119979
1.30000000,-0.14641775,0.68058631,-0.40064438,-0.10040348,0.79272595,0.25524550,-0.12098222,-0.25783146,-0.89893855,0.23221721,-0.49992022,-0.56581545,0.35470617,0.55119979
1.32000000,-0.14641775,0.68058631,-0.40064438,-0.10040348,0.79272595,0.25524550,-0.12098222,-0.25783146,-0.89893855,0.23221721,-0.49992022,-0.56581545,0.35470617,0.55119979
1.34000000,-0.14641775,0.68058631,-0.40064438,-0.10040348,0.79272595,0.25524550,-0.12098222,-0.25783146,-0.89893855,0.23221721,-0.49992022,-0.56581545,0.35470617,0.55119979
1.36000000,-0.14641775,0.68058631,-0.40064438,-0.10040348,0.79272595,0.25524550,-0.12098222,-0.25783146,-0.89893855,0.23221721,-0.49992022,-0.56581545,0.35470617,0.55119979
1.38000000,-0.14641775,0.68058631,-0.40064438,-0.10040348,0.79272595,0.25524550,-0.12098222,-0.25783146,-0.89893855,0.23221721,-0.49992022,-0.56581545,0.35470617,0.55119979
1.40000000,-0.14641775,0.68058631,-0.40064438,-0.10040348,0.79272595,0.25524550,-0.12098222,-0.25783146,-0.89893855,0.23221721,-0.49992022,-0.56581545,0.35470617,0.55119979
1.42000000,-0.14641775,0.68058631,-0.40064438,-0.10040348,0.79272595,0.25524550,-0.12098222,-0.25783146,-0.89893855,0.23221721,-0.49992022,-0.56581545,0.35470617,0.55119979
1.44000000,-0.14641775,0.68058631,-0.40064438,-0.10040348,0.79272595,0.25524550,-0.12098222,-0.25783146,-0.89893855,0.23221721,-0.49992022,-0.56581545,0.35470617,0.55119979
1.46000000,-0.14641775,0.68058631,-0.40064438,-0.10040348,0.79272595,0.25524550,-0.12098222,-0.25783146,-0.89893855,0.23221721,-0.49992022,-0.56581545,0.35470617,0.55119979
1.48000000,-0.14641775,0.68058631,-0.40064438,-0.10040348,0.79272595,0.25524550,-0.12098222,-0.25783146,-0.89893855,0.23221721,-0.49992022,-0.56581545,0.35470617,0.55119979
1.50000000,-0.14641775,0.68058631,-0.40064438,-0.10040348,0.79272595,0.25524550,-0.12098222,-0.25783146,-0.89893855,0.23221721,-0.49992022,-0.56581545,0.35470617,0.55119979
1.52000000,-0.14641775,0.68058631,-0.40064438,-0.10040348,0.79272595,0.25524550,-0.12098222,-0.25783146,-0.89893855,0.23221721,-0.49992022,-0.56581545,0.35470617,0.55119979
1.54000000,-0.14641775,0.68058631,-0.40064438,-0.10040348,0.79272595,0.25524550,-0.12098222,-0.25783146,-0.89893855,0.23221721,-0.49992022,-0.56581545,0.35470617,0.55119979
1.56000000,-0.14641775,0.68058631,-0.40064438,-0.10040348,0.79272595,0.25524550,-0.12098222,-0.25783146,-0.89893855,0.23221721,-0.49992022,-0.56581545,0.35470617,0.55119979
1.58000000,-0.14641775,0.68058631,-0.40064438,-0.10040348,0.79272595,0.25524550,-0.12098222,-0.25783146,-0.89893855,0.23221721,-0.49992022,-0.56581545,0.35470617,0.55119979
1.60000000,-0.14641775,0.68058631,-0.40064438,-0.10040348,0.79272595,0.25524550,-0.12098222,-0.25783146,-0.89893855,0.23221721,-0.49992022,-0.56581545,0.35470617,0.55119979
1.62000000,-0.14641775,0.68058631,-0.40064438,-0.10040348,0.79272595,0.25524550,-0.12098222,-0.25783146,-0.89893855,0.23221721,-0.49992022,-0.56581545,0.35470617,0.55119979
1.64000000,-0.14641775,0.68058631,-0.40064438,-0.10040348,0.79272595,0.25524550,-0.12098222,-0.25783146,-0.89893855,0.23221721,-0.49992022,-0.56581545,0.35470617,0.55119979
1.66000000,-0.14641775,0.68058631,-0.40064438,-0.10040348,0.79272595,0.25524550,-0.12098222,-0.25783146,-0.89893855,0.23221721,-0.49992022,-0.56581545,0.35470617,0.55119979
1.68000000,-0.14641775,0.68058631,-0.40064438,-0.10040348,0.79272595,0.25524550,-0.12098222,-0.25783146,-0.89893855,0.23221721,-0.49992022,-0.56581545,0.35470617,0.55119979
1.70000000,-0.14641775,0.68058631,-0.40064438,-0.10040348,0.79272595,0.25524550,-0.12098222,-0.25783146,-0.89893855,0.23221721,-0.49992022,-0.56581545,0.35470617,0.55119979
1.72000000,-0.14641775,0.68058631,-0.40064438,-0.10040348,0.79272595,0.25524550,-0.12098222,-0.25783146,-0.89893855,0.23221721,-0.49992022,-0.56581545,0.35470617,0.55119979
1.74000000,-0.14641775,0.68058631,-0.40064438,-0.10040348,0.79272595,0.25524550,-0.12098222,-0.25783146,-0.89893855,0.23221721,-0.49992022,-0.56581545,0.35470617,0.55119979
1.76000000,-0.14641775,0.68058631,-0.40064438,-0.10040348,0.79272595,0.25524550,-0.12098222,-0.25783146,-0.89893855,0.23221721,-0.49992022,-0.56581545,0.35470617,0.55119979
1.78000000,-0.14641775,0.68058631,-0.40064438,-0.10040348,0.79272595,0.25524550,-0.12098222,-0.25783146,-0.89893855,0.23221721,-0.49992022,-0.56581545,0.35470617,0.55119979
1.80000000,-0.14641775,0.68058631,-0.40064438,-0.10040348,0.79272595,0.25524550,-0.12098222,-0.25783146,-0.89893855,0.23221721,-0.49992022,-0.56581545,0.35470617,0.55119979
1.82000000,-0.14641775,0.68058631,-0.40064438,-0.10040348,0.79272595,0.25524550,-0.12098222,-0.25783146,-0.89893855,0.23221721,-0.49992022,-0.56581545,0.35470617,0.55119979
1.84000000,-0.14641775,0.68058631,-0.40064438,-0.10040348,0.79272595,0.25524550,-0.12098222,-0.25783146,-0.89893855,0.23221721,-0.49992022,-0.56581545,0.35470617,0.55119979
1.86000000,-0.14641775,0.68058631,-0.40064438,-0.10040348,0.79272595,0.25524550,-0.12098222,-0.25783146,-0.89893855,0.23221721,-0.49992022,-0.56581545,0.35470617,0.55119979
1.88000000,-0.14641775,0.68058631,-0.40064438,-0.10040348,0.79272595,0.25524550,-0.12098222,-0.25783146,-0.89893855,0.23221721,-0.49992022,-0.56581545,0.35470617,0.55119979
1.90000000,-0.14641775,0.68058631,-0.40064438,-0.10040348,0.79272595,0.25524550,-0.12098222,-0.25783146,-0.89893855,0.23221721,-0.49992022,-0.56581545,0.35470617,0.55119979
1.92000000,-0.14641775,0.68058631,-0.40064438,-0.10040348,0.79272595,0.25524550,-0.12098222,-0.25783146,-0.89893855,0.23221721,-0.49992022,-0.56581545,0.35470617,0.55119979
1.94000000,-0.14641775,0.68058631,-0.40064438,-0.10040348,0.79272595,0.25524550,-0.12098222,-0.25783146,-0.89893855,0.23221721,-0.49992022,-0.56581545,0.35470617,0.55119979
1.96000000,-0.14641775,0.68058631,-0.40064438,-0.10040348,0.79272595,0.25524550,-0.12098222,-0.25783146,-0.89893855,0.23221721,-0.49992022,-0.56581545,0.35470617,0.55119979
1.98000000,-0.14641775,0.68058631,-0.40064438,-0.10040348,0.79272595,0.25524550,-0.12098222,-0.25783146,-0.89893855,0.23221721,-0.49992022,-0.56581545,0.35470617,0.55119979
2.00000000,-0.14641775,0.68058631,-0.40064438,-0.10040348,0.79272595,0.25524550,-0.12098222,-0.25783146,-0.89893855,0.23221721,-0.49992022,-0.56581545,0.35470617,0.55119979
2.02000000,-0.14641795,0.68058644,-0.40064432,-0.10040369,0.79272579,0.25524552,-0.12098265,-0.25783112,-0.89893848,0.23221721,-0.49992020,-0.56581563,0.35470620,0.55119941
2.04000000,-0.14641935,0.68058732,-0.40064391,-0.10040515,0.79272471,0.25524566,-0.12098564,-0.25782875,-0.89893794,0.23221720,-0.49992010,-0.56581688,0.35470640,0.55119676
2.06000000,-0.14642313,0.68058971,-0.40064280,-0.10040909,0.79272180,0.25524605,-0.12099371,-0.25782236,-0.89893651,0.23221717,-0.49991981,-0.56582024,0.35470695,0.55118964
2.08000000,-0.14643044,0.68059433,-0.40064066,-0.10041671,0.79271617,0.25524681,-0.12100930,-0.25781001,-0.89893373,0.23221711,-0.49991926,-0.56582673,0.35470801,0.55117589
2.10000000,-0.14644239,0.68060187,-0.40063716,-0.10042916,0.79270697,0.25524804,-0.12103478,-0.25778982,-0.89892919,0.23221702,-0.49991836,-0.56583735,0.35470974,0.55115339
2.12000000,-0.14646008,0.68061304,-0.40063197,-0.10044759,0.79269336,0.25524987,-0.12107250,-0.25775994,-0.89892248,0.23221689,-0.49991703,-0.56585307,0.35471230,0.55112010
2.14000000,-0.14648456,0.68062850,-0.40062480,-0.10047310,0.79267452,0.25525239,-0.12112471,-0.25771859,-0.89891318,0.23221670,-0.49991518,-0.56587482,0.35471584,0.55107401
2.16000000,-0.14651688,0.68064890,-0.40061533,-0.10050678,0.79264965,0.25525573,-0.12119362,-0.25766400,-0.89890091,0.23221645,-0.49991275,-0.56590353,0.35472052,0.55101319
2.18000000,-0.14655802,0.68067488,-0.40060326,-0.10054966,0.79261797,0.25525998,-0.12128137,-0.25759448,-0.89888528,0.23221614,-0.49990964,-0.56594009,0.35472648,0.55093573
2.20000000,-0.14660899,0.68070706,-0.40058832,-0.10060276,0.79257874,0.25526524,-0.12139006,-0.25750838,-0.89886593,0.23221575,-0.49990580,-0.56598538,0.35473385,0.55083979
2.22000000,-0.14667072,0.68074604,-0.40057023,-0.10066709,0.79253123,0.25527161,-0.12152171,-0.25740409,-0.89884249,0.23221528,-0.49990114,-0.56604023,0.35474279,0.55072359
2.24000000,-0.14674415,0.68079241,-0.40054871,-0.10074361,0.79247471,0.25527919,-0.12167829,-0.25728005,-0.89881460,0.23221472,-0.49989561,-0.56610548,0.35475342,0.55058537
2.26000000,-0.14683017,0.68084672,-0.40052349,-0.10083324,0.79240850,0.25528806,-0.12186173,-0.25713474,-0.89878194,0.23221406,-0.49988912,-0.56618191,0.35476587,0.55042345
2.28000000,-0.14692965,0.68090953,-0.40049433,-0.10093691,0.79233193,0.25529833,-0.12207388,-0.25696668,-0.89874416,0.23221330,-0.49988162,-0.56627030,0.35478028,0.55023619
2.30000000,-0.14704344,0.68098138,-0.40046098,-0.10105548,0.79224434,0.25531008,-0.12231655,-0.25677444,-0.89870095,0.23221243,-0.49987304,-0.56637141,0.35479675,0.55002199
2.32000000,-0.14717236,0.68106278,-0.40042319,-0.10118982,0.79214511,0.25532338,-0.12259148,-0.25655665,-0.89865199,0.23221145,-0.49986332,-0.56648596,0.35481541,0.54977931
2.34000000,-0.14731720,0.68115424,-0.40038073,-0.10134075,0.79203363,0.25533833,-0.12290036,-0.25631196,-0.89859699,0.23221034,-0.49985240,-0.56661466,0.35483638,0.54950666
2.36000000,-0.14747874,0.68125624,-0.40033338,-0.10150908,0.79190929,0.25535501,-0.12324484,-0.25603907,-0.89853564,0.23220911,-0.49984022,-0.56675819,0.35485977,0.54920259
2.38000000,-0.14765771,0.68136924,-0.40028092,-0.10169557,0.79177154,0.25537348,-0.12362650,-0.25573673,-0.89846768,0.23220774,-0.49982672,-0.56691722,0.35488567,0.54886570
2.40000000,-0.14785483,0.68149371,-0.40022314,-0.10190098,0.79161981,0.25539382,-0.12404688,-0.25540372,-0.89839282,0.23220624,-0.49981186,-0.56709237,0.35491421,0.54849464
2.42000000,-0.14807080,0.68163007,-0.40015984,-0.10212603,0.79145358,0.25541611,-0.12450744,-0.25503887,-0.89831081,0.23220459,-0.49979557,-0.56728427,0.35494548,0.54808811
2.44000000,-0.14830628,0.68177876,-0.40009081,-0.10237142,0.79127233,0.25544042,-0.12500962,-0.25464106,-0.89822139,0.23220279,-0.49977782,-0.56749350,0.35497957,0.54764484
2.46000000,-0.14856192,0.68194017,-0.40001588,-0.10263781,0.79107556,0.25546680,-0.12555479,-0.25420919,-0.89812431,0.23220084,-0.49975854,-0.56772065,0.35501658,0.54716363
2.48000000,-0.14883834,0.68211471,-0.39993485,-0.10292585,0.79086280,0.25549533,-0.12614427,-0.25374222,-0.89801934,0.23219873,-0.49973770,-0.56796627,0.35505659,0.54664330
2.50000000,-0.14913614,0.68230274,-0.39984756,-0.10323617,0.79063358,0.25552607,-0.12677934,-0.25323913,-0.89790625,0.23219646,-0.49971524,-0.56823088,0.35509970,0.54608273
2.52000000,-0.14945588,0.68250464,-0.39975384,-0.10356936,0.79038747,0.25555907,-0.12746121,-0.25269897,-0.89778483,0.23219402,-0.49969113,-0.56851498,0.35514599,0.54548085
2.54000000,-0.14979813,0.68272073,-0.39965352,-0.10392599,0.79012405,0.25559440,-0.12819106,-0.25212080,-0.89765486,0.23219140,-0.49966533,-0.56881908,0.35519554,0.54483661
2.56000000,-0.15016339,0.68295137,-0.39954645,-0.10430661,0.78984290,0.25563210,-0.12897001,-0.25150373,-0.89751615,0.23218861,-0.49963778,-0.56914364,0.35524842,0.54414904
2.58000000,-0.15055219,0.68319686,-0.39943249,-0.10471175,0.78954364,0.25567222,-0.12979914,-0.25084692,-0.89736851,0.23218565,-0.49960847,-0.56948910,0.35530470,0.54341718
2.60000000,-0.15096499,0.68345751,-0.39931149,-0.10514191,0.78922590,0.25571483,-0.13067946,-0.25014956,-0.89721175,0.23218249,-0.49957734,-0.56985590,0.35536446,0.54264013
2.62000000,-0.15140226,0.68373361,-0.39918332,-0.10559756,0.78888934,0.25575996,-0.13161195,-0.24941086,-0.89704569,0.23217916,-0.49954437,-0.57024443,0.35542777,0.54181703
2.64000000,-0.15186442,0.68402543,-0.39904785,-0.10607916,0.78853360,0.25580766,-0.13259755,-0.24863009,-0.89687019,0.23217563,-0.49950952,-0.57065509,0.35549467,0.54094705
2.66000000,-0.15235191,0.68433323,-0.39890495,-0.10658714,0.78815838,0.25585798,-0.13363714,-0.24780656,-0.89668507,0.23217191,-0.49947276,-0.57108824,0.35556525,0.54002942
2.68000000,-0.15286510,0.68465727,-0.39875453,-0.10712191,0.78776338,0.25591095,-0.13473154,-0.24693960,-0.89649018,0.23216799,-0.49943406,-0.57154424,0.35563954,0.53906340
2.70000000,-0.15340437,0.68499777,-0.39859646,-0.10768385,0.78734830,0.25596660,-0.13588156,-0.24602858,-0.89628540,0.23216387,-0.49939340,-0.57202341,0.35571761,0.53804829
2.72000000,-0.15397006,0.68535496,-0.39843064,-0.10827333,0.78691288,0.25602499,-0.13708793,-0.24507293,-0.89607058,0.23215955,-0.49935075,-0.57252605,0.35579950,0.53698344
2.74000000,-0.15456251,0.68572904,-0.39825698,-0.10889069,0.78645687,0.25608614,-0.13835136,-0.24407207,-0.89584559,0.23215503,-0.49930607,-0.57305247,0.35588527,0.53586822
2.76000000,-0.15518202,0.68612021,-0.39807539,-0.10953625,0.78598003,0.25615008,-0.13967250,-0.24302550,-0.89561034,0.23215030,-0.49925936,-0.57360294,0.35597496,0.53470207
2.78000000,-0.15582888,0.68652864,-0.39788578,-0.11021030,0.78548214,0.25621685,-0.14105196,-0.24193272,-0.89536469,0.23214536,-0.49921058,-0.57417770,0.35606860,0.53348443
2.80000000,-0.15650335,0.68695452,-0.39768808,-0.11091313,0.78496299,0.25628646,-0.14249031,-0.24079330,-0.89510856,0.23214021,-0.49915972,-0.57477701,0.35616624,0.53221481
2.82000000,-0.15720569,0.68739798,-0.39748221,-0.11164500,0.78442240,0.25635895,-0.14398808,-0.23960681,-0.89484185,0.23213485,-0.49910677,-0.57540106,0.35626792,0.53089275
2.84000000,-0.15793611,0.68785918,-0.39726811,-0.11240613,0.78386019,0.25643434,-0.14554574,-0.23837287,-0.89456448,0.23212927,-0.49905169,-0.57605008,0.35637366,0.52951782
2.86000000,-0.15869482,0.68833824,-0.39704571,-0.11319674,0.78327620,0.25651265,-0.14716374,-0.23709113,-0.89427636,0.23212348,-0.49899448,-0.57672424,0.35648350,0.52808962
2.88000000,-0.15948202,0.68883529,-0.39681497,-0.11401704,0.78267030,0.25659390,-0.14884247,-0.23576128,-0.89397742,0.23211747,-0.49893512,-0.57742370,0.35659746,0.52660782
2.90000000,-0.16029786,0.68935043,-0.39657583,-0.11486718,0.78204234,0.25667810,-0.15058230,-0.23438303,-0.89366760,0.23211124,-0.49887360,-0.57814861,0.35671557,0.52507209
2.92000000,-0.16114250,0.68988375,-0.39632825,-0.11574734,0.78139221,0.25676528,-0.15238354,-0.23295613,-0.89334685,0.23210479,-0.49880991,-0.57889912,0.35683785,0.52348215
2.94000000,-0.16201607,0.69043533,-0.39607218,-0.11665763,0.78071982,0.25685544,-0.15424647,-0.23148036,-0.89301512,0.23209813,-0.49874404,-0.57967533,0.35696431,0.52183776
2.96000000,-0.16291868,0.69100525,-0.39580761,-0.11759819,0.78002508,0.25694860,-0.15617133,-0.22995554,-0.89267235,0.23209123,-0.49867598,-0.58047734,0.35709498,0.52013871
2.98000000,-0.16385042,0.69159357,-0.39553450,-0.11856911,0.77930791,0.25704477,-0.15815832,-0.22838150,-0.89231853,0.23208412,-0.49860573,-0.58130524,0.35722987,0.51838482
3.00000000,-0.16481137,0.69220032,-0.39525282,-0.11957046,0.77856826,0.25714395,-0.16020759,-0.22675812,-0.89195361,0.23207678,-0.49853327,-0.58215909,0.35736898,0.51657594
3.02000000,-0.16580158,0.69282556,-0.39496257,-0.12060231,0.77780609,0.25724615,-0.16231928,-0.22508529,-0.89157758,0.23206922,-0.49845860,-0.58303894,0.35751233,0.51471198
3.04000000,-0.16682110,0.69346930,-0.39466373,-0.12166469,0.77702136,0.25735138,-0.16449346,-0.22336296,-0.89119041,0.23206144,-0.49838173,-0.58394483,0.35765993,0.51279285
3.06000000,-0.16786995,0.69413156,-0.39435629,-0.12275764,0.77621405,0.25745964,-0.16673018,-0.22159108,-0.89079212,0.23205343,-0.49830264,-0.58487679,0.35781177,0.51081852
3.08000000,-0.16894813,0.69481234,-0.39404025,-0.12388115,0.77538417,0.25757092,-0.16902947,-0.21976965,-0.89038268,0.23204520,-0.49822134,-0.58583481,0.35796785,0.50878896
3.10000000,-0.17005564,0.69551164,-0.39371562,-0.12503522,0.77453171,0.25768523,-0.17139128,-0.21789868,-0.88996210,0.23203675,-0.49813783,-0.58681888,0.35812818,0.50670421
3.12000000,-0.17119244,0.69622943,-0.39338240,-0.12621982,0.77365671,0.25780256,-0.17381557,-0.21597822,-0.88953041,0.23202807,-0.49805211,-0.58782898,0.35829276,0.50456432
3.14000000,-0.17235849,0.69696569,-0.39304060,-0.12743490,0.77275919,0.25792291,-0.17630224,-0.21400835,-0.88908760,0.23201917,-0.49796418,-0.58886508,0.35846156,0.50236936
3.16000000,-0.17355373,0.69772039,-0.39269025,-0.12868040,0.77183921,0.25804628,-0.17885115,-0.21198916,-0.88863371,0.23201004,-0.49787406,-0.58992711,0.35863460,0.50011946
3.18000000,-0.17477809,0.69849346,-0.39233137,-0.12995623,0.77089681,0.25817264,-0.18146216,-0.20992079,-0.88816876,0.23200069,-0.49778174,-0.59101501,0.35881185,0.49781475
3.20000000,-0.17603147,0.69928487,-0.39196398,-0.13126231,0.76993208,0.25830201,-0.18413505,-0.20780339,-0.88769279,0.23199112,-0.49768723,-0.59212870,0.35899329,0.49545541
3.22000000,-0.17731376,0.70009453,-0.39158811,-0.13259851,0.76894509,0.25843436,-0.18686961,-0.20563714,-0.88720584,0.23198133,-0.49759054,-0.59326808,0.35917893,0.49304164
3.24000000,-0.17862485,0.70092237,-0.39120380,-0.13396472,0.76793594,0.25856968,-0.18966557,-0.20342225,-0.88670796,0.23197132,-0.49749168,-0.59443304,0.35936873,0.49057368
3.26000000,-0.17996458,0.70176830,-0.39081110,-0.13536079,0.76690474,0.25870796,-0.19252264,-0.20115895,-0.88619920,0.23196110,-0.49739065,-0.59562347,0.35956269,0.48805178
3.28000000,-0.18133283,0.70263223,-0.39041004,-0.13678656,0.76585159,0.25884918,-0.19544049,-0.19884751,-0.88567961,0.23195065,-0.49728748,-0.59683922,0.35976076,0.48547622
3.30000000,-0.18272940,0.70351405,-0.39000067,-0.13824186,0.76477664,0.25899332,-0.19841876,-0.19648820,-0.88514926,0.23193999,-0.49718218,-0.59808014,0.35996294,0.48284733
3.32000000,-0.18415413,0.70441364,-0.38958305,-0.13972649,0.76368001,0.25914037,-0.20145707,-0.19408132,-0.88460822,0.23192911,-0.49707475,-0.59934609,0.36016920,0.48016544
3.34000000,-0.18560682,0.70533089,-0.38915724,-0.14124026,0.76256187,0.25929031,-0.20455501,-0.19162721,-0.88405657,0.23191802,-0.49696521,-0.60063687,0.36037950,0.47743092
3.36000000,-0.18708726,0.70626567,-0.38872329,-0.14278294,0.76142237,0.25944311,-0.20771213,-0.18912623,-0.88349437,0.23190672,-0.49685358,-0.60195232,0.36059382,0.47464417
3.38000000,-0.18859523,0.70721782,-0.38828127,-0.14435431,0.76026168,0.25959875,-0.21092794,-0.18657874,-0.88292173,0.23189521,-0.49673987,-0.60329222,0.36081213,0.47180560
3.40000000,-0.19013048,0.70818720,-0.38783126,-0.14595412,0.75907998,0.25975721,-0.21420196,-0.18398514,-0.88233871,0.23188348,-0.49662410,-0.60465637,0.36103439,0.46891566
3.42000000,-0.19169278,0.70917366,-0.38737331,-0.14758210,0.75787747,0.25991846,-0.21753364,-0.18134587,-0.88174543,0.23187156,-0.49650630,-0.60604455,0.36126056,0.46597481
3.44000000,-0.19328186,0.71017703,-0.38690752,-0.14923799,0.75665434,0.26008247,-0.22092244,-0.17866135,-0.88114198,0.23185943,-0.49638648,-0.60745652,0.36149060,0.46298356
3.46000000,-0.19489744,0.71119714,-0.38643396,-0.15092150,0.75541082,0.26024922,-0.22436776,-0.17593206,-0.88052847,0.23184709,-0.49626466,-0.60889205,0.36172449,0.45994241
3.48000000,-0.19653925,0.71223379,-0.38595271,-0.15263234,0.75414712,0.26041867,-0.22786898,-0.17315847,-0.87990500,0.23183456,-0.49614086,-0.61035087,0.36196217,0.45685191
3.50000000,-0.19820697,0.71328682,-0.38546387,-0.15437018,0.75286346,0.26059080,-0.23142549,-0.17034110,-0.87927168,0.23182182,-0.49601511,-0.61183272,0.36220360,0.45371262
3.52000000,-0.19990030,0.71435601,-0.38496752,-0.15613470,0.75156009,0.26076557,-0.23503660,-0.16748047,-0.87862864,0.23180890,-0.49588742,-0.61333733,0.36244874,0.45052513
3.54000000,-0.20161891,0.71544117,-0.38446376,-0.15792557,0.75023727,0.26094296,-0.23870164,-0.16457712,-0.87797600,0.23179578,-0.49575783,-0.61486440,0.36269754,0.44729004
3.56000000,-0.20336247,0.71654208,-0.38395268,-0.15974244,0.74889524,0.26112292,-0.24241988,-0.16163162,-0.87731389,0.23178246,-0.49562636,-0.61641364,0.36294996,0.44400798
3.58000000,-0.20513064,0.71765853,-0.38343439,-0.16158496,0.74753426,0.26130541,-0.24619059,-0.15864456,-0.87664243,0.23176897,-0.49549303,-0.61798475,0.36320593,0.44067961
3.60000000,-0.20692306,0.71879029,-0.38290900,-0.16345274,0.74615463,0.26149041,-0.25001302,-0.15561653,-0.87596176,0.23175528,-0.49535788,-0.61957740,0.36346542,0.43730559
3.62000000,-0.20873936,0.71993713,-0.38237660,-0.16534540,0.74475661,0.26167788,-0.25388637,-0.15254816,-0.87527202,0.23174141,-0.49522092,-0.62119127,0.36372836,0.43388662
3.64000000,-0.21057916,0.72109881,-0.38183732,-0.16726256,0.74334051,0.26186777,-0.25780985,-0.14944008,-0.87457336,0.23172737,-0.49508219,-0.62282602,0.36399470,0.43042341
3.66000000,-0.21244208,0.72227509,-0.38129126,-0.16920380,0.74190661,0.26206005,-0.26178262,-0.14629295,-0.87386592,0.23171315,-0.49494172,-0.62448132,0.36426440,0.42691668
3.68000000,-0.21432771,0.72346570,-0.38073854,-0.17116872,0.74045522,0.26225467,-0.26580383,-0.14310745,-0.87314986,0.23169875,-0.49479954,-0.62615680,0.36453738,0.42336720
3.70000000,-0.21623565,0.72467041,-0.38017928,-0.17315688,0.73898667,0.26245159,-0.26987262,-0.13988425,-0.87242532,0.23168418,-0.49465567,-0.62785210,0.36481359,0.41977572
3.72000000,-0.21816549,0.72588894,-0.37961361,-0.17516785,0.73750126,0.26265077,-0.27398810,-0.13662408,-0.87169247,0.23166945,-0.49451015,-0.62956685,0.36509296,0.41614303
3.74000000,-0.22011679,0.72712102,-0.37904164,-0.17720119,0.73599934,0.26285217,-0.27814934,-0.13332765,-0.87095147,0.23165455,-0.49436302,-0.63130067,0.36537545,0.41246994
3.76000000,-0.22208911,0.72836637,-0.37846351,-0.17925644,0.73448122,0.26305574,-0.28235543,-0.12999569,-0.87020248,0.23163950,-0.49421430,-0.63305318,0.36566098,0.40875727
3.78000000,-0.22408202,0.72962472,-0.37787935,-0.18133314,0.73294727,0.26326144,-0.28660542,-0.12662896,-0.86944567,0.23162428,-0.49406402,-0.63482398,0.36594949,0.40500585
3.80000000,-0.22609506,0.73089579,-0.37728928,-0.18343082,0.73139782,0.26346921,-0.29089833,-0.12322822,-0.86868123,0.23160891,-0.49391223,-0.63661266,0.36624091,0.40121654
3.82000000,-0.22812776,0.73217927,-0.37669345,-0.18554899,0.72983324,0.26367901,-0.29523318,-0.11979427,-0.86790931,0.23159339,-0.49375896,-0.63841882,0.36653519,0.39739021
3.84000000,-0.23017966,0.73347487,-0.37609200,-0.18768716,0.72825388,0.26389079,-0.29960896,-0.11632788,-0.86713010,0.23157773,-0.49360424,-0.64024204,0.36683224,0.39352775
3.86000000,-0.23225028,0.73478229,-0.37548506,-0.18984484,0.72666011,0.26410450,-0.30402467,-0.11282987,-0.86634379,0.23156192,-0.49344810,-0.64208188,0.36713200,0.38963005
3.88000000,-0.23433913,0.73610122,-0.37487277,-0.19202152,0.72505231,0.26432010,-0.30847926,-0.10930106,-0.86555055,0.23154597,-0.49329060,-0.64393793,0.36743440,0.38569803
3.90000000,-0.23644572,0.73743136,-0.37425528,-0.19421668,0.72343085,0.26453753,-0.31297167,-0.10574228,-0.86475058,0.23152989,-0.49313175,-0.64580974,0.36773936,0.38173262
3.92000000,-0.23856955,0.73877237,-0.37363274,-0.19642980,0.72179613,0.26475673,-0.31750085,-0.10215438,-0.86394406,0.23151368,-0.49297160,-0.64769687,0.36804683,0.37773476
3.94000000,-0.24071011,0.74012396,-0.37300530,-0.19866036,0.72014853,0.26497766,-0.32206570,-0.09853822,-0.86313118,0.23149733,-0.49281020,-0.64959886,0.36835671,0.37370541
3.96000000,-0.24286688,0.74148578,-0.37237311,-0.20090782,0.71848845,0.26520027,-0.32666513,-0.09489466,-0.86231215,0.23148087,-0.49264757,-0.65151526,0.36866894,0.36964554
3.98000000,-0.24503935,0.74285750,-0.37173631,-0.20317162,0.71681628,0.26542450,-0.33129803,-0.09122460,-0.86148716,0.23146428,-0.49248376,-0.65344560,0.36898345,0.36555612
4.00000000,-0.24722698,0.74423881,-0.37109507,-0.20545124,0.71513245,0.26565029,-0.33596328,-0.08752891,-0.86065641,0.23144758,-0.49231880,-0.65538942,0.36930015,0.36143816
4.02000000,-0.24942925,0.74562936,-0.37044954,-0.20774610,0.71343735,0.26587759,-0.34065973,-0.08380850,-0.85982011,0.23143077,-0.49215274,-0.65734624,0.36961897,0.35729265
4.04000000,-0.25164561,0.74702880,-0.36979988,-0.21005565,0.71173140,0.26610635,-0.34538624,-0.08006428,-0.85897845,0.23141385,-0.49198562,-0.65931559,0.36993982,0.35312061
4.06000000,-0.25387552,0.74843680,-0.36914624,-0.21237931,0.71001503,0.26633650,-0.35014164,-0.07629717,-0.85813164,0.23139682,-0.49181747,-0.66129697,0.37026264,0.34892306
4.08000000,-0.25611843,0.74985300,-0.36848880,-0.21471652,0.70828865,0.26656800,-0.35492476,-0.07250810,-0.85727990,0.23137970,-0.49164835,-0.66328991,0.37058735,0.34470105
4.10000000,-0.25837378,0.75127707,-0.36782771,-0.21706670,0.70655269,0.26680078,-0.35973441,-0.06869802,-0.85642344,0.23136248,-0.49147829,-0.66529390,0.37091385,0.34045562
4.12000000,-0.26064101,0.75270863,-0.36716313,-0.21942926,0.70480759,0.26703479,-0.36456940,-0.06486786,-0.85556246,0.23134517,-0.49130733,-0.66730844,0.37124207,0.33618782
4.14000000,-0.26291956,0.75414734,-0.36649524,-0.22180361,0.70305378,0.26726996,-0.36942853,-0.06101858,-0.85469718,0.23132777,-0.49113552,-0.66933305,0.37157193,0.33189871
4.16000000,-0.26520885,0.75559284,-0.36582420,-0.22418916,0.70129169,0.26750625,-0.37431058,-0.05715115,-0.85382783,0.23131030,-0.49096289,-0.67136720,0.37190335,0.32758938
4.18000000,-0.26750832,0.75704476,-0.36515018,-0.22658531,0.69952177,0.26774358,-0.37921432,-0.05326653,-0.85295461,0.23129274,-0.49078951,-0.67341039,0.37223624,0.32326090
4.20000000,-0.26981739,0.75850274,-0.36447334,-0.22899146,0.69774447,0.26798191,-0.38413852,-0.04936570,-0.85207774,0.23127511,-0.49061539,-0.67546211,0.37257052,0.31891435
4.22000000,-0.27213547,0.75996641,-0.36379387,-0.23140700,0.69596023,0.26822116,-0.38908195,-0.04544964,-0.85119746,0.23125742,-0.49044060,-0.67752184,0.37290611,0.31455084
4.24000000,-0.27446198,0.76143540,-0.36311192,-0.23383133,0.69416950,0.26846129,-0.39404335,-0.04151934,-0.85031397,0.23123965,-0.49026517,-0.67958905,0.37324291,0.31017146
4.26000000,-0.27679633,0.76290935,-0.36242767,-0.23626382,0.69237274,0.26870222,-0.39902148,-0.03757580,-0.84942750,0.23122183,-0.49008915,-0.68166324,0.37358085,0.30577732
4.28000000,-0.27913792,0.76438787,-0.36174130,-0.23870387,0.69057040,0.26894390,-0.40401506,-0.03362001,-0.84853828,0.23120396,-0.48991259,-0.68374386,0.37391984,0.30136953
4.30000000,-0.28148618,0.76587059,-0.36105298,-0.24115086,0.68876293,0.26918627,-0.40902283,-0.02965298,-0.84764654,0.23118603,-0.48973552,-0.68583040,0.37425979,0.29694922
4.32000000,-0.28384049,0.76735714,-0.36036288,-0.24360416,0.68695081,0.26942927,-0.41404353,-0.02567571,-0.84675249,0.23116805,-0.48955799,-0.68792232,0.37460062,0.29251751
4.34000000,-0.28620026,0.76884713,-0.35967118,-0.24606314,0.68513448,0.26967283,-0.41907586,-0.02168922,-0.84585638,0.23115004,-0.48938006,-0.69001909,0.37494224,0.28807551
4.36000000,-0.28856489,0.77034020,-0.35897806,-0.24852719,0.68331441,0.26991688,-0.42411856,-0.01769453,-0.84495841,0.23113198,-0.48920176,-0.69212018,0.37528456,0.28362438
4.38000000,-0.29093377,0.77183595,-0.35828369,-0.25099567,0.68149106,0.27016138,-0.42917032,-0.01369265,-0.84405883,0.23111390,-0.48902313,-0.69422505,0.37562750,0.27916523
4.40000000,-0.29330630,0.77333400,-0.35758825,-0.25346796,0.67966491,0.27040626,-0.43422987,-0.00968460,-0.84315787,0.23109579,-0.48884423,-0.69633316,0.37597097,0.27469922
4.42000000,-0.29568188,0.77483397,-0.35689192,-0.25594341,0.67783642,0.27065145,-0.43929592,-0.00567141,-0.84225575,0.23107765,-0.48866511,-0.69844398,0.37631488,0.27022747
4.44000000,-0.29805989,0.77633549,-0.35619487,-0.25842141,0.67600604,0.27089689,-0.44436715,-0.00165410,-0.84135270,0.23105949,-0.48848580,-0.70055696,0.37665914,0.26575114
4.46000000,-0.30043973,0.77783816,-0.35549729,-0.26090131,0.67417427,0.27114252,-0.44944229,0.00236629,-0.84044896,0.23104133,-0.48830635,-0.70267156,0.37700366,0.26127137
4.48000000,-0.30282079,0.77934159,-0.35479935,-0.26338248,0.67234155,0.27138827,-0.45452003,0.00638875,-0.83954476,0.23102315,-0.48812680,-0.70478725,0.37734837,0.25678931
4.50000000,-0.30520246,0.78084542,-0.35410123,-0.26586429,0.67050836,0.27163409,-0.45959906,0.01041223,-0.83864032,0.23100496,-0.48794722,-0.70690348,0.37769316,0.25230609
4.52000000,-0.30758413,0.78234924,-0.35340312,-0.26834609,0.66867518,0.27187991,-0.46467810,0.01443571,-0.83773589,0.23098678,-0.48776763,-0.70901971,0.37803795,0.24782288
4.54000000,-0.30996518,0.78385268,-0.35270518,-0.27082727,0.66684246,0.27212567,-0.46975583,0.01845817,-0.83683168,0.23096860,-0.48758809,-0.71113540,0.37838265,0.24334081
4.56000000,-0.31234503,0.78535534,-0.35200760,-0.27330717,0.66501069,0.27237130,-0.47483097,0.02247856,-0.83592794,0.23095043,-0.48740864,-0.71325001,0.37872717,0.23886104
4.58000000,-0.31472304,0.78685686,-0.35131055,-0.27578516,0.66318031,0.27261674,-0.47990221,0.02649587,-0.83502490,0.23093228,-0.48722933,-0.71536299,0.37907143,0.23438471
4.60000000,-0.31709861,0.78835683,-0.35061422,-0.27826062,0.66135182,0.27286193,-0.48496825,0.03050906,-0.83412278,0.23091414,-0.48705020,-0.71747380,0.37941534,0.22991296
4.62000000,-0.31947115,0.78985488,-0.34991878,-0.28073290,0.65952567,0.27310680,-0.49002780,0.03451711,-0.83322181,0.23089603,-0.48687130,-0.71958192,0.37975881,0.22544695
4.64000000,-0.32184003,0.79135063,-0.34922441,-0.28320139,0.65770232,0.27335130,-0.49507957,0.03851899,-0.83232223,0.23087794,-0.48669268,-0.72168678,0.38010175,0.22098780
4.66000000,-0.32420466,0.79284370,-0.34853129,-0.28566543,0.65588225,0.27359536,-0.50012226,0.04251368,-0.83142427,0.23085989,-0.48651438,-0.72378787,0.38044407,0.21653667
4.68000000,-0.32656443,0.79433369,-0.34783959,-0.28812442,0.65406592,0.27383892,-0.50515460,0.04650017,-0.83052815,0.23084188,-0.48633644,-0.72588464,0.38078569,0.21209468
4.70000000,-0.32891874,0.79582024,-0.34714949,-0.29057772,0.65225380,0.27408191,-0.51017529,0.05047744,-0.82963410,0.23082390,-0.48615891,-0.72797657,0.38112652,0.20766296
4.72000000,-0.33126699,0.79730296,-0.34646117,-0.29302470,0.65044633,0.27432428,-0.51518306,0.05444447,-0.82874236,0.23080597,-0.48598185,-0.73006310,0.38146647,0.20324265
4.74000000,-0.33360859,0.79878148,-0.34577480,-0.29546475,0.64864399,0.27456597,-0.52017665,0.05840026,-0.82785314,0.23078810,-0.48580528,-0.73214373,0.38180546,0.19883486
4.76000000,-0.33594294,0.80025543,-0.34509055,-0.29789725,0.64684723,0.27480690,-0.52515477,0.06234380,-0.82696667,0.23077028,-0.48562926,-0.73421791,0.38214340,0.19444072
4.78000000,-0.33826944,0.80172442,-0.34440860,-0.30032158,0.64505650,0.27504703,-0.53011617,0.06627410,-0.82608319,0.23075251,-0.48545383,-0.73628513,0.38248021,0.19006134
4.80000000,-0.34058752,0.80318809,-0.34372913,-0.30273712,0.64327226,0.27528628,-0.53505960,0.07019016,-0.82520290,0.23073482,-0.48527904,-0.73834486,0.38281579,0.18569783
4.82000000,-0.34289659,0.80464607,-0.34305229,-0.30514327,0.64149496,0.27552461,-0.53998380,0.07409099,-0.82432604,0.23071719,-0.48510493,-0.74039658,0.38315007,0.18135128
4.84000000,-0.34519606,0.80609799,-0.34237827,-0.30753942,0.63972504,0.27576194,-0.54488754,0.07797561,-0.82345282,0.23069963,-0.48493154,-0.74243977,0.38348296,0.17702280
4.86000000,-0.34748535,0.80754349,-0.34170723,-0.30992497,0.63796295,0.27599822,-0.54976959,0.08184304,-0.82258346,0.23068215,-0.48475892,-0.74447392,0.38381438,0.17271347
4.88000000,-0.34976390,0.80898220,-0.34103933,-0.31229932,0.63620914,0.27623340,-0.55462872,0.08569232,-0.82171818,0.23066476,-0.48458711,-0.74649852,0.38414424,0.16842436
4.90000000,-0.35203114,0.81041376,-0.34037476,-0.31466188,0.63446404,0.27646741,-0.55946371,0.08952248,-0.82085721,0.23064745,-0.48441615,-0.74851307,0.38447246,0.16415656
4.92000000,-0.35428649,0.81183783,-0.33971367,-0.31701205,0.63272808,0.27670019,-0.56427337,0.09333256,-0.82000074,0.23063023,-0.48424608,-0.75051706,0.38479897,0.15991113
4.94000000,-0.35652939,0.81325403,-0.33905623,-0.31934926,0.63100170,0.27693168,-0.56905648,0.09712163,-0.81914900,0.23061311,-0.48407696,-0.75250999,0.38512367,0.15568912
4.96000000,-0.35875930,0.81466203,-0.33840259,-0.32167293,0.62928533,0.27716184,-0.57381188,0.10088874,-0.81830220,0.23059608,-0.48390882,-0.75449138,0.38544649,0.15149158
4.98000000,-0.36097566,0.81606147,-0.33775293,-0.32398248,0.62757938,0.27739060,-0.57853839,0.10463296,-0.81746054,0.23057916,-0.48374169,-0.75646072,0.38576735,0.14731953
5.00000000,-0.36317793,0.81745202,-0.33710740,-0.32627734,0.62588428,0.27761790,-0.58323484,0.10835337,-0.81662423,0.23056235,-0.48357563,-0.75841755,0.38608617,0.14317402
5.02000000,-0.36536556,0.81883333,-0.33646616,-0.32855695,0.62420045,0.27784369,-0.58790009,0.11204906,-0.81579348,0.23054565,-0.48341068,-0.76036137,0.38640287,0.13905606
5.04000000,-0.36753803,0.82020506,-0.33582936,-0.33082076,0.62252828,0.27806791,-0.59253299,0.11571912,-0.81496849,0.23052906,-0.48324686,-0.76229171,0.38671737,0.13496664
5.06000000,-0.36969480,0.82156687,-0.33519717,-0.33306821,0.62086820,0.27829052,-0.59713242,0.11936268,-0.81414946,0.23051260,-0.48308424,-0.76420811,0.38702960,0.13090677
5.08000000,-0.37183536,0.82291846,-0.33456972,-0.33529877,0.61922060,0.27851145,-0.60169728,0.12297884,-0.81333658,0.23049625,-0.48292283,-0.76611010,0.38733949,0.12687742
5.10000000,-0.37395919,0.82425947,-0.33394719,-0.33751190,0.61758588,0.27873066,-0.60622645,0.12656674,-0.81253006,0.23048004,-0.48276268,-0.76799723,0.38764695,0.12287956
5.12000000,-0.37606578,0.82558961,-0.33332970,-0.33970706,0.61596442,0.27894809,-0.61071887,0.13012552,-0.81173009,0.23046396,-0.48260384,-0.76986903,0.38795192,0.11891415
5.14000000,-0.37815463,0.82690854,-0.33271741,-0.34188373,0.61435662,0.27916368,-0.61517345,0.13365433,-0.81093685,0.23044801,-0.48244633,-0.77172508,0.38825432,0.11498213
5.16000000,-0.38022525,0.82821596,-0.33211047,-0.34404141,0.61276285,0.27937740,-0.61958916,0.13715234,-0.81015054,0.23043220,-0.48229020,-0.77356493,0.38855408,0.11108443
5.18000000,-0.38227715,0.82951156,-0.33150902,-0.34617959,0.61118349,0.27958918,-0.62396495,0.14061873,-0.80937133,0.23041654,-0.48213548,-0.77538814,0.38885113,0.10722197
5.20000000,-0.38430986,0.83079504,-0.33091319,-0.34829776,0.60961891,0.27979898,-0.62829980,0.14405268,-0.80859942,0.23040102,-0.48198220,-0.77719430,0.38914540,0.10339564
5.22000000,-0.38632289,0.83206611,-0.33032312,-0.35039543,0.60806946,0.28000675,-0.63259271,0.14745342,-0.80783497,0.23038565,-0.48183041,-0.77898298,0.38943682,0.09960633
5.24000000,-0.38831580,0.83332446,-0.32973896,-0.35247213,0.60653551,0.28021244,-0.63684269,0.15082015,-0.80707817,0.23037043,-0.48168014,-0.78075378,0.38972533,0.09585491
5.26000000,-0.39028813,0.83456982,-0.32916083,-0.35452738,0.60501739,0.28041601,-0.64104878,0.15415211,-0.80632918,0.23035538,-0.48153142,-0.78250629,0.39001086,0.09214224
5.28000000,-0.39223943,0.83580189,-0.32858886,-0.35656072,0.60351547,0.28061741,-0.64521003,0.15744854,-0.80558818,0.23034048,-0.48138428,-0.78424012,0.39029335,0.08846915
5.30000000,-0.39416926,0.83702042,-0.32802319,-0.35857170,0.60203006,0.28081660,-0.64932550,0.16070871,-0.80485532,0.23032575,-0.48123876,-0.78595487,0.39057273,0.08483646
5.32000000,-0.39607720,0.83822513,-0.32746393,-0.36055986,0.60056151,0.28101352,-0.65339429,0.16393191,-0.80413079,0.23031118,-0.48109490,-0.78765017,0.39084894,0.08124498
5.34000000,-0.39796284,0.83941574,-0.32691121,-0.36252477,0.59911012,0.28120814,-0.65741550,0.16711741,-0.80341472,0.23029678,-0.48095271,-0.78932565,0.39112192,0.07769550
5.36000000,-0.39982575,0.84059202,-0.32636515,-0.36446602,0.59767622,0.28140042,-0.66138827,0.17026454,-0.80270728,0.23028256,-0.48081224,-0.79098094,0.39139161,0.07418877
5.38000000,-0.40166555,0.84175370,-0.32582587,-0.36638317,0.59626012,0.28159031,-0.66531175,0.17337262,-0.80200862,0.23026851,-0.48067351,-0.79261570,0.39165795,0.07072556
5.40000000,-0.40348185,0.84290054,-0.32529347,-0.36827584,0.59486210,0.28177777,-0.66918510,0.17644099,-0.80131888,0.23025465,-0.48053656,-0.79422957,0.39192089,0.06730659
5.42000000,-0.40527427,0.84403230,-0.32476808,-0.37014362,0.59348247,0.28196277,-0.67300753,0.17946902,-0.80063821,0.23024096,-0.48040140,-0.79582222,0.39218038,0.06393257
5.44000000,-0.40704244,0.84514875,-0.32424979,-0.37198613,0.59212149,0.28214527,-0.67677824,0.18245608,-0.79996675,0.23022746,-0.48026807,-0.79739332,0.39243635,0.06060420
5.46000000,-0.40878600,0.84624966,-0.32373871,-0.37380300,0.59077946,0.28232523,-0.68049649,0.18540158,-0.79930464,0.23021415,-0.48013660,-0.79894257,0.39268877,0.05732214
5.48000000,-0.41050462,0.84733482,-0.32323495,-0.37559388,0.58945663,0.28250261,-0.68416152,0.18830493,-0.79865200,0.23020103,-0.48000701,-0.80046964,0.39293757,0.05408705
5.50000000,-0.41219795,0.84840401,-0.32273860,-0.37735840,0.58815327,0.28267738,-0.68777264,0.19116556,-0.79800896,0.23018810,-0.47987933,-0.80197424,0.39318271,0.05089956
5.52000000,-0.41386567,0.84945704,-0.32224976,-0.37909624,0.58686961,0.28284951,-0.69132914,0.19398293,-0.79737565,0.23017537,-0.47975358,-0.80345610,0.39342414,0.04776027
5.54000000,-0.41550747,0.85049369,-0.32176851,-0.38080707,0.58560591,0.28301897,-0.69483037,0.19675652,-0.79675217,0.23016284,-0.47962978,-0.80491492,0.39366182,0.04466977
5.56000000,-0.41712305,0.85151380,-0.32129495,-0.38249058,0.58436238,0.28318572,-0.69827569,0.19948581,-0.79613866,0.23015050,-0.47950796,-0.80635044,0.39389571,0.04162862
5.58000000,-0.41871213,0.85251717,-0.32082916,-0.38414647,0.58313926,0.28334973,-0.70166448,0.20217033,-0.79553521,0.23013837,-0.47938813,-0.80776242,0.39412576,0.03863737
5.60000000,-0.42027443,0.85350363,-0.32037121,-0.38577446,0.58193675,0.28351098,-0.70499616,0.20480960,-0.79494193,0.23012644,-0.47927033,-0.80915060,0.39435193,0.03569653
5.62000000,-0.42180969,0.85447301,-0.31992120,-0.38737426,0.58075505,0.28366944,-0.70827018,0.20740320,-0.79435892,0.23011472,-0.47915456,-0.81051475,0.39457418,0.03280658
5.64000000,-0.42331765,0.85542516,-0.31947918,-0.38894563,0.57959436,0.28382508,-0.71148600,0.20995069,-0.79378627,0.23010321,-0.47904086,-0.81185465,0.39479249,0.02996801
5.66000000,-0.42479809,0.85635994,-0.31904523,-0.39048832,0.57845486,0.28397788,-0.71464311,0.21245167,-0.79322408,0.23009191,-0.47892923,-0.81317009,0.39500681,0.02718126
5.68000000,-0.42625078,0.85727719,-0.31861942,-0.39200208,0.57733672,0.28412781,-0.71774105,0.21490578,-0.79267242,0.23008082,-0.47881969,-0.81446088,0.39521711,0.02444674
5.70000000,-0.42767551,0.85817678,-0.31820180,-0.39348672,0.57624009,0.28427487,-0.72077936,0.21731266,-0.79213138,0.23006994,-0.47871226,-0.81572682,0.39542337,0.02176485
5.72000000,-0.42907209,0.85905860,-0.31779243,-0.39494201,0.57516514,0.28441901,-0.72375764,0.21967197,-0.79160103,0.23005928,-0.47860695,-0.81696775,0.39562555,0.01913596
5.74000000,-0.43044033,0.85992253,-0.31739137,-0.39636778,0.57411199,0.28456023,-0.72667548,0.22198341,-0.79108145,0.23004883,-0.47850378,-0.81818350,0.39582363,0.01656041
5.76000000,-0.43178007,0.86076846,-0.31699867,-0.39776385,0.57308079,0.28469851,-0.72953255,0.22424671,-0.79057268,0.23003860,-0.47840276,-0.81937392,0.39601758,0.01403850
5.78000000,-0.43309115,0.86159630,-0.31661436,-0.39913006,0.57207164,0.28483383,-0.73232851,0.22646160,-0.79007480,0.23002859,-0.47830390,-0.82053889,0.39620738,0.01157054
5.80000000,-0.43437345,0.86240596,-0.31623849,-0.40046627,0.57108465,0.28496618,-0.73506307,0.22862785,-0.78958785,0.23001881,-0.47820721,-0.82167827,0.39639302,0.00915677
5.82000000,-0.43562682,0.86319737,-0.31587110,-0.40177235,0.57011992,0.28509554,-0.73773596,0.23074525,-0.78911188,0.23000924,-0.47811270,-0.82279196,0.39657447,0.00679743
5.84000000,-0.43685118,0.86397044,-0.31551222,-0.40304818,0.56917752,0.28522191,-0.74034697,0.23281362,-0.78864693,0.22999989,-0.47802038,-0.82387986,0.39675171,0.00449272
5.86000000,-0.43804642,0.86472514,-0.31516187,-0.40429368,0.56825754,0.28534527,-0.74289589,0.23483281,-0.78819304,0.22999076,-0.47793025,-0.82494189,0.39692475,0.00224282
5.88000000,-0.43921247,0.86546140,-0.31482007,-0.40550875,0.56736002,0.28546563,-0.74538255,0.23680268,-0.78775024,0.22998186,-0.47784232,-0.82597798,0.39709356,0.00004786
5.90000000,-0.44034928,0.86617919,-0.31448685,-0.40669335,0.56648502,0.28558296,-0.74780684,0.23872314,-0.78731854,0.22997318,-0.47775661,-0.82698809,0.39725813,-0.00209203
5.92000000,-0.44145678,0.86687849,-0.31416222,-0.40784742,0.56563256,0.28569727,-0.75016866,0.24059411,-0.78689797,0.22996473,-0.47767310,-0.82797216,0.39741846,-0.00417678
5.94000000,-0.44253496,0.86755927,-0.31384618,-0.40897094,0.56480268,0.28580855,-0.75246794,0.24241554,-0.78648853,0.22995650,-0.47759180,-0.82893018,0.39757455,-0.00620634
5.96000000,-0.44358381,0.86822153,-0.31353874,-0.41006388,0.56399537,0.28591680,-0.75470466,0.24418742,-0.78609023,0.22994849,-0.47751271,-0.82986213,0.39772639,-0.00818067
5.98000000,-0.44460333,0.86886527,-0.31323990,-0.41112627,0.56321064,0.28602203,-0.75687885,0.24590975,-0.78570307,0.22994070,-0.47743583,-0.83076803,0.39787398,-0.01009980
6.00000000,-0.44559355,0.86949051,-0.31294965,-0.41215812,0.56244847,0.28612423,-0.75899053,0.24758258,-0.78532704,0.22993315,-0.47736117,-0.83164788,0.39801733,-0.01196376
6.02000000,-0.44655450,0.87009726,-0.31266797,-0.41315947,0.56170882,0.28622342,-0.76103980,0.24920596,-0.78496212,0.22992581,-0.47728871,-0.83250173,0.39815645,-0.01377263
6.04000000,-0.44748624,0.87068558,-0.31239486,-0.41413038,0.56099165,0.28631958,-0.76302679,0.25078000,-0.78460829,0.22991870,-0.47721845,-0.83332963,0.39829133,-0.01552653
6.06000000,-0.44838884,0.87125550,-0.31213028,-0.41507094,0.56029691,0.28641274,-0.76495165,0.25230482,-0.78426553,0.22991180,-0.47715039,-0.83413164,0.39842200,-0.01722558
6.08000000,-0.44926241,0.87180708,-0.31187422,-0.41598124,0.55962452,0.28650291,-0.76681458,0.25378059,-0.78393379,0.22990513,-0.47708452,-0.83490785,0.39854847,-0.01886997
6.10000000,-0.45010705,0.87234040,-0.31162664,-0.41686139,0.55897439,0.28659008,-0.76861582,0.25520749,-0.78361304,0.22989869,-0.47702083,-0.83565835,0.39867074,-0.02045991
6.12000000,-0.45092290,0.87285554,-0.31138750,-0.41771154,0.55834643,0.28667429,-0.77035565,0.25658574,-0.78330322,0.22989246,-0.47695931,-0.83638327,0.39878885,-0.02199564
6.14000000,-0.45171009,0.87335259,-0.31115676,-0.41853183,0.55774053,0.28675554,-0.77203439,0.25791559,-0.78300429,0.22988645,-0.47689995,-0.83708273,0.39890281,-0.02347744
6.16000000,-0.45246881,0.87383165,-0.31093436,-0.41932245,0.55715654,0.28683385,-0.77365239,0.25919733,-0.78271617,0.22988066,-0.47684274,-0.83775689,0.39901265,-0.02490563
6.18000000,-0.45319923,0.87429285,-0.31072026,-0.42008358,0.55659433,0.28690924,-0.77521005,0.26043127,-0.78243879,0.22987508,-0.47678767,-0.83840590,0.39911839,-0.02628057
6.20000000,-0.45390156,0.87473632,-0.31051439,-0.42081544,0.55605374,0.28698173,-0.77670781,0.26161776,-0.78217208,0.22986972,-0.47673471,-0.83902996,0.39922007,-0.02760263
6.22000000,-0.45457603,0.87516219,-0.31031669,-0.42151827,0.55553459,0.28705134,-0.77814616,0.26275718,-0.78191595,0.22986457,-0.47668385,-0.83962926,0.39931771,-0.02887225
6.24000000,-0.45522289,0.87557062,-0.31012708,-0.42219233,0.55503670,0.28711810,-0.77952562,0.26384996,-0.78167031,0.22985963,-0.47663508,-0.84020403,0.39941136,-0.03008988
6.26000000,-0.45584240,0.87596179,-0.30994549,-0.42283789,0.55455986,0.28718205,-0.78084676,0.26489653,-0.78143505,0.22985490,-0.47658836,-0.84075449,0.39950104,-0.03125604
6.28000000,-0.45643485,0.87633587,-0.30977183,-0.42345525,0.55410385,0.28724319,-0.78211019,0.26589739,-0.78121007,0.22985038,-0.47654369,-0.84128091,0.39958681,-0.03237125
6.30000000,-0.45700055,0.87669306,-0.30960601,-0.42404473,0.55366843,0.28730158,-0.78331656,0.26685304,-0.78099525,0.22984606,-0.47650103,-0.84178356,0.39966870,-0.03343611
6.32000000,-0.45753981,0.87703356,-0.30944794,-0.42460667,0.55325335,0.28735724,-0.78446658,0.26776406,-0.78079046,0.22984194,-0.47646037,-0.84226273,0.39974677,-0.03445122
6.34000000,-0.45805300,0.87735760,-0.30929752,-0.42514143,0.55285835,0.28741021,-0.78556099,0.26863102,-0.78059558,0.22983802,-0.47642167,-0.84271872,0.39982107,-0.03541724
6.36000000,-0.45854049,0.87766540,-0.30915462,-0.42564941,0.55248313,0.28746052,-0.78660057,0.26945455,-0.78041046,0.22983430,-0.47638492,-0.84315187,0.39989164,-0.03633487
6.38000000,-0.45900266,0.87795722,-0.30901915,-0.42613101,0.55212739,0.28750822,-0.78758617,0.27023532,-0.78023495,0.22983077,-0.47635007,-0.84356253,0.39995855,-0.03720485
6.40000000,-0.45943992,0.87823332,-0.30889098,-0.42658666,0.55179083,0.28755336,-0.78851866,0.27097402,-0.78006890,0.22982743,-0.47631709,-0.84395107,0.40002185,-0.03802795
6.42000000,-0.45985272,0.87849397,-0.30876998,-0.42701682,0.55147309,0.28759596,-0.78939899,0.27167138,-0.77991214,0.22982428,-0.47628597,-0.84431786,0.40008161,-0.03880500
6.44000000,-0.46024152,0.87873946,-0.30865602,-0.42742196,0.55117383,0.28763609,-0.79022811,0.27232819,-0.77976449,0.22982131,-0.47625665,-0.84466332,0.40013789,-0.03953686
6.46000000,-0.46060679,0.87897010,-0.30854895,-0.42780259,0.55089268,0.28767379,-0.79100706,0.27294526,-0.77962578,0.22981853,-0.47622911,-0.84498788,0.40019077,-0.04022443
6.48000000,-0.46094903,0.87918619,-0.30844863,-0.42815922,0.55062926,0.28770911,-0.79173691,0.27352343,-0.77949582,0.22981591,-0.47620330,-0.84529198,0.40024032,-0.04086866
6.50000000,-0.46126877,0.87938809,-0.30835491,-0.42849241,0.55038315,0.28774212,-0.79241878,0.27406359,-0.77937439,0.22981347,-0.47617919,-0.84557609,0.40028661,-0.04147055
6.52000000,-0.46156657,0.87957612,-0.30826762,-0.42880273,0.55015393,0.28777285,-0.79305385,0.27456668,-0.77926131,0.22981120,-0.47615674,-0.84584070,0.40032972,-0.04203111
6.54000000,-0.46184299,0.87975066,-0.30818659,-0.42909077,0.54994117,0.28780138,-0.79364333,0.27503365,-0.77915634,0.22980909,-0.47613589,-0.84608631,0.40036974,-0.04255144
6.56000000,-0.46209863,0.87991207,-0.30811166,-0.42935716,0.54974440,0.28782777,-0.79418850,0.27546552,-0.77905926,0.22980714,-0.47611662,-0.84631346,0.40040674,-0.04303266
6.58000000,-0.46233412,0.88006076,-0.30804263,-0.42960254,0.54956315,0.28785207,-0.79469068,0.27586333,-0.77896983,0.22980534,-0.47609886,-0.84652270,0.40044084,-0.04347593
6.60000000,-0.46255008,0.88019712,-0.30797933,-0.42982759,0.54939692,0.28787436,-0.79515125,0.27622818,-0.77888782,0.22980369,-0.47608258,-0.84671460,0.40047210,-0.04388246
6.62000000,-0.46274721,0.88032159,-0.30792155,-0.43003300,0.54924519,0.28789471,-0.79557162,0.27656119,-0.77881296,0.22980218,-0.47606771,-0.84688975,0.40050064,-0.04425352
6.64000000,-0.46292617,0.88043459,-0.30786909,-0.43021950,0.54910744,0.28791318,-0.79595328,0.27686353,-0.77874500,0.22980082,-0.47605422,-0.84704877,0.40052655,-0.04459041
6.66000000,-0.46308771,0.88053659,-0.30782174,-0.43038782,0.54898310,0.28792985,-0.79629776,0.27713642,-0.77868366,0.22979959,-0.47604204,-0.84719230,0.40054993,-0.04489448
6.68000000,-0.46323255,0.88062805,-0.30777928,-0.43053875,0.54887162,0.28794480,-0.79660665,0.27738111,-0.77862865,0.22979848,-0.47603111,-0.84732100,0.40057090,-0.04516713
6.70000000,-0.46336147,0.88070945,-0.30774149,-0.43067309,0.54877239,0.28795811,-0.79688157,0.27759890,-0.77857970,0.22979750,-0.47602139,-0.84743556,0.40058956,-0.04540981
6.72000000,-0.46347526,0.88078130,-0.30770814,-0.43079167,0.54868480,0.28796985,-0.79712424,0.27779114,-0.77853648,0.22979663,-0.47601281,-0.84753666,0.40060604,-0.04562401
6.74000000,-0.46357474,0.88084411,-0.30767898,-0.43089533,0.54860823,0.28798012,-0.79733639,0.27795920,-0.77849871,0.22979587,-0.47600531,-0.84762506,0.40062044,-0.04581127
6.76000000,-0.46366076,0.88089842,-0.30765376,-0.43098497,0.54854202,0.28798900,-0.79751983,0.27810451,-0.77846604,0.22979521,-0.47599883,-0.84770149,0.40063289,-0.04597319
6.78000000,-0.46373419,0.88094479,-0.30763224,-0.43106148,0.54848550,0.28799658,-0.79767642,0.27822855,-0.77843816,0.22979465,-0.47599329,-0.84776673,0.40064352,-0.04611140
6.80000000,-0.46379592,0.88098377,-0.30761414,-0.43112581,0.54843799,0.28800295,-0.79780807,0.27833284,-0.77841471,0.22979418,-0.47598863,-0.84782159,0.40065246,-0.04622761
6.82000000,-0.46384689,0.88101595,-0.30759921,-0.43117892,0.54839876,0.28800821,-0.79791675,0.27841894,-0.77839536,0.22979379,-0.47598479,-0.84786687,0.40065984,-0.04632355
6.84000000,-0.46388804,0.88104193,-0.30758714,-0.43122180,0.54836708,0.28801246,-0.79800450,0.27848846,-0.77837973,0.22979348,-0.47598169,-0.84790344,0.40066579,-0.04640101
6.86000000,-0.46392035,0.88106233,-0.30757767,-0.43125547,0.54834221,0.28801579,-0.79807341,0.27854305,-0.77836746,0.22979323,-0.47597925,-0.84793215,0.40067047,-0.04646183
6.88000000,-0.46394483,0.88107779,-0.30757050,-0.43128098,0.54832337,0.28801832,-0.79812562,0.27858440,-0.77835816,0.22979304,-0.47597741,-0.84795390,0.40067402,-0.04650792
6.90000000,-0.46396252,0.88108896,-0.30756531,-0.43129941,0.54830976,0.28802014,-0.79816334,0.27861428,-0.77835145,0.22979291,-0.47597607,-0.84796962,0.40067658,-0.04654121
6.92000000,-0.46397447,0.88109650,-0.30756181,-0.43131187,0.54830056,0.28802138,-0.79818883,0.27863447,-0.77834691,0.22979282,-0.47597517,-0.84798024,0.40067831,-0.04656371
6.94000000,-0.46398178,0.88110112,-0.30755967,-0.43131948,0.54829493,0.28802213,-0.79820441,0.27864682,-0.77834413,0.22979276,-0.47597462,-0.84798673,0.40067936,-0.04657746
6.96000000,-0.46398556,0.88110351,-0.30755856,-0.43132342,0.54829202,0.28802252,-0.79821248,0.27865321,-0.77834270,0.22979273,-0.47597433,-0.84799009,0.40067991,-0.04658458
6.98000000,-0.46398697,0.88110439,-0.30755815,-0.43132489,0.54829094,0.28802267,-0.79821547,0.27865558,-0.77834216,0.22979272,-0.47597423,-0.84799134,0.40068012,-0.04658723
7.00000000,-0.46398717,0.88110452,-0.30755809,-0.43132510,0.54829078,0.28802269,-0.79821591,0.27865592,-0.77834209,0.22979272,-0.47597421,-0.84799152,0.40068014,-0.04658761
7.02000000,-0.46398680,0.88110439,-0.30755792,-0.43132486,0.54829066,0.28802275,-0.79821569,0.27865592,-0.77834193,0.22979268,-0.47597382,-0.84799126,0.40068003,-0.04658759
7.04000000,-0.46398422,0.88110348,-0.30755677,-0.43132322,0.54828982,0.28802316,-0.79821418,0.27865586,-0.77834086,0.22979241,-0.47597109,-0.84798945,0.40067921,-0.04658749
7.06000000,-0.46397728,0.88110102,-0.30755368,-0.43131878,0.54828756,0.28802427,-0.79821012,0.27865569,-0.77833796,0.22979168,-0.47596375,-0.84798457,0.40067702,-0.04658721
7.08000000,-0.46396387,0.88109627,-0.30754771,-0.43131022,0.54828319,0.28802641,-0.79820226,0.27865538,-0.77833236,0.22979028,-0.47594956,-0.84797514,0.40067278,-0.04658666
7.10000000,-0.46394194,0.88108851,-0.30753795,-0.43129621,0.54827604,0.28802991,-0.79818942,0.27865487,-0.77832320,0.22978798,-0.47592635,-0.84795973,0.40066586,-0.04658577
7.12000000,-0.46390949,0.88107702,-0.30752349,-0.43127549,0.54826546,0.28803509,-0.79817043,0.27865411,-0.77830964,0.22978458,-0.47589200,-0.84793693,0.40065560,-0.04658446
7.14000000,-0.46386458,0.88106112,-0.30750349,-0.43124679,0.54825081,0.28804226,-0.79814413,0.27865306,-0.77829088,0.22977987,-0.47584446,-0.84790536,0.40064141,-0.04658263
7.16000000,-0.46380529,0.88104013,-0.30747708,-0.43120893,0.54823148,0.28805173,-0.79810941,0.27865168,-0.77826611,0.22977366,-0.47578171,-0.84786369,0.40062268,-0.04658023
7.18000000,-0.46372980,0.88101340,-0.30744346,-0.43116071,0.54820686,0.28806378,-0.79806521,0.27864991,-0.77823457,0.22976575,-0.47570180,-0.84781063,0.40059883,-0.04657717
7.20000000,-0.46363629,0.88098030,-0.30740181,-0.43110098,0.54817637,0.28807871,-0.79801046,0.27864773,-0.77819551,0.22975595,-0.47560283,-0.84774491,0.40056928,-0.04657337
7.22000000,-0.46352303,0.88094019,-0.30735137,-0.43102863,0.54813944,0.28809679,-0.79794414,0.27864509,-0.77814819,0.22974408,-0.47548295,-0.84766531,0.40053350,-0.04656878
7.24000000,-0.46338831,0.88089250,-0.30729137,-0.43094259,0.54809552,0.28811830,-0.79786526,0.27864194,-0.77809191,0.22972997,-0.47534036,-0.84757062,0.40049093,-0.04656331
7.26000000,-0.46323049,0.88083662,-0.30722108,-0.43084178,0.54804406,0.28814350,-0.79777285,0.27863826,-0.77802599,0.22971343,-0.47517332,-0.84745970,0.40044107,-0.04655691
7.28000000,-0.46304797,0.88077200,-0.30713979,-0.43072520,0.54798454,0.28817264,-0.79766598,0.27863399,-0.77794974,0.22969430,-0.47498014,-0.84733142,0.40038340,-0.04654951
7.30000000,-0.46283920,0.88069809,-0.30704681,-0.43059185,0.54791647,0.28820597,-0.79754374,0.27862912,-0.77786252,0.22967243,-0.47475917,-0.84718469,0.40031744,-0.04654104
7.32000000,-0.46260267,0.88061435,-0.30694146,-0.43044077,0.54783935,0.28824373,-0.79740525,0.27862360,-0.77776371,0.22964764,-0.47450881,-0.84701845,0.40024271,-0.04653144
7.34000000,-0.46233693,0.88052026,-0.30682311,-0.43027103,0.54775270,0.28828616,-0.79724965,0.27861739,-0.77765269,0.22961979,-0.47422754,-0.84683168,0.40015874,-0.04652066
7.36000000,-0.46204056,0.88041533,-0.30669111,-0.43008173,0.54765606,0.28833347,-0.79707612,0.27861047,-0.77752889,0.22958874,-0.47391386,-0.84662338,0.40006510,-0.04650864
7.38000000,-0.46171220,0.88029908,-0.30654487,-0.42987199,0.54754900,0.28838590,-0.79688386,0.27860280,-0.77739172,0.22955433,-0.47356631,-0.84639260,0.39996136,-0.04649532
7.40000000,-0.46135054,0.88017104,-0.30638379,-0.42964099,0.54743107,0.28844364,-0.79667210,0.27859436,-0.77724063,0.22951643,-0.47318352,-0.84613842,0.39984709,-0.04648065
7.42000000,-0.46095431,0.88003075,-0.30620732,-0.42938789,0.54730187,0.28850690,-0.79644009,0.27858511,-0.77707510,0.22947491,-0.47276413,-0.84585993,0.39972190,-0.04646457
7.44000000,-0.46052227,0.87987779,-0.30601490,-0.42911193,0.54716100,0.28857588,-0.79618712,0.27857502,-0.77689462,0.22942964,-0.47230684,-0.84555628,0.39958539,-0.04644705
7.46000000,-0.46005324,0.87971173,-0.30580600,-0.42881235,0.54700807,0.28865076,-0.79591249,0.27856406,-0.77669868,0.22938049,-0.47181041,-0.84522663,0.39943720,-0.04642802
7.48000000,-0.45954609,0.87953218,-0.30558013,-0.42848841,0.54684270,0.28873173,-0.79561554,0.27855222,-0.77648681,0.22932735,-0.47127362,-0.84487019,0.39927696,-0.04640744
7.50000000,-0.45899972,0.87933874,-0.30533679,-0.42813943,0.54666455,0.28881896,-0.79529563,0.27853946,-0.77625857,0.22927009,-0.47069533,-0.84448618,0.39910433,-0.04638528
7.52000000,-0.45841308,0.87913104,-0.30507552,-0.42776472,0.54647327,0.28891262,-0.79495214,0.27852577,-0.77601350,0.22920862,-0.47007441,-0.84407388,0.39891898,-0.04636148
7.54000000,-0.45778517,0.87890873,-0.30479586,-0.42736365,0.54626853,0.28901287,-0.79458448,0.27851110,-0.77575118,0.22914282,-0.46940980,-0.84363256,0.39872059,-0.04633601
7.56000000,-0.45711501,0.87867146,-0.30449738,-0.42693559,0.54605002,0.28911986,-0.79419209,0.27849545,-0.77547122,0.22907260,-0.46870048,-0.84316155,0.39850885,-0.04630882
7.58000000,-0.45640169,0.87841891,-0.30417969,-0.42647997,0.54581743,0.28923375,-0.79377442,0.27847880,-0.77517323,0.22899785,-0.46794548,-0.84266021,0.39828347,-0.04627988
7.60000000,-0.45564432,0.87815077,-0.30384237,-0.42599621,0.54557048,0.28935466,-0.79333096,0.27846111,-0.77485684,0.22891849,-0.46714386,-0.84212791,0.39804418,-0.04624916
7.62000000,-0.45484206,0.87786673,-0.30348507,-0.42548377,0.54530889,0.28948275,-0.79286122,0.27844238,-0.77452170,0.22883442,-0.46629472,-0.84156406,0.39779070,-0.04621661
7.64000000,-0.45399412,0.87756652,-0.30310741,-0.42494216,0.54503240,0.28961812,-0.79236473,0.27842258,-0.77416746,0.22874557,-0.46539723,-0.84096810,0.39752279,-0.04618222
7.66000000,-0.45309974,0.87724987,-0.30270907,-0.42437088,0.54474078,0.28976092,-0.79184105,0.27840170,-0.77379383,0.22865185,-0.46445058,-0.84033949,0.39724020,-0.04614593
7.68000000,-0.45215818,0.87691652,-0.30228973,-0.42376948,0.54443377,0.28991124,-0.79128974,0.27837971,-0.77340050,0.22855318,-0.46345401,-0.83967774,0.39694271,-0.04610774
7.70000000,-0.45116879,0.87656623,-0.30184907,-0.42313751,0.54411116,0.29006920,-0.79071043,0.27835661,-0.77298717,0.22844951,-0.46240680,-0.83898236,0.39663011,-0.04606760
7.72000000,-0.45013091,0.87619877,-0.30138682,-0.42247458,0.54377275,0.29023491,-0.79010272,0.27833237,-0.77255359,0.22834075,-0.46130827,-0.83825291,0.39630218,-0.04602550
7.74000000,-0.44904394,0.87581393,-0.30090271,-0.42178029,0.54341832,0.29040845,-0.78946628,0.27830699,-0.77209951,0.22822685,-0.46015778,-0.83748895,0.39595875,-0.04598140
7.76000000,-0.44790732,0.87541152,-0.30039649,-0.42105429,0.54304771,0.29058991,-0.78880076,0.27828045,-0.77162469,0.22810774,-0.45895475,-0.83669010,0.39559963,-0.04593529
7.78000000,-0.44672052,0.87499134,-0.29986792,-0.42029624,0.54266074,0.29077939,-0.78810586,0.27825274,-0.77112890,0.22798338,-0.45769860,-0.83585599,0.39522466,-0.04588715
7.80000000,-0.44548306,0.87455322,-0.29931678,-0.41950583,0.54225725,0.29097695,-0.78738130,0.27822384,-0.77061195,0.22785371,-0.45638883,-0.83498626,0.39483367,-0.04583695
7.82000000,-0.44419449,0.87409700,-0.29874288,-0.41868277,0.54183709,0.29118268,-0.78662681,0.27819375,-0.77007364,0.22771868,-0.45502496,-0.83408061,0.39442654,-0.04578467
7.84000000,-0.44285438,0.87362254,-0.29814603,-0.41782679,0.54140013,0.29139664,-0.78584214,0.27816246,-0.76951381,0.22757826,-0.45360655,-0.83313874,0.39400313,-0.04573031
7.86000000,-0.44146237,0.87312971,-0.29752606,-0.41693766,0.54094624,0.29161888,-0.78502708,0.27812995,-0.76893229,0.22743239,-0.45213319,-0.83216039,0.39356331,-0.04567384
7.88000000,-0.44001810,0.87261837,-0.29688281,-0.41601515,0.54047532,0.29184946,-0.78418143,0.27809623,-0.76832894,0.22728105,-0.45060452,-0.83114531,0.39310699,-0.04561525
7.90000000,-0.43852126,0.87208842,-0.29621616,-0.41505906,0.53998725,0.29208844,-0.78330500,0.27806128,-0.76770363,0.22712420,-0.44902022,-0.83009329,0.39263406,-0.04555452
7.92000000,-0.43697160,0.87153977,-0.29552597,-0.41406923,0.53948196,0.29233585,-0.78239763,0.27802509,-0.76705626,0.22696181,-0.44738000,-0.82900414,0.39214443,-0.04549166
7.94000000,-0.43536886,0.87097232,-0.29481215,-0.41304550,0.53895936,0.29259173,-0.78145919,0.27798767,-0.76638671,0.22679386,-0.44568361,-0.82787768,0.39163804,-0.04542664
7.96000000,-0.43371284,0.87038602,-0.29407459,-0.41198774,0.53841939,0.29285613,-0.78048955,0.27794900,-0.76569490,0.22662033,-0.44393082,-0.82671378,0.39111481,-0.04535946
7.98000000,-0.43200337,0.86978079,-0.29331324,-0.41089584,0.53786200,0.29312905,-0.77948861,0.27790908,-0.76498077,0.22644120,-0.44212146,-0.82551232,0.39057469,-0.04529011
8.00000000,-0.43024032,0.86915658,-0.29252801,-0.40976971,0.53728713,0.29341053,-0.77845630,0.27786791,-0.76424424,0.22625645,-0.44025538,-0.82427319,0.39001765,-0.04521859
8.02000000,-0.42842357,0.86851337,-0.29171887,-0.40860928,0.53669475,0.29370058,-0.77739255,0.27782549,-0.76348529,0.22606608,-0.43833247,-0.82299632,0.38944363,-0.04514489
8.04000000,-0.42655305,0.86785112,-0.29088579,-0.40741451,0.53608484,0.29399922,-0.77629731,0.27778181,-0.76270388,0.22587007,-0.43635265,-0.82168166,0.38885263,-0.04506901
8.06000000,-0.42462872,0.86716982,-0.29002874,-0.40618537,0.53545738,0.29430645,-0.77517057,0.27773688,-0.76189999,0.22566843,-0.43431588,-0.82032918,0.38824463,-0.04499094
8.08000000,-0.42265058,0.86646947,-0.28914771,-0.40492185,0.53481238,0.29462227,-0.77401232,0.27769069,-0.76107361,0.22546114,-0.43222214,-0.81893888,0.38761963,-0.04491069
8.10000000,-0.42061863,0.86575006,-0.28824273,-0.40362397,0.53414984,0.29494668,-0.77282257,0.27764324,-0.76022476,0.22524822,-0.43007146,-0.81751077,0.38697762,-0.04482826
8.12000000,-0.41853294,0.86501163,-0.28731381,-0.40229176,0.53346977,0.29527967,-0.77160134,0.27759454,-0.75935345,0.22502966,-0.42786389,-0.81604488,0.38631864,-0.04474365
8.14000000,-0.41639358,0.86425420,-0.28636099,-0.40092527,0.53277220,0.29562123,-0.77034869,0.27754458,-0.75845973,0.22480548,-0.42559952,-0.81454127,0.38564269,-0.04465686
8.16000000,-0.41420066,0.86347781,-0.28538432,-0.39952457,0.53205716,0.29597134,-0.76906469,0.27749337,-0.75754363,0.22457569,-0.42327846,-0.81300002,0.38494983,-0.04456790
8.18000000,-0.41195433,0.86268250,-0.28438385,-0.39808976,0.53132471,0.29632997,-0.76774941,0.27744092,-0.75660522,0.22434030,-0.42090087,-0.81142123,0.38424009,-0.04447678
8.20000000,-0.40965475,0.86186835,-0.28335967,-0.39662093,0.53057490,0.29669711,-0.76640295,0.27738722,-0.75564457,0.22409933,-0.41846691,-0.80980501,0.38351353,-0.04438349
8.22000000,-0.40730213,0.86103541,-0.28231186,-0.39511822,0.52980779,0.29707272,-0.76502543,0.27733229,-0.75466175,0.22385281,-0.41597681,-0.80815151,0.38277020,-0.04428805
8.24000000,-0.40489667,0.86018377,-0.28124053,-0.39358176,0.52902346,0.29745676,-0.76361697,0.27727612,-0.75365686,0.22360074,-0.41343079,-0.80646089,0.38201018,-0.04419047
8.26000000,-0.40243865,0.85931351,-0.28014578,-0.39201173,0.52822198,0.29784920,-0.76217774,0.27721872,-0.75263002,0.22334317,-0.41082913,-0.80473331,0.38123356,-0.04409075
8.28000000,-0.39992833,0.85842474,-0.27902774,-0.39040829,0.52740346,0.29824998,-0.76070789,0.27716010,-0.75158132,0.22308012,-0.40817213,-0.80296898,0.38044041,-0.04398891
8.30000000,-0.39736602,0.85751757,-0.27788655,-0.38877165,0.52656798,0.29865906,-0.75920759,0.27710027,-0.75051091,0.22281162,-0.40546009,-0.80116811,0.37963084,-0.04388497
8.32000000,-0.39475206,0.85659211,-0.27672235,-0.38710202,0.52571566,0.29907640,-0.75767706,0.27703923,-0.74941893,0.22253771,-0.40269339,-0.79933094,0.37880494,-0.04377893
8.34000000,-0.39208681,0.85564849,-0.27553531,-0.38539962,0.52484662,0.29950192,-0.75611649,0.27697700,-0.74830551,0.22225842,-0.39987239,-0.79745772,0.37796284,-0.04367080
8.36000000,-0.38937064,0.85468684,-0.27432559,-0.38366470,0.52396097,0.29993556,-0.75452610,0.27691357,-0.74717082,0.22197380,-0.39699751,-0.79554871,0.37710465,-0.04356062
8.38000000,-0.38660397,0.85370731,-0.27309338,-0.38189752,0.52305886,0.30037728,-0.75290615,0.27684897,-0.74601504,0.22168389,-0.39406917,-0.79360421,0.37623051,-0.04344838
8.40000000,-0.38378723,0.85271005,-0.27183887,-0.38009836,0.52214042,0.30082698,-0.75125688,0.27678320,-0.74483833,0.22138873,-0.39108783,-0.79162452,0.37534054,-0.04333411
8.42000000,-0.38092087,0.85169523,-0.27056226,-0.37826751,0.52120580,0.30128461,-0.74957856,0.27671627,-0.74364091,0.22108837,-0.38805398,-0.78960995,0.37443490,-0.04321783
8.44000000,-0.37800539,0.85066301,-0.26926377,-0.37640528,0.52025516,0.30175008,-0.74787147,0.27664819,-0.74242295,0.22078286,-0.38496813,-0.78756086,0.37351374,-0.04309956
8.46000000,-0.37504127,0.84961358,-0.26794362,-0.37451199,0.51928867,0.30222332,-0.74613590,0.27657897,-0.74118468,0.22047225,-0.38183081,-0.78547758,0.37257721,-0.04297931
8.48000000,-0.37202905,0.84854712,-0.26660204,-0.37258797,0.51830649,0.30270423,-0.74437218,0.27650864,-0.73992632,0.22015661,-0.37864257,-0.78336050,0.37162548,-0.04285711
8.50000000,-0.36896927,0.84746382,-0.26523929,-0.37063358,0.51730881,0.30319274,-0.74258060,0.27643719,-0.73864809,0.21983598,-0.37540400,-0.78121000,0.37065873,-0.04273299
8.52000000,-0.36586252,0.84636388,-0.26385561,-0.36864917,0.51629580,0.30368875,-0.74076152,0.27636464,-0.73735024,0.21951043,-0.37211570,-0.77902647,0.36967713,-0.04260696
8.54000000,-0.36270937,0.84524752,-0.26245127,-0.36663514,0.51526767,0.30419216,-0.73891528,0.27629101,-0.73603300,0.21918002,-0.36877830,-0.77681034,0.36868088,-0.04247904
8.56000000,-0.35951045,0.84411496,-0.26102654,-0.36459186,0.51422462,0.30470288,-0.73704223,0.27621632,-0.73469664,0.21884481,-0.36539245,-0.77456204,0.36767016,-0.04234927
8.58000000,-0.35626638,0.84296641,-0.25958171,-0.36251976,0.51316684,0.30522081,-0.73514275,0.27614057,-0.73334142,0.21850487,-0.36195882,-0.77228201,0.36664518,-0.04221767
8.60000000,-0.35297782,0.84180211,-0.25811706,-0.36041923,0.51209456,0.30574585,-0.73321722,0.27606378,-0.73196762,0.21816027,-0.35847809,-0.76997071,0.36560615,-0.04208426
8.62000000,-0.34964545,0.84062229,-0.25663290,-0.35829072,0.51100799,0.30627788,-0.73126603,0.27598596,-0.73057551,0.21781108,-0.35495100,-0.76762862,0.36455327,-0.04194907
8.64000000,-0.34626996,0.83942721,-0.25512953,-0.35613466,0.50990736,0.30681679,-0.72928960,0.27590714,-0.72916539,0.21745737,-0.35137826,-0.76525622,0.36348676,-0.04181214
8.66000000,-0.34285206,0.83821712,-0.25360728,-0.35395152,0.50879290,0.30736247,-0.72728833,0.27582733,-0.72773755,0.21709921,-0.34776064,-0.76285401,0.36240686,-0.04167348
8.68000000,-0.33939248,0.83699227,-0.25206646,-0.35174176,0.50766486,0.30791481,-0.72526267,0.27574655,-0.72629230,0.21673669,-0.34409890,-0.76042251,0.36131378,-0.04153314
8.70000000,-0.33589197,0.83575293,-0.25050741,-0.34950585,0.50652347,0.30847368,-0.72321303,0.27566481,-0.72482995,0.21636988,-0.34039384,-0.75796224,0.36020778,-0.04139113
8.72000000,-0.33235130,0.83449937,-0.24893048,-0.34724429,0.50536898,0.30903897,-0.72113988,0.27558213,-0.72335083,0.21599886,-0.33664626,-0.75547375,0.35908908,-0.04124750
8.74000000,-0.32877124,0.83323186,-0.24733600,-0.34495757,0.50420165,0.30961054,-0.71904367,0.27549853,-0.72185525,0.21562371,-0.33285701,-0.75295758,0.35795795,-0.04110226
8.76000000,-0.32515261,0.83195070,-0.24572435,-0.34264621,0.50302174,0.31018827,-0.71692487,0.27541404,-0.72034355,0.21524452,-0.32902692,-0.75041429,0.35681462,-0.04095546
8.78000000,-0.32149621,0.83065617,-0.24409587,-0.34031073,0.50182952,0.31077203,-0.71478396,0.27532866,-0.71881608,0.21486137,-0.32515687,-0.74784446,0.35565936,-0.04080713
8.80000000,-0.31780288,0.82934856,-0.24245095,-0.33795166,0.50062525,0.31136169,-0.71262143,0.27524242,-0.71727319,0.21447436,-0.32124772,-0.74524867,0.35449243,-0.04065731
8.82000000,-0.31407347,0.82802817,-0.24078995,-0.33556955,0.49940922,0.31195711,-0.71043777,0.27515533,-0.71571521,0.21408356,-0.31730038,-0.74262753,0.35331411,-0.04050601
8.84000000,-0.31030884,0.82669532,-0.23911327,-0.33316494,0.49818171,0.31255815,-0.70823348,0.27506742,-0.71414253,0.21368907,-0.31331577,-0.73998163,0.35212465,-0.04035329
8.86000000,-0.30650987,0.82535031,-0.23742130,-0.33073839,0.49694300,0.31316467,-0.70600909,0.27497872,-0.71255550,0.21329098,-0.30929480,-0.73731159,0.35092435,-0.04019918
8.88000000,-0.30267744,0.82399346,-0.23571442,-0.32829047,0.49569338,0.31377654,-0.70376511,0.27488923,-0.71095449,0.21288939,-0.30523843,-0.73461805,0.34971347,-0.04004371
8.90000000,-0.29881247,0.82262508,-0.23399305,-0.32582177,0.49443315,0.31439360,-0.70150208,0.27479898,-0.70933989,0.21248439,-0.30114762,-0.73190163,0.34849231,-0.03988692
8.92000000,-0.29491588,0.82124551,-0.23225760,-0.32333287,0.49316261,0.31501571,-0.69922053,0.27470799,-0.70771207,0.21207607,-0.29702333,-0.72916298,0.34726116,-0.03972884
8.94000000,-0.29098859,0.81985506,-0.23050847,-0.32082436,0.49188206,0.31564272,-0.69692100,0.27461628,-0.70607144,0.21166454,-0.29286655,-0.72640276,0.34602031,-0.03956952
8.96000000,-0.28703155,0.81845409,-0.22874610,-0.31829685,0.49059181,0.31627448,-0.69460406,0.27452388,-0.70441837,0.21124989,-0.28867828,-0.72362163,0.34477007,-0.03940900
8.98000000,-0.28304571,0.81704292,-0.22697090,-0.31575095,0.48929217,0.31691083,-0.69227026,0.27443081,-0.70275328,0.21083222,-0.28445954,-0.72082026,0.34351072,-0.03924730
9.00000000,-0.27903205,0.81562190,-0.22518331,-0.31318727,0.48798346,0.31755163,-0.68992016,0.27433709,-0.70107656,0.21041164,-0.28021134,-0.71799933,0.34224258,-0.03908448
9.02000000,-0.27499155,0.81419138,-0.22338376,-0.31060644,0.48666599,0.31819672,-0.68755434,0.27424274,-0.69938863,0.20998824,-0.27593473,-0.71515954,0.34096596,-0.03892057
9.04000000,-0.27092518,0.81275169,-0.22157269,-0.30800910,0.48534009,0.31884593,-0.68517339,0.27414779,-0.69768989,0.20956214,-0.27163074,-0.71230157,0.33968117,-0.03875560
9.06000000,-0.26683396,0.81130321,-0.21975055,-0.30539588,0.48400609,0.31949912,-0.68277788,0.27405225,-0.69598077,0.20913342,-0.26730045,-0.70942613,0.33838853,-0.03858963
9.08000000,-0.26271889,0.80984629,-0.21791779,-0.30276743,0.48266431,0.32015611,-0.68036840,0.27395616,-0.69426169,0.20870221,-0.26294492,-0.70653393,0.33708835,-0.03842270
9.10000000,-0.25858099,0.80838128,-0.21607487,-0.30012440,0.48131508,0.32081674,-0.67794556,0.27385954,-0.69253307,0.20826861,-0.25856522,-0.70362569,0.33578096,-0.03825483
9.12000000,-0.25442129,0.80690856,-0.21422223,-0.29746744,0.47995875,0.32148086,-0.67550995,0.27376241,-0.69079534,0.20783273,-0.25416245,-0.70070212,0.33446668,-0.03808609
9.14000000,-0.25024082,0.80542848,-0.21236035,-0.29479722,0.47859565,0.32214829,-0.67306219,0.27366479,-0.68904894,0.20739466,-0.24973771,-0.69776397,0.33314584,-0.03791650
9.16000000,-0.24604064,0.80394142,-0.21048968,-0.29211441,0.47722612,0.32281887,-0.67060288,0.27356671,-0.68729430,0.20695453,-0.24529209,-0.69481195,0.33181877,-0.03774611
9.18000000,-0.24182179,0.80244776,-0.20861071,-0.28941967,0.47585051,0.32349242,-0.66813264,0.27346820,-0.68553187,0.20651245,-0.24082672,-0.69184681,0.33048580,-0.03757496
9.20000000,-0.23758534,0.80094786,-0.20672389,-0.28671369,0.47446915,0.32416879,-0.66565210,0.27336928,-0.68376208,0.20606852,-0.23634271,-0.68886930,0.32914727,-0.03740310
9.22000000,-0.23333235,0.79944210,-0.20482970,-0.28399714,0.47308240,0.32484780,-0.66316187,0.27326997,-0.68198538,0.20562286,-0.23184120,-0.68588017,0.32780352,-0.03723056
9.24000000,-0.22906390,0.79793087,-0.20292863,-0.28127072,0.47169061,0.32552928,-0.66066258,0.27317030,-0.68020222,0.20517557,-0.22732332,-0.68288017,0.32645488,-0.03705740
9.26000000,-0.22478106,0.79641455,-0.20102115,-0.27853511,0.47029412,0.32621306,-0.65815488,0.27307029,-0.67841305,0.20472678,-0.22279022,-0.67987006,0.32510169,-0.03688366
9.28000000,-0.22048492,0.79489352,-0.19910775,-0.27579100,0.46889330,0.32689896,-0.65563938,0.27296997,-0.67661833,0.20427660,-0.21824303,-0.67685060,0.32374430,-0.03670938
9.30000000,-0.21617657,0.79336817,-0.19718891,-0.27303910,0.46748850,0.32758680,-0.65311674,0.27286937,-0.67481850,0.20382514,-0.21368293,-0.67382256,0.32238306,-0.03653460
9.32000000,-0.21185711,0.79183888,-0.19526512,-0.27028009,0.46608008,0.32827643,-0.65058759,0.27276850,-0.67301404,0.20337251,-0.20911106,-0.67078670,0.32101830,-0.03635937
9.34000000,-0.20752763,0.79030604,-0.19333687,-0.26751469,0.46466839,0.32896765,-0.64805257,0.27266741,-0.67120538,0.20291883,-0.20452859,-0.66774381,0.31965038,-0.03618374
9.36000000,-0.20318924,0.78877005,-0.19140465,-0.26474359,0.46325379,0.32966029,-0.64551233,0.27256610,-0.66939301,0.20246422,-0.19993669,-0.66469465,0.31827964,-0.03600774
9.38000000,-0.19884304,0.78723130,-0.18946895,-0.26196751,0.46183665,0.33035418,-0.64296753,0.27246462,-0.66757737,0.20200879,-0.19533652,-0.66164001,0.31690643,-0.03583143
9.40000000,-0.19449015,0.78569017,-0.18753027,-0.25918715,0.46041733,0.33104914,-0.64041880,0.27236297,-0.66575894,0.20155266,-0.19072927,-0.65858066,0.31553111,-0.03565484
9.42000000,-0.19013167,0.78414707,-0.18558911,-0.25640323,0.45899618,0.33174499,-0.63786681,0.27226120,-0.66393817,0.20109594,-0.18611610,-0.65551739,0.31415403,-0.03547803
9.44000000,-0.18576872,0.78260239,-0.18364595,-0.25361645,0.45757358,0.33244156,-0.63531219,0.27215932,-0.66211554,0.20063876,-0.18149821,-0.65245097,0.31277553,-0.03530104
9.46000000,-0.18140242,0.78105652,-0.18170130,-0.25082753,0.45614988,0.33313866,-0.63275562,0.27205737,-0.66029150,0.20018122,-0.17687676,-0.64938220,0.31139597,-0.03512391
9.48000000,-0.17703388,0.77950985,-0.17975565,-0.24803717,0.45472545,0.33383612,-0.63019773,0.27195536,-0.65846653,0.19972345,-0.17225295,-0.64631186,0.31001571,-0.03494669
9.50000000,-0.17266422,0.77796279,-0.17780950,-0.24524611,0.45330066,0.33453375,-0.62763919,0.27185332,-0.65664109,0.19926556,-0.16762795,-0.64324073,0.30863509,-0.03476942
9.52000000,-0.16829456,0.77641573,-0.17586336,-0.24245504,0.45187587,0.33523139,-0.62508065,0.27175129,-0.65481566,0.19880768,-0.16300296,-0.64016959,0.30725448,-0.03459216
9.54000000,-0.16392602,0.77486907,-0.17391771,-0.23966469,0.45045145,0.33592885,-0.62252276,0.27164928,-0.65299069,0.19834991,-0.15837914,-0.63709925,0.30587421,-0.03441494
9.56000000,-0.15955972,0.77332320,-0.17197306,-0.23687577,0.44902775,0.33662595,-0.61996618,0.27154732,-0.65116665,0.19789237,-0.15375770,-0.63403048,0.30449466,-0.03423781
9.58000000,-0.15519677,0.77177851,-0.17002990,-0.23408899,0.44760515,0.33732251,-0.61741157,0.27144544,-0.64934402,0.19743519,-0.14913980,-0.63096406,0.30311616,-0.03406082
9.60000000,-0.15083829,0.77023541,-0.16808873,-0.23130506,0.44618400,0.33801836,-0.61485957,0.27134367,-0.64752325,0.19697847,-0.14452664,-0.62790079,0.30173907,-0.03388400
9.62000000,-0.14648540,0.76869429,-0.16615005,-0.22852471,0.44476467,0.33871332,-0.61231085,0.27124203,-0.64570482,0.19652234,-0.13991939,-0.62484144,0.30036375,-0.03370742
9.64000000,-0.14213920,0.76715553,-0.16421436,-0.22574863,0.44334753,0.33940722,-0.60976604,0.27114054,-0.64388918,0.19606691,-0.13531922,-0.62178680,0.29899055,-0.03353110
9.66000000,-0.13780081,0.76561954,-0.16228214,-0.22297753,0.44193294,0.34009986,-0.60722581,0.27103924,-0.64207680,0.19561230,-0.13072732,-0.61873764,0.29761981,-0.03335511
9.68000000,-0.13347133,0.76408671,-0.16035389,-0.22021213,0.44052125,0.34079108,-0.60469079,0.27093814,-0.64026815,0.19515862,-0.12614485,-0.61569475,0.29625189,-0.03317947
9.70000000,-0.12915187,0.76255742,-0.15843010,-0.21745312,0.43911282,0.34148070,-0.60216164,0.27083728,-0.63846368,0.19470599,-0.12157298,-0.61265890,0.29488713,-0.03300424
9.72000000,-0.12484352,0.76103206,-0.15651126,-0.21470122,0.43770802,0.34216855,-0.59963900,0.27073667,-0.63666386,0.19425453,-0.11701287,-0.60963085,0.29352589,-0.03282947
9.74000000,-0.12054738,0.75951103,-0.15459785,-0.21195711,0.43630720,0.34285445,-0.59712350,0.27063636,-0.63486913,0.19380434,-0.11246569,-0.60661139,0.29216850,-0.03265518
9.76000000,-0.11626454,0.75799471,-0.15269037,-0.20922150,0.43491072,0.34353823,-0.59461580,0.27053635,-0.63307997,0.19335555,-0.10793258,-0.60360128,0.29081531,-0.03248144
9.78000000,-0.11199608,0.75648348,-0.15078930,-0.20649508,0.43351893,0.34421970,-0.59211651,0.27043668,-0.63129681,0.19290827,-0.10341471,-0.60060128,0.28946667,-0.03230828
9.80000000,-0.10774309,0.75497773,-0.14889512,-0.20377853,0.43213218,0.34489871,-0.58962628,0.27033737,-0.62952011,0.19246261,-0.09891319,-0.59761215,0.28812292,-0.03213575
9.82000000,-0.10350664,0.75347783,-0.14700830,-0.20107255,0.43075082,0.34557508,-0.58714574,0.27023844,-0.62775032,0.19201868,-0.09442919,-0.59463464,0.28678439,-0.03196389
9.84000000,-0.09928780,0.75198416,-0.14512932,-0.19837781,0.42937520,0.34624864,-0.58467550,0.27013993,-0.62598788,0.19157659,-0.08996382,-0.59166950,0.28545142,-0.03179274
9.86000000,-0.09508762,0.75049711,-0.14325866,-0.19569500,0.42800567,0.34691922,-0.58221619,0.27004185,-0.62423325,0.19113647,-0.08551820,-0.58871749,0.28412435,-0.03162235
9.88000000,-0.09090715,0.74901703,-0.14139677,-0.19302478,0.42664257,0.34758665,-0.57976843,0.26994424,-0.62248685,0.19069840,-0.08109345,-0.58577933,0.28280351,-0.03145276
9.90000000,-0.08674745,0.74754430,-0.13954414,-0.19036782,0.42528624,0.34825077,-0.57733282,0.26984710,-0.62074912,0.19026252,-0.07669068,-0.58285576,0.28148923,-0.03128401
9.92000000,-0.08260955,0.74607930,-0.13770121,-0.18772479,0.42393702,0.34891140,-0.57490998,0.26975048,-0.61902050,0.18982891,-0.07231099,-0.57994752,0.28018184,-0.03111615
9.94000000,-0.07849448,0.74462237,-0.13586845,-0.18509634,0.42259524,0.34956839,-0.57250050,0.26965439,-0.61730142,0.18939770,-0.06795545,-0.57705532,0.27888166,-0.03094921
9.96000000,-0.07440326,0.74317389,-0.13404632,-0.18248312,0.42126124,0.35022157,-0.57010499,0.26955886,-0.61559230,0.18896899,-0.06362516,-0.57417988,0.27758901,-0.03078324
9.98000000,-0.07033689,0.74173421,-0.13223525,-0.17988577,0.41993534,0.35087079,-0.56772403,0.26946390,-0.61389356,0.18854289,-0.05932118,-0.57132191,0.27630422,-0.03061828
10.00000000,-0.06629638,0.74030368,-0.13043570,-0.17730495,0.41861787,0.35151587,-0.56535822,0.26936956,-0.61220563,0.18811949,-0.05504457,-0.56848212,0.27502760,-0.03045437
10.02000000,-0.06228272,0.73888266,-0.12864811,-0.17474127,0.41730916,0.35215667,-0.56300812,0.26927583,-0.61052891,0.18769891,-0.05079637,-0.56566119,0.27375947,-0.03029154
10.04000000,-0.05829689,0.73747150,-0.12687291,-0.17219537,0.41600952,0.35279303,-0.56067432,0.26918276,-0.60886382,0.18728124,-0.04657762,-0.56285982,0.27250012,-0.03012985
10.06000000,-0.05433985,0.73607052,-0.12511053,-0.16966786,0.41471927,0.35342479,-0.55835737,0.26909036,-0.60721075,0.18686659,-0.04238936,-0.56007869,0.27124987,-0.02996932
10.08000000,-0.05041256,0.73468008,-0.12336141,-0.16715935,0.41343872,0.35405180,-0.55605785,0.26899866,-0.60557011,0.18645506,-0.03823258,-0.55731847,0.27000902,-0.02981000
10.10000000,-0.04651596,0.73330051,-0.12162595,-0.16467045,0.41216817,0.35467391,-0.55377630,0.26890767,-0.60394230,0.18604674,-0.03410829,-0.55457982,0.26877787,-0.02965193
10.12000000,-0.04265099,0.73193213,-0.11990458,-0.16220174,0.41090794,0.35529097,-0.55151326,0.26881742,-0.60232770,0.18564174,-0.03001747,-0.55186340,0.26755672,-0.02949514
10.14000000,-0.03881857,0.73057527,-0.11819771,-0.15975383,0.40965833,0.35590283,-0.54926929,0.26872793,-0.60072669,0.18524014,-0.02596110,-0.54916986,0.26634584,-0.02933967
10.16000000,-0.03501960,0.72923026,-0.11650573,-0.15732728,0.40841962,0.35650936,-0.54704489,0.26863922,-0.59913966,0.18484206,-0.02194014,-0.54649982,0.26514554,-0.02918555
10.18000000,-0.03125497,0.72789741,-0.11482905,-0.15492267,0.40719210,0.35711040,-0.54484061,0.26855131,-0.59756698,0.18444757,-0.01795552,-0.54385392,0.26395608,-0.02903283
10.20000000,-0.02752556,0.72657703,-0.11316806,-0.15254055,0.40597607,0.35770582,-0.54265695,0.26846423,-0.59600900,0.18405677,-0.01400818,-0.54123278,0.26277775,-0.02888154
10.22000000,-0.02383223,0.72526942,-0.11152314,-0.15018149,0.40477181,0.35829547,-0.54049442,0.26837799,-0.59446610,0.18366976,-0.01009904,-0.53863699,0.26161083,-0.02873171
10.24000000,-0.02017583,0.72397489,-0.10989466,-0.14784601,0.40357959,0.35887924,-0.53835351,0.26829261,-0.59293863,0.18328661,-0.00622898,-0.53606716,0.26045557,-0.02858338
10.26000000,-0.01655720,0.72269372,-0.10828300,-0.14553465,0.40239968,0.35945697,-0.53623471,0.26820811,-0.59142694,0.18290742,-0.00239889,-0.53352387,0.25931224,-0.02843658
10.28000000,-0.01297714,0.72142622,-0.10668853,-0.14324793,0.40123235,0.36002854,-0.53413850,0.26812451,-0.58993136,0.18253227,0.00139036,-0.53100770,0.25818110,-0.02829135
10.30000000,-0.00943647,0.72017266,-0.10511159,-0.14098637,0.40007786,0.36059382,-0.53206535,0.26804184,-0.58845224,0.18216125,0.00513793,-0.52851921,0.25706241,-0.02814771
10.32000000,-0.00593596,0.71893332,-0.10355255,-0.13875046,0.39893647,0.36115270,-0.53001571,0.26796010,-0.58698989,0.18179444,0.00884299,-0.52605894,0.25595640,-0.02800571
10.34000000,-0.00247638,0.71770847,-0.10201173,-0.13654070,0.39780842,0.36170504,-0.52799004,0.26787931,-0.58554464,0.18143192,0.01250473,-0.52362744,0.25486333,-0.02786536
10.36000000,0.00094152,0.71649837,-0.10048947,-0.13435755,0.39669396,0.36225072,-0.52598878,0.26779950,-0.58411680,0.18107376,0.01612236,-0.52122523,0.25378343,-0.02772671
10.38000000,0.00431702,0.71530329,-0.09898611,-0.13220150,0.39559334,0.36278963,-0.52401234,0.26772068,-0.58270668,0.18072005,0.01969509,-0.51885283,0.25271692,-0.02758977
10.40000000,0.00764939,0.71412348,-0.09750194,-0.13007299,0.39450677,0.36332166,-0.52206116,0.26764287,-0.58131457,0.18037086,0.02322219,-0.51651074,0.25166404,-0.02745459
10.42000000,0.01093794,0.71295918,-0.09603730,-0.12797246,0.39343449,0.36384669,-0.52013563,0.26756608,-0.57994077,0.18002626,0.02670291,-0.51419944,0.25062500,-0.02732118
10.44000000,0.01418201,0.71181063,-0.09459246,-0.12590035,0.39237671,0.36436462,-0.51823615,0.26749033,-0.57858555,0.17968632,0.03013654,-0.51191941,0.24960002,-0.02718958
10.46000000,0.01738093,0.71067806,-0.09316774,-0.12385708,0.39133365,0.36487535,-0.51636310,0.26741563,-0.57724919,0.17935111,0.03352239,-0.50967111,0.24858931,-0.02705980
10.48000000,0.02053408,0.70956170,-0.09176340,-0.12184305,0.39030552,0.36537876,-0.51451686,0.26734200,-0.57593195,0.17902070,0.03685979,-0.50745498,0.24759305,-0.02693189
10.50000000,0.02364084,0.70846177,-0.09037972,-0.11985864,0.38929252,0.36587477,-0.51269777,0.26726946,-0.57463410,0.17869515,0.04014809,-0.50527145,0.24661146,-0.02680586
10.52000000,0.02670061,0.70737847,-0.08901696,-0.11790425,0.38829484,0.36636328,-0.51090620,0.26719801,-0.57335587,0.17837452,0.04338666,-0.50312095,0.24564470,-0.02668173
10.54000000,0.02971283,0.70631200,-0.08767539,-0.11598023,0.38731266,0.36684419,-0.50914247,0.26712767,-0.57209750,0.17805887,0.04657490,-0.50100387,0.24469298,-0.02655953
10.56000000,0.03267695,0.70526257,-0.08635524,-0.11408694,0.38634616,0.36731743,-0.50740691,0.26705846,-0.57085924,0.17774827,0.04971222,-0.49892059,0.24375645,-0.02643929
10.58000000,0.03559244,0.70423035,-0.08505675,-0.11222470,0.38539553,0.36778290,-0.50569982,0.26699038,-0.56964128,0.17744276,0.05279808,-0.49687150,0.24283528,-0.02632101
10.60000000,0.03845879,0.70321553,-0.08378014,-0.11039385,0.38446091,0.36824053,-0.50402150,0.26692345,-0.56844385,0.17714240,0.05583193,-0.49485693,0.24192964,-0.02620473
10.62000000,0.04127553,0.70221828,-0.08252563,-0.10859470,0.38354247,0.36869023,-0.50237223,0.26685767,-0.56726715,0.17684724,0.05881326,-0.49287724,0.24103968,-0.02609046
10.64000000,0.04404220,0.70123875,-0.08129341,-0.10682752,0.38264036,0.36913194,-0.50075228,0.26679307,-0.56611137,0.17655733,0.06174160,-0.49093274,0.24016553,-0.02597823
10.66000000,0.04675837,0.70027710,-0.08008370,-0.10509260,0.38175471,0.36956559,-0.49916189,0.26672965,-0.56497668,0.17627271,0.06461649,-0.48902373,0.23930735,-0.02586804
10.68000000,0.04942363,0.69933348,-0.07889665,-0.10339020,0.38088566,0.36999111,-0.49760132,0.26666741,-0.56386326,0.17599342,0.06743749,-0.48715051,0.23846525,-0.02575992
10.70000000,0.05203758,0.69840801,-0.07773246,-0.10172057,0.38003334,0.37040844,-0.49607078,0.26660637,-0.56277127,0.17571951,0.07020419,-0.48531334,0.23763935,-0.02565388
10.72000000,0.05459989,0.69750084,-0.07659126,-0.10008393,0.37919787,0.37081753,-0.49457049,0.26654654,-0.56170086,0.17545101,0.07291622,-0.48351247,0.23682978,-0.02554993
10.74000000,0.05711021,0.69661207,-0.07547322,-0.09848049,0.37837934,0.37121831,-0.49310064,0.26648792,-0.56065217,0.17518796,0.07557323,-0.48174814,0.23603663,-0.02544809
10.76000000,0.05956823,0.69574182,-0.07437848,-0.09691046,0.37757787,0.37161075,-0.49166140,0.26643053,-0.55962532,0.17493039,0.07817489,-0.48002056,0.23526000,-0.02534838
10.78000000,0.06197369,0.69489018,-0.07330714,-0.09537400,0.37679353,0.37199479,-0.49025295,0.26637436,-0.55862044,0.17467832,0.08072090,-0.47832994,0.23449999,-0.02525080
10.80000000,0.06432632,0.69405724,-0.07225934,-0.09387129,0.37602642,0.37237040,-0.48887543,0.26631942,-0.55763762,0.17443180,0.08321101,-0.47667644,0.23375666,-0.02515536
10.82000000,0.06662589,0.69324308,-0.07123516,-0.09240246,0.37527661,0.37273753,-0.48752897,0.26626572,-0.55667697,0.17419083,0.08564496,-0.47506022,0.23303010,-0.02506207
10.84000000,0.06887223,0.69244778,-0.07023469,-0.09096764,0.37454416,0.37309617,-0.48621369,0.26621327,-0.55573855,0.17395544,0.08802255,-0.47348143,0.23232036,-0.02497094
10.86000000,0.07106514,0.69167138,-0.06925802,-0.08956695,0.37382913,0.37344628,-0.48492968,0.26616206,-0.55482246,0.17372565,0.09034361,-0.47194018,0.23162749,-0.02488198
10.88000000,0.07320450,0.69091395,-0.06830519,-0.08820046,0.37313156,0.37378784,-0.48367704,0.26611211,-0.55392873,0.17350147,0.09260798,-0.47043657,0.23095155,-0.02479519
10.90000000,0.07529019,0.69017552,-0.06737627,-0.08686825,0.37245149,0.37412083,-0.48245581,0.26606341,-0.55305743,0.17328291,0.09481555,-0.46897068,0.23029256,-0.02471058
10.92000000,0.07732214,0.68945612,-0.06647129,-0.08557036,0.37178895,0.37444524,-0.48126606,0.26601596,-0.55220858,0.17306999,0.09696623,-0.46754257,0.22965056,-0.02462815
10.94000000,0.07930029,0.68875576,-0.06559027,-0.08430685,0.37114394,0.37476106,-0.48010781,0.26596977,-0.55138220,0.17286270,0.09905997,-0.46615227,0.22902555,-0.02454790
10.96000000,0.08122461,0.68807446,-0.06473322,-0.08307771,0.37051649,0.37506829,-0.47898107,0.26592483,-0.55057831,0.17266106,0.10109675,-0.46479979,0.22841755,-0.02446984
10.98000000,0.08309513,0.68741221,-0.06390013,-0.08188294,0.36990658,0.37536692,-0.47788583,0.26588116,-0.54979690,0.17246505,0.10307657,-0.46348513,0.22782655,-0.02439396
11.00000000,0.08491188,0.68676900,-0.06309100,-0.08072251,0.36931420,0.37565698,-0.47682208,0.26583873,-0.54903794,0.17227468,0.10499948,-0.46220827,0.22725254,-0.02432026
11.02000000,0.08667494,0.68614480,-0.06230577,-0.07959638,0.36873933,0.37593846,-0.47578977,0.26579756,-0.54830142,0.17208993,0.10686556,-0.46096913,0.22669549,-0.02424873
11.04000000,0.08838440,0.68553957,-0.06154441,-0.07850448,0.36818193,0.37621138,-0.47478883,0.26575765,-0.54758729,0.17191080,0.10867492,-0.45976767,0.22615538,-0.02417939
11.06000000,0.09004042,0.68495326,-0.06080686,-0.07744672,0.36764196,0.37647577,-0.47381919,0.26571898,-0.54689548,0.17173727,0.11042770,-0.45860377,0.22563215,-0.02411220
11.08000000,0.09164316,0.68438582,-0.06009304,-0.07642299,0.36711937,0.37673166,-0.47288075,0.26568155,-0.54622593,0.17156932,0.11212410,-0.45747731,0.22512576,-0.02404719
11.10000000,0.09319283,0.68383716,-0.05940285,-0.07543316,0.36661407,0.37697907,-0.47197338,0.26564537,-0.54557855,0.17140693,0.11376432,-0.45638816,0.22463613,-0.02398432
11.12000000,0.09468966,0.68330722,-0.05873620,-0.07447707,0.36612601,0.37721805,-0.47109695,0.26561042,-0.54495325,0.17125008,0.11534862,-0.45533614,0.22416320,-0.02392360
11.14000000,0.09613393,0.68279588,-0.05809295,-0.07355456,0.36565509,0.37744863,-0.47025130,0.26557669,-0.54434990,0.17109874,0.11687728,-0.45432106,0.22370687,-0.02386501
11.16000000,0.09752595,0.68230304,-0.05747298,-0.07266543,0.36520120,0.37767087,-0.46943624,0.26554419,-0.54376838,0.17095287,0.11835064,-0.45334271,0.22326706,-0.02380854
11.18000000,0.09886605,0.68182858,-0.05687613,-0.07180945,0.36476424,0.37788483,-0.46865157,0.26551289,-0.54320855,0.17081245,0.11976906,-0.45240084,0.22284365,-0.02375417
11.20000000,0.10015463,0.68137237,-0.05630222,-0.07098639,0.36434408,0.37809055,-0.46789708,0.26548280,-0.54267024,0.17067742,0.12113293,-0.45149519,0.22243651,-0.02370190
11.22000000,0.10139209,0.68093425,-0.05575109,-0.07019598,0.36394059,0.37828812,-0.46717252,0.26545391,-0.54215329,0.17054775,0.12244270,-0.45062547,0.22204553,-0.02365170
11.24000000,0.10257888,0.68051407,-0.05522252,-0.06943793,0.36355361,0.37847760,-0.46647762,0.26542620,-0.54165750,0.17042339,0.12369884,-0.44979135,0.22167056,-0.02360355
11.26000000,0.10371550,0.68011165,-0.05471629,-0.06871193,0.36318300,0.37865906,-0.46581210,0.26539966,-0.54118268,0.17030428,0.12490188,-0.44899250,0.22131144,-0.02355744
11.28000000,0.10480247,0.67972682,-0.05423218,-0.06801764,0.36282858,0.37883260,-0.46517565,0.26537427,-0.54072859,0.17019038,0.12605236,-0.44822854,0.22096800,-0.02351335
11.30000000,0.10584035,0.67935936,-0.05376993,-0.06735471,0.36249016,0.37899830,-0.46456795,0.26535004,-0.54029502,0.17008162,0.12715089,-0.44749909,0.22064008,-0.02347124
11.32000000,0.10682975,0.67900907,-0.05332928,-0.06672274,0.36216756,0.37915627,-0.46398863,0.26532694,-0.53988169,0.16997795,0.12819810,-0.44680371,0.22032747,-0.02343111
11.34000000,0.10777130,0.67867572,-0.05290993,-0.06612134,0.36186055,0.37930659,-0.46343733,0.26530495,-0.53948836,0.16987928,0.12919467,-0.44614196,0.22002998,-0.02339291
11.36000000,0.10866568,0.67835906,-0.05251159,-0.06555006,0.36156892,0.37944938,-0.46291365,0.26528406,-0.53911472,0.16978556,0.13014132,-0.44551336,0.21974740,-0.02335663
11.38000000,0.10951363,0.67805885,-0.05213394,-0.06500844,0.36129244,0.37958476,-0.46241715,0.26526426,-0.53876049,0.16969671,0.13103882,-0.44491740,0.21947949,-0.02332223
11.40000000,0.11031588,0.67777482,-0.05177663,-0.06449601,0.36103085,0.37971284,-0.46194741,0.26524553,-0.53842535,0.16961264,0.13188795,-0.44435355,0.21922601,-0.02328968
11.42000000,0.11107325,0.67750667,-0.05143932,-0.06401225,0.36078390,0.37983376,-0.46150396,0.26522785,-0.53810896,0.16953328,0.13268958,-0.44382124,0.21898672,-0.02325896
11.44000000,0.11178657,0.67725412,-0.05112162,-0.06355663,0.36055131,0.37994765,-0.46108629,0.26521119,-0.53781096,0.16945853,0.13344458,-0.44331990,0.21876134,-0.02323002
11.46000000,0.11245673,0.67701686,-0.05082315,-0.06312857,0.36033280,0.38005464,-0.46069390,0.26519554,-0.53753100,0.16938831,0.13415390,-0.44284889,0.21854960,-0.02320284
11.48000000,0.11308464,0.67679455,-0.05054349,-0.06272750,0.36012806,0.38015489,-0.46032624,0.26518088,-0.53726869,0.16932251,0.13481850,-0.44240757,0.21835120,-0.02317736
11.50000000,0.11367128,0.67658685,-0.05028222,-0.06235279,0.35993677,0.38024855,-0.45998275,0.26516718,-0.53702362,0.16926103,0.13543942,-0.44199527,0.21816585,-0.02315356
