gracetata/LocomotionHEC/legged_lab/Reference Data/ArmHack/StandPerturb/TestData/ArmOnly/trajectories/synthesized/synthesized_arm_trajectory_01_seed20260714_measured_blend_1x_50hz.csv
time_s,left_shoulder_pitch_joint,left_shoulder_roll_joint,left_shoulder_yaw_joint,left_elbow_joint,left_wrist_roll_joint,left_wrist_pitch_joint,left_wrist_yaw_joint,right_shoulder_pitch_joint,right_shoulder_roll_joint,right_shoulder_yaw_joint,right_elbow_joint,right_wrist_roll_joint,right_wrist_pitch_joint,right_wrist_yaw_joint
0.00000000,0.27748673,0.77762906,-0.22960621,-0.47553482,0.84736445,0.40012900,0.04635057,-0.34717420,-0.74233276,0.41266717,-0.21889507,-0.68365911,0.26312181,0.40934783
0.02000000,0.27751661,0.77762771,-0.22960867,-0.47552781,0.84736093,0.40013081,0.04635262,-0.35173646,-0.74282552,0.41410058,-0.21768544,-0.68210422,0.26150337,0.41340407
0.04000000,0.27754950,0.77761977,-0.22961240,-0.47551482,0.84735628,0.40013058,0.04635075,-0.35672453,-0.74347752,0.41569903,-0.21656044,-0.68035839,0.25976986,0.41768819
0.06000000,0.27751859,0.77762204,-0.22961491,-0.47552194,0.84734891,0.40013829,0.04635245,-0.36151686,-0.74405655,0.41728356,-0.21571530,-0.67841313,0.25808684,0.42205903
0.08000000,0.27751254,0.77763038,-0.22962065,-0.47553766,0.84736683,0.40012470,0.04634542,-0.36598671,-0.74472076,0.41889267,-0.21526877,-0.67668130,0.25631467,0.42632849
0.10000000,0.27752011,0.77763566,-0.22959994,-0.47554446,0.84737010,0.40012490,0.04635146,-0.37058490,-0.74547740,0.42055272,-0.21476578,-0.67518186,0.25435265,0.43082281
0.12000000,0.27751891,0.77763335,-0.22960180,-0.47556285,0.84736965,0.40013439,0.04635683,-0.37552413,-0.74625802,0.42240913,-0.21435568,-0.67347390,0.25252441,0.43556823
0.14000000,0.27750939,0.77762108,-0.22960535,-0.47556584,0.84737453,0.40012487,0.04635508,-0.38080904,-0.74702704,0.42413490,-0.21410373,-0.67156003,0.25078811,0.44029854
0.16000000,0.27750448,0.77762662,-0.22960651,-0.47556125,0.84735747,0.40011996,0.04635126,-0.38541443,-0.74784023,0.42559489,-0.21395021,-0.66974535,0.24907303,0.44488758
0.18000000,0.27750795,0.77763303,-0.22961441,-0.47554878,0.84736946,0.40012447,0.04635921,-0.39005821,-0.74879651,0.42690849,-0.21368011,-0.66799451,0.24732842,0.44962915
0.20000000,0.27751764,0.77763717,-0.22961379,-0.47554444,0.84737340,0.40013359,0.04635632,-0.39508673,-0.74991860,0.42802869,-0.21345160,-0.66590879,0.24559339,0.45473457
0.22000000,0.27754660,0.77762906,-0.22961379,-0.47555319,0.84736497,0.40012337,0.04635665,-0.40005900,-0.75126701,0.42916012,-0.21314562,-0.66394682,0.24387784,0.45980781
0.24000000,0.27752432,0.77762627,-0.22961285,-0.47555251,0.84736521,0.40013086,0.04635734,-0.40491699,-0.75275009,0.43011727,-0.21309750,-0.66204959,0.24215341,0.46494323
0.26000000,0.27756623,0.77762366,-0.22960899,-0.47553166,0.84738405,0.40013056,0.04634602,-0.40958315,-0.75408293,0.43119870,-0.21289847,-0.66018988,0.24065524,0.46994495
0.28000000,0.27752096,0.77762818,-0.22962038,-0.47554306,0.84737928,0.40012503,0.04634228,-0.41434177,-0.75549968,0.43188709,-0.21296599,-0.65798100,0.23914158,0.47523317
0.30000000,0.27752052,0.77763925,-0.22961689,-0.47554543,0.84736590,0.40012431,0.04635381,-0.41902979,-0.75722082,0.43263624,-0.21310360,-0.65551175,0.23762138,0.48076584
0.32000000,0.27750803,0.77763216,-0.22960763,-0.47555677,0.84736709,0.40012471,0.04635921,-0.42406303,-0.75890007,0.43369151,-0.21344579,-0.65298070,0.23611238,0.48606399
0.34000000,0.27750618,0.77762906,-0.22960513,-0.47555330,0.84737732,0.40012709,0.04635804,-0.42844325,-0.76058480,0.43488188,-0.21398779,-0.65031049,0.23435470,0.49168555
0.36000000,0.27748238,0.77762717,-0.22961379,-0.47556097,0.84737001,0.40012259,0.04636889,-0.43215117,-0.76196369,0.43586606,-0.21520181,-0.64791052,0.23278040,0.49701109
0.38000000,0.27749956,0.77762960,-0.22961313,-0.47555957,0.84734766,0.40012801,0.04636581,-0.43610456,-0.76350099,0.43708795,-0.21611556,-0.64530198,0.23126624,0.50270471
0.40000000,0.27745909,0.77762366,-0.22960906,-0.47557527,0.84737173,0.40011600,0.04636581,-0.43996976,-0.76523974,0.43792131,-0.21742743,-0.64267882,0.22967024,0.50826286
0.42000000,0.27745763,0.77762181,-0.22960844,-0.47554847,0.84736943,0.40012351,0.04636337,-0.44343911,-0.76737239,0.43861532,-0.21879246,-0.63992294,0.22827125,0.51405294
0.44000000,0.27745301,0.77762673,-0.22960764,-0.47555437,0.84737936,0.40012655,0.04636094,-0.44727088,-0.76974924,0.43950918,-0.21972894,-0.63736541,0.22672237,0.51978834
0.46000000,0.27742994,0.77762366,-0.22961140,-0.47556960,0.84736940,0.40013273,0.04636652,-0.45103090,-0.77210990,0.43991746,-0.22078654,-0.63481570,0.22536957,0.52556184
0.48000000,0.27745519,0.77762285,-0.22960838,-0.47555466,0.84737795,0.40012982,0.04635847,-0.45478741,-0.77430801,0.44015530,-0.22210617,-0.63234578,0.22424494,0.53127488
0.50000000,0.27744122,0.77761200,-0.22961369,-0.47556968,0.84738066,0.40012330,0.04636393,-0.45816950,-0.77655050,0.44008950,-0.22395016,-0.62983194,0.22312853,0.53700774
0.52000000,0.27745687,0.77762995,-0.22958361,-0.47555217,0.84737240,0.40014480,0.04636900,-0.46209611,-0.77905470,0.44026690,-0.22549021,-0.62705960,0.22174842,0.54302643
0.54000000,0.27744615,0.77762820,-0.22959638,-0.47556393,0.84737787,0.40015311,0.04636381,-0.46609992,-0.78156037,0.44077957,-0.22715183,-0.62436154,0.22065233,0.54870516
0.56000000,0.27740250,0.77763005,-0.22960301,-0.47556682,0.84737706,0.40012560,0.04636897,-0.46983593,-0.78375180,0.44076147,-0.22893970,-0.62170139,0.21943006,0.55434512
0.58000000,0.27740241,0.77762387,-0.22961260,-0.47556241,0.84738491,0.40011852,0.04636429,-0.47302876,-0.78572931,0.44019413,-0.23113006,-0.61877451,0.21843160,0.56016808
0.60000000,0.27740804,0.77763449,-0.22960818,-0.47555292,0.84737094,0.40012867,0.04637984,-0.47627809,-0.78809229,0.43965104,-0.23365014,-0.61569345,0.21751951,0.56597633
0.62000000,0.27745243,0.77763483,-0.22959738,-0.47555159,0.84736573,0.40012054,0.04636897,-0.47987839,-0.79087020,0.43979524,-0.23583156,-0.61297643,0.21657427,0.57192573
0.64000000,0.27740840,0.77762675,-0.22960319,-0.47557591,0.84736248,0.40013419,0.04636588,-0.48322021,-0.79371003,0.43942902,-0.23839788,-0.61042772,0.21557976,0.57756308
0.66000000,0.27743744,0.77762164,-0.22961285,-0.47557707,0.84737100,0.40013041,0.04637237,-0.48611234,-0.79628166,0.43900417,-0.24100272,-0.60757400,0.21469541,0.58318304
0.68000000,0.27733560,0.77762087,-0.22961993,-0.47558920,0.84737246,0.40011000,0.04636581,-0.48859259,-0.79897204,0.43778155,-0.24394763,-0.60421207,0.21395254,0.58918710
0.70000000,0.27715700,0.77760701,-0.22963705,-0.47562432,0.84737090,0.40009061,0.04636581,-0.49027540,-0.80232507,0.43614842,-0.24763670,-0.60072774,0.21355279,0.59552652
0.72000000,0.27730393,0.77763565,-0.22959010,-0.47556720,0.84737066,0.40013962,0.04637232,-0.49222769,-0.80562602,0.43528032,-0.25049740,-0.59762159,0.21319682,0.60164031
0.74000000,0.27737043,0.77767520,-0.22955696,-0.47554742,0.84735248,0.40015881,0.04637425,-0.49492493,-0.80858087,0.43472721,-0.25280405,-0.59485638,0.21291508,0.60728948
0.76000000,0.27736097,0.77766779,-0.22958302,-0.47557531,0.84737051,0.40012450,0.04636595,-0.49727016,-0.81161043,0.43416940,-0.25559584,-0.59207785,0.21232221,0.61284805
0.78000000,0.27737411,0.77765797,-0.22958321,-0.47555010,0.84737263,0.40013871,0.04636497,-0.49918448,-0.81460917,0.43347873,-0.25924768,-0.58944402,0.21168821,0.61831895
0.80000000,0.27738890,0.77765944,-0.22958121,-0.47555975,0.84737137,0.40013456,0.04636427,-0.50093254,-0.81732488,0.43255467,-0.26283647,-0.58672884,0.21095547,0.62357761
0.82000000,0.27732340,0.77766198,-0.22959390,-0.47556287,0.84738887,0.40013242,0.04635578,-0.50305669,-0.81982535,0.43172405,-0.26592909,-0.58399262,0.21030014,0.62892589
0.84000000,0.27723958,0.77767349,-0.22958956,-0.47557658,0.84737440,0.40011187,0.04636553,-0.50496398,-0.82220997,0.43052376,-0.26930789,-0.58123021,0.20999938,0.63385608
0.86000000,0.27722448,0.77767349,-0.22958855,-0.47555059,0.84736812,0.40011656,0.04637209,-0.50665044,-0.82522013,0.42950219,-0.27285405,-0.57844708,0.20974058,0.63903476
0.88000000,0.27727555,0.77766723,-0.22956422,-0.47556378,0.84737427,0.40012619,0.04637079,-0.50831666,-0.82798625,0.42832911,-0.27625539,-0.57582601,0.20955017,0.64394935
0.90000000,0.27725767,0.77766119,-0.22958882,-0.47556363,0.84738465,0.40011604,0.04637481,-0.51037660,-0.83096294,0.42753981,-0.27919958,-0.57292325,0.20915653,0.64911619
0.92000000,0.27723828,0.77766957,-0.22959445,-0.47558249,0.84738402,0.40010391,0.04636507,-0.51165530,-0.83375486,0.42625639,-0.28252428,-0.57003703,0.20886532,0.65369928
0.94000000,0.27722032,0.77765243,-0.22958677,-0.47556374,0.84737485,0.40012851,0.04636040,-0.51241348,-0.83666437,0.42485705,-0.28624697,-0.56709789,0.20871423,0.65828654
0.96000000,0.27726681,0.77765846,-0.22958374,-0.47557509,0.84737289,0.40013639,0.04636803,-0.51336609,-0.83967467,0.42352193,-0.28989787,-0.56466558,0.20839599,0.66294855
0.98000000,0.27726056,0.77767643,-0.22957284,-0.47557441,0.84737048,0.40012927,0.04636023,-0.51435201,-0.84236396,0.42209330,-0.29324726,-0.56244812,0.20812282,0.66761363
1.00000000,0.27719248,0.77766453,-0.22957411,-0.47557841,0.84738191,0.40011239,0.04636527,-0.51508935,-0.84482224,0.42062336,-0.29671052,-0.56007084,0.20823984,0.67181155
1.02000000,0.27721737,0.77765196,-0.22957357,-0.47556284,0.84737898,0.40013247,0.04637323,-0.51618398,-0.84722434,0.41954011,-0.30011395,-0.55766984,0.20843837,0.67603324
1.04000000,0.27725047,0.77765956,-0.22958555,-0.47557809,0.84737390,0.40012096,0.04637045,-0.51705639,-0.84985275,0.41858732,-0.30378728,-0.55533705,0.20848024,0.68011053
1.06000000,0.27722477,0.77768167,-0.22958218,-0.47557735,0.84738674,0.40012054,0.04636715,-0.51797767,-0.85241897,0.41761357,-0.30743811,-0.55300459,0.20857458,0.68420974
1.08000000,0.27719975,0.77767169,-0.22958426,-0.47558652,0.84738909,0.40012496,0.04636270,-0.51879147,-0.85482234,0.41629400,-0.31145667,-0.55097454,0.20862944,0.68825025
1.10000000,0.27720567,0.77766161,-0.22958848,-0.47557393,0.84737937,0.40011498,0.04637236,-0.51936317,-0.85721083,0.41462147,-0.31551805,-0.54903529,0.20854837,0.69172571
1.12000000,0.27724887,0.77766085,-0.22957812,-0.47555243,0.84737565,0.40013496,0.04637334,-0.51971137,-0.85984874,0.41289069,-0.31946041,-0.54707213,0.20840473,0.69510898
1.14000000,0.27729015,0.77766842,-0.22957820,-0.47555546,0.84738102,0.40013341,0.04636679,-0.51995892,-0.86219850,0.41119285,-0.32288641,-0.54508866,0.20861373,0.69853338
1.16000000,0.27726130,0.77767025,-0.22957459,-0.47555791,0.84738288,0.40014610,0.04637022,-0.52039174,-0.86416126,0.40965762,-0.32611635,-0.54309933,0.20903264,0.70179682
1.18000000,0.27724317,0.77766364,-0.22957244,-0.47558478,0.84737440,0.40013440,0.04636260,-0.52029785,-0.86627779,0.40808392,-0.33000195,-0.54103556,0.20951229,0.70479716
1.20000000,0.27725875,0.77766166,-0.22958247,-0.47557391,0.84738536,0.40014211,0.04636469,-0.52029832,-0.86854823,0.40667026,-0.33384573,-0.53865924,0.20957122,0.70811400
1.22000000,0.27719956,0.77767983,-0.22959216,-0.47557807,0.84737135,0.40015286,0.04635389,-0.52018275,-0.87058659,0.40542650,-0.33710075,-0.53692198,0.20964712,0.71098814
1.24000000,0.27717869,0.77767218,-0.22959098,-0.47555656,0.84737752,0.40013352,0.04635811,-0.51995516,-0.87263770,0.40413775,-0.34020334,-0.53544740,0.20999274,0.71367527
1.26000000,0.27723222,0.77769094,-0.22959632,-0.47555811,0.84736889,0.40013467,0.04635818,-0.52000024,-0.87459537,0.40265289,-0.34314270,-0.53397053,0.21050220,0.71622064
1.28000000,0.27724179,0.77767378,-0.22959040,-0.47557288,0.84738652,0.40013524,0.04636700,-0.51979078,-0.87680546,0.40081226,-0.34638404,-0.53249721,0.21092382,0.71871914
1.30000000,0.27726532,0.77767795,-0.22957928,-0.47555996,0.84737967,0.40014366,0.04636700,-0.51962265,-0.87899947,0.39931210,-0.34930122,-0.53118466,0.21129770,0.72104199
1.32000000,0.27726997,0.77768076,-0.22956515,-0.47555949,0.84737577,0.40014942,0.04636091,-0.51927834,-0.88112046,0.39783707,-0.35192927,-0.52997022,0.21172866,0.72298055
1.34000000,0.27728496,0.77767642,-0.22956698,-0.47556759,0.84737193,0.40013605,0.04636102,-0.51865781,-0.88276466,0.39629869,-0.35451938,-0.52873209,0.21220410,0.72499670
1.36000000,0.27731383,0.77769006,-0.22957135,-0.47555626,0.84737012,0.40013765,0.04636183,-0.51789950,-0.88421801,0.39507603,-0.35741862,-0.52745913,0.21265184,0.72679928
1.38000000,0.27728484,0.77769669,-0.22957919,-0.47556917,0.84737706,0.40012316,0.04636554,-0.51710548,-0.88539989,0.39419295,-0.36019440,-0.52627255,0.21306454,0.72841131
1.40000000,0.27725695,0.77769383,-0.22958169,-0.47555477,0.84737116,0.40012845,0.04636320,-0.51597259,-0.88665749,0.39309858,-0.36310715,-0.52519579,0.21347724,0.72996485
1.42000000,0.27725695,0.77767577,-0.22958129,-0.47556054,0.84738447,0.40014272,0.04636953,-0.51512023,-0.88816939,0.39195274,-0.36557072,-0.52412891,0.21384804,0.73159869
1.44000000,0.27725795,0.77768196,-0.22959497,-0.47557023,0.84738760,0.40013050,0.04635500,-0.51442593,-0.88997519,0.39078443,-0.36755614,-0.52310975,0.21425309,0.73296517
1.46000000,0.27726867,0.77768115,-0.22958677,-0.47557137,0.84738263,0.40012332,0.04636629,-0.51358241,-0.89165528,0.38920238,-0.36925502,-0.52215279,0.21475926,0.73424234
1.48000000,0.27727899,0.77767770,-0.22958272,-0.47556685,0.84737610,0.40014258,0.04637332,-0.51293016,-0.89304653,0.38787067,-0.37101280,-0.52141904,0.21534704,0.73532451
1.50000000,0.27728474,0.77767848,-0.22958613,-0.47556212,0.84737926,0.40013207,0.04635092,-0.51242013,-0.89419736,0.38657502,-0.37294734,-0.52061250,0.21586320,0.73636657
1.52000000,0.27729334,0.77768779,-0.22957886,-0.47555864,0.84738580,0.40013826,0.04636845,-0.51188933,-0.89525296,0.38547542,-0.37508770,-0.51987932,0.21633949,0.73724469
1.54000000,0.27727226,0.77767770,-0.22958186,-0.47555864,0.84737808,0.40012815,0.04636670,-0.51128180,-0.89637915,0.38450197,-0.37719230,-0.51901102,0.21672325,0.73806324
1.56000000,0.27725280,0.77767770,-0.22959757,-0.47556333,0.84737440,0.40012564,0.04636160,-0.51082548,-0.89721239,0.38358504,-0.37887181,-0.51808116,0.21696477,0.73878497
1.58000000,0.27726630,0.77767393,-0.22959708,-0.47556523,0.84737416,0.40012730,0.04637090,-0.51033496,-0.89806733,0.38285927,-0.38051784,-0.51754941,0.21731205,0.73931741
1.60000000,0.27726891,0.77768646,-0.22957295,-0.47556523,0.84737383,0.40013463,0.04635681,-0.50984659,-0.89885744,0.38227307,-0.38169528,-0.51702856,0.21758294,0.73985079
1.62000000,0.27726370,0.77768291,-0.22957631,-0.47556066,0.84738557,0.40013505,0.04636835,-0.50937907,-0.89953722,0.38187057,-0.38266791,-0.51663215,0.21791380,0.74037148
1.64000000,0.27726776,0.77767770,-0.22959012,-0.47555863,0.84737852,0.40012327,0.04636786,-0.50886959,-0.89999981,0.38139495,-0.38350121,-0.51630463,0.21820591,0.74087712
1.66000000,0.27727314,0.77767357,-0.22959305,-0.47555776,0.84736902,0.40013473,0.04636043,-0.50830251,-0.90037481,0.38091217,-0.38436699,-0.51596972,0.21840378,0.74117732
1.68000000,0.27726421,0.77768111,-0.22958474,-0.47556966,0.84738418,0.40013565,0.04635593,-0.50771931,-0.90071745,0.38046027,-0.38520183,-0.51553558,0.21861768,0.74147448
1.70000000,0.27726439,0.77768434,-0.22957348,-0.47556740,0.84737668,0.40013646,0.04636796,-0.50732796,-0.90096718,0.38003190,-0.38594091,-0.51525142,0.21877392,0.74179081
1.72000000,0.27727094,0.77768033,-0.22959065,-0.47556523,0.84737352,0.40014405,0.04636276,-0.50698160,-0.90126474,0.37964957,-0.38667165,-0.51502465,0.21891062,0.74211681
1.74000000,0.27726881,0.77768519,-0.22958710,-0.47556523,0.84737560,0.40013772,0.04636475,-0.50679749,-0.90158206,0.37935561,-0.38722699,-0.51485370,0.21904309,0.74238651
1.76000000,0.27726566,0.77766745,-0.22959289,-0.47557045,0.84737128,0.40014365,0.04636700,-0.50665542,-0.90189281,0.37908234,-0.38762493,-0.51470847,0.21916896,0.74261360
1.78000000,0.27726435,0.77768665,-0.22959098,-0.47556976,0.84737328,0.40012855,0.04636272,-0.50657438,-0.90216186,0.37885174,-0.38784549,-0.51462425,0.21922311,0.74274006
1.80000000,0.27726847,0.77767644,-0.22958500,-0.47555822,0.84737560,0.40014315,0.04635017,-0.50657128,-0.90240544,0.37861786,-0.38791484,-0.51458631,0.21927748,0.74285825
1.82000000,0.27727228,0.77767674,-0.22960115,-0.47555832,0.84737560,0.40013385,0.04637415,-0.50661296,-0.90255246,0.37839678,-0.38777666,-0.51452295,0.21930911,0.74292103
1.84000000,0.27727525,0.77768088,-0.22959584,-0.47556280,0.84738066,0.40014154,0.04636263,-0.50667482,-0.90263154,0.37822307,-0.38755466,-0.51446942,0.21929685,0.74299180
1.86000000,0.27727316,0.77768433,-0.22958509,-0.47556110,0.84737511,0.40013137,0.04635746,-0.50676438,-0.90267571,0.37809515,-0.38729152,-0.51443745,0.21924200,0.74299968
1.88000000,0.27727316,0.77767750,-0.22958267,-0.47556274,0.84738175,0.40013602,0.04635996,-0.50690319,-0.90270371,0.37807188,-0.38695479,-0.51443017,0.21919375,0.74300150
1.90000000,0.27727316,0.77768566,-0.22958422,-0.47556118,0.84739197,0.40013440,0.04635957,-0.50709239,-0.90269539,0.37812044,-0.38651348,-0.51440945,0.21907286,0.74294508
1.92000000,0.27727316,0.77767880,-0.22959162,-0.47556263,0.84737531,0.40012556,0.04636160,-0.50729989,-0.90268000,0.37823910,-0.38604103,-0.51443104,0.21892539,0.74289700
1.94000000,0.27727709,0.77767892,-0.22958341,-0.47556612,0.84736900,0.40013205,0.04636553,-0.50760849,-0.90263918,0.37841226,-0.38539582,-0.51442715,0.21874367,0.74279976
1.96000000,0.27728064,0.77767585,-0.22958017,-0.47556316,0.84737768,0.40013711,0.04636429,-0.50804785,-0.90254768,0.37863491,-0.38453201,-0.51444438,0.21854277,0.74262933
1.98000000,0.27726138,0.77768364,-0.22958017,-0.47556050,0.84737715,0.40013981,0.04637019,-0.50851883,-0.90236460,0.37883279,-0.38350434,-0.51449285,0.21834597,0.74241773
2.00000000,0.27726597,0.77768246,-0.22958017,-0.47556449,0.84736594,0.40013895,0.04636133,-0.50910546,-0.90213027,0.37909483,-0.38241844,-0.51457403,0.21816313,0.74217243
2.02000000,0.27727521,0.77767668,-0.22958017,-0.47555688,0.84736989,0.40014100,0.04636249,-0.50976491,-0.90178371,0.37941754,-0.38134015,-0.51465927,0.21797148,0.74190328
2.04000000,0.27726579,0.77767770,-0.22958386,-0.47556146,0.84737191,0.40012455,0.04636082,-0.51042518,-0.90130773,0.37971506,-0.38025823,-0.51478001,0.21768680,0.74159586
2.06000000,0.27726725,0.77768218,-0.22958396,-0.47556607,0.84736452,0.40013241,0.04635864,-0.51112657,-0.90073820,0.38003054,-0.37913599,-0.51491957,0.21735892,0.74123086
2.08000000,0.27726152,0.77768752,-0.22958178,-0.47556323,0.84736801,0.40013498,0.04636520,-0.51185674,-0.90017162,0.38034224,-0.37795078,-0.51502994,0.21699849,0.74083411
2.10000000,0.27726249,0.77767650,-0.22959633,-0.47555730,0.84737337,0.40013419,0.04636463,-0.51258586,-0.89967127,0.38066690,-0.37666814,-0.51518931,0.21659618,0.74042995
2.12000000,0.27727004,0.77767600,-0.22958770,-0.47556626,0.84737006,0.40013149,0.04636680,-0.51331603,-0.89913194,0.38104398,-0.37524554,-0.51534075,0.21620383,0.73997271
2.14000000,0.27726974,0.77767588,-0.22958468,-0.47556423,0.84736810,0.40014602,0.04636491,-0.51398621,-0.89852769,0.38145060,-0.37361171,-0.51549418,0.21580651,0.73948447
2.16000000,0.27727334,0.77768627,-0.22958857,-0.47556185,0.84737019,0.40013793,0.04637467,-0.51464352,-0.89779803,0.38190875,-0.37175612,-0.51566723,0.21538932,0.73896474
2.18000000,0.27727640,0.77768760,-0.22957586,-0.47555773,0.84737110,0.40014100,0.04637139,-0.51531084,-0.89689855,0.38242606,-0.36977701,-0.51583899,0.21498215,0.73842787
2.20000000,0.27727648,0.77768218,-0.22958861,-0.47556490,0.84736568,0.40014100,0.04637032,-0.51605933,-0.89580226,0.38310335,-0.36751389,-0.51600011,0.21452303,0.73782395
2.22000000,0.27727975,0.77768300,-0.22959757,-0.47555989,0.84736154,0.40013442,0.04636286,-0.51694126,-0.89465783,0.38396305,-0.36511321,-0.51618739,0.21391504,0.73708346
2.24000000,0.27726998,0.77768045,-0.22959344,-0.47555038,0.84736773,0.40013194,0.04636564,-0.51780520,-0.89364441,0.38483507,-0.36273422,-0.51644544,0.21325072,0.73619733
2.26000000,0.27725911,0.77768629,-0.22958808,-0.47554869,0.84737223,0.40014375,0.04636306,-0.51861246,-0.89270164,0.38558259,-0.36023363,-0.51672695,0.21260522,0.73521331
2.28000000,0.27726832,0.77768246,-0.22958761,-0.47554980,0.84737560,0.40014865,0.04635816,-0.51944598,-0.89169759,0.38615244,-0.35770770,-0.51706125,0.21209586,0.73412182
2.30000000,0.27727907,0.77768529,-0.22958866,-0.47555323,0.84737338,0.40014038,0.04636160,-0.52037322,-0.89051262,0.38673889,-0.35522640,-0.51748721,0.21166015,0.73283843
2.32000000,0.27727995,0.77767787,-0.22959304,-0.47556020,0.84736389,0.40013795,0.04635855,-0.52131208,-0.88929303,0.38743557,-0.35282516,-0.51788692,0.21106038,0.73153623
2.34000000,0.27726712,0.77767831,-0.22959098,-0.47556221,0.84737709,0.40014305,0.04635802,-0.52213927,-0.88791089,0.38817759,-0.35018835,-0.51831858,0.21032187,0.73020334
2.36000000,0.27726382,0.77768545,-0.22958029,-0.47555864,0.84737750,0.40014226,0.04635862,-0.52302681,-0.88627767,0.38892837,-0.34700269,-0.51877554,0.20964125,0.72887466
2.38000000,0.27726154,0.77769299,-0.22958327,-0.47555277,0.84736178,0.40013581,0.04636559,-0.52398271,-0.88450501,0.38959288,-0.34353257,-0.51927481,0.20912476,0.72757674
2.40000000,0.27727132,0.77768091,-0.22959597,-0.47554834,0.84735501,0.40013950,0.04636190,-0.52506366,-0.88269470,0.39035900,-0.33999392,-0.51984712,0.20861449,0.72619987
2.42000000,0.27728317,0.77767885,-0.22958717,-0.47555204,0.84736240,0.40014263,0.04636164,-0.52621140,-0.88111557,0.39127600,-0.33664690,-0.52042948,0.20800216,0.72471055
2.44000000,0.27727126,0.77767706,-0.22958017,-0.47555204,0.84736332,0.40013909,0.04636325,-0.52730791,-0.87957685,0.39204155,-0.33358056,-0.52101934,0.20736986,0.72304724
2.46000000,0.27725997,0.77767706,-0.22959321,-0.47555484,0.84735657,0.40012669,0.04635880,-0.52837819,-0.87806349,0.39278515,-0.33044381,-0.52168969,0.20657383,0.72108613
2.48000000,0.27725627,0.77767960,-0.22959401,-0.47555033,0.84735700,0.40012028,0.04635963,-0.52941256,-0.87671625,0.39369928,-0.32697728,-0.52240846,0.20563593,0.71907729
2.50000000,0.27725277,0.77768310,-0.22958864,-0.47554065,0.84736435,0.40013249,0.04635460,-0.53061794,-0.87517993,0.39472626,-0.32291330,-0.52321217,0.20484623,0.71713444
2.52000000,0.27726818,0.77768310,-0.22958344,-0.47554488,0.84736416,0.40013886,0.04635865,-0.53188415,-0.87330823,0.39568828,-0.31851230,-0.52406460,0.20422967,0.71510177
2.54000000,0.27730891,0.77768065,-0.22959187,-0.47554420,0.84735878,0.40013203,0.04636040,-0.53321570,-0.87130234,0.39665735,-0.31428669,-0.52502925,0.20358651,0.71287270
2.56000000,0.27730753,0.77767850,-0.22958773,-0.47554318,0.84736060,0.40013390,0.04635680,-0.53462608,-0.86921706,0.39764025,-0.31040996,-0.52605287,0.20276425,0.71065022
2.58000000,0.27728447,0.77768171,-0.22957759,-0.47553703,0.84737215,0.40014601,0.04635600,-0.53602475,-0.86702544,0.39867563,-0.30666407,-0.52712901,0.20173395,0.70826968
2.60000000,0.27726507,0.77767894,-0.22957864,-0.47554645,0.84737521,0.40013118,0.04635634,-0.53709097,-0.86494011,0.39974878,-0.30281877,-0.52812720,0.20062951,0.70582108
2.62000000,0.27725410,0.77767578,-0.22958644,-0.47555122,0.84737527,0.40012863,0.04635933,-0.53797134,-0.86265571,0.40083298,-0.29837053,-0.52914219,0.19959917,0.70331852
2.64000000,0.27726831,0.77767898,-0.22958267,-0.47553533,0.84736446,0.40013856,0.04635915,-0.53871643,-0.86008086,0.40188128,-0.29359067,-0.53028782,0.19885002,0.70080562
2.66000000,0.27730174,0.77767577,-0.22958639,-0.47553694,0.84736900,0.40013308,0.04635850,-0.53916396,-0.85757713,0.40302814,-0.28903856,-0.53154109,0.19819211,0.69818912
2.68000000,0.27731920,0.77767552,-0.22958439,-0.47553647,0.84736772,0.40013027,0.04635583,-0.53964346,-0.85508200,0.40440991,-0.28458640,-0.53276179,0.19736273,0.69543084
2.70000000,0.27727119,0.77767380,-0.22958251,-0.47553817,0.84736935,0.40014791,0.04635965,-0.54049352,-0.85285854,0.40609606,-0.27994669,-0.53382418,0.19634901,0.69254813
2.72000000,0.27724909,0.77767558,-0.22958440,-0.47554400,0.84737637,0.40014145,0.04635698,-0.54132076,-0.85096862,0.40772381,-0.27513921,-0.53491817,0.19520373,0.68962537
2.74000000,0.27724905,0.77767505,-0.22957011,-0.47553252,0.84737101,0.40013005,0.04635296,-0.54213669,-0.84874297,0.40897789,-0.27027091,-0.53611311,0.19426307,0.68660155
2.76000000,0.27725339,0.77767576,-0.22958248,-0.47553660,0.84737012,0.40013426,0.04636384,-0.54297196,-0.84627407,0.41005776,-0.26548276,-0.53730606,0.19348325,0.68326295
2.78000000,0.27728653,0.77767990,-0.22958131,-0.47553225,0.84737221,0.40012782,0.04636379,-0.54381745,-0.84365232,0.41117901,-0.26062875,-0.53848272,0.19254448,0.67983217
2.80000000,0.27728845,0.77768354,-0.22957991,-0.47553531,0.84737437,0.40014670,0.04635288,-0.54458745,-0.84095152,0.41238203,-0.25564926,-0.53982187,0.19141153,0.67660961
2.82000000,0.27723764,0.77768035,-0.22959663,-0.47555322,0.84737060,0.40013415,0.04635046,-0.54543109,-0.83840456,0.41368245,-0.25031271,-0.54133336,0.19012489,0.67333524
2.84000000,0.27724800,0.77767453,-0.22958510,-0.47554812,0.84736728,0.40013714,0.04635905,-0.54594816,-0.83580886,0.41483259,-0.24522189,-0.54287621,0.18927591,0.66994483
2.86000000,0.27731873,0.77767047,-0.22956511,-0.47552902,0.84737577,0.40015176,0.04636421,-0.54637246,-0.83296891,0.41598576,-0.24009490,-0.54445587,0.18855132,0.66634088
2.88000000,0.27732360,0.77766625,-0.22958262,-0.47553914,0.84736705,0.40014316,0.04635500,-0.54678507,-0.82978073,0.41736724,-0.23468048,-0.54595110,0.18768580,0.66274236
2.90000000,0.27727396,0.77766944,-0.22958017,-0.47555296,0.84736170,0.40012500,0.04635311,-0.54713445,-0.82693334,0.41895520,-0.22941086,-0.54741448,0.18664298,0.65913545
2.92000000,0.27724553,0.77767331,-0.22957476,-0.47554918,0.84737908,0.40012543,0.04635201,-0.54748682,-0.82416908,0.42047007,-0.22390912,-0.54891375,0.18552555,0.65533238
2.94000000,0.27723143,0.77767944,-0.22956667,-0.47552945,0.84737926,0.40013841,0.04636334,-0.54761138,-0.82148132,0.42155626,-0.21880587,-0.55031179,0.18455569,0.65136782
2.96000000,0.27729104,0.77768102,-0.22956666,-0.47554259,0.84736987,0.40014382,0.04636960,-0.54798332,-0.81843172,0.42274017,-0.21316044,-0.55191588,0.18357370,0.64748621
2.98000000,0.27728636,0.77767475,-0.22956698,-0.47554249,0.84736852,0.40013409,0.04636365,-0.54865761,-0.81498884,0.42406880,-0.20745135,-0.55389634,0.18266740,0.64355496
3.00000000,0.27729954,0.77767404,-0.22957312,-0.47552641,0.84735890,0.40013766,0.04635237,-0.54920734,-0.81188853,0.42548273,-0.20206412,-0.55594554,0.18151477,0.63953233
3.02000000,0.27728606,0.77767889,-0.22957164,-0.47552604,0.84735160,0.40014760,0.04635656,-0.54945972,-0.80884866,0.42695877,-0.19668392,-0.55803304,0.18036300,0.63505600
3.04000000,0.27726546,0.77768192,-0.22956210,-0.47553196,0.84735610,0.40014167,0.04636314,-0.54974713,-0.80568676,0.42878239,-0.19109302,-0.56015921,0.17936818,0.63067721
3.06000000,0.27721649,0.77767863,-0.22958456,-0.47553241,0.84737076,0.40012860,0.04636019,-0.55015596,-0.80222818,0.43062988,-0.18516340,-0.56209492,0.17833598,0.62631262
3.08000000,0.27716768,0.77767032,-0.22958513,-0.47555349,0.84738582,0.40013131,0.04636412,-0.55037956,-0.79914200,0.43204269,-0.17968200,-0.56365590,0.17725537,0.62202327
3.10000000,0.27722543,0.77768758,-0.22957158,-0.47554119,0.84738538,0.40012676,0.04635526,-0.55016389,-0.79640751,0.43310100,-0.17454008,-0.56520245,0.17628240,0.61782109
3.12000000,0.27727278,0.77767912,-0.22957353,-0.47553520,0.84736738,0.40013922,0.04636950,-0.55000799,-0.79373112,0.43429174,-0.16897593,-0.56704126,0.17523555,0.61346174
3.14000000,0.27727298,0.77766726,-0.22957967,-0.47552754,0.84735921,0.40015121,0.04635979,-0.55032574,-0.79075661,0.43553714,-0.16291587,-0.56924582,0.17428628,0.60880828
3.16000000,0.27725519,0.77767045,-0.22957704,-0.47552804,0.84736601,0.40014312,0.04636254,-0.55047448,-0.78769525,0.43659036,-0.15730934,-0.57153793,0.17345738,0.60412540
3.18000000,0.27729675,0.77767921,-0.22956239,-0.47552890,0.84735254,0.40013317,0.04635041,-0.55023804,-0.78452025,0.43774735,-0.15214229,-0.57380775,0.17239578,0.59928740
3.20000000,0.27731652,0.77768532,-0.22957923,-0.47552591,0.84737252,0.40014923,0.04635971,-0.54992251,-0.78107082,0.43916275,-0.14678618,-0.57593550,0.17136224,0.59461981
3.22000000,0.27720744,0.77767228,-0.22958248,-0.47555340,0.84736022,0.40012101,0.04635022,-0.54974352,-0.77738802,0.44054237,-0.14095234,-0.57790864,0.17026982,0.58973393
3.24000000,0.27716814,0.77767153,-0.22958752,-0.47553082,0.84736816,0.40011581,0.04636354,-0.54953242,-0.77384145,0.44215033,-0.13569934,-0.58003710,0.16933444,0.58500712
3.26000000,0.27718848,0.77766689,-0.22958299,-0.47553551,0.84736310,0.40012341,0.04635489,-0.54897240,-0.77079960,0.44339755,-0.13051230,-0.58225687,0.16832715,0.58032491
3.28000000,0.27721558,0.77767504,-0.22957238,-0.47552916,0.84737055,0.40013973,0.04635234,-0.54824610,-0.76762809,0.44474976,-0.12498851,-0.58456438,0.16747967,0.57541670
3.30000000,0.27720398,0.77767551,-0.22958167,-0.47554625,0.84736235,0.40012512,0.04635553,-0.54749558,-0.76469802,0.44585429,-0.11912994,-0.58668297,0.16674970,0.57031939
3.32000000,0.27725003,0.77767889,-0.22957898,-0.47552804,0.84734052,0.40012868,0.04636116,-0.54658611,-0.76187111,0.44713990,-0.11367469,-0.58856290,0.16602137,0.56513816
3.34000000,0.27725420,0.77768156,-0.22958164,-0.47553409,0.84736269,0.40014064,0.04635500,-0.54545274,-0.75913163,0.44855820,-0.10861059,-0.59071478,0.16505285,0.55982540
3.36000000,0.27728537,0.77767575,-0.22958438,-0.47555139,0.84736815,0.40012946,0.04635500,-0.54440568,-0.75568958,0.45013090,-0.10293057,-0.59351120,0.16409448,0.55445568
3.38000000,0.27728223,0.77764556,-0.22958468,-0.47553565,0.84734351,0.40013541,0.04635500,-0.54284076,-0.75231979,0.45166180,-0.09747733,-0.59644812,0.16348646,0.54869091
3.40000000,0.27730887,0.77766173,-0.22958558,-0.47552119,0.84734261,0.40014546,0.04635758,-0.54153162,-0.74915598,0.45310240,-0.09255505,-0.59903168,0.16250474,0.54253837
3.42000000,0.27723565,0.77766974,-0.22957378,-0.47554213,0.84734735,0.40013202,0.04635825,-0.54041198,-0.74631522,0.45436507,-0.08786572,-0.60147992,0.16161037,0.53669013
3.44000000,0.27715299,0.77767485,-0.22958481,-0.47556012,0.84735704,0.40012486,0.04636819,-0.53912877,-0.74359682,0.45542450,-0.08302544,-0.60388743,0.16057657,0.53107642
3.46000000,0.27718706,0.77769523,-0.22957134,-0.47553770,0.84738212,0.40013304,0.04636805,-0.53754124,-0.74051839,0.45637771,-0.07834789,-0.60638178,0.15978720,0.52536584
3.48000000,0.27716538,0.77767181,-0.22957950,-0.47554533,0.84737307,0.40013093,0.04635500,-0.53612018,-0.73756621,0.45743816,-0.07295751,-0.60879001,0.15915793,0.51977394
3.50000000,0.27723270,0.77768184,-0.22958916,-0.47552342,0.84733317,0.40012423,0.04635743,-0.53501899,-0.73457457,0.45850364,-0.06823863,-0.61097590,0.15852513,0.51413486
3.52000000,0.27725489,0.77767235,-0.22958149,-0.47552744,0.84737114,0.40013844,0.04635559,-0.53382276,-0.73175014,0.45949807,-0.06413729,-0.61312492,0.15773826,0.50850267
3.54000000,0.27720616,0.77767230,-0.22958201,-0.47554327,0.84736965,0.40012501,0.04636321,-0.53290490,-0.72892936,0.46056746,-0.05956120,-0.61536036,0.15698281,0.50324017
3.56000000,0.27722936,0.77766931,-0.22956614,-0.47553209,0.84736423,0.40014236,0.04635722,-0.53184175,-0.72584873,0.46159826,-0.05469616,-0.61767383,0.15639563,0.49785149
3.58000000,0.27717972,0.77765960,-0.22957610,-0.47555196,0.84736622,0.40012016,0.04634915,-0.53073195,-0.72290257,0.46256681,-0.04970869,-0.61998440,0.15602682,0.49264153
3.60000000,0.27720262,0.77766954,-0.22958436,-0.47556134,0.84735929,0.40011457,0.04635150,-0.52871708,-0.72019865,0.46354389,-0.04583791,-0.62258800,0.15562426,0.48703691
3.62000000,0.27723484,0.77767053,-0.22957871,-0.47553623,0.84735014,0.40014232,0.04635500,-0.52676162,-0.71754953,0.46456514,-0.04182308,-0.62540373,0.15491843,0.48119199
3.64000000,0.27719329,0.77766909,-0.22958998,-0.47555242,0.84735920,0.40012271,0.04637159,-0.52497015,-0.71517976,0.46563589,-0.03800274,-0.62801170,0.15407900,0.47577882
3.66000000,0.27726488,0.77767398,-0.22958497,-0.47552656,0.84735700,0.40014524,0.04637299,-0.52314706,-0.71273666,0.46669530,-0.03392693,-0.63037845,0.15339058,0.47070965
3.68000000,0.27726443,0.77767666,-0.22958438,-0.47553282,0.84736931,0.40014548,0.04637626,-0.52170735,-0.70996691,0.46761292,-0.02937681,-0.63261475,0.15282652,0.46542196
3.70000000,0.27722251,0.77766489,-0.22957845,-0.47554711,0.84737566,0.40012259,0.04637152,-0.51983624,-0.70711627,0.46844525,-0.02542299,-0.63495451,0.15251508,0.45978095
3.72000000,0.27725626,0.77767147,-0.22958166,-0.47553099,0.84736716,0.40013824,0.04635841,-0.51787996,-0.70437705,0.46926343,-0.02192417,-0.63732796,0.15215627,0.45422681
3.74000000,0.27726436,0.77766268,-0.22956525,-0.47555039,0.84737514,0.40013414,0.04635645,-0.51574242,-0.70154043,0.46994606,-0.01832422,-0.63966280,0.15173503,0.44909653
3.76000000,0.27723167,0.77766066,-0.22957792,-0.47555988,0.84736326,0.40012931,0.04635927,-0.51339162,-0.69916583,0.47103422,-0.01471977,-0.64211722,0.15145804,0.44385435
3.78000000,0.27723477,0.77767449,-0.22957445,-0.47555864,0.84736227,0.40012781,0.04634412,-0.51115229,-0.69727219,0.47211839,-0.01115154,-0.64480441,0.15081981,0.43830064
3.80000000,0.27723855,0.77768258,-0.22957726,-0.47555679,0.84737019,0.40013907,0.04635566,-0.50889636,-0.69538994,0.47301097,-0.00766075,-0.64733956,0.15024348,0.43274672
3.82000000,0.27725109,0.77768606,-0.22958438,-0.47554583,0.84736642,0.40013164,0.04636059,-0.50655615,-0.69331454,0.47377818,-0.00416201,-0.64974827,0.14992936,0.42757240
3.84000000,0.27728729,0.77767710,-0.22958081,-0.47553568,0.84736166,0.40014789,0.04636894,-0.50408881,-0.69112196,0.47446089,-0.00096133,-0.65191167,0.14974492,0.42242068
3.86000000,0.27729362,0.77766972,-0.22957708,-0.47553639,0.84736427,0.40014643,0.04636080,-0.50151733,-0.68894595,0.47518734,0.00201828,-0.65414635,0.14954622,0.41723959
3.88000000,0.27727144,0.77767605,-0.22958814,-0.47554380,0.84737073,0.40013410,0.04636049,-0.49868114,-0.68660185,0.47577230,0.00489593,-0.65650068,0.14933289,0.41179969
3.90000000,0.27728489,0.77766974,-0.22957842,-0.47555009,0.84737986,0.40014607,0.04637421,-0.49596984,-0.68413004,0.47630326,0.00791562,-0.65880841,0.14918775,0.40660013
3.92000000,0.27727580,0.77767604,-0.22958068,-0.47556238,0.84739017,0.40013102,0.04636224,-0.49338857,-0.68196240,0.47698681,0.01081200,-0.66108221,0.14894131,0.40156923
3.94000000,0.27726806,0.77767349,-0.22958021,-0.47554206,0.84737639,0.40012905,0.04635500,-0.49074998,-0.67997132,0.47765668,0.01348533,-0.66336895,0.14860962,0.39654182
3.96000000,0.27726836,0.77767430,-0.22958062,-0.47555015,0.84736289,0.40014603,0.04636357,-0.48795733,-0.67813626,0.47822119,0.01599474,-0.66608448,0.14813584,0.39133680
3.98000000,0.27729229,0.77766359,-0.22958802,-0.47555555,0.84738356,0.40013981,0.04637442,-0.48479755,-0.67645035,0.47865897,0.01828377,-0.66853497,0.14778490,0.38611288
4.00000000,0.27730320,0.77766829,-0.22957358,-0.47554462,0.84737719,0.40013822,0.04636458,-0.48163209,-0.67476249,0.47903206,0.02037745,-0.67079543,0.14765040,0.38078149
4.02000000,0.27729430,0.77767206,-0.22957215,-0.47554928,0.84737440,0.40013800,0.04636857,-0.47860480,-0.67296136,0.47943553,0.02244047,-0.67272500,0.14756295,0.37589528
4.04000000,0.27728784,0.77767040,-0.22957667,-0.47555571,0.84737645,0.40013714,0.04636727,-0.47569174,-0.67112899,0.47993307,0.02448642,-0.67511528,0.14744952,0.37116850
4.06000000,0.27730310,0.77765910,-0.22959459,-0.47555201,0.84737835,0.40013232,0.04637601,-0.47261075,-0.66920586,0.48043877,0.02639619,-0.67760061,0.14744213,0.36645410
4.08000000,0.27728939,0.77766806,-0.22959100,-0.47554513,0.84737952,0.40013978,0.04637092,-0.46935580,-0.66741648,0.48082845,0.02817953,-0.67995566,0.14747851,0.36150010
4.10000000,0.27728306,0.77767349,-0.22957554,-0.47554065,0.84736813,0.40014727,0.04635806,-0.46633920,-0.66578834,0.48116051,0.02993276,-0.68209767,0.14759877,0.35665489
4.12000000,0.27727703,0.77767203,-0.22957736,-0.47554939,0.84737440,0.40014598,0.04636186,-0.46342690,-0.66401892,0.48147303,0.03178227,-0.68432818,0.14780308,0.35191824
4.14000000,0.27729074,0.77766952,-0.22958742,-0.47555039,0.84737791,0.40014266,0.04636581,-0.46026509,-0.66237683,0.48176437,0.03345079,-0.68662095,0.14800675,0.34723097
4.16000000,0.27730593,0.77767207,-0.22957346,-0.47555978,0.84737069,0.40013609,0.04637072,-0.45729707,-0.66098011,0.48211284,0.03502131,-0.68877765,0.14815404,0.34255484
4.18000000,0.27729440,0.77766600,-0.22956959,-0.47555691,0.84736900,0.40013093,0.04637728,-0.45417903,-0.65973205,0.48241098,0.03651984,-0.69074572,0.14821131,0.33770844
4.20000000,0.27729774,0.77766955,-0.22956779,-0.47555303,0.84737521,0.40014080,0.04637279,-0.45089214,-0.65842608,0.48267918,0.03787829,-0.69276477,0.14823908,0.33298089
4.22000000,0.27730277,0.77766630,-0.22957357,-0.47556497,0.84737831,0.40014658,0.04636834,-0.44758697,-0.65710754,0.48289938,0.03894749,-0.69497510,0.14832136,0.32819651
4.24000000,0.27733072,0.77766940,-0.22957836,-0.47555732,0.84737019,0.40014182,0.04637718,-0.44431195,-0.65603798,0.48315126,0.03991267,-0.69704833,0.14843573,0.32383005
4.26000000,0.27730718,0.77767219,-0.22957542,-0.47555369,0.84736674,0.40014576,0.04637295,-0.44089329,-0.65494942,0.48334799,0.04081715,-0.69915665,0.14857124,0.31936129
4.28000000,0.27727948,0.77766936,-0.22957102,-0.47557297,0.84737028,0.40013853,0.04637044,-0.43741326,-0.65395128,0.48350088,0.04155175,-0.70113110,0.14868555,0.31466938
4.30000000,0.27730096,0.77767349,-0.22957339,-0.47556891,0.84737440,0.40013565,0.04636944,-0.43358458,-0.65291735,0.48360757,0.04221057,-0.70343420,0.14879925,0.31052638
4.32000000,0.27731856,0.77767349,-0.22957205,-0.47555820,0.84736852,0.40014323,0.04637483,-0.43032788,-0.65188370,0.48368831,0.04276430,-0.70533260,0.14897402,0.30657478
4.34000000,0.27734139,0.77767349,-0.22956938,-0.47555263,0.84737165,0.40014100,0.04636976,-0.42665576,-0.65055496,0.48382980,0.04331100,-0.70758652,0.14927779,0.30215356
4.36000000,0.27734528,0.77767230,-0.22958054,-0.47554598,0.84737678,0.40013403,0.04637159,-0.42350011,-0.64936963,0.48395941,0.04375537,-0.70907242,0.14954680,0.29815757
4.38000000,0.27731510,0.77767041,-0.22958293,-0.47556474,0.84737528,0.40012360,0.04636636,-0.41991468,-0.64851293,0.48404845,0.04414918,-0.71080793,0.14977622,0.29399201
4.40000000,0.27730797,0.77767022,-0.22957269,-0.47556304,0.84737465,0.40012698,0.04636285,-0.41625334,-0.64764268,0.48412944,0.04454090,-0.71274853,0.15010790,0.28989173
4.42000000,0.27731012,0.77766705,-0.22957138,-0.47555525,0.84737879,0.40014878,0.04635913,-0.41298495,-0.64670369,0.48419716,0.04496892,-0.71458778,0.15048054,0.28606164
4.44000000,0.27734132,0.77766162,-0.22957803,-0.47556082,0.84736682,0.40014746,0.04636258,-0.40962960,-0.64567658,0.48426033,0.04538467,-0.71662107,0.15079816,0.28216999
4.46000000,0.27733168,0.77766702,-0.22958017,-0.47555970,0.84737007,0.40013658,0.04636589,-0.40632548,-0.64472787,0.48433454,0.04575505,-0.71836796,0.15105432,0.27807325
4.48000000,0.27731438,0.77765634,-0.22957577,-0.47556404,0.84737440,0.40013672,0.04637136,-0.40267312,-0.64389314,0.48438049,0.04596445,-0.72042998,0.15127765,0.27397881
4.50000000,0.27731627,0.77766384,-0.22957591,-0.47555632,0.84737979,0.40013761,0.04637137,-0.39930195,-0.64320053,0.48440242,0.04617082,-0.72231486,0.15151888,0.27027417
4.52000000,0.27733398,0.77766681,-0.22957132,-0.47555527,0.84738207,0.40014474,0.04636590,-0.39619530,-0.64262356,0.48440589,0.04635393,-0.72412127,0.15175497,0.26675278
4.54000000,0.27732648,0.77767010,-0.22958446,-0.47555332,0.84737890,0.40012752,0.04636490,-0.39302698,-0.64191420,0.48439626,0.04653441,-0.72589158,0.15200338,0.26311550
4.56000000,0.27732109,0.77767566,-0.22957400,-0.47555178,0.84737777,0.40014100,0.04636040,-0.38994478,-0.64106582,0.48441588,0.04673728,-0.72727160,0.15222995,0.25933496
4.58000000,0.27731149,0.77767349,-0.22957629,-0.47555106,0.84737483,0.40013678,0.04636463,-0.38665617,-0.64031447,0.48443271,0.04689718,-0.72898174,0.15236916,0.25579995
4.60000000,0.27731545,0.77767349,-0.22958139,-0.47555001,0.84738391,0.40013356,0.04636784,-0.38322414,-0.63976140,0.48441192,0.04709859,-0.73076448,0.15256023,0.25203104
4.62000000,0.27730690,0.77767431,-0.22957816,-0.47554960,0.84737529,0.40012567,0.04637240,-0.38024832,-0.63941864,0.48439844,0.04733372,-0.73238937,0.15281116,0.24876351
4.64000000,0.27731358,0.77767889,-0.22957849,-0.47554873,0.84737068,0.40013604,0.04637240,-0.37740499,-0.63902533,0.48440679,0.04765072,-0.73389090,0.15311793,0.24542075
4.66000000,0.27732173,0.77767889,-0.22958071,-0.47555163,0.84735951,0.40014509,0.04637240,-0.37463938,-0.63848679,0.48441099,0.04788463,-0.73540987,0.15339609,0.24205118
4.68000000,0.27731909,0.77767407,-0.22957357,-0.47556436,0.84736258,0.40013467,0.04637164,-0.37183416,-0.63775512,0.48437147,0.04801386,-0.73708281,0.15363898,0.23867701
4.70000000,0.27729694,0.77767013,-0.22957357,-0.47555998,0.84737765,0.40012714,0.04636227,-0.36916112,-0.63710692,0.48434930,0.04811317,-0.73888736,0.15386646,0.23554376
4.72000000,0.27729450,0.77766736,-0.22957750,-0.47554937,0.84736848,0.40013048,0.04635892,-0.36627309,-0.63647630,0.48433234,0.04821758,-0.74062112,0.15410462,0.23226641
4.74000000,0.27730376,0.77766409,-0.22958405,-0.47555522,0.84737628,0.40013557,0.04636230,-0.36345641,-0.63593174,0.48432443,0.04836016,-0.74229303,0.15435839,0.22894965
4.76000000,0.27731006,0.77767032,-0.22957522,-0.47555323,0.84738187,0.40013330,0.04635092,-0.36075325,-0.63547052,0.48432313,0.04846942,-0.74362673,0.15461733,0.22581527
4.78000000,0.27732289,0.77767478,-0.22957525,-0.47555009,0.84737755,0.40013608,0.04635491,-0.35829894,-0.63491409,0.48430702,0.04859442,-0.74469867,0.15489225,0.22288770
4.80000000,0.27730230,0.77766872,-0.22958245,-0.47555581,0.84736742,0.40014889,0.04637423,-0.35606244,-0.63428927,0.48427214,0.04871237,-0.74585961,0.15518651,0.21997592
4.82000000,0.27730099,0.77767349,-0.22958250,-0.47555926,0.84736382,0.40013909,0.04637528,-0.35351984,-0.63362676,0.48424646,0.04879332,-0.74733792,0.15545353,0.21681373
4.84000000,0.27729665,0.77767808,-0.22957245,-0.47555608,0.84735864,0.40014100,0.04636812,-0.35108765,-0.63302609,0.48420296,0.04882398,-0.74859368,0.15567452,0.21409297
4.86000000,0.27728521,0.77768151,-0.22958017,-0.47554545,0.84737274,0.40014100,0.04636404,-0.34857725,-0.63247804,0.48418193,0.04895934,-0.74984169,0.15594350,0.21133559
4.88000000,0.27729483,0.77767405,-0.22957296,-0.47554545,0.84736957,0.40014100,0.04637116,-0.34615909,-0.63194412,0.48417241,0.04901777,-0.75124278,0.15610141,0.20858661
4.90000000,0.27731054,0.77767836,-0.22957359,-0.47555259,0.84736056,0.40013385,0.04637543,-0.34368886,-0.63144916,0.48415512,0.04912646,-0.75249212,0.15625340,0.20585649
4.92000000,0.27731252,0.77766670,-0.22957279,-0.47555103,0.84737001,0.40013489,0.04637136,-0.34137336,-0.63091083,0.48413450,0.04930135,-0.75352321,0.15644653,0.20346966
4.94000000,0.27730458,0.77766454,-0.22958339,-0.47554752,0.84737552,0.40014100,0.04635860,-0.33939679,-0.63027119,0.48413019,0.04953788,-0.75477225,0.15658591,0.20103472
4.96000000,0.27730800,0.77767435,-0.22957015,-0.47555180,0.84735666,0.40014396,0.04636428,-0.33737886,-0.62962190,0.48410389,0.04966609,-0.75629876,0.15672492,0.19852217
4.98000000,0.27731075,0.77766060,-0.22956698,-0.47554881,0.84736228,0.40013883,0.04636861,-0.33537979,-0.62905574,0.48409082,0.04973598,-0.75755846,0.15689641,0.19616142
5.00000000,0.27730737,0.77767522,-0.22956698,-0.47554831,0.84737193,0.40013560,0.04636413,-0.33313884,-0.62846749,0.48408496,0.04980829,-0.75874516,0.15709105,0.19376036
