gracetata/LocomotionHEC/legged_lab/Reference Data/ArmHack/StandPerturb/TestData/ArmOnly/trajectories/synthesized/synthesized_arm_trajectory_03_seed20260714_minimum_jerk_50hz.csv
time_s,left_shoulder_pitch_joint,left_shoulder_roll_joint,left_shoulder_yaw_joint,left_elbow_joint,left_wrist_roll_joint,left_wrist_pitch_joint,left_wrist_yaw_joint,right_shoulder_pitch_joint,right_shoulder_roll_joint,right_shoulder_yaw_joint,right_elbow_joint,right_wrist_roll_joint,right_wrist_pitch_joint,right_wrist_yaw_joint
0.00000000,0.16066225,0.55579642,-0.06796421,0.20915498,0.25984407,0.26927882,-0.30066788,0.26079161,-0.46073777,0.15009485,0.32895631,-0.31348754,0.16044963,-0.01573105
0.02000000,0.16066225,0.55579642,-0.06796421,0.20915498,0.25984407,0.26927882,-0.30066788,0.26079161,-0.46073777,0.15009485,0.32895631,-0.31348754,0.16044963,-0.01573105
0.04000000,0.16066225,0.55579642,-0.06796421,0.20915498,0.25984407,0.26927882,-0.30066788,0.26079161,-0.46073777,0.15009485,0.32895631,-0.31348754,0.16044963,-0.01573105
0.06000000,0.16066225,0.55579642,-0.06796421,0.20915498,0.25984407,0.26927882,-0.30066788,0.26079161,-0.46073777,0.15009485,0.32895631,-0.31348754,0.16044963,-0.01573105
0.08000000,0.16066225,0.55579642,-0.06796421,0.20915498,0.25984407,0.26927882,-0.30066788,0.26079161,-0.46073777,0.15009485,0.32895631,-0.31348754,0.16044963,-0.01573105
0.10000000,0.16066225,0.55579642,-0.06796421,0.20915498,0.25984407,0.26927882,-0.30066788,0.26079161,-0.46073777,0.15009485,0.32895631,-0.31348754,0.16044963,-0.01573105
0.12000000,0.16066225,0.55579642,-0.06796421,0.20915498,0.25984407,0.26927882,-0.30066788,0.26079161,-0.46073777,0.15009485,0.32895631,-0.31348754,0.16044963,-0.01573105
0.14000000,0.16066225,0.55579642,-0.06796421,0.20915498,0.25984407,0.26927882,-0.30066788,0.26079161,-0.46073777,0.15009485,0.32895631,-0.31348754,0.16044963,-0.01573105
0.16000000,0.16066225,0.55579642,-0.06796421,0.20915498,0.25984407,0.26927882,-0.30066788,0.26079161,-0.46073777,0.15009485,0.32895631,-0.31348754,0.16044963,-0.01573105
0.18000000,0.16066225,0.55579642,-0.06796421,0.20915498,0.25984407,0.26927882,-0.30066788,0.26079161,-0.46073777,0.15009485,0.32895631,-0.31348754,0.16044963,-0.01573105
0.20000000,0.16066225,0.55579642,-0.06796421,0.20915498,0.25984407,0.26927882,-0.30066788,0.26079161,-0.46073777,0.15009485,0.32895631,-0.31348754,0.16044963,-0.01573105
0.22000000,0.16066225,0.55579642,-0.06796421,0.20915498,0.25984407,0.26927882,-0.30066788,0.26079161,-0.46073777,0.15009485,0.32895631,-0.31348754,0.16044963,-0.01573105
0.24000000,0.16066225,0.55579642,-0.06796421,0.20915498,0.25984407,0.26927882,-0.30066788,0.26079161,-0.46073777,0.15009485,0.32895631,-0.31348754,0.16044963,-0.01573105
0.26000000,0.16066225,0.55579642,-0.06796421,0.20915498,0.25984407,0.26927882,-0.30066788,0.26079161,-0.46073777,0.15009485,0.32895631,-0.31348754,0.16044963,-0.01573105
0.28000000,0.16066225,0.55579642,-0.06796421,0.20915498,0.25984407,0.26927882,-0.30066788,0.26079161,-0.46073777,0.15009485,0.32895631,-0.31348754,0.16044963,-0.01573105
0.30000000,0.16066225,0.55579642,-0.06796421,0.20915498,0.25984407,0.26927882,-0.30066788,0.26079161,-0.46073777,0.15009485,0.32895631,-0.31348754,0.16044963,-0.01573105
0.32000000,0.16066225,0.55579642,-0.06796421,0.20915498,0.25984407,0.26927882,-0.30066788,0.26079161,-0.46073777,0.15009485,0.32895631,-0.31348754,0.16044963,-0.01573105
0.34000000,0.16066225,0.55579642,-0.06796421,0.20915498,0.25984407,0.26927882,-0.30066788,0.26079161,-0.46073777,0.15009485,0.32895631,-0.31348754,0.16044963,-0.01573105
0.36000000,0.16066225,0.55579642,-0.06796421,0.20915498,0.25984407,0.26927882,-0.30066788,0.26079161,-0.46073777,0.15009485,0.32895631,-0.31348754,0.16044963,-0.01573105
0.38000000,0.16066225,0.55579642,-0.06796421,0.20915498,0.25984407,0.26927882,-0.30066788,0.26079161,-0.46073777,0.15009485,0.32895631,-0.31348754,0.16044963,-0.01573105
0.40000000,0.16066225,0.55579642,-0.06796421,0.20915498,0.25984407,0.26927882,-0.30066788,0.26079161,-0.46073777,0.15009485,0.32895631,-0.31348754,0.16044963,-0.01573105
0.42000000,0.16066225,0.55579642,-0.06796421,0.20915498,0.25984407,0.26927882,-0.30066788,0.26079161,-0.46073777,0.15009485,0.32895631,-0.31348754,0.16044963,-0.01573105
0.44000000,0.16066225,0.55579642,-0.06796421,0.20915498,0.25984407,0.26927882,-0.30066788,0.26079161,-0.46073777,0.15009485,0.32895631,-0.31348754,0.16044963,-0.01573105
0.46000000,0.16066225,0.55579642,-0.06796421,0.20915498,0.25984407,0.26927882,-0.30066788,0.26079161,-0.46073777,0.15009485,0.32895631,-0.31348754,0.16044963,-0.01573105
0.48000000,0.16066225,0.55579642,-0.06796421,0.20915498,0.25984407,0.26927882,-0.30066788,0.26079161,-0.46073777,0.15009485,0.32895631,-0.31348754,0.16044963,-0.01573105
0.50000000,0.16066225,0.55579642,-0.06796421,0.20915498,0.25984407,0.26927882,-0.30066788,0.26079161,-0.46073777,0.15009485,0.32895631,-0.31348754,0.16044963,-0.01573105
0.52000000,0.16066225,0.55579642,-0.06796421,0.20915498,0.25984407,0.26927882,-0.30066788,0.26079161,-0.46073777,0.15009485,0.32895631,-0.31348754,0.16044963,-0.01573105
0.54000000,0.16066225,0.55579642,-0.06796421,0.20915498,0.25984407,0.26927882,-0.30066788,0.26079161,-0.46073777,0.15009485,0.32895631,-0.31348754,0.16044963,-0.01573105
0.56000000,0.16066225,0.55579642,-0.06796421,0.20915498,0.25984407,0.26927882,-0.30066788,0.26079161,-0.46073777,0.15009485,0.32895631,-0.31348754,0.16044963,-0.01573105
0.58000000,0.16066225,0.55579642,-0.06796421,0.20915498,0.25984407,0.26927882,-0.30066788,0.26079161,-0.46073777,0.15009485,0.32895631,-0.31348754,0.16044963,-0.01573105
0.60000000,0.16066225,0.55579642,-0.06796421,0.20915498,0.25984407,0.26927882,-0.30066788,0.26079161,-0.46073777,0.15009485,0.32895631,-0.31348754,0.16044963,-0.01573105
0.62000000,0.16066225,0.55579642,-0.06796421,0.20915498,0.25984407,0.26927882,-0.30066788,0.26079161,-0.46073777,0.15009485,0.32895631,-0.31348754,0.16044963,-0.01573105
0.64000000,0.16066225,0.55579642,-0.06796421,0.20915498,0.25984407,0.26927882,-0.30066788,0.26079161,-0.46073777,0.15009485,0.32895631,-0.31348754,0.16044963,-0.01573105
0.66000000,0.16066225,0.55579642,-0.06796421,0.20915498,0.25984407,0.26927882,-0.30066788,0.26079161,-0.46073777,0.15009485,0.32895631,-0.31348754,0.16044963,-0.01573105
0.68000000,0.16066225,0.55579642,-0.06796421,0.20915498,0.25984407,0.26927882,-0.30066788,0.26079161,-0.46073777,0.15009485,0.32895631,-0.31348754,0.16044963,-0.01573105
0.70000000,0.16066225,0.55579642,-0.06796421,0.20915498,0.25984407,0.26927882,-0.30066788,0.26079161,-0.46073777,0.15009485,0.32895631,-0.31348754,0.16044963,-0.01573105
0.72000000,0.16066225,0.55579642,-0.06796421,0.20915498,0.25984407,0.26927882,-0.30066788,0.26079161,-0.46073777,0.15009485,0.32895631,-0.31348754,0.16044963,-0.01573105
0.74000000,0.16066225,0.55579642,-0.06796421,0.20915498,0.25984407,0.26927882,-0.30066788,0.26079161,-0.46073777,0.15009485,0.32895631,-0.31348754,0.16044963,-0.01573105
0.76000000,0.16066225,0.55579642,-0.06796421,0.20915498,0.25984407,0.26927882,-0.30066788,0.26079161,-0.46073777,0.15009485,0.32895631,-0.31348754,0.16044963,-0.01573105
0.78000000,0.16066225,0.55579642,-0.06796421,0.20915498,0.25984407,0.26927882,-0.30066788,0.26079161,-0.46073777,0.15009485,0.32895631,-0.31348754,0.16044963,-0.01573105
0.80000000,0.16066225,0.55579642,-0.06796421,0.20915498,0.25984407,0.26927882,-0.30066788,0.26079161,-0.46073777,0.15009485,0.32895631,-0.31348754,0.16044963,-0.01573105
0.82000000,0.16066225,0.55579642,-0.06796421,0.20915498,0.25984407,0.26927882,-0.30066788,0.26079161,-0.46073777,0.15009485,0.32895631,-0.31348754,0.16044963,-0.01573105
0.84000000,0.16066225,0.55579642,-0.06796421,0.20915498,0.25984407,0.26927882,-0.30066788,0.26079161,-0.46073777,0.15009485,0.32895631,-0.31348754,0.16044963,-0.01573105
0.86000000,0.16066225,0.55579642,-0.06796421,0.20915498,0.25984407,0.26927882,-0.30066788,0.26079161,-0.46073777,0.15009485,0.32895631,-0.31348754,0.16044963,-0.01573105
0.88000000,0.16066225,0.55579642,-0.06796421,0.20915498,0.25984407,0.26927882,-0.30066788,0.26079161,-0.46073777,0.15009485,0.32895631,-0.31348754,0.16044963,-0.01573105
0.90000000,0.16066225,0.55579642,-0.06796421,0.20915498,0.25984407,0.26927882,-0.30066788,0.26079161,-0.46073777,0.15009485,0.32895631,-0.31348754,0.16044963,-0.01573105
0.92000000,0.16066225,0.55579642,-0.06796421,0.20915498,0.25984407,0.26927882,-0.30066788,0.26079161,-0.46073777,0.15009485,0.32895631,-0.31348754,0.16044963,-0.01573105
0.94000000,0.16066225,0.55579642,-0.06796421,0.20915498,0.25984407,0.26927882,-0.30066788,0.26079161,-0.46073777,0.15009485,0.32895631,-0.31348754,0.16044963,-0.01573105
0.96000000,0.16066225,0.55579642,-0.06796421,0.20915498,0.25984407,0.26927882,-0.30066788,0.26079161,-0.46073777,0.15009485,0.32895631,-0.31348754,0.16044963,-0.01573105
0.98000000,0.16066225,0.55579642,-0.06796421,0.20915498,0.25984407,0.26927882,-0.30066788,0.26079161,-0.46073777,0.15009485,0.32895631,-0.31348754,0.16044963,-0.01573105
1.00000000,0.16066225,0.55579642,-0.06796421,0.20915498,0.25984407,0.26927882,-0.30066788,0.26079161,-0.46073777,0.15009485,0.32895631,-0.31348754,0.16044963,-0.01573105
1.02000000,0.16066225,0.55579642,-0.06796421,0.20915498,0.25984407,0.26927882,-0.30066788,0.26079161,-0.46073777,0.15009485,0.32895631,-0.31348754,0.16044963,-0.01573105
1.04000000,0.16066225,0.55579642,-0.06796421,0.20915498,0.25984407,0.26927882,-0.30066788,0.26079161,-0.46073777,0.15009485,0.32895631,-0.31348754,0.16044963,-0.01573105
1.06000000,0.16066225,0.55579642,-0.06796421,0.20915498,0.25984407,0.26927882,-0.30066788,0.26079161,-0.46073777,0.15009485,0.32895631,-0.31348754,0.16044963,-0.01573105
1.08000000,0.16066225,0.55579642,-0.06796421,0.20915498,0.25984407,0.26927882,-0.30066788,0.26079161,-0.46073777,0.15009485,0.32895631,-0.31348754,0.16044963,-0.01573105
1.10000000,0.16066225,0.55579642,-0.06796421,0.20915498,0.25984407,0.26927882,-0.30066788,0.26079161,-0.46073777,0.15009485,0.32895631,-0.31348754,0.16044963,-0.01573105
1.12000000,0.16066225,0.55579642,-0.06796421,0.20915498,0.25984407,0.26927882,-0.30066788,0.26079161,-0.46073777,0.15009485,0.32895631,-0.31348754,0.16044963,-0.01573105
1.14000000,0.16066225,0.55579642,-0.06796421,0.20915498,0.25984407,0.26927882,-0.30066788,0.26079161,-0.46073777,0.15009485,0.32895631,-0.31348754,0.16044963,-0.01573105
1.16000000,0.16066225,0.55579642,-0.06796421,0.20915498,0.25984407,0.26927882,-0.30066788,0.26079161,-0.46073777,0.15009485,0.32895631,-0.31348754,0.16044963,-0.01573105
1.18000000,0.16066225,0.55579642,-0.06796421,0.20915498,0.25984407,0.26927882,-0.30066788,0.26079161,-0.46073777,0.15009485,0.32895631,-0.31348754,0.16044963,-0.01573105
1.20000000,0.16066225,0.55579642,-0.06796421,0.20915498,0.25984407,0.26927882,-0.30066788,0.26079161,-0.46073777,0.15009485,0.32895631,-0.31348754,0.16044963,-0.01573105
1.22000000,0.16066225,0.55579642,-0.06796421,0.20915498,0.25984407,0.26927882,-0.30066788,0.26079161,-0.46073777,0.15009485,0.32895631,-0.31348754,0.16044963,-0.01573105
1.24000000,0.16066225,0.55579642,-0.06796421,0.20915498,0.25984407,0.26927882,-0.30066788,0.26079161,-0.46073777,0.15009485,0.32895631,-0.31348754,0.16044963,-0.01573105
1.26000000,0.16066225,0.55579642,-0.06796421,0.20915498,0.25984407,0.26927882,-0.30066788,0.26079161,-0.46073777,0.15009485,0.32895631,-0.31348754,0.16044963,-0.01573105
1.28000000,0.16066225,0.55579642,-0.06796421,0.20915498,0.25984407,0.26927882,-0.30066788,0.26079161,-0.46073777,0.15009485,0.32895631,-0.31348754,0.16044963,-0.01573105
1.30000000,0.16066225,0.55579642,-0.06796421,0.20915498,0.25984407,0.26927882,-0.30066788,0.26079161,-0.46073777,0.15009485,0.32895631,-0.31348754,0.16044963,-0.01573105
1.32000000,0.16066225,0.55579642,-0.06796421,0.20915498,0.25984407,0.26927882,-0.30066788,0.26079161,-0.46073777,0.15009485,0.32895631,-0.31348754,0.16044963,-0.01573105
1.34000000,0.16066225,0.55579642,-0.06796421,0.20915498,0.25984407,0.26927882,-0.30066788,0.26079161,-0.46073777,0.15009485,0.32895631,-0.31348754,0.16044963,-0.01573105
1.36000000,0.16066225,0.55579642,-0.06796421,0.20915498,0.25984407,0.26927882,-0.30066788,0.26079161,-0.46073777,0.15009485,0.32895631,-0.31348754,0.16044963,-0.01573105
1.38000000,0.16066225,0.55579642,-0.06796421,0.20915498,0.25984407,0.26927882,-0.30066788,0.26079161,-0.46073777,0.15009485,0.32895631,-0.31348754,0.16044963,-0.01573105
1.40000000,0.16066225,0.55579642,-0.06796421,0.20915498,0.25984407,0.26927882,-0.30066788,0.26079161,-0.46073777,0.15009485,0.32895631,-0.31348754,0.16044963,-0.01573105
1.42000000,0.16066225,0.55579642,-0.06796421,0.20915498,0.25984407,0.26927882,-0.30066788,0.26079161,-0.46073777,0.15009485,0.32895631,-0.31348754,0.16044963,-0.01573105
1.44000000,0.16066225,0.55579642,-0.06796421,0.20915498,0.25984407,0.26927882,-0.30066788,0.26079161,-0.46073777,0.15009485,0.32895631,-0.31348754,0.16044963,-0.01573105
1.46000000,0.16066225,0.55579642,-0.06796421,0.20915498,0.25984407,0.26927882,-0.30066788,0.26079161,-0.46073777,0.15009485,0.32895631,-0.31348754,0.16044963,-0.01573105
1.48000000,0.16066225,0.55579642,-0.06796421,0.20915498,0.25984407,0.26927882,-0.30066788,0.26079161,-0.46073777,0.15009485,0.32895631,-0.31348754,0.16044963,-0.01573105
1.50000000,0.16066225,0.55579642,-0.06796421,0.20915498,0.25984407,0.26927882,-0.30066788,0.26079161,-0.46073777,0.15009485,0.32895631,-0.31348754,0.16044963,-0.01573105
1.52000000,0.16066225,0.55579642,-0.06796421,0.20915498,0.25984407,0.26927882,-0.30066788,0.26079161,-0.46073777,0.15009485,0.32895631,-0.31348754,0.16044963,-0.01573105
1.54000000,0.16066225,0.55579642,-0.06796421,0.20915498,0.25984407,0.26927882,-0.30066788,0.26079161,-0.46073777,0.15009485,0.32895631,-0.31348754,0.16044963,-0.01573105
1.56000000,0.16066225,0.55579642,-0.06796421,0.20915498,0.25984407,0.26927882,-0.30066788,0.26079161,-0.46073777,0.15009485,0.32895631,-0.31348754,0.16044963,-0.01573105
1.58000000,0.16066225,0.55579642,-0.06796421,0.20915498,0.25984407,0.26927882,-0.30066788,0.26079161,-0.46073777,0.15009485,0.32895631,-0.31348754,0.16044963,-0.01573105
1.60000000,0.16066225,0.55579642,-0.06796421,0.20915498,0.25984407,0.26927882,-0.30066788,0.26079161,-0.46073777,0.15009485,0.32895631,-0.31348754,0.16044963,-0.01573105
1.62000000,0.16066225,0.55579642,-0.06796421,0.20915498,0.25984407,0.26927882,-0.30066788,0.26079161,-0.46073777,0.15009485,0.32895631,-0.31348754,0.16044963,-0.01573105
1.64000000,0.16066225,0.55579642,-0.06796421,0.20915498,0.25984407,0.26927882,-0.30066788,0.26079161,-0.46073777,0.15009485,0.32895631,-0.31348754,0.16044963,-0.01573105
1.66000000,0.16066225,0.55579642,-0.06796421,0.20915498,0.25984407,0.26927882,-0.30066788,0.26079161,-0.46073777,0.15009485,0.32895631,-0.31348754,0.16044963,-0.01573105
1.68000000,0.16066225,0.55579642,-0.06796421,0.20915498,0.25984407,0.26927882,-0.30066788,0.26079161,-0.46073777,0.15009485,0.32895631,-0.31348754,0.16044963,-0.01573105
1.70000000,0.16066225,0.55579642,-0.06796421,0.20915498,0.25984407,0.26927882,-0.30066788,0.26079161,-0.46073777,0.15009485,0.32895631,-0.31348754,0.16044963,-0.01573105
1.72000000,0.16066225,0.55579642,-0.06796421,0.20915498,0.25984407,0.26927882,-0.30066788,0.26079161,-0.46073777,0.15009485,0.32895631,-0.31348754,0.16044963,-0.01573105
1.74000000,0.16066225,0.55579642,-0.06796421,0.20915498,0.25984407,0.26927882,-0.30066788,0.26079161,-0.46073777,0.15009485,0.32895631,-0.31348754,0.16044963,-0.01573105
1.76000000,0.16066225,0.55579642,-0.06796421,0.20915498,0.25984407,0.26927882,-0.30066788,0.26079161,-0.46073777,0.15009485,0.32895631,-0.31348754,0.16044963,-0.01573105
1.78000000,0.16066225,0.55579642,-0.06796421,0.20915498,0.25984407,0.26927882,-0.30066788,0.26079161,-0.46073777,0.15009485,0.32895631,-0.31348754,0.16044963,-0.01573105
1.80000000,0.16066225,0.55579642,-0.06796421,0.20915498,0.25984407,0.26927882,-0.30066788,0.26079161,-0.46073777,0.15009485,0.32895631,-0.31348754,0.16044963,-0.01573105
1.82000000,0.16066225,0.55579642,-0.06796421,0.20915498,0.25984407,0.26927882,-0.30066788,0.26079161,-0.46073777,0.15009485,0.32895631,-0.31348754,0.16044963,-0.01573105
1.84000000,0.16066225,0.55579642,-0.06796421,0.20915498,0.25984407,0.26927882,-0.30066788,0.26079161,-0.46073777,0.15009485,0.32895631,-0.31348754,0.16044963,-0.01573105
1.86000000,0.16066225,0.55579642,-0.06796421,0.20915498,0.25984407,0.26927882,-0.30066788,0.26079161,-0.46073777,0.15009485,0.32895631,-0.31348754,0.16044963,-0.01573105
1.88000000,0.16066225,0.55579642,-0.06796421,0.20915498,0.25984407,0.26927882,-0.30066788,0.26079161,-0.46073777,0.15009485,0.32895631,-0.31348754,0.16044963,-0.01573105
1.90000000,0.16066225,0.55579642,-0.06796421,0.20915498,0.25984407,0.26927882,-0.30066788,0.26079161,-0.46073777,0.15009485,0.32895631,-0.31348754,0.16044963,-0.01573105
1.92000000,0.16066225,0.55579642,-0.06796421,0.20915498,0.25984407,0.26927882,-0.30066788,0.26079161,-0.46073777,0.15009485,0.32895631,-0.31348754,0.16044963,-0.01573105
1.94000000,0.16066225,0.55579642,-0.06796421,0.20915498,0.25984407,0.26927882,-0.30066788,0.26079161,-0.46073777,0.15009485,0.32895631,-0.31348754,0.16044963,-0.01573105
1.96000000,0.16066225,0.55579642,-0.06796421,0.20915498,0.25984407,0.26927882,-0.30066788,0.26079161,-0.46073777,0.15009485,0.32895631,-0.31348754,0.16044963,-0.01573105
1.98000000,0.16066225,0.55579642,-0.06796421,0.20915498,0.25984407,0.26927882,-0.30066788,0.26079161,-0.46073777,0.15009485,0.32895631,-0.31348754,0.16044963,-0.01573105
2.00000000,0.16066225,0.55579642,-0.06796421,0.20915498,0.25984407,0.26927882,-0.30066788,0.26079161,-0.46073777,0.15009485,0.32895631,-0.31348754,0.16044963,-0.01573105
2.02000000,0.16066188,0.55579655,-0.06796440,0.20915476,0.25984435,0.26927886,-0.30066807,0.26079162,-0.46073797,0.15009490,0.32895580,-0.31348788,0.16044978,-0.01573107
2.04000000,0.16065927,0.55579745,-0.06796572,0.20915320,0.25984631,0.26927918,-0.30066938,0.26079170,-0.46073938,0.15009526,0.32895224,-0.31349025,0.16045085,-0.01573121
2.06000000,0.16065226,0.55579988,-0.06796928,0.20914899,0.25985161,0.26928002,-0.30067290,0.26079192,-0.46074316,0.15009621,0.32894265,-0.31349662,0.16045371,-0.01573158
2.08000000,0.16063871,0.55580457,-0.06797615,0.20914087,0.25986184,0.26928165,-0.30067970,0.26079235,-0.46075047,0.15009804,0.32892413,-0.31350892,0.16045923,-0.01573229
2.10000000,0.16061655,0.55581223,-0.06798738,0.20912758,0.25987857,0.26928432,-0.30069082,0.26079304,-0.46076242,0.15010104,0.32889383,-0.31352904,0.16046827,-0.01573345
2.12000000,0.16058375,0.55582357,-0.06800399,0.20910791,0.25990333,0.26928827,-0.30070727,0.26079407,-0.46078010,0.15010548,0.32884900,-0.31355880,0.16048164,-0.01573518
2.14000000,0.16053836,0.55583927,-0.06802700,0.20908070,0.25993761,0.26929374,-0.30073005,0.26079549,-0.46080457,0.15011162,0.32878694,-0.31360001,0.16050015,-0.01573756
2.16000000,0.16047844,0.55585999,-0.06805736,0.20904477,0.25998285,0.26930095,-0.30076011,0.26079736,-0.46083688,0.15011973,0.32870503,-0.31365440,0.16052458,-0.01574071
2.18000000,0.16040214,0.55588638,-0.06809603,0.20899902,0.26004045,0.26931014,-0.30079839,0.26079975,-0.46087802,0.15013006,0.32860072,-0.31372367,0.16055569,-0.01574471
2.20000000,0.16030764,0.55591906,-0.06814391,0.20894236,0.26011181,0.26932152,-0.30084581,0.26080271,-0.46092897,0.15014285,0.32847153,-0.31380945,0.16059423,-0.01574967
2.22000000,0.16019317,0.55595864,-0.06820192,0.20887372,0.26019823,0.26933530,-0.30090324,0.26080629,-0.46099069,0.15015834,0.32831504,-0.31391336,0.16064091,-0.01575568
2.24000000,0.16005702,0.55600572,-0.06827092,0.20879209,0.26030103,0.26935170,-0.30097155,0.26081055,-0.46106410,0.15017677,0.32812891,-0.31403696,0.16069642,-0.01576283
2.26000000,0.15989752,0.55606088,-0.06835174,0.20869645,0.26042145,0.26937090,-0.30105158,0.26081554,-0.46115010,0.15019836,0.32791086,-0.31418174,0.16076146,-0.01577121
2.28000000,0.15971306,0.55612467,-0.06844522,0.20858585,0.26056073,0.26939312,-0.30114413,0.26082131,-0.46124955,0.15022332,0.32765869,-0.31434919,0.16083668,-0.01578089
2.30000000,0.15950207,0.55619764,-0.06855214,0.20845934,0.26072003,0.26941852,-0.30125000,0.26082792,-0.46136332,0.15025188,0.32737024,-0.31454073,0.16092271,-0.01579197
2.32000000,0.15926302,0.55628031,-0.06867328,0.20831601,0.26090052,0.26944731,-0.30136994,0.26083540,-0.46149221,0.15028423,0.32704344,-0.31475773,0.16102019,-0.01580452
2.34000000,0.15899444,0.55637318,-0.06880938,0.20815497,0.26110330,0.26947965,-0.30150470,0.26084380,-0.46163701,0.15032058,0.32667628,-0.31500153,0.16112970,-0.01581863
2.36000000,0.15869492,0.55647676,-0.06896116,0.20797538,0.26132944,0.26951572,-0.30165498,0.26085318,-0.46179851,0.15036112,0.32626681,-0.31527343,0.16125184,-0.01583435
2.38000000,0.15836307,0.55659152,-0.06912932,0.20777640,0.26158000,0.26955568,-0.30182148,0.26086356,-0.46197743,0.15040604,0.32581314,-0.31557467,0.16138715,-0.01585178
2.40000000,0.15799756,0.55671792,-0.06931455,0.20755725,0.26185596,0.26959969,-0.30200488,0.26087500,-0.46217451,0.15045551,0.32531345,-0.31590647,0.16153620,-0.01587097
2.42000000,0.15759711,0.55685641,-0.06951748,0.20731714,0.26215832,0.26964791,-0.30220580,0.26088753,-0.46239042,0.15050971,0.32476600,-0.31626999,0.16169949,-0.01589200
2.44000000,0.15716047,0.55700741,-0.06973874,0.20705533,0.26248799,0.26970049,-0.30242488,0.26090119,-0.46262585,0.15056881,0.32416908,-0.31666636,0.16187753,-0.01591492
2.46000000,0.15668645,0.55717133,-0.06997895,0.20677111,0.26284588,0.26975757,-0.30266272,0.26091603,-0.46288143,0.15063296,0.32352105,-0.31709666,0.16207082,-0.01593981
2.48000000,0.15617390,0.55734858,-0.07023869,0.20646379,0.26323287,0.26981928,-0.30291989,0.26093207,-0.46315778,0.15070233,0.32282035,-0.31756193,0.16227982,-0.01596672
2.50000000,0.15562172,0.55753954,-0.07051851,0.20613270,0.26364978,0.26988578,-0.30319694,0.26094935,-0.46345551,0.15077707,0.32206547,-0.31806319,0.16250498,-0.01599572
2.52000000,0.15502883,0.55774457,-0.07081895,0.20577721,0.26409742,0.26995717,-0.30349442,0.26096790,-0.46377517,0.15085731,0.32125495,-0.31860139,0.16274674,-0.01602685
2.54000000,0.15439424,0.55796402,-0.07114053,0.20539671,0.26457655,0.27003358,-0.30381283,0.26098776,-0.46411733,0.15094320,0.32038740,-0.31917746,0.16300550,-0.01606017
2.56000000,0.15371695,0.55819824,-0.07148375,0.20499061,0.26508792,0.27011514,-0.30415265,0.26100895,-0.46448251,0.15103487,0.31946149,-0.31979228,0.16328168,-0.01609573
2.58000000,0.15299603,0.55844755,-0.07184907,0.20455835,0.26563223,0.27020195,-0.30451437,0.26103151,-0.46487121,0.15113245,0.31847593,-0.32044671,0.16357564,-0.01613359
2.60000000,0.15223060,0.55871225,-0.07223696,0.20409940,0.26621014,0.27029412,-0.30489842,0.26105547,-0.46528391,0.15123604,0.31742953,-0.32114154,0.16388776,-0.01617378
2.62000000,0.15141981,0.55899264,-0.07264783,0.20361325,0.26682231,0.27039175,-0.30530523,0.26108084,-0.46572107,0.15134578,0.31632110,-0.32187756,0.16421837,-0.01621635
2.64000000,0.15056284,0.55928899,-0.07308210,0.20309942,0.26746934,0.27049494,-0.30573521,0.26110766,-0.46618313,0.15146177,0.31514955,-0.32265549,0.16456781,-0.01626135
2.66000000,0.14965893,0.55960158,-0.07354015,0.20255744,0.26815181,0.27060378,-0.30618874,0.26113594,-0.46667049,0.15158411,0.31391383,-0.32347603,0.16493639,-0.01630881
2.68000000,0.14870736,0.55993065,-0.07402236,0.20198688,0.26887027,0.27071837,-0.30666619,0.26116572,-0.46718356,0.15171290,0.31261295,-0.32433984,0.16532441,-0.01635877
2.70000000,0.14770743,0.56027644,-0.07452908,0.20138733,0.26962524,0.27083877,-0.30716789,0.26119701,-0.46772270,0.15184824,0.31124596,-0.32524754,0.16573215,-0.01641128
2.72000000,0.14665850,0.56063918,-0.07506062,0.20075840,0.27041720,0.27096508,-0.30769419,0.26122984,-0.46828825,0.15199021,0.30981199,-0.32619973,0.16615986,-0.01646635
2.74000000,0.14555996,0.56101908,-0.07561731,0.20009972,0.27124662,0.27109736,-0.30824537,0.26126421,-0.46888056,0.15213889,0.30831019,-0.32719695,0.16660781,-0.01652403
2.76000000,0.14441125,0.56141633,-0.07619942,0.19941095,0.27211393,0.27123568,-0.30882174,0.26130016,-0.46949992,0.15229436,0.30673980,-0.32823972,0.16707621,-0.01658435
2.78000000,0.14321182,0.56183111,-0.07680723,0.19869178,0.27301952,0.27138011,-0.30942354,0.26133770,-0.47014662,0.15245670,0.30510008,-0.32932852,0.16756530,-0.01664733
2.80000000,0.14196119,0.56226360,-0.07744099,0.19794191,0.27396377,0.27153071,-0.31005104,0.26137683,-0.47082093,0.15262597,0.30339036,-0.33046381,0.16807526,-0.01671300
2.82000000,0.14065890,0.56271396,-0.07810092,0.19716106,0.27494703,0.27168752,-0.31070446,0.26141759,-0.47152309,0.15280223,0.30161002,-0.33164599,0.16860629,-0.01678138
2.84000000,0.13930453,0.56318233,-0.07878725,0.19634899,0.27596961,0.27185061,-0.31138401,0.26145997,-0.47225334,0.15298554,0.29975848,-0.33287544,0.16915855,-0.01685249
2.86000000,0.13789769,0.56366884,-0.07950016,0.19550545,0.27703180,0.27202001,-0.31208988,0.26150399,-0.47301187,0.15317595,0.29783522,-0.33415253,0.16973221,-0.01692636
2.88000000,0.13643805,0.56417361,-0.08023984,0.19463026,0.27813386,0.27219577,-0.31282224,0.26154967,-0.47379887,0.15337350,0.29583976,-0.33547755,0.17032740,-0.01700300
2.90000000,0.13492529,0.56469675,-0.08100643,0.19372321,0.27927603,0.27237793,-0.31358127,0.26159701,-0.47461451,0.15357825,0.29377168,-0.33685079,0.17094425,-0.01708243
2.92000000,0.13335913,0.56523836,-0.08180009,0.19278415,0.28045852,0.27256652,-0.31436708,0.26164602,-0.47545895,0.15379022,0.29163061,-0.33827250,0.17158287,-0.01716467
2.94000000,0.13173933,0.56579851,-0.08262092,0.19181292,0.28168150,0.27276157,-0.31517980,0.26169671,-0.47633231,0.15400946,0.28941620,-0.33974291,0.17224337,-0.01724972
2.96000000,0.13006568,0.56637729,-0.08346904,0.19080941,0.28294514,0.27296310,-0.31601955,0.26174909,-0.47723469,0.15423598,0.28712819,-0.34126219,0.17292582,-0.01733760
2.98000000,0.12833802,0.56697475,-0.08434453,0.18977352,0.28424957,0.27317114,-0.31688639,0.26180315,-0.47816621,0.15446981,0.28476632,-0.34283051,0.17363030,-0.01742831
3.00000000,0.12655620,0.56759094,-0.08524747,0.18870514,0.28559488,0.27338569,-0.31778041,0.26185891,-0.47912692,0.15471097,0.28233042,-0.34444800,0.17435687,-0.01752187
3.02000000,0.12472011,0.56822589,-0.08617791,0.18760423,0.28698117,0.27360679,-0.31870166,0.26191637,-0.48011690,0.15495948,0.27982033,-0.34611474,0.17510556,-0.01761828
3.04000000,0.12282968,0.56887964,-0.08713589,0.18647074,0.28840848,0.27383442,-0.31965017,0.26197553,-0.48113617,0.15521534,0.27723596,-0.34783081,0.17587641,-0.01771754
3.06000000,0.12088487,0.56955219,-0.08812142,0.18530464,0.28987685,0.27406861,-0.32062597,0.26203639,-0.48218476,0.15547856,0.27457724,-0.34959625,0.17666943,-0.01781966
3.08000000,0.11888567,0.57024355,-0.08913452,0.18410593,0.29138630,0.27430934,-0.32162906,0.26209895,-0.48326268,0.15574915,0.27184416,-0.35141107,0.17748463,-0.01792463
3.10000000,0.11683210,0.57095371,-0.09017517,0.18287462,0.29293679,0.27455662,-0.32265943,0.26216321,-0.48436992,0.15602709,0.26903675,-0.35327524,0.17832201,-0.01803246
3.12000000,0.11472420,0.57168266,-0.09124334,0.18161073,0.29452829,0.27481044,-0.32371705,0.26222917,-0.48550644,0.15631238,0.26615508,-0.35518872,0.17918153,-0.01814314
3.14000000,0.11256207,0.57243037,-0.09233900,0.18031433,0.29616075,0.27507080,-0.32480189,0.26229684,-0.48667221,0.15660502,0.26319926,-0.35715144,0.18006317,-0.01825667
3.16000000,0.11034581,0.57319679,-0.09346209,0.17898547,0.29783407,0.27533767,-0.32591388,0.26236619,-0.48786716,0.15690498,0.26016944,-0.35916329,0.18096688,-0.01837303
3.18000000,0.10807557,0.57398188,-0.09461254,0.17762424,0.29954815,0.27561104,-0.32705296,0.26243723,-0.48909122,0.15721225,0.25706583,-0.36122415,0.18189260,-0.01849224
3.20000000,0.10575152,0.57478559,-0.09579025,0.17623075,0.30130287,0.27589089,-0.32821905,0.26250996,-0.49034430,0.15752680,0.25388865,-0.36333386,0.18284027,-0.01861427
3.22000000,0.10337385,0.57560783,-0.09699514,0.17480511,0.30309806,0.27617719,-0.32941203,0.26258437,-0.49162628,0.15784861,0.25063817,-0.36549223,0.18380980,-0.01873911
3.24000000,0.10094279,0.57644853,-0.09822708,0.17334746,0.30493356,0.27646993,-0.33063180,0.26266044,-0.49293705,0.15817764,0.24731471,-0.36769907,0.18480110,-0.01886676
3.26000000,0.09845860,0.57730761,-0.09948594,0.17185795,0.30680918,0.27676906,-0.33187823,0.26273818,-0.49427646,0.15851387,0.24391861,-0.36995415,0.18581406,-0.01899720
3.28000000,0.09592156,0.57818497,-0.10077159,0.17033675,0.30872470,0.27707456,-0.33315117,0.26281758,-0.49564437,0.15885725,0.24045026,-0.37225719,0.18684858,-0.01913041
3.30000000,0.09333198,0.57908049,-0.10208386,0.16878405,0.31067989,0.27738638,-0.33445048,0.26289861,-0.49704061,0.15920774,0.23691008,-0.37460794,0.18790452,-0.01926639
3.32000000,0.09069020,0.57999407,-0.10342258,0.16720005,0.31267449,0.27770449,-0.33577598,0.26298128,-0.49846499,0.15956529,0.23329854,-0.37700607,0.18898174,-0.01940510
3.34000000,0.08799658,0.58092558,-0.10478758,0.16558497,0.31470823,0.27802885,-0.33712749,0.26306558,-0.49991733,0.15992986,0.22961613,-0.37945126,0.19008010,-0.01954653
3.36000000,0.08525150,0.58187488,-0.10617865,0.16393903,0.31678083,0.27835939,-0.33850482,0.26315148,-0.50139741,0.16030140,0.22586337,-0.38194316,0.19119945,-0.01969067
3.38000000,0.08245538,0.58284183,-0.10759558,0.16226249,0.31889196,0.27869609,-0.33990776,0.26323898,-0.50290500,0.16067984,0.22204084,-0.38448139,0.19233961,-0.01983749
3.40000000,0.07960866,0.58382628,-0.10903816,0.16055561,0.32104130,0.27903888,-0.34133609,0.26332806,-0.50443989,0.16106513,0.21814912,-0.38706556,0.19350040,-0.01998696
3.42000000,0.07671179,0.58482807,-0.11050615,0.15881866,0.32322849,0.27938770,-0.34278957,0.26341872,-0.50600181,0.16145721,0.21418886,-0.38969525,0.19468164,-0.02013907
3.44000000,0.07376527,0.58584703,-0.11199930,0.15705194,0.32545318,0.27974251,-0.34426797,0.26351092,-0.50759050,0.16185601,0.21016072,-0.39237001,0.19588312,-0.02029378
3.46000000,0.07076960,0.58688299,-0.11351735,0.15525575,0.32771498,0.28010323,-0.34577103,0.26360467,-0.50920569,0.16226146,0.20606538,-0.39508939,0.19710465,-0.02045108
3.48000000,0.06772532,0.58793576,-0.11506005,0.15343041,0.33001347,0.28046981,-0.34729849,0.26369994,-0.51084709,0.16267349,0.20190359,-0.39785289,0.19834600,-0.02061092
3.50000000,0.06463298,0.58900515,-0.11662709,0.15157625,0.33234826,0.28084217,-0.34885005,0.26379671,-0.51251441,0.16309203,0.19767609,-0.40066003,0.19960695,-0.02077329
3.52000000,0.06149315,0.59009096,-0.11821820,0.14969363,0.33471890,0.28122025,-0.35042544,0.26389496,-0.51420732,0.16351699,0.19338368,-0.40351027,0.20088726,-0.02093816
3.54000000,0.05830644,0.59119298,-0.11983307,0.14778289,0.33712493,0.28160398,-0.35202436,0.26399469,-0.51592552,0.16394830,0.18902718,-0.40640307,0.20218668,-0.02110548
3.56000000,0.05507347,0.59231100,-0.12147138,0.14584442,0.33956590,0.28199328,-0.35364648,0.26409586,-0.51766866,0.16438587,0.18460743,-0.40933786,0.20350497,-0.02127524
3.58000000,0.05179487,0.59344480,-0.12313281,0.14387858,0.34204131,0.28238807,-0.35529150,0.26419846,-0.51943640,0.16482962,0.18012530,-0.41231407,0.20484187,-0.02144739
3.60000000,0.04847131,0.59459415,-0.12481702,0.14188579,0.34455067,0.28278827,-0.35695908,0.26430246,-0.52122838,0.16527945,0.17558171,-0.41533110,0.20619710,-0.02162190
3.62000000,0.04510347,0.59575882,-0.12652368,0.13986645,0.34709346,0.28319381,-0.35864888,0.26440785,-0.52304424,0.16573527,0.17097759,-0.41838833,0.20757038,-0.02179874
3.64000000,0.04169205,0.59693855,-0.12825242,0.13782098,0.34966916,0.28360460,-0.36036054,0.26451461,-0.52488359,0.16619699,0.16631388,-0.42148511,0.20896144,-0.02197786
3.66000000,0.03823777,0.59813311,-0.13000288,0.13574980,0.35227722,0.28402054,-0.36209371,0.26462271,-0.52674606,0.16666452,0.16159159,-0.42462081,0.21036997,-0.02215924
3.68000000,0.03474137,0.59934223,-0.13177468,0.13365337,0.35491708,0.28444156,-0.36384801,0.26473212,-0.52863123,0.16713774,0.15681170,-0.42779474,0.21179568,-0.02234282
3.70000000,0.03120360,0.60056565,-0.13356745,0.13153214,0.35758817,0.28486756,-0.36562306,0.26484283,-0.53053871,0.16761656,0.15197527,-0.43100622,0.21323826,-0.02252858
3.72000000,0.02762523,0.60180312,-0.13538078,0.12938657,0.36028992,0.28529845,-0.36741849,0.26495481,-0.53246808,0.16810088,0.14708334,-0.43425455,0.21469739,-0.02271647
3.74000000,0.02400707,0.60305435,-0.13721429,0.12721714,0.36302171,0.28573413,-0.36923388,0.26506803,-0.53441890,0.16859058,0.14213701,-0.43753900,0.21617274,-0.02290645
3.76000000,0.02034992,0.60431906,-0.13906755,0.12502433,0.36578293,0.28617451,-0.37106884,0.26518248,-0.53639075,0.16908556,0.13713737,-0.44085885,0.21766400,-0.02309848
3.78000000,0.01665461,0.60559697,-0.14094015,0.12280863,0.36857298,0.28661948,-0.37292294,0.26529812,-0.53838317,0.16958571,0.13208556,-0.44421335,0.21917082,-0.02329251
3.80000000,0.01292197,0.60688778,-0.14283167,0.12057056,0.37139120,0.28706894,-0.37479577,0.26541493,-0.54039572,0.17009091,0.12698272,-0.44760173,0.22069286,-0.02348850
3.82000000,0.00915286,0.60819121,-0.14474167,0.11831062,0.37423696,0.28752280,-0.37668690,0.26553288,-0.54242793,0.17060104,0.12183003,-0.45102321,0.22222976,-0.02368641
3.84000000,0.00534816,0.60950695,-0.14666970,0.11602934,0.37710959,0.28798094,-0.37859589,0.26565194,-0.54447933,0.17111599,0.11662867,-0.45447701,0.22378119,-0.02388618
3.86000000,0.00150875,0.61083469,-0.14861533,0.11372724,0.38000843,0.28844326,-0.38052230,0.26577209,-0.54654945,0.17163564,0.11137987,-0.45796231,0.22534676,-0.02408778
3.88000000,-0.00236447,0.61217412,-0.15057808,0.11140488,0.38293280,0.28890966,-0.38246566,0.26589329,-0.54863779,0.17215987,0.10608485,-0.46147830,0.22692612,-0.02429115
3.90000000,-0.00627058,0.61352493,-0.15255750,0.10906279,0.38588199,0.28938001,-0.38442553,0.26601553,-0.55074387,0.17268854,0.10074487,-0.46502414,0.22851889,-0.02449625
3.92000000,-0.01020865,0.61488678,-0.15455312,0.10670154,0.38885532,0.28985421,-0.38640144,0.26613877,-0.55286718,0.17322154,0.09536119,-0.46859901,0.23012470,-0.02470303
3.94000000,-0.01417774,0.61625937,-0.15656446,0.10432169,0.39185207,0.29033215,-0.38839291,0.26626297,-0.55500722,0.17375875,0.08993510,-0.47220203,0.23174315,-0.02491143
3.96000000,-0.01817690,0.61764236,-0.15859104,0.10192382,0.39487153,0.29081371,-0.39039946,0.26638812,-0.55716347,0.17430002,0.08446791,-0.47583235,0.23337387,-0.02512142
3.98000000,-0.02220516,0.61903540,-0.16063236,0.09950849,0.39791295,0.29129877,-0.39242062,0.26651418,-0.55933541,0.17484522,0.07896094,-0.47948908,0.23501645,-0.02533293
4.00000000,-0.02626154,0.62043818,-0.16268793,0.09707630,0.40097561,0.29178722,-0.39445589,0.26664112,-0.56152251,0.17539424,0.07341551,-0.48317134,0.23667050,-0.02554592
4.02000000,-0.03034506,0.62185033,-0.16475726,0.09462784,0.40405875,0.29227893,-0.39650477,0.26676890,-0.56372424,0.17594693,0.06783300,-0.48687823,0.23833561,-0.02576034
4.04000000,-0.03445471,0.62327153,-0.16683982,0.09216372,0.40716162,0.29277380,-0.39856676,0.26689751,-0.56594006,0.17650315,0.06221476,-0.49060885,0.24001138,-0.02597612
4.06000000,-0.03858948,0.62470141,-0.16893512,0.08968453,0.41028347,0.29327168,-0.40064136,0.26702690,-0.56816943,0.17706278,0.05656217,-0.49436227,0.24169739,-0.02619323
4.08000000,-0.04274835,0.62613962,-0.17104263,0.08719088,0.41342351,0.29377247,-0.40272805,0.26715705,-0.57041179,0.17762566,0.05087664,-0.49813757,0.24339323,-0.02641160
4.10000000,-0.04693029,0.62758582,-0.17316183,0.08468341,0.41658097,0.29427604,-0.40482632,0.26728792,-0.57266660,0.17819167,0.04515956,-0.50193381,0.24509848,-0.02663118
4.12000000,-0.05113427,0.62903963,-0.17529220,0.08216272,0.41975506,0.29478226,-0.40693564,0.26741947,-0.57493328,0.17876066,0.03941237,-0.50575005,0.24681271,-0.02685192
4.14000000,-0.05535923,0.63050070,-0.17743320,0.07962945,0.42294500,0.29529101,-0.40905550,0.26755169,-0.57721127,0.17933249,0.03363649,-0.50958535,0.24853550,-0.02707376
4.16000000,-0.05960412,0.63196866,-0.17958430,0.07708424,0.42614998,0.29580216,-0.41118535,0.26768452,-0.57950001,0.17990702,0.02783336,-0.51343873,0.25026641,-0.02729665
4.18000000,-0.06386787,0.63344315,-0.18174496,0.07452771,0.42936921,0.29631558,-0.41332466,0.26781795,-0.58179892,0.18048410,0.02200445,-0.51730923,0.25200502,-0.02752053
4.20000000,-0.06814942,0.63492379,-0.18391463,0.07196052,0.43260187,0.29683114,-0.41547290,0.26795194,-0.58410743,0.18106359,0.01615121,-0.52119589,0.25375088,-0.02774534
4.22000000,-0.07244767,0.63641021,-0.18609278,0.06938330,0.43584714,0.29734871,-0.41762953,0.26808644,-0.58642494,0.18164535,0.01027513,-0.52509772,0.25550356,-0.02797103
4.24000000,-0.07676156,0.63790203,-0.18827884,0.06679671,0.43910422,0.29786817,-0.41979400,0.26822144,-0.58875089,0.18222921,0.00437767,-0.52901374,0.25726260,-0.02819754
4.26000000,-0.08108999,0.63939888,-0.19047227,0.06420141,0.44237228,0.29838938,-0.42196577,0.26835689,-0.59108467,0.18281505,-0.00153966,-0.53294295,0.25902758,-0.02842482
4.28000000,-0.08543186,0.64090038,-0.19267252,0.06159804,0.44565048,0.29891220,-0.42414427,0.26849277,-0.59342570,0.18340270,-0.00747536,-0.53688437,0.26079804,-0.02865280
4.30000000,-0.08978606,0.64240615,-0.19487901,0.05898728,0.44893801,0.29943651,-0.42632897,0.26862902,-0.59577338,0.18399203,-0.01342793,-0.54083699,0.26257353,-0.02888142
4.32000000,-0.09415150,0.64391580,-0.19709120,0.05636978,0.45223401,0.29996218,-0.42851931,0.26876563,-0.59812712,0.18458287,-0.01939586,-0.54479980,0.26435360,-0.02911064
4.34000000,-0.09852707,0.64542895,-0.19930852,0.05374621,0.45553765,0.30048906,-0.43071473,0.26890256,-0.60048631,0.18517509,-0.02537763,-0.54877181,0.26613780,-0.02934039
4.36000000,-0.10291164,0.64694522,-0.20153040,0.05111724,0.45884810,0.30101703,-0.43291466,0.26903977,-0.60285037,0.18576852,-0.03137171,-0.55275199,0.26792567,-0.02957061
4.38000000,-0.10730410,0.64846421,-0.20375628,0.04848354,0.46216450,0.30154594,-0.43511855,0.26917723,-0.60521867,0.18636302,-0.03737658,-0.55673933,0.26971676,-0.02980125
4.40000000,-0.11170332,0.64998555,-0.20598559,0.04584579,0.46548602,0.30207568,-0.43732584,0.26931489,-0.60759063,0.18695844,-0.04339070,-0.56073282,0.27151061,-0.03003224
4.42000000,-0.11610819,0.65150883,-0.20821776,0.04320464,0.46881179,0.30260609,-0.43953596,0.26945274,-0.60996563,0.18755462,-0.04941254,-0.56473143,0.27330676,-0.03026353
4.44000000,-0.12051758,0.65303368,-0.21045222,0.04056080,0.47214097,0.30313704,-0.44174835,0.26959072,-0.61234306,0.18815142,-0.05544055,-0.56873414,0.27510475,-0.03049505
4.46000000,-0.12493036,0.65455970,-0.21268840,0.03791491,0.47547272,0.30366841,-0.44396243,0.26972881,-0.61472232,0.18874867,-0.06147319,-0.57273992,0.27690412,-0.03072676
4.48000000,-0.12934540,0.65608651,-0.21492572,0.03526768,0.47880617,0.30420004,-0.44617766,0.26986698,-0.61710280,0.18934623,-0.06750892,-0.57674776,0.27870442,-0.03095858
4.50000000,-0.13376157,0.65761370,-0.21716362,0.03261976,0.48214047,0.30473182,-0.44839345,0.27000517,-0.61948389,0.18994394,-0.07354620,-0.58075663,0.28050518,-0.03119046
4.52000000,-0.13817774,0.65914089,-0.21940151,0.02997184,0.48547477,0.30526359,-0.45060923,0.27014337,-0.62186498,0.19054165,-0.07958348,-0.58476549,0.28230593,-0.03142234
4.54000000,-0.14259277,0.66066770,-0.22163884,0.02732461,0.48880822,0.30579523,-0.45282446,0.27028153,-0.62424546,0.19113920,-0.08561922,-0.58877333,0.28410623,-0.03165416
4.56000000,-0.14700555,0.66219372,-0.22387501,0.02467873,0.49213997,0.30632659,-0.45503854,0.27041962,-0.62662473,0.19173646,-0.09165186,-0.59277912,0.28590560,-0.03188587
4.58000000,-0.15141494,0.66371857,-0.22610947,0.02203488,0.49546915,0.30685754,-0.45725093,0.27055761,-0.62900216,0.19233325,-0.09767987,-0.59678183,0.28770359,-0.03211739
4.60000000,-0.15581981,0.66524185,-0.22834164,0.01939373,0.49879493,0.30738796,-0.45946105,0.27069545,-0.63137716,0.19292943,-0.10370171,-0.60078044,0.28949974,-0.03234868
4.62000000,-0.16021904,0.66676319,-0.23057095,0.01675598,0.50211644,0.30791769,-0.46166834,0.27083312,-0.63374911,0.19352485,-0.10971583,-0.60477392,0.29129359,-0.03257967
4.64000000,-0.16461150,0.66828218,-0.23279683,0.01412228,0.50543284,0.30844661,-0.46387223,0.27097058,-0.63611742,0.19411935,-0.11572069,-0.60876127,0.29308468,-0.03281031
4.66000000,-0.16899607,0.66979845,-0.23501872,0.01149331,0.50874329,0.30897457,-0.46607217,0.27110779,-0.63848147,0.19471278,-0.12171478,-0.61274145,0.29487255,-0.03304053
4.68000000,-0.17337163,0.67131160,-0.23723604,0.00886974,0.51204693,0.30950146,-0.46826758,0.27124471,-0.64084067,0.19530500,-0.12769655,-0.61671345,0.29665675,-0.03327028
4.70000000,-0.17773707,0.67282125,-0.23944822,0.00625224,0.51534293,0.31002712,-0.47045792,0.27138132,-0.64319441,0.19589584,-0.13366448,-0.62067627,0.29843682,-0.03349950
4.72000000,-0.18209128,0.67432702,-0.24165472,0.00364148,0.51863046,0.31055143,-0.47264262,0.27151758,-0.64554209,0.19648517,-0.13961705,-0.62462889,0.30021231,-0.03372812
4.74000000,-0.18643315,0.67582852,-0.24385496,0.00103811,0.52190866,0.31107426,-0.47482113,0.27165345,-0.64788312,0.19707282,-0.14555275,-0.62857030,0.30198277,-0.03395610
4.76000000,-0.19076157,0.67732537,-0.24604840,-0.00155719,0.52517672,0.31159546,-0.47699289,0.27178890,-0.65021690,0.19765866,-0.15147008,-0.63249952,0.30374775,-0.03418338
4.78000000,-0.19507546,0.67881719,-0.24823446,-0.00414378,0.52843380,0.31211492,-0.47915736,0.27192390,-0.65254284,0.19824253,-0.15736753,-0.63641553,0.30550680,-0.03440989
4.80000000,-0.19937372,0.68030361,-0.25041261,-0.00672100,0.53167908,0.31263249,-0.48131399,0.27205841,-0.65486036,0.19882428,-0.16324362,-0.64031736,0.30725947,-0.03463558
4.82000000,-0.20365526,0.68178425,-0.25258228,-0.00928819,0.53491174,0.31314805,-0.48346223,0.27219239,-0.65716886,0.19940377,-0.16909686,-0.64420402,0.30900534,-0.03486039
4.84000000,-0.20791902,0.68325874,-0.25474294,-0.01184472,0.53813096,0.31366147,-0.48560154,0.27232582,-0.65946778,0.19998085,-0.17492577,-0.64807453,0.31074394,-0.03508427
4.86000000,-0.21216390,0.68472670,-0.25689404,-0.01438993,0.54133594,0.31417262,-0.48773139,0.27245866,-0.66175652,0.20055538,-0.18072890,-0.65192791,0.31247486,-0.03530716
4.88000000,-0.21638886,0.68618777,-0.25903504,-0.01692320,0.54452588,0.31468137,-0.48985125,0.27259087,-0.66403451,0.20112721,-0.18650478,-0.65576320,0.31419764,-0.03552900
4.90000000,-0.22059284,0.68764158,-0.26116541,-0.01944389,0.54769998,0.31518759,-0.49196057,0.27272243,-0.66630119,0.20169620,-0.19225197,-0.65957944,0.31591188,-0.03574974
4.92000000,-0.22477478,0.68908778,-0.26328461,-0.02195136,0.55085743,0.31569116,-0.49405884,0.27285330,-0.66855599,0.20226221,-0.19796905,-0.66337569,0.31761712,-0.03596932
4.94000000,-0.22893366,0.69052599,-0.26539212,-0.02444500,0.55399747,0.31619195,-0.49614553,0.27298344,-0.67079836,0.20282510,-0.20365458,-0.66715099,0.31931296,-0.03618769
4.96000000,-0.23306843,0.69195587,-0.26748741,-0.02692420,0.55711932,0.31668984,-0.49822013,0.27311284,-0.67302772,0.20338472,-0.20930717,-0.67090441,0.32099898,-0.03640480
4.98000000,-0.23717808,0.69337707,-0.26956998,-0.02938832,0.56022219,0.31718470,-0.50028212,0.27324144,-0.67524355,0.20394095,-0.21492541,-0.67463502,0.32267474,-0.03662058
5.00000000,-0.24126159,0.69478922,-0.27163930,-0.03183678,0.56330533,0.31767641,-0.50233100,0.27336923,-0.67744528,0.20449363,-0.22050792,-0.67834192,0.32433986,-0.03683500
5.02000000,-0.24531797,0.69619200,-0.27369488,-0.03426897,0.56636799,0.31816486,-0.50436627,0.27349617,-0.67963238,0.20504265,-0.22605335,-0.68202418,0.32599391,-0.03704799
5.04000000,-0.24934623,0.69758504,-0.27573620,-0.03668430,0.56940942,0.31864993,-0.50638743,0.27362223,-0.68180432,0.20558786,-0.23156032,-0.68568091,0.32763649,-0.03725950
5.06000000,-0.25334539,0.69896803,-0.27776278,-0.03908217,0.57242887,0.31913148,-0.50839399,0.27374737,-0.68396057,0.20612913,-0.23702751,-0.68931123,0.32926720,-0.03746949
5.08000000,-0.25731449,0.70034062,-0.27977412,-0.04146202,0.57542562,0.31960942,-0.51038546,0.27387158,-0.68610060,0.20666633,-0.24245360,-0.69291425,0.33088566,-0.03767789
5.10000000,-0.26125256,0.70170247,-0.28176973,-0.04382327,0.57839895,0.32008362,-0.51236136,0.27399482,-0.68822392,0.20719933,-0.24783728,-0.69648911,0.33249146,-0.03788467
5.12000000,-0.26515866,0.70305328,-0.28374916,-0.04616536,0.58134815,0.32055398,-0.51432123,0.27411705,-0.69032999,0.20772801,-0.25317726,-0.70003496,0.33408423,-0.03808977
5.14000000,-0.26903188,0.70439271,-0.28571191,-0.04848772,0.58427251,0.32102037,-0.51626460,0.27423826,-0.69241834,0.20825223,-0.25847228,-0.70355095,0.33566359,-0.03829314
5.16000000,-0.27287129,0.70572045,-0.28765753,-0.05078982,0.58717135,0.32148269,-0.51819100,0.27435841,-0.69448845,0.20877188,-0.26372108,-0.70703625,0.33722917,-0.03849474
5.18000000,-0.27667599,0.70703619,-0.28958557,-0.05307110,0.59004398,0.32194083,-0.52009999,0.27447747,-0.69653986,0.20928683,-0.26892244,-0.71049004,0.33878059,-0.03869451
5.20000000,-0.28044510,0.70833962,-0.29149556,-0.05533104,0.59288974,0.32239469,-0.52199112,0.27459542,-0.69857207,0.20979696,-0.27407513,-0.71391153,0.34031750,-0.03889242
5.22000000,-0.28417774,0.70963043,-0.29338708,-0.05756911,0.59570796,0.32284416,-0.52386395,0.27471223,-0.70058461,0.21030216,-0.27917797,-0.71729990,0.34183953,-0.03908841
5.24000000,-0.28787306,0.71090834,-0.29525969,-0.05978481,0.59849801,0.32328913,-0.52571805,0.27482787,-0.70257704,0.21080231,-0.28422978,-0.72065440,0.34334635,-0.03928244
5.26000000,-0.29153021,0.71217305,-0.29711295,-0.06197762,0.60125924,0.32372950,-0.52755301,0.27494231,-0.70454888,0.21129729,-0.28922942,-0.72397425,0.34483761,-0.03947447
5.28000000,-0.29514837,0.71342428,-0.29894645,-0.06414705,0.60399103,0.32416518,-0.52936840,0.27505554,-0.70649971,0.21178699,-0.29417575,-0.72725871,0.34631297,-0.03966445
5.30000000,-0.29872673,0.71466175,-0.30075979,-0.06629262,0.60669277,0.32459607,-0.53116383,0.27516752,-0.70842907,0.21227131,-0.29906768,-0.73050704,0.34777209,-0.03985234
5.32000000,-0.30226450,0.71588517,-0.30255256,-0.06841385,0.60936386,0.32502207,-0.53293888,0.27527823,-0.71033655,0.21275013,-0.30390411,-0.73371852,0.34921467,-0.04003810
5.34000000,-0.30576090,0.71709430,-0.30432436,-0.07051028,0.61200372,0.32544309,-0.53469319,0.27538764,-0.71222173,0.21322336,-0.30868399,-0.73689245,0.35064038,-0.04022168
5.36000000,-0.30921519,0.71828885,-0.30607482,-0.07258146,0.61461178,0.32585904,-0.53642635,0.27549574,-0.71408419,0.21369088,-0.31340629,-0.74002814,0.35204891,-0.04040306
5.38000000,-0.31262661,0.71946858,-0.30780356,-0.07462693,0.61718748,0.32626982,-0.53813801,0.27560249,-0.71592355,0.21415260,-0.31807000,-0.74312493,0.35343997,-0.04058218
5.40000000,-0.31599445,0.72063325,-0.30951021,-0.07664627,0.61973027,0.32667536,-0.53982781,0.27570788,-0.71773940,0.21460842,-0.32267412,-0.74618215,0.35481325,-0.04075902
5.42000000,-0.31931801,0.72178260,-0.31119443,-0.07863906,0.62223963,0.32707557,-0.54149539,0.27581189,-0.71953139,0.21505826,-0.32721771,-0.74919918,0.35616848,-0.04093353
5.44000000,-0.32259661,0.72291640,-0.31285586,-0.08060490,0.62471504,0.32747036,-0.54314041,0.27591449,-0.72129913,0.21550200,-0.33169984,-0.75217539,0.35750538,-0.04110568
5.46000000,-0.32582958,0.72403442,-0.31449417,-0.08254337,0.62715601,0.32785966,-0.54476253,0.27601566,-0.72304227,0.21593957,-0.33611959,-0.75511019,0.35882367,-0.04127544
5.48000000,-0.32901629,0.72513644,-0.31610904,-0.08445411,0.62956204,0.32824338,-0.54636145,0.27611538,-0.72476046,0.21637088,-0.34047609,-0.75800299,0.36012310,-0.04144276
5.50000000,-0.33215611,0.72622225,-0.31770014,-0.08633673,0.63193268,0.32862146,-0.54793684,0.27621364,-0.72645338,0.21679584,-0.34476850,-0.76085323,0.36140341,-0.04160763
5.52000000,-0.33524846,0.72729164,-0.31926719,-0.08819089,0.63426747,0.32899383,-0.54948840,0.27631041,-0.72812069,0.21721438,-0.34899600,-0.76366036,0.36266435,-0.04177000
5.54000000,-0.33829274,0.72834441,-0.32080988,-0.09001623,0.63656597,0.32936040,-0.55101586,0.27640568,-0.72976210,0.21762641,-0.35315779,-0.76642387,0.36390570,-0.04192984
5.56000000,-0.34128841,0.72938037,-0.32232794,-0.09181242,0.63882776,0.32972113,-0.55251892,0.27649942,-0.73137729,0.21803186,-0.35725313,-0.76914325,0.36512723,-0.04208714
5.58000000,-0.34423493,0.73039933,-0.32382109,-0.09357914,0.64105245,0.33007593,-0.55399732,0.27659163,-0.73296598,0.21843066,-0.36128127,-0.77181801,0.36632872,-0.04224185
5.60000000,-0.34713179,0.73140112,-0.32528908,-0.09531609,0.64323964,0.33042476,-0.55545080,0.27668228,-0.73452790,0.21882274,-0.36524153,-0.77444770,0.36750995,-0.04239396
5.62000000,-0.34997852,0.73238557,-0.32673165,-0.09702297,0.64538898,0.33076755,-0.55687913,0.27677137,-0.73606278,0.21920803,-0.36913325,-0.77703187,0.36867075,-0.04254343
5.64000000,-0.35277463,0.73335252,-0.32814859,-0.09869951,0.64750011,0.33110424,-0.55828207,0.27685887,-0.73757038,0.21958648,-0.37295578,-0.77957010,0.36981090,-0.04269025
5.66000000,-0.35551971,0.73430182,-0.32953966,-0.10034545,0.64957271,0.33143479,-0.55965940,0.27694477,-0.73905046,0.21995801,-0.37670854,-0.78206200,0.37093025,-0.04283439
5.68000000,-0.35821334,0.73523333,-0.33090465,-0.10196053,0.65160645,0.33175914,-0.56101091,0.27702906,-0.74050280,0.22032258,-0.38039095,-0.78450719,0.37202861,-0.04297582
5.70000000,-0.36085512,0.73614691,-0.33224338,-0.10354453,0.65360106,0.33207725,-0.56233641,0.27711173,-0.74192718,0.22068014,-0.38400249,-0.78690532,0.37310584,-0.04311453
5.72000000,-0.36344470,0.73704243,-0.33355565,-0.10509723,0.65555624,0.33238907,-0.56363572,0.27719277,-0.74332342,0.22103063,-0.38754267,-0.78925606,0.37416178,-0.04325051
5.74000000,-0.36598174,0.73791979,-0.33484129,-0.10661843,0.65747176,0.33269457,-0.56490866,0.27727216,-0.74469133,0.22137400,-0.39101102,-0.79155911,0.37519629,-0.04338372
5.76000000,-0.36846592,0.73877887,-0.33610016,-0.10810794,0.65934738,0.33299370,-0.56615509,0.27734990,-0.74603074,0.22171023,-0.39440712,-0.79381418,0.37620925,-0.04351416
5.78000000,-0.37089698,0.73961957,-0.33733210,-0.10956559,0.66118288,0.33328644,-0.56737486,0.27742598,-0.74734151,0.22203926,-0.39773058,-0.79602102,0.37720055,-0.04364181
5.80000000,-0.37327465,0.74044181,-0.33853698,-0.11099123,0.66297807,0.33357275,-0.56856784,0.27750038,-0.74862349,0.22236107,-0.40098106,-0.79817940,0.37817008,-0.04376665
5.82000000,-0.37559871,0.74124552,-0.33971470,-0.11238472,0.66473279,0.33385260,-0.56973393,0.27757311,-0.74987656,0.22267562,-0.40415824,-0.80028911,0.37911775,-0.04388868
5.84000000,-0.37786895,0.74203061,-0.34086514,-0.11374595,0.66644687,0.33412597,-0.57087301,0.27764416,-0.75110062,0.22298289,-0.40726185,-0.80234996,0.38004347,-0.04400788
5.86000000,-0.38008521,0.74279703,-0.34198823,-0.11507481,0.66812019,0.33439284,-0.57198500,0.27771351,-0.75229557,0.22328285,-0.41029167,-0.80436182,0.38094718,-0.04412425
5.88000000,-0.38224734,0.74354474,-0.34308389,-0.11637121,0.66975265,0.33465319,-0.57306984,0.27778117,-0.75346134,0.22357549,-0.41324748,-0.80632453,0.38182882,-0.04423778
5.90000000,-0.38435523,0.74427369,-0.34415207,-0.11763510,0.67134415,0.33490701,-0.57412746,0.27784714,-0.75459787,0.22386078,-0.41612915,-0.80823802,0.38268835,-0.04434846
5.92000000,-0.38640880,0.74498385,-0.34519272,-0.11886641,0.67289465,0.33515429,-0.57515783,0.27791140,-0.75570510,0.22413873,-0.41893657,-0.81010219,0.38352572,-0.04445629
5.94000000,-0.38840801,0.74567521,-0.34620582,-0.12006512,0.67440409,0.33539503,-0.57616092,0.27797396,-0.75678302,0.22440931,-0.42166964,-0.81191700,0.38434092,-0.04456126
5.96000000,-0.39035282,0.74634776,-0.34719135,-0.12123122,0.67587246,0.33562921,-0.57713672,0.27803482,-0.75783162,0.22467253,-0.42432837,-0.81368244,0.38513395,-0.04466338
5.98000000,-0.39224324,0.74700151,-0.34814932,-0.12236471,0.67729977,0.33585685,-0.57808523,0.27809398,-0.75885089,0.22492839,-0.42691274,-0.81539852,0.38590480,-0.04476264
6.00000000,-0.39407933,0.74763646,-0.34907976,-0.12346562,0.67868606,0.33607794,-0.57900648,0.27815144,-0.75984086,0.22517690,-0.42942283,-0.81706526,0.38665349,-0.04485905
6.02000000,-0.39586115,0.74825265,-0.34998270,-0.12453400,0.68003137,0.33629250,-0.57990050,0.27820720,-0.76080158,0.22541806,-0.43185873,-0.81868275,0.38738005,-0.04495261
6.04000000,-0.39758882,0.74885011,-0.35085820,-0.12556989,0.68133580,0.33650053,-0.58076734,0.27826126,-0.76173309,0.22565190,-0.43422060,-0.82025107,0.38808453,-0.04504332
6.06000000,-0.39926246,0.74942889,-0.35170632,-0.12657340,0.68259944,0.33670206,-0.58160709,0.27831364,-0.76263548,0.22587842,-0.43650861,-0.82177035,0.38876698,-0.04513120
6.08000000,-0.40088226,0.74998904,-0.35252715,-0.12754463,0.68382242,0.33689711,-0.58241981,0.27836432,-0.76350884,0.22609765,-0.43872302,-0.82324076,0.38942748,-0.04521625
6.10000000,-0.40244842,0.75053065,-0.35332080,-0.12848369,0.68500491,0.33708570,-0.58320563,0.27841334,-0.76435327,0.22630962,-0.44086409,-0.82466247,0.39006610,-0.04529849
6.12000000,-0.40396119,0.75105379,-0.35408740,-0.12939074,0.68614708,0.33726786,-0.58396465,0.27846067,-0.76516892,0.22651437,-0.44293217,-0.82603571,0.39068296,-0.04537792
6.14000000,-0.40542083,0.75155857,-0.35482707,-0.13026593,0.68724914,0.33744362,-0.58469701,0.27850635,-0.76595592,0.22671193,-0.44492763,-0.82736073,0.39127815,-0.04545456
6.16000000,-0.40682766,0.75204507,-0.35553999,-0.13110947,0.68831133,0.33761303,-0.58540289,0.27855038,-0.76671445,0.22690234,-0.44685089,-0.82863781,0.39185180,-0.04552843
6.18000000,-0.40818203,0.75251344,-0.35622631,-0.13192154,0.68933391,0.33777611,-0.58608243,0.27859276,-0.76744469,0.22708564,-0.44870243,-0.82986727,0.39240407,-0.04559954
6.20000000,-0.40948432,0.75296380,-0.35688625,-0.13270239,0.69031717,0.33793293,-0.58673585,0.27863351,-0.76814686,0.22726190,-0.45048277,-0.83104945,0.39293509,-0.04566792
6.22000000,-0.41073495,0.75339629,-0.35752001,-0.13345226,0.69126142,0.33808352,-0.58736335,0.27867265,-0.76882117,0.22743117,-0.45219249,-0.83218473,0.39344506,-0.04573359
6.24000000,-0.41193438,0.75381107,-0.35812782,-0.13417143,0.69216701,0.33822795,-0.58796515,0.27871018,-0.76946787,0.22759351,-0.45383221,-0.83327354,0.39393414,-0.04579657
6.26000000,-0.41308310,0.75420832,-0.35870993,-0.13486020,0.69303432,0.33836627,-0.58854152,0.27874613,-0.77008723,0.22774898,-0.45540260,-0.83431631,0.39440255,-0.04585689
6.28000000,-0.41418164,0.75458822,-0.35926662,-0.13551888,0.69386374,0.33849855,-0.58909270,0.27878051,-0.77067953,0.22789767,-0.45690440,-0.83531353,0.39485049,-0.04591457
6.30000000,-0.41523056,0.75495096,-0.35979816,-0.13614781,0.69465570,0.33862486,-0.58961900,0.27881333,-0.77124509,0.22803963,-0.45833837,-0.83626571,0.39527821,-0.04596964
6.32000000,-0.41623049,0.75529675,-0.36030487,-0.13674736,0.69541067,0.33874527,-0.59012070,0.27884462,-0.77178423,0.22817497,-0.45970536,-0.83717342,0.39568594,-0.04602215
6.34000000,-0.41718207,0.75562582,-0.36078708,-0.13731792,0.69612913,0.33885985,-0.59059815,0.27887440,-0.77229729,0.22830376,-0.46100624,-0.83803723,0.39607396,-0.04607211
6.36000000,-0.41808597,0.75593841,-0.36124514,-0.13785990,0.69681160,0.33896869,-0.59105168,0.27890269,-0.77278466,0.22842610,-0.46224196,-0.83885777,0.39644254,-0.04611957
6.38000000,-0.41894294,0.75623477,-0.36167941,-0.13837373,0.69745863,0.33907189,-0.59148166,0.27892951,-0.77324671,0.22854209,-0.46341351,-0.83963570,0.39679198,-0.04616457
6.40000000,-0.41975374,0.75651515,-0.36209028,-0.13885988,0.69807080,0.33916952,-0.59188847,0.27895488,-0.77368387,0.22865183,-0.46452194,-0.84037171,0.39712260,-0.04620714
6.42000000,-0.42051917,0.75677985,-0.36247816,-0.13931883,0.69864871,0.33926169,-0.59227252,0.27897883,-0.77409658,0.22875543,-0.46556834,-0.84106655,0.39743471,-0.04624733
6.44000000,-0.42124008,0.75702916,-0.36284348,-0.13975109,0.69919302,0.33934850,-0.59263424,0.27900139,-0.77448527,0.22885300,-0.46655390,-0.84172097,0.39772867,-0.04628519
6.46000000,-0.42191737,0.75726338,-0.36318670,-0.14015719,0.69970439,0.33943005,-0.59297407,0.27902259,-0.77485045,0.22894467,-0.46747981,-0.84233580,0.39800485,-0.04632075
6.48000000,-0.42255197,0.75748283,-0.36350828,-0.14053769,0.70018352,0.33950647,-0.59329247,0.27904245,-0.77519261,0.22903056,-0.46834736,-0.84291186,0.39826361,-0.04635407
6.50000000,-0.42314485,0.75768786,-0.36380873,-0.14089318,0.70063116,0.33957786,-0.59358995,0.27906100,-0.77551228,0.22911080,-0.46915788,-0.84345006,0.39850537,-0.04638520
6.52000000,-0.42369703,0.75787882,-0.36408855,-0.14122427,0.70104807,0.33964435,-0.59386700,0.27907828,-0.77581000,0.22918554,-0.46991276,-0.84395132,0.39873053,-0.04641419
6.54000000,-0.42420958,0.75805607,-0.36434828,-0.14153159,0.70143506,0.33970607,-0.59412417,0.27909432,-0.77608636,0.22925491,-0.47061346,-0.84441660,0.39893953,-0.04644111
6.56000000,-0.42468360,0.75821999,-0.36458849,-0.14181581,0.70179295,0.33976315,-0.59436201,0.27910915,-0.77634194,0.22931907,-0.47126148,-0.84484690,0.39913282,-0.04646600
6.58000000,-0.42512024,0.75837099,-0.36480976,-0.14207762,0.70212263,0.33981572,-0.59458109,0.27912282,-0.77657736,0.22937816,-0.47185841,-0.84524327,0.39931087,-0.04648892
6.60000000,-0.42552070,0.75850948,-0.36501269,-0.14231773,0.70242498,0.33986395,-0.59478201,0.27913535,-0.77679328,0.22943236,-0.47240586,-0.84560679,0.39947416,-0.04650995
6.62000000,-0.42588621,0.75863588,-0.36519791,-0.14253688,0.70270095,0.33990796,-0.59496541,0.27914679,-0.77699035,0.22948183,-0.47290555,-0.84593859,0.39962320,-0.04652914
6.64000000,-0.42621806,0.75875064,-0.36536608,-0.14273586,0.70295150,0.33994792,-0.59513191,0.27915717,-0.77716928,0.22952675,-0.47335921,-0.84623983,0.39975852,-0.04654657
6.66000000,-0.42651758,0.75885422,-0.36551786,-0.14291545,0.70317765,0.33998398,-0.59528220,0.27916654,-0.77733077,0.22956729,-0.47376869,-0.84651173,0.39988065,-0.04656229
6.68000000,-0.42678615,0.75894709,-0.36565396,-0.14307649,0.70338042,0.34001633,-0.59541695,0.27917495,-0.77747558,0.22960364,-0.47413585,-0.84675553,0.39999016,-0.04657640
6.70000000,-0.42702520,0.75902976,-0.36577510,-0.14321982,0.70356091,0.34004511,-0.59553689,0.27918243,-0.77760447,0.22963599,-0.47446265,-0.84697253,0.40008764,-0.04658895
6.72000000,-0.42723619,0.75910273,-0.36588202,-0.14334633,0.70372022,0.34007052,-0.59564276,0.27918903,-0.77771823,0.22966455,-0.47475110,-0.84716406,0.40017368,-0.04660003
6.74000000,-0.42742066,0.75916652,-0.36597550,-0.14345693,0.70385949,0.34009273,-0.59573531,0.27919480,-0.77781769,0.22968951,-0.47500327,-0.84733151,0.40024889,-0.04660971
6.76000000,-0.42758016,0.75922168,-0.36605632,-0.14355257,0.70397991,0.34011193,-0.59581534,0.27919980,-0.77790369,0.22971110,-0.47522132,-0.84747630,0.40031393,-0.04661809
6.78000000,-0.42771631,0.75926876,-0.36612531,-0.14363420,0.70408271,0.34012833,-0.59588365,0.27920406,-0.77797710,0.22972953,-0.47540745,-0.84759989,0.40036945,-0.04662524
6.80000000,-0.42783077,0.75930834,-0.36618332,-0.14370284,0.70416914,0.34014211,-0.59594108,0.27920764,-0.77803882,0.22974502,-0.47556394,-0.84770380,0.40041612,-0.04663125
6.82000000,-0.42792528,0.75934102,-0.36623121,-0.14375950,0.70424049,0.34015349,-0.59598850,0.27921060,-0.77808977,0.22975781,-0.47569313,-0.84778959,0.40045466,-0.04663621
6.84000000,-0.42800158,0.75936741,-0.36626988,-0.14380525,0.70429810,0.34016268,-0.59602678,0.27921298,-0.77813091,0.22976814,-0.47579744,-0.84785885,0.40048577,-0.04664021
6.86000000,-0.42806149,0.75938813,-0.36630024,-0.14384118,0.70434333,0.34016989,-0.59605684,0.27921486,-0.77816321,0.22977625,-0.47587935,-0.84791324,0.40051020,-0.04664336
6.88000000,-0.42810689,0.75940383,-0.36632324,-0.14386839,0.70437761,0.34017536,-0.59607962,0.27921628,-0.77818769,0.22978239,-0.47594141,-0.84795445,0.40052871,-0.04664574
6.90000000,-0.42813968,0.75941517,-0.36633986,-0.14388806,0.70440237,0.34017931,-0.59609608,0.27921731,-0.77820537,0.22978683,-0.47598624,-0.84798422,0.40054208,-0.04664747
6.92000000,-0.42816184,0.75942283,-0.36635109,-0.14390135,0.70441910,0.34018198,-0.59610720,0.27921800,-0.77821732,0.22978983,-0.47601654,-0.84800434,0.40055112,-0.04664863
6.94000000,-0.42817539,0.75942752,-0.36635796,-0.14390947,0.70442933,0.34018361,-0.59611399,0.27921842,-0.77822463,0.22979167,-0.47603506,-0.84801664,0.40055665,-0.04664934
6.96000000,-0.42818241,0.75942995,-0.36636151,-0.14391368,0.70443463,0.34018445,-0.59611751,0.27921864,-0.77822841,0.22979261,-0.47604465,-0.84802301,0.40055951,-0.04664971
6.98000000,-0.42818501,0.75943085,-0.36636283,-0.14391524,0.70443659,0.34018477,-0.59611882,0.27921872,-0.77822981,0.22979297,-0.47604821,-0.84802537,0.40056057,-0.04664985
7.00000000,-0.42818539,0.75943098,-0.36636302,-0.14391546,0.70443688,0.34018481,-0.59611901,0.27921874,-0.77823001,0.22979302,-0.47604872,-0.84802571,0.40056072,-0.04664987
7.02000000,-0.42818519,0.75943112,-0.36636284,-0.14391584,0.70443686,0.34018501,-0.59611918,0.27921874,-0.77823001,0.22979302,-0.47604872,-0.84802571,0.40056072,-0.04664987
7.04000000,-0.42818385,0.75943212,-0.36636158,-0.14391844,0.70443679,0.34018634,-0.59612041,0.27921873,-0.77823001,0.22979302,-0.47604872,-0.84802571,0.40056072,-0.04664987
7.06000000,-0.42818024,0.75943482,-0.36635820,-0.14392546,0.70443658,0.34018994,-0.59612371,0.27921873,-0.77823001,0.22979302,-0.47604872,-0.84802571,0.40056072,-0.04664987
7.08000000,-0.42817325,0.75944003,-0.36635165,-0.14393901,0.70443618,0.34019688,-0.59613008,0.27921873,-0.77823001,0.22979302,-0.47604872,-0.84802571,0.40056072,-0.04664986
7.10000000,-0.42816184,0.75944855,-0.36634095,-0.14396118,0.70443552,0.34020824,-0.59614049,0.27921872,-0.77823000,0.22979302,-0.47604872,-0.84802571,0.40056072,-0.04664986
7.12000000,-0.42814494,0.75946116,-0.36632511,-0.14399398,0.70443455,0.34022505,-0.59615591,0.27921871,-0.77823000,0.22979302,-0.47604872,-0.84802571,0.40056072,-0.04664986
7.14000000,-0.42812155,0.75947861,-0.36630319,-0.14403938,0.70443321,0.34024831,-0.59617725,0.27921870,-0.77822999,0.22979302,-0.47604872,-0.84802571,0.40056072,-0.04664986
7.16000000,-0.42809067,0.75950165,-0.36627426,-0.14409931,0.70443143,0.34027902,-0.59620542,0.27921869,-0.77822997,0.22979302,-0.47604871,-0.84802571,0.40056071,-0.04664986
7.18000000,-0.42805136,0.75953098,-0.36623742,-0.14417563,0.70442917,0.34031813,-0.59624128,0.27921867,-0.77822996,0.22979303,-0.47604871,-0.84802572,0.40056071,-0.04664985
7.20000000,-0.42800267,0.75956732,-0.36619178,-0.14427015,0.70442638,0.34036656,-0.59628571,0.27921864,-0.77822993,0.22979303,-0.47604871,-0.84802572,0.40056071,-0.04664985
7.22000000,-0.42794368,0.75961133,-0.36613651,-0.14438464,0.70442299,0.34042523,-0.59633952,0.27921861,-0.77822991,0.22979303,-0.47604870,-0.84802572,0.40056070,-0.04664984
7.24000000,-0.42787353,0.75966368,-0.36607076,-0.14452082,0.70441895,0.34049501,-0.59640352,0.27921857,-0.77822988,0.22979304,-0.47604869,-0.84802572,0.40056069,-0.04664983
7.26000000,-0.42779135,0.75972500,-0.36599374,-0.14468035,0.70441423,0.34057675,-0.59647850,0.27921853,-0.77822984,0.22979304,-0.47604869,-0.84802573,0.40056069,-0.04664982
7.28000000,-0.42769630,0.75979592,-0.36590467,-0.14486485,0.70440877,0.34067129,-0.59656521,0.27921848,-0.77822980,0.22979305,-0.47604868,-0.84802573,0.40056068,-0.04664981
7.30000000,-0.42758758,0.75987704,-0.36580278,-0.14507589,0.70440252,0.34077943,-0.59666440,0.27921842,-0.77822975,0.22979306,-0.47604867,-0.84802573,0.40056067,-0.04664980
7.32000000,-0.42746441,0.75996895,-0.36568735,-0.14531498,0.70439544,0.34090195,-0.59677677,0.27921836,-0.77822970,0.22979307,-0.47604866,-0.84802574,0.40056066,-0.04664979
7.34000000,-0.42732602,0.76007221,-0.36555766,-0.14558361,0.70438749,0.34103960,-0.59690302,0.27921829,-0.77822964,0.22979308,-0.47604865,-0.84802574,0.40056065,-0.04664978
7.36000000,-0.42717169,0.76018737,-0.36541302,-0.14588320,0.70437862,0.34119311,-0.59704383,0.27921821,-0.77822957,0.22979309,-0.47604863,-0.84802575,0.40056063,-0.04664976
7.38000000,-0.42700069,0.76031496,-0.36525277,-0.14621511,0.70436880,0.34136319,-0.59719983,0.27921812,-0.77822950,0.22979310,-0.47604862,-0.84802575,0.40056062,-0.04664974
7.40000000,-0.42681236,0.76045550,-0.36507627,-0.14658070,0.70435797,0.34155052,-0.59737165,0.27921802,-0.77822942,0.22979311,-0.47604860,-0.84802576,0.40056060,-0.04664972
7.42000000,-0.42660602,0.76060946,-0.36488290,-0.14698124,0.70434611,0.34175576,-0.59755990,0.27921791,-0.77822933,0.22979313,-0.47604858,-0.84802577,0.40056058,-0.04664970
7.44000000,-0.42638103,0.76077734,-0.36467205,-0.14741797,0.70433319,0.34197954,-0.59776515,0.27921779,-0.77822923,0.22979314,-0.47604856,-0.84802577,0.40056056,-0.04664968
7.46000000,-0.42613679,0.76095959,-0.36444315,-0.14789208,0.70431915,0.34222249,-0.59798799,0.27921767,-0.77822912,0.22979316,-0.47604854,-0.84802578,0.40056054,-0.04664965
7.48000000,-0.42587269,0.76115666,-0.36419564,-0.14840474,0.70430397,0.34248518,-0.59822893,0.27921753,-0.77822901,0.22979318,-0.47604852,-0.84802579,0.40056052,-0.04664962
7.50000000,-0.42558816,0.76136896,-0.36392900,-0.14895703,0.70428762,0.34276818,-0.59848850,0.27921738,-0.77822888,0.22979320,-0.47604850,-0.84802580,0.40056050,-0.04664959
7.52000000,-0.42528267,0.76159691,-0.36364270,-0.14955004,0.70427007,0.34307204,-0.59876721,0.27921722,-0.77822875,0.22979322,-0.47604847,-0.84802581,0.40056047,-0.04664956
7.54000000,-0.42495568,0.76184090,-0.36333626,-0.15018477,0.70425128,0.34339729,-0.59906553,0.27921705,-0.77822861,0.22979324,-0.47604844,-0.84802582,0.40056044,-0.04664953
7.56000000,-0.42460670,0.76210131,-0.36300921,-0.15086220,0.70423122,0.34374441,-0.59938391,0.27921687,-0.77822846,0.22979326,-0.47604841,-0.84802584,0.40056041,-0.04664949
7.58000000,-0.42423523,0.76237849,-0.36266108,-0.15158326,0.70420987,0.34411389,-0.59972281,0.27921667,-0.77822830,0.22979329,-0.47604838,-0.84802585,0.40056038,-0.04664945
7.60000000,-0.42384083,0.76267278,-0.36229147,-0.15234885,0.70418721,0.34450619,-0.60008263,0.27921647,-0.77822812,0.22979331,-0.47604834,-0.84802586,0.40056034,-0.04664941
7.62000000,-0.42342306,0.76298451,-0.36189994,-0.15315981,0.70416320,0.34492174,-0.60046377,0.27921625,-0.77822794,0.22979334,-0.47604831,-0.84802588,0.40056031,-0.04664937
7.64000000,-0.42298149,0.76331400,-0.36148612,-0.15401695,0.70413783,0.34536095,-0.60086662,0.27921602,-0.77822775,0.22979337,-0.47604827,-0.84802589,0.40056027,-0.04664932
7.66000000,-0.42251574,0.76366153,-0.36104963,-0.15492104,0.70411106,0.34582422,-0.60129154,0.27921577,-0.77822755,0.22979341,-0.47604823,-0.84802591,0.40056023,-0.04664927
7.68000000,-0.42202542,0.76402740,-0.36059013,-0.15587281,0.70408288,0.34631192,-0.60173886,0.27921552,-0.77822733,0.22979344,-0.47604818,-0.84802593,0.40056018,-0.04664922
7.70000000,-0.42151019,0.76441185,-0.36010727,-0.15687295,0.70405327,0.34682440,-0.60220892,0.27921525,-0.77822711,0.22979347,-0.47604814,-0.84802594,0.40056014,-0.04664917
7.72000000,-0.42096971,0.76481514,-0.35960076,-0.15792209,0.70402222,0.34736199,-0.60270200,0.27921497,-0.77822687,0.22979351,-0.47604809,-0.84802596,0.40056009,-0.04664911
7.74000000,-0.42040367,0.76523751,-0.35907028,-0.15902086,0.70398969,0.34792501,-0.60321841,0.27921467,-0.77822663,0.22979355,-0.47604804,-0.84802598,0.40056004,-0.04664905
7.76000000,-0.41981178,0.76567917,-0.35851558,-0.16016981,0.70395567,0.34851375,-0.60375841,0.27921436,-0.77822637,0.22979359,-0.47604799,-0.84802600,0.40055999,-0.04664899
7.78000000,-0.41919375,0.76614032,-0.35793639,-0.16136948,0.70392016,0.34912848,-0.60432225,0.27921404,-0.77822610,0.22979363,-0.47604794,-0.84802603,0.40055994,-0.04664892
7.80000000,-0.41854934,0.76662116,-0.35733247,-0.16262037,0.70388312,0.34976945,-0.60491015,0.27921370,-0.77822582,0.22979368,-0.47604788,-0.84802605,0.40055988,-0.04664886
7.82000000,-0.41787831,0.76712187,-0.35670361,-0.16392293,0.70384456,0.35043690,-0.60552235,0.27921335,-0.77822553,0.22979372,-0.47604782,-0.84802607,0.40055982,-0.04664879
7.84000000,-0.41718045,0.76764260,-0.35604960,-0.16527758,0.70380446,0.35113104,-0.60615902,0.27921299,-0.77822523,0.22979377,-0.47604776,-0.84802610,0.40055976,-0.04664871
7.86000000,-0.41645556,0.76818350,-0.35537025,-0.16668470,0.70376280,0.35185207,-0.60682036,0.27921261,-0.77822491,0.22979382,-0.47604770,-0.84802612,0.40055970,-0.04664864
7.88000000,-0.41570345,0.76874470,-0.35466541,-0.16814464,0.70371958,0.35260016,-0.60750652,0.27921222,-0.77822458,0.22979387,-0.47604763,-0.84802615,0.40055963,-0.04664856
7.90000000,-0.41492397,0.76932633,-0.35393491,-0.16965772,0.70367479,0.35337548,-0.60821765,0.27921181,-0.77822425,0.22979392,-0.47604756,-0.84802617,0.40055956,-0.04664848
7.92000000,-0.41411698,0.76992849,-0.35317863,-0.17122420,0.70362841,0.35417817,-0.60895388,0.27921139,-0.77822389,0.22979398,-0.47604749,-0.84802620,0.40055949,-0.04664839
7.94000000,-0.41328235,0.77055127,-0.35239644,-0.17284433,0.70358045,0.35500834,-0.60971533,0.27921095,-0.77822353,0.22979404,-0.47604742,-0.84802623,0.40055942,-0.04664831
7.96000000,-0.41241998,0.77119475,-0.35158826,-0.17451832,0.70353089,0.35586612,-0.61050209,0.27921050,-0.77822316,0.22979410,-0.47604735,-0.84802626,0.40055935,-0.04664821
7.98000000,-0.41152977,0.77185900,-0.35075398,-0.17624634,0.70347973,0.35675158,-0.61131424,0.27921004,-0.77822277,0.22979416,-0.47604727,-0.84802629,0.40055927,-0.04664812
8.00000000,-0.41061165,0.77254408,-0.34989356,-0.17802853,0.70342697,0.35766479,-0.61215186,0.27920956,-0.77822237,0.22979422,-0.47604719,-0.84802632,0.40055919,-0.04664803
8.02000000,-0.40966558,0.77325002,-0.34900693,-0.17986500,0.70337260,0.35860582,-0.61301498,0.27920906,-0.77822196,0.22979428,-0.47604711,-0.84802636,0.40055911,-0.04664793
8.04000000,-0.40869150,0.77397685,-0.34809407,-0.18175581,0.70331663,0.35957470,-0.61390365,0.27920855,-0.77822153,0.22979435,-0.47604702,-0.84802639,0.40055902,-0.04664782
8.06000000,-0.40768941,0.77472459,-0.34715494,-0.18370102,0.70325904,0.36057145,-0.61481788,0.27920803,-0.77822110,0.22979442,-0.47604693,-0.84802643,0.40055893,-0.04664772
8.08000000,-0.40665928,0.77549324,-0.34618954,-0.18570063,0.70319984,0.36159608,-0.61575768,0.27920749,-0.77822065,0.22979449,-0.47604684,-0.84802646,0.40055884,-0.04664761
8.10000000,-0.40560114,0.77628280,-0.34519789,-0.18775463,0.70313903,0.36264857,-0.61672304,0.27920694,-0.77822019,0.22979456,-0.47604675,-0.84802650,0.40055875,-0.04664750
8.12000000,-0.40451501,0.77709325,-0.34418001,-0.18986296,0.70307662,0.36372890,-0.61771394,0.27920637,-0.77821972,0.22979464,-0.47604666,-0.84802654,0.40055866,-0.04664739
8.14000000,-0.40340094,0.77792454,-0.34313594,-0.19202553,0.70301260,0.36483704,-0.61873033,0.27920579,-0.77821923,0.22979471,-0.47604656,-0.84802658,0.40055856,-0.04664727
8.16000000,-0.40225897,0.77877665,-0.34206574,-0.19424225,0.70294697,0.36597291,-0.61977217,0.27920519,-0.77821874,0.22979479,-0.47604646,-0.84802662,0.40055846,-0.04664715
8.18000000,-0.40108919,0.77964951,-0.34096946,-0.19651295,0.70287975,0.36713645,-0.62083938,0.27920458,-0.77821823,0.22979487,-0.47604636,-0.84802666,0.40055836,-0.04664703
8.20000000,-0.39989168,0.78054307,-0.33984720,-0.19883749,0.70281093,0.36832757,-0.62193189,0.27920396,-0.77821771,0.22979495,-0.47604625,-0.84802670,0.40055825,-0.04664690
8.22000000,-0.39866655,0.78145723,-0.33869905,-0.20121565,0.70274053,0.36954617,-0.62304960,0.27920332,-0.77821717,0.22979504,-0.47604615,-0.84802674,0.40055815,-0.04664677
8.24000000,-0.39741390,0.78239193,-0.33752511,-0.20364720,0.70266854,0.37079213,-0.62419241,0.27920266,-0.77821663,0.22979512,-0.47604604,-0.84802679,0.40055804,-0.04664664
8.26000000,-0.39613388,0.78334705,-0.33632552,-0.20613190,0.70259498,0.37206532,-0.62536020,0.27920200,-0.77821607,0.22979521,-0.47604592,-0.84802683,0.40055792,-0.04664651
8.28000000,-0.39482663,0.78432249,-0.33510041,-0.20866946,0.70251986,0.37336560,-0.62655283,0.27920131,-0.77821550,0.22979530,-0.47604581,-0.84802688,0.40055781,-0.04664637
8.30000000,-0.39349231,0.78531813,-0.33384993,-0.21125958,0.70244318,0.37469281,-0.62777016,0.27920062,-0.77821492,0.22979539,-0.47604569,-0.84802692,0.40055769,-0.04664623
8.32000000,-0.39213108,0.78633384,-0.33257424,-0.21390190,0.70236496,0.37604677,-0.62901203,0.27919990,-0.77821433,0.22979548,-0.47604557,-0.84802697,0.40055757,-0.04664609
8.34000000,-0.39074315,0.78736949,-0.33127352,-0.21659608,0.70228520,0.37742730,-0.63027827,0.27919918,-0.77821373,0.22979558,-0.47604545,-0.84802702,0.40055745,-0.04664594
8.36000000,-0.38932870,0.78842492,-0.32994795,-0.21934172,0.70220391,0.37883420,-0.63156870,0.27919844,-0.77821311,0.22979567,-0.47604533,-0.84802707,0.40055733,-0.04664580
8.38000000,-0.38788795,0.78949997,-0.32859773,-0.22213842,0.70212112,0.38026727,-0.63288313,0.27919769,-0.77821248,0.22979577,-0.47604520,-0.84802712,0.40055720,-0.04664565
8.40000000,-0.38642112,0.79059448,-0.32722308,-0.22498572,0.70203682,0.38172627,-0.63422134,0.27919692,-0.77821185,0.22979587,-0.47604508,-0.84802717,0.40055708,-0.04664549
8.42000000,-0.38492846,0.79170826,-0.32582422,-0.22788318,0.70195104,0.38321096,-0.63558312,0.27919614,-0.77821120,0.22979598,-0.47604495,-0.84802722,0.40055695,-0.04664534
8.44000000,-0.38341022,0.79284114,-0.32440137,-0.23083031,0.70186380,0.38472111,-0.63696824,0.27919535,-0.77821054,0.22979608,-0.47604481,-0.84802727,0.40055681,-0.04664518
8.46000000,-0.38186665,0.79399292,-0.32295479,-0.23382660,0.70177509,0.38625644,-0.63837647,0.27919454,-0.77820987,0.22979619,-0.47604468,-0.84802733,0.40055668,-0.04664501
8.48000000,-0.38029803,0.79516338,-0.32148474,-0.23687150,0.70168495,0.38781669,-0.63980755,0.27919372,-0.77820918,0.22979629,-0.47604454,-0.84802738,0.40055654,-0.04664485
8.50000000,-0.37870465,0.79635233,-0.31999148,-0.23996448,0.70159338,0.38940157,-0.64126122,0.27919289,-0.77820849,0.22979640,-0.47604440,-0.84802744,0.40055640,-0.04664468
8.52000000,-0.37708680,0.79755953,-0.31847529,-0.24310495,0.70150041,0.39101079,-0.64273722,0.27919205,-0.77820779,0.22979651,-0.47604426,-0.84802750,0.40055626,-0.04664451
8.54000000,-0.37544479,0.79878476,-0.31693646,-0.24629232,0.70140605,0.39264404,-0.64423525,0.27919119,-0.77820707,0.22979662,-0.47604412,-0.84802755,0.40055612,-0.04664434
8.56000000,-0.37377895,0.80002777,-0.31537529,-0.24952596,0.70131032,0.39430100,-0.64575503,0.27919032,-0.77820635,0.22979674,-0.47604397,-0.84802761,0.40055597,-0.04664417
8.58000000,-0.37208959,0.80128833,-0.31379209,-0.25280523,0.70121324,0.39598134,-0.64729626,0.27918944,-0.77820561,0.22979685,-0.47604383,-0.84802767,0.40055583,-0.04664399
8.60000000,-0.37037707,0.80256617,-0.31218718,-0.25612947,0.70111482,0.39768472,-0.64885863,0.27918854,-0.77820487,0.22979697,-0.47604368,-0.84802773,0.40055568,-0.04664381
8.62000000,-0.36864173,0.80386104,-0.31056089,-0.25949800,0.70101510,0.39941080,-0.65044181,0.27918764,-0.77820411,0.22979709,-0.47604352,-0.84802779,0.40055552,-0.04664363
8.64000000,-0.36688394,0.80517266,-0.30891355,-0.26291013,0.70091409,0.40115922,-0.65204548,0.27918672,-0.77820335,0.22979721,-0.47604337,-0.84802785,0.40055537,-0.04664344
8.66000000,-0.36510406,0.80650076,-0.30724551,-0.26636512,0.70081180,0.40292960,-0.65366930,0.27918579,-0.77820257,0.22979733,-0.47604322,-0.84802791,0.40055522,-0.04664326
8.68000000,-0.36330248,0.80784506,-0.30555713,-0.26986224,0.70070827,0.40472157,-0.65531291,0.27918485,-0.77820179,0.22979745,-0.47604306,-0.84802798,0.40055506,-0.04664307
8.70000000,-0.36147958,0.80920526,-0.30384878,-0.27340074,0.70060352,0.40653475,-0.65697598,0.27918390,-0.77820100,0.22979758,-0.47604290,-0.84802804,0.40055490,-0.04664288
8.72000000,-0.35963577,0.81058107,-0.30212082,-0.27697984,0.70049756,0.40836872,-0.65865812,0.27918293,-0.77820019,0.22979771,-0.47604274,-0.84802810,0.40055474,-0.04664269
8.74000000,-0.35777145,0.81197219,-0.30037365,-0.28059874,0.70039042,0.41022310,-0.66035898,0.27918196,-0.77819938,0.22979783,-0.47604258,-0.84802817,0.40055458,-0.04664249
8.76000000,-0.35588704,0.81337829,-0.29860765,-0.28425664,0.70028213,0.41209745,-0.66207816,0.27918097,-0.77819856,0.22979796,-0.47604241,-0.84802824,0.40055441,-0.04664229
8.78000000,-0.35398296,0.81479906,-0.29682322,-0.28795272,0.70017271,0.41399137,-0.66381528,0.27917998,-0.77819774,0.22979809,-0.47604224,-0.84802830,0.40055424,-0.04664209
8.80000000,-0.35205966,0.81623419,-0.29502077,-0.29168613,0.70006218,0.41590442,-0.66556995,0.27917898,-0.77819690,0.22979822,-0.47604208,-0.84802837,0.40055408,-0.04664189
8.82000000,-0.35011756,0.81768334,-0.29320071,-0.29545601,0.69995058,0.41783615,-0.66734177,0.27917796,-0.77819605,0.22979836,-0.47604191,-0.84802844,0.40055391,-0.04664169
8.84000000,-0.34815712,0.81914617,-0.29136346,-0.29926150,0.69983792,0.41978613,-0.66913031,0.27917694,-0.77819520,0.22979849,-0.47604174,-0.84802851,0.40055374,-0.04664148
8.86000000,-0.34617880,0.82062235,-0.28950944,-0.30310169,0.69972423,0.42175390,-0.67093517,0.27917590,-0.77819434,0.22979863,-0.47604156,-0.84802857,0.40055356,-0.04664128
8.88000000,-0.34418306,0.82211152,-0.28763911,-0.30697571,0.69960954,0.42373899,-0.67275593,0.27917486,-0.77819347,0.22979876,-0.47604139,-0.84802864,0.40055339,-0.04664107
8.90000000,-0.34217037,0.82361334,-0.28575289,-0.31088262,0.69949388,0.42574095,-0.67459214,0.27917381,-0.77819260,0.22979890,-0.47604121,-0.84802871,0.40055321,-0.04664086
8.92000000,-0.34014121,0.82512745,-0.28385124,-0.31482150,0.69937727,0.42775928,-0.67644338,0.27917275,-0.77819171,0.22979904,-0.47604104,-0.84802879,0.40055304,-0.04664064
8.94000000,-0.33809607,0.82665349,-0.28193460,-0.31879141,0.69925974,0.42979351,-0.67830920,0.27917168,-0.77819082,0.22979918,-0.47604086,-0.84802886,0.40055286,-0.04664043
8.96000000,-0.33603543,0.82819109,-0.28000345,-0.32279139,0.69914133,0.43184315,-0.68018916,0.27917061,-0.77818993,0.22979932,-0.47604068,-0.84802893,0.40055268,-0.04664021
8.98000000,-0.33395980,0.82973987,-0.27805824,-0.32682048,0.69902205,0.43390771,-0.68208280,0.27916952,-0.77818903,0.22979946,-0.47604050,-0.84802900,0.40055250,-0.04664000
9.00000000,-0.33186968,0.83129947,-0.27609946,-0.33087769,0.69890193,0.43598668,-0.68398965,0.27916843,-0.77818812,0.22979960,-0.47604031,-0.84802907,0.40055231,-0.04663978
9.02000000,-0.32976558,0.83286950,-0.27412757,-0.33496205,0.69878102,0.43807956,-0.68590927,0.27916733,-0.77818720,0.22979975,-0.47604013,-0.84802915,0.40055213,-0.04663956
9.04000000,-0.32764801,0.83444958,-0.27214306,-0.33907254,0.69865933,0.44018583,-0.68784116,0.27916623,-0.77818628,0.22979989,-0.47603995,-0.84802922,0.40055195,-0.04663933
9.06000000,-0.32551750,0.83603932,-0.27014643,-0.34320816,0.69853689,0.44230497,-0.68978487,0.27916511,-0.77818535,0.22980004,-0.47603976,-0.84802930,0.40055176,-0.04663911
9.08000000,-0.32337457,0.83763832,-0.26813815,-0.34736789,0.69841375,0.44443647,-0.69173991,0.27916399,-0.77818442,0.22980018,-0.47603957,-0.84802937,0.40055157,-0.04663889
9.10000000,-0.32121975,0.83924620,-0.26611873,-0.35155070,0.69828992,0.44657980,-0.69370579,0.27916287,-0.77818348,0.22980033,-0.47603938,-0.84802945,0.40055138,-0.04663866
9.12000000,-0.31905358,0.84086254,-0.26408868,-0.35575554,0.69816543,0.44873441,-0.69568203,0.27916174,-0.77818254,0.22980048,-0.47603920,-0.84802952,0.40055120,-0.04663843
9.14000000,-0.31687659,0.84248696,-0.26204849,-0.35998137,0.69804033,0.45089978,-0.69766813,0.27916060,-0.77818159,0.22980063,-0.47603901,-0.84802960,0.40055101,-0.04663821
9.16000000,-0.31468934,0.84411903,-0.25999867,-0.36422713,0.69791464,0.45307536,-0.69966360,0.27915946,-0.77818064,0.22980078,-0.47603881,-0.84802967,0.40055081,-0.04663798
9.18000000,-0.31249237,0.84575836,-0.25793975,-0.36849176,0.69778838,0.45526061,-0.70166794,0.27915831,-0.77817969,0.22980093,-0.47603862,-0.84802975,0.40055062,-0.04663775
9.20000000,-0.31028623,0.84740453,-0.25587224,-0.37277418,0.69766160,0.45745498,-0.70368064,0.27915716,-0.77817873,0.22980108,-0.47603843,-0.84802983,0.40055043,-0.04663752
9.22000000,-0.30807148,0.84905713,-0.25379665,-0.37707332,0.69753433,0.45965792,-0.70570120,0.27915600,-0.77817776,0.22980123,-0.47603824,-0.84802991,0.40055024,-0.04663728
9.24000000,-0.30584867,0.85071573,-0.25171352,-0.38138810,0.69740659,0.46186887,-0.70772911,0.27915484,-0.77817680,0.22980138,-0.47603804,-0.84802998,0.40055004,-0.04663705
9.26000000,-0.30361838,0.85237992,-0.24962337,-0.38571742,0.69727843,0.46408726,-0.70976385,0.27915368,-0.77817583,0.22980154,-0.47603785,-0.84803006,0.40054985,-0.04663682
9.28000000,-0.30138115,0.85404929,-0.24752673,-0.39006018,0.69714986,0.46631255,-0.71180491,0.27915251,-0.77817485,0.22980169,-0.47603765,-0.84803014,0.40054965,-0.04663658
9.30000000,-0.29913757,0.85572339,-0.24542413,-0.39441528,0.69702093,0.46854416,-0.71385177,0.27915134,-0.77817388,0.22980184,-0.47603746,-0.84803022,0.40054946,-0.04663635
9.32000000,-0.29688821,0.85740182,-0.24331610,-0.39878162,0.69689166,0.47078153,-0.71590392,0.27915016,-0.77817290,0.22980200,-0.47603726,-0.84803030,0.40054926,-0.04663611
9.34000000,-0.29463362,0.85908414,-0.24120319,-0.40315808,0.69676210,0.47302409,-0.71796082,0.27914898,-0.77817192,0.22980215,-0.47603706,-0.84803037,0.40054906,-0.04663588
9.36000000,-0.29237440,0.86076992,-0.23908592,-0.40754355,0.69663227,0.47527126,-0.72002195,0.27914780,-0.77817094,0.22980230,-0.47603687,-0.84803045,0.40054887,-0.04663564
9.38000000,-0.29011111,0.86245873,-0.23696485,-0.41193691,0.69650221,0.47752248,-0.72208679,0.27914662,-0.77816995,0.22980246,-0.47603667,-0.84803053,0.40054867,-0.04663540
9.40000000,-0.28784433,0.86415014,-0.23484051,-0.41633704,0.69637194,0.47977716,-0.72415482,0.27914544,-0.77816897,0.22980261,-0.47603647,-0.84803061,0.40054847,-0.04663517
9.42000000,-0.28557464,0.86584373,-0.23271344,-0.42074282,0.69624151,0.48203474,-0.72622549,0.27914425,-0.77816798,0.22980277,-0.47603627,-0.84803069,0.40054827,-0.04663493
9.44000000,-0.28330263,0.86753905,-0.23058419,-0.42515312,0.69611095,0.48429463,-0.72829829,0.27914306,-0.77816699,0.22980292,-0.47603607,-0.84803077,0.40054807,-0.04663469
9.46000000,-0.28102887,0.86923568,-0.22845331,-0.42956680,0.69598028,0.48655626,-0.73037269,0.27914188,-0.77816600,0.22980308,-0.47603588,-0.84803085,0.40054788,-0.04663445
9.48000000,-0.27875395,0.87093317,-0.22632133,-0.43398275,0.69584955,0.48881905,-0.73244815,0.27914069,-0.77816501,0.22980324,-0.47603568,-0.84803093,0.40054768,-0.04663421
9.50000000,-0.27647844,0.87263110,-0.22418881,-0.43839982,0.69571878,0.49108241,-0.73452413,0.27913950,-0.77816402,0.22980339,-0.47603548,-0.84803101,0.40054748,-0.04663397
9.52000000,-0.27420293,0.87432903,-0.22205629,-0.44281690,0.69558802,0.49334578,-0.73660012,0.27913831,-0.77816303,0.22980355,-0.47603528,-0.84803109,0.40054728,-0.04663374
9.54000000,-0.27192801,0.87602653,-0.21992431,-0.44723285,0.69545729,0.49560857,-0.73867558,0.27913712,-0.77816204,0.22980370,-0.47603508,-0.84803117,0.40054708,-0.04663350
9.56000000,-0.26965425,0.87772315,-0.21779343,-0.45164653,0.69532662,0.49787020,-0.74074997,0.27913594,-0.77816105,0.22980386,-0.47603488,-0.84803125,0.40054688,-0.04663326
9.58000000,-0.26738223,0.87941847,-0.21566418,-0.45605683,0.69519605,0.50013009,-0.74282277,0.27913475,-0.77816006,0.22980401,-0.47603469,-0.84803133,0.40054669,-0.04663302
9.60000000,-0.26511255,0.88111206,-0.21353711,-0.46046260,0.69506562,0.50238767,-0.74489345,0.27913356,-0.77815908,0.22980417,-0.47603449,-0.84803141,0.40054649,-0.04663278
9.62000000,-0.26284577,0.88280348,-0.21141277,-0.46486274,0.69493536,0.50464235,-0.74696147,0.27913238,-0.77815809,0.22980432,-0.47603429,-0.84803148,0.40054629,-0.04663255
9.64000000,-0.26058248,0.88449229,-0.20929170,-0.46925610,0.69480530,0.50689357,-0.74902632,0.27913120,-0.77815711,0.22980448,-0.47603409,-0.84803156,0.40054609,-0.04663231
9.66000000,-0.25832325,0.88617807,-0.20717444,-0.47364157,0.69467547,0.50914074,-0.75108745,0.27913002,-0.77815612,0.22980463,-0.47603389,-0.84803164,0.40054589,-0.04663207
9.68000000,-0.25606867,0.88786039,-0.20506152,-0.47801803,0.69454590,0.51138330,-0.75314435,0.27912884,-0.77815514,0.22980479,-0.47603370,-0.84803172,0.40054570,-0.04663184
9.70000000,-0.25381930,0.88953881,-0.20295350,-0.48238437,0.69441664,0.51362066,-0.75519649,0.27912767,-0.77815416,0.22980494,-0.47603350,-0.84803180,0.40054550,-0.04663160
9.72000000,-0.25157572,0.89121292,-0.20085090,-0.48673947,0.69428771,0.51585228,-0.75724335,0.27912649,-0.77815319,0.22980509,-0.47603331,-0.84803188,0.40054531,-0.04663137
9.74000000,-0.24933850,0.89288228,-0.19875425,-0.49108223,0.69415914,0.51807756,-0.75928441,0.27912533,-0.77815222,0.22980525,-0.47603311,-0.84803196,0.40054511,-0.04663113
9.76000000,-0.24710820,0.89454648,-0.19666410,-0.49541155,0.69403097,0.52029596,-0.76131916,0.27912416,-0.77815125,0.22980540,-0.47603292,-0.84803203,0.40054492,-0.04663090
9.78000000,-0.24488540,0.89620508,-0.19458097,-0.49972633,0.69390324,0.52250691,-0.76334706,0.27912300,-0.77815028,0.22980555,-0.47603272,-0.84803211,0.40054472,-0.04663067
9.80000000,-0.24267065,0.89785767,-0.19250538,-0.50402547,0.69377596,0.52470984,-0.76536762,0.27912184,-0.77814931,0.22980570,-0.47603253,-0.84803219,0.40054453,-0.04663043
9.82000000,-0.24046451,0.89950384,-0.19043787,-0.50830789,0.69364918,0.52690421,-0.76738033,0.27912069,-0.77814836,0.22980585,-0.47603234,-0.84803227,0.40054434,-0.04663020
9.84000000,-0.23826753,0.90114317,-0.18837895,-0.51257252,0.69352293,0.52908946,-0.76938467,0.27911954,-0.77814740,0.22980600,-0.47603214,-0.84803234,0.40054414,-0.04662997
9.86000000,-0.23608028,0.90277525,-0.18632914,-0.51681828,0.69339724,0.53126505,-0.77138014,0.27911840,-0.77814645,0.22980615,-0.47603195,-0.84803242,0.40054395,-0.04662974
9.88000000,-0.23390330,0.90439966,-0.18428895,-0.52104411,0.69327213,0.53343042,-0.77336624,0.27911726,-0.77814550,0.22980630,-0.47603176,-0.84803249,0.40054376,-0.04662952
9.90000000,-0.23173713,0.90601601,-0.18225889,-0.52524895,0.69314765,0.53558503,-0.77534248,0.27911613,-0.77814456,0.22980645,-0.47603157,-0.84803257,0.40054357,-0.04662929
9.92000000,-0.22958231,0.90762388,-0.18023947,-0.52943176,0.69302382,0.53772835,-0.77730836,0.27911501,-0.77814362,0.22980660,-0.47603139,-0.84803265,0.40054339,-0.04662906
9.94000000,-0.22743938,0.90922289,-0.17823120,-0.53359148,0.69290067,0.53985985,-0.77926340,0.27911389,-0.77814269,0.22980674,-0.47603120,-0.84803272,0.40054320,-0.04662884
9.96000000,-0.22530887,0.91081262,-0.17623456,-0.53772711,0.69277824,0.54197900,-0.78120710,0.27911277,-0.77814176,0.22980689,-0.47603101,-0.84803279,0.40054301,-0.04662862
9.98000000,-0.22319130,0.91239270,-0.17425005,-0.54183760,0.69265655,0.54408527,-0.78313900,0.27911167,-0.77814084,0.22980703,-0.47603083,-0.84803287,0.40054283,-0.04662839
10.00000000,-0.22108720,0.91396273,-0.17227816,-0.54592195,0.69253563,0.54617815,-0.78505861,0.27911057,-0.77813993,0.22980718,-0.47603064,-0.84803294,0.40054264,-0.04662817
10.02000000,-0.21899708,0.91552233,-0.17031938,-0.54997917,0.69241552,0.54825712,-0.78696547,0.27910948,-0.77813902,0.22980732,-0.47603046,-0.84803302,0.40054246,-0.04662795
10.04000000,-0.21692145,0.91707112,-0.16837417,-0.55400826,0.69229624,0.55032167,-0.78885911,0.27910839,-0.77813811,0.22980746,-0.47603028,-0.84803309,0.40054228,-0.04662774
10.06000000,-0.21486081,0.91860872,-0.16644302,-0.55800824,0.69217782,0.55237131,-0.79073906,0.27910732,-0.77813722,0.22980760,-0.47603010,-0.84803316,0.40054210,-0.04662752
10.08000000,-0.21281567,0.92013475,-0.16452639,-0.56197815,0.69206030,0.55440555,-0.79260489,0.27910625,-0.77813633,0.22980774,-0.47602992,-0.84803323,0.40054192,-0.04662731
10.10000000,-0.21078651,0.92164886,-0.16262473,-0.56591703,0.69194369,0.55642388,-0.79445613,0.27910519,-0.77813545,0.22980788,-0.47602974,-0.84803330,0.40054174,-0.04662709
10.12000000,-0.20877382,0.92315068,-0.16073852,-0.56982394,0.69182802,0.55842583,-0.79629234,0.27910414,-0.77813457,0.22980802,-0.47602957,-0.84803337,0.40054157,-0.04662688
10.14000000,-0.20677808,0.92463986,-0.15886818,-0.57369795,0.69171334,0.56041093,-0.79811309,0.27910310,-0.77813370,0.22980816,-0.47602939,-0.84803344,0.40054139,-0.04662667
10.16000000,-0.20479975,0.92611604,-0.15701417,-0.57753815,0.69159965,0.56237869,-0.79991796,0.27910206,-0.77813284,0.22980829,-0.47602922,-0.84803351,0.40054122,-0.04662647
10.18000000,-0.20283932,0.92757887,-0.15517692,-0.58134364,0.69148699,0.56432867,-0.80170650,0.27910104,-0.77813199,0.22980843,-0.47602905,-0.84803358,0.40054105,-0.04662626
10.20000000,-0.20089722,0.92902802,-0.15335685,-0.58511352,0.69137538,0.56626041,-0.80347831,0.27910002,-0.77813114,0.22980856,-0.47602888,-0.84803365,0.40054088,-0.04662606
10.22000000,-0.19897391,0.93046314,-0.15155440,-0.58884693,0.69126486,0.56817346,-0.80523298,0.27909902,-0.77813031,0.22980869,-0.47602871,-0.84803371,0.40054071,-0.04662586
10.24000000,-0.19706984,0.93188392,-0.14976997,-0.59254300,0.69115544,0.57006737,-0.80697011,0.27909803,-0.77812948,0.22980882,-0.47602855,-0.84803378,0.40054055,-0.04662566
10.26000000,-0.19518543,0.93329002,-0.14800397,-0.59620091,0.69104715,0.57194173,-0.80868929,0.27909704,-0.77812866,0.22980895,-0.47602838,-0.84803385,0.40054038,-0.04662546
10.28000000,-0.19332111,0.93468113,-0.14625680,-0.59981981,0.69094001,0.57379611,-0.81039014,0.27909607,-0.77812785,0.22980908,-0.47602822,-0.84803391,0.40054022,-0.04662526
10.30000000,-0.19147729,0.93605694,-0.14452884,-0.60339891,0.69083405,0.57563008,-0.81207229,0.27909510,-0.77812705,0.22980920,-0.47602806,-0.84803398,0.40054006,-0.04662507
10.32000000,-0.18965440,0.93741714,-0.14282049,-0.60693741,0.69072930,0.57744325,-0.81373535,0.27909415,-0.77812625,0.22980933,-0.47602790,-0.84803404,0.40053990,-0.04662488
10.34000000,-0.18785281,0.93876144,-0.14113211,-0.61043453,0.69062576,0.57923522,-0.81537897,0.27909321,-0.77812547,0.22980945,-0.47602774,-0.84803410,0.40053974,-0.04662469
10.36000000,-0.18607294,0.94008954,-0.13946408,-0.61388952,0.69052348,0.58100561,-0.81700279,0.27909228,-0.77812469,0.22980957,-0.47602759,-0.84803416,0.40053959,-0.04662451
10.38000000,-0.18431514,0.94140117,-0.13781674,-0.61730165,0.69042247,0.58275402,-0.81860646,0.27909136,-0.77812393,0.22980969,-0.47602743,-0.84803423,0.40053943,-0.04662432
10.40000000,-0.18257980,0.94269604,-0.13619044,-0.62067018,0.69032274,0.58448010,-0.82018964,0.27909046,-0.77812318,0.22980981,-0.47602728,-0.84803429,0.40053928,-0.04662414
10.42000000,-0.18086728,0.94397388,-0.13458553,-0.62399442,0.69022433,0.58618349,-0.82175200,0.27908956,-0.77812243,0.22980993,-0.47602713,-0.84803435,0.40053913,-0.04662396
10.44000000,-0.17917793,0.94523443,-0.13300233,-0.62727369,0.69012725,0.58786383,-0.82329323,0.27908868,-0.77812170,0.22981004,-0.47602699,-0.84803441,0.40053899,-0.04662378
10.46000000,-0.17751208,0.94647745,-0.13144116,-0.63050733,0.69003152,0.58952079,-0.82481301,0.27908781,-0.77812097,0.22981016,-0.47602684,-0.84803446,0.40053884,-0.04662361
10.48000000,-0.17587008,0.94770268,-0.12990233,-0.63369470,0.68993716,0.59115403,-0.82631105,0.27908695,-0.77812026,0.22981027,-0.47602670,-0.84803452,0.40053870,-0.04662344
10.50000000,-0.17425223,0.94890988,-0.12838614,-0.63683517,0.68984418,0.59276325,-0.82778704,0.27908611,-0.77811955,0.22981038,-0.47602656,-0.84803458,0.40053856,-0.04662327
10.52000000,-0.17265885,0.95009882,-0.12689288,-0.63992815,0.68975262,0.59434813,-0.82924072,0.27908528,-0.77811886,0.22981049,-0.47602642,-0.84803463,0.40053842,-0.04662310
10.54000000,-0.17109023,0.95126929,-0.12542283,-0.64297305,0.68966247,0.59590838,-0.83067180,0.27908446,-0.77811818,0.22981060,-0.47602628,-0.84803469,0.40053828,-0.04662294
10.56000000,-0.16954666,0.95242106,-0.12397625,-0.64596934,0.68957377,0.59744372,-0.83208002,0.27908365,-0.77811751,0.22981070,-0.47602614,-0.84803474,0.40053814,-0.04662277
10.58000000,-0.16802841,0.95355394,-0.12255341,-0.64891646,0.68948652,0.59895387,-0.83346515,0.27908286,-0.77811685,0.22981081,-0.47602601,-0.84803480,0.40053801,-0.04662261
10.60000000,-0.16653575,0.95466773,-0.12115454,-0.65181393,0.68940074,0.60043856,-0.83482693,0.27908208,-0.77811620,0.22981091,-0.47602588,-0.84803485,0.40053788,-0.04662246
10.62000000,-0.16506893,0.95576224,-0.11977989,-0.65466123,0.68931645,0.60189756,-0.83616514,0.27908131,-0.77811556,0.22981101,-0.47602575,-0.84803490,0.40053775,-0.04662230
10.64000000,-0.16362818,0.95683729,-0.11842967,-0.65745793,0.68923366,0.60333062,-0.83747956,0.27908056,-0.77811493,0.22981111,-0.47602563,-0.84803495,0.40053763,-0.04662215
10.66000000,-0.16221373,0.95789272,-0.11710410,-0.66020357,0.68915237,0.60473752,-0.83876999,0.27907982,-0.77811432,0.22981120,-0.47602550,-0.84803500,0.40053750,-0.04662201
10.68000000,-0.16082579,0.95892836,-0.11580338,-0.66289775,0.68907261,0.60611806,-0.84003623,0.27907910,-0.77811371,0.22981130,-0.47602538,-0.84803505,0.40053738,-0.04662186
10.70000000,-0.15946457,0.95994408,-0.11452769,-0.66554007,0.68899439,0.60747202,-0.84127810,0.27907838,-0.77811312,0.22981139,-0.47602526,-0.84803509,0.40053726,-0.04662172
10.72000000,-0.15813025,0.96093972,-0.11327721,-0.66813018,0.68891771,0.60879922,-0.84249543,0.27907769,-0.77811254,0.22981148,-0.47602515,-0.84803514,0.40053715,-0.04662158
10.74000000,-0.15682299,0.96191516,-0.11205210,-0.67066775,0.68884258,0.61009950,-0.84368806,0.27907701,-0.77811197,0.22981157,-0.47602503,-0.84803519,0.40053703,-0.04662144
10.76000000,-0.15554297,0.96287028,-0.11085251,-0.67315245,0.68876903,0.61137270,-0.84485585,0.27907634,-0.77811141,0.22981166,-0.47602492,-0.84803523,0.40053692,-0.04662131
10.78000000,-0.15429033,0.96380497,-0.10967858,-0.67558400,0.68869704,0.61261866,-0.84599866,0.27907568,-0.77811087,0.22981175,-0.47602481,-0.84803527,0.40053681,-0.04662118
10.80000000,-0.15306519,0.96471914,-0.10853043,-0.67796216,0.68862664,0.61383726,-0.84711638,0.27907504,-0.77811034,0.22981183,-0.47602471,-0.84803532,0.40053671,-0.04662105
10.82000000,-0.15186768,0.96561269,-0.10740816,-0.68028669,0.68855782,0.61502838,-0.84820889,0.27907442,-0.77810982,0.22981191,-0.47602460,-0.84803536,0.40053660,-0.04662092
10.84000000,-0.15069790,0.96648556,-0.10631189,-0.68255740,0.68849060,0.61619192,-0.84927610,0.27907381,-0.77810931,0.22981199,-0.47602450,-0.84803540,0.40053650,-0.04662080
10.86000000,-0.14955594,0.96733766,-0.10524168,-0.68477412,0.68842497,0.61732779,-0.85031794,0.27907321,-0.77810881,0.22981207,-0.47602440,-0.84803544,0.40053640,-0.04662068
10.88000000,-0.14844186,0.96816896,-0.10419761,-0.68693669,0.68836095,0.61843592,-0.85133433,0.27907263,-0.77810833,0.22981215,-0.47602430,-0.84803548,0.40053630,-0.04662056
10.90000000,-0.14735573,0.96897940,-0.10317973,-0.68904502,0.68829853,0.61951626,-0.85232523,0.27907206,-0.77810785,0.22981222,-0.47602421,-0.84803552,0.40053621,-0.04662045
10.92000000,-0.14629759,0.96976896,-0.10218808,-0.69109901,0.68823772,0.62056875,-0.85329059,0.27907151,-0.77810739,0.22981229,-0.47602412,-0.84803555,0.40053612,-0.04662034
10.94000000,-0.14526747,0.97053761,-0.10122269,-0.69309863,0.68817853,0.62159338,-0.85423039,0.27907097,-0.77810694,0.22981236,-0.47602403,-0.84803559,0.40053603,-0.04662023
10.96000000,-0.14426537,0.97128536,-0.10028356,-0.69504384,0.68812094,0.62259013,-0.85514462,0.27907045,-0.77810651,0.22981243,-0.47602394,-0.84803562,0.40053594,-0.04662013
10.98000000,-0.14329130,0.97201219,-0.09937069,-0.69693465,0.68806496,0.62355901,-0.85603329,0.27906994,-0.77810608,0.22981250,-0.47602385,-0.84803566,0.40053585,-0.04662002
11.00000000,-0.14234522,0.97271813,-0.09848406,-0.69877112,0.68801059,0.62450004,-0.85689641,0.27906944,-0.77810567,0.22981256,-0.47602377,-0.84803569,0.40053577,-0.04661992
11.02000000,-0.14142711,0.97340320,-0.09762364,-0.70055331,0.68795783,0.62541325,-0.85773402,0.27906896,-0.77810527,0.22981263,-0.47602369,-0.84803572,0.40053569,-0.04661983
11.04000000,-0.14053690,0.97406745,-0.09678937,-0.70228133,0.68790668,0.62629871,-0.85854618,0.27906850,-0.77810489,0.22981269,-0.47602361,-0.84803575,0.40053561,-0.04661974
11.06000000,-0.13967453,0.97471094,-0.09598118,-0.70395531,0.68785712,0.62715648,-0.85933294,0.27906805,-0.77810451,0.22981275,-0.47602354,-0.84803579,0.40053554,-0.04661964
11.08000000,-0.13883990,0.97533372,-0.09519900,-0.70557545,0.68780916,0.62798666,-0.86009439,0.27906761,-0.77810415,0.22981280,-0.47602346,-0.84803581,0.40053546,-0.04661956
11.10000000,-0.13803290,0.97593588,-0.09444271,-0.70714193,0.68776278,0.62878935,-0.86083062,0.27906719,-0.77810380,0.22981286,-0.47602339,-0.84803584,0.40053539,-0.04661947
11.12000000,-0.13725343,0.97651750,-0.09371222,-0.70865500,0.68771799,0.62956467,-0.86154175,0.27906678,-0.77810346,0.22981291,-0.47602333,-0.84803587,0.40053533,-0.04661939
11.14000000,-0.13650132,0.97707871,-0.09300737,-0.71011495,0.68767477,0.63031276,-0.86222791,0.27906639,-0.77810313,0.22981296,-0.47602326,-0.84803590,0.40053526,-0.04661931
11.16000000,-0.13577643,0.97761961,-0.09232802,-0.71152207,0.68763311,0.63103379,-0.86288925,0.27906601,-0.77810282,0.22981301,-0.47602320,-0.84803592,0.40053520,-0.04661924
11.18000000,-0.13507856,0.97814034,-0.09167401,-0.71287672,0.68759300,0.63172793,-0.86352592,0.27906565,-0.77810251,0.22981306,-0.47602314,-0.84803595,0.40053514,-0.04661916
11.20000000,-0.13440754,0.97864104,-0.09104515,-0.71417928,0.68755444,0.63239538,-0.86413811,0.27906530,-0.77810222,0.22981311,-0.47602308,-0.84803597,0.40053508,-0.04661909
11.22000000,-0.13376313,0.97912188,-0.09044123,-0.71543017,0.68751741,0.63303635,-0.86472602,0.27906496,-0.77810194,0.22981315,-0.47602302,-0.84803599,0.40053502,-0.04661903
11.24000000,-0.13314510,0.97958304,-0.08986204,-0.71662984,0.68748189,0.63365108,-0.86528986,0.27906464,-0.77810167,0.22981319,-0.47602297,-0.84803601,0.40053497,-0.04661896
11.26000000,-0.13255320,0.98002470,-0.08930734,-0.71777879,0.68744788,0.63423981,-0.86582985,0.27906433,-0.77810141,0.22981323,-0.47602292,-0.84803603,0.40053492,-0.04661890
11.28000000,-0.13198716,0.98044706,-0.08877687,-0.71887756,0.68741535,0.63480283,-0.86634626,0.27906403,-0.77810117,0.22981327,-0.47602287,-0.84803605,0.40053487,-0.04661884
11.30000000,-0.13144669,0.98085036,-0.08827035,-0.71992670,0.68738429,0.63534043,-0.86683935,0.27906375,-0.77810093,0.22981331,-0.47602282,-0.84803607,0.40053482,-0.04661878
11.32000000,-0.13093146,0.98123481,-0.08778750,-0.72092683,0.68735468,0.63585291,-0.86730941,0.27906348,-0.77810071,0.22981334,-0.47602277,-0.84803609,0.40053477,-0.04661873
11.34000000,-0.13044114,0.98160067,-0.08732799,-0.72187860,0.68732651,0.63634061,-0.86775673,0.27906323,-0.77810049,0.22981338,-0.47602273,-0.84803611,0.40053473,-0.04661868
11.36000000,-0.12997539,0.98194821,-0.08689150,-0.72278270,0.68729974,0.63680388,-0.86818165,0.27906298,-0.77810029,0.22981341,-0.47602269,-0.84803612,0.40053469,-0.04661863
11.38000000,-0.12953382,0.98227769,-0.08647768,-0.72363984,0.68727437,0.63724309,-0.86858450,0.27906275,-0.77810010,0.22981344,-0.47602265,-0.84803614,0.40053465,-0.04661858
11.40000000,-0.12911604,0.98258943,-0.08608616,-0.72445080,0.68725036,0.63765864,-0.86896564,0.27906253,-0.77809992,0.22981347,-0.47602262,-0.84803615,0.40053462,-0.04661854
11.42000000,-0.12872164,0.98288372,-0.08571654,-0.72521639,0.68722769,0.63805094,-0.86932546,0.27906233,-0.77809975,0.22981349,-0.47602258,-0.84803617,0.40053458,-0.04661850
11.44000000,-0.12835018,0.98316090,-0.08536842,-0.72593745,0.68720635,0.63842042,-0.86966435,0.27906213,-0.77809959,0.22981352,-0.47602255,-0.84803618,0.40053455,-0.04661846
11.46000000,-0.12800119,0.98342130,-0.08504136,-0.72661488,0.68718629,0.63876754,-0.86998274,0.27906195,-0.77809943,0.22981354,-0.47602252,-0.84803619,0.40053452,-0.04661842
11.48000000,-0.12767421,0.98366529,-0.08473492,-0.72724961,0.68716750,0.63909278,-0.87028106,0.27906178,-0.77809929,0.22981357,-0.47602249,-0.84803620,0.40053449,-0.04661839
11.50000000,-0.12736871,0.98389324,-0.08444862,-0.72784261,0.68714994,0.63939665,-0.87055976,0.27906162,-0.77809916,0.22981359,-0.47602246,-0.84803621,0.40053446,-0.04661836
11.52000000,-0.12708419,0.98410555,-0.08418198,-0.72839491,0.68713359,0.63967965,-0.87081934,0.27906147,-0.77809903,0.22981361,-0.47602244,-0.84803622,0.40053444,-0.04661833
11.54000000,-0.12682009,0.98430261,-0.08393447,-0.72890757,0.68711842,0.63994234,-0.87106028,0.27906133,-0.77809892,0.22981362,-0.47602242,-0.84803623,0.40053442,-0.04661830
11.56000000,-0.12657584,0.98448486,-0.08370558,-0.72938168,0.68710438,0.64018529,-0.87128311,0.27906121,-0.77809881,0.22981364,-0.47602239,-0.84803624,0.40053439,-0.04661827
