gracetata/LocomotionHEC/legged_lab/Reference Data/ArmHack/StandPerturb/TestData/ArmOnly/trajectories/synthesized/synthesized_arm_trajectory_02_seed20260714_measured_blend_1x_50hz.csv
time_s,left_shoulder_pitch_joint,left_shoulder_roll_joint,left_shoulder_yaw_joint,left_elbow_joint,left_wrist_roll_joint,left_wrist_pitch_joint,left_wrist_yaw_joint,right_shoulder_pitch_joint,right_shoulder_roll_joint,right_shoulder_yaw_joint,right_elbow_joint,right_wrist_roll_joint,right_wrist_pitch_joint,right_wrist_yaw_joint
0.00000000,0.02168852,0.72383852,-0.35120820,-0.28098089,0.81220332,0.29065400,-0.06988877,-0.58532308,-0.71134126,0.46706925,-0.10382110,-0.62662612,0.23614975,0.56097196
0.02000000,0.02169378,0.72372196,-0.35128532,-0.28104571,0.81215698,0.29056879,-0.06988860,-0.58531907,-0.71161261,0.46690117,-0.10436448,-0.62646621,0.23631858,0.56116104
0.04000000,0.02169196,0.72362625,-0.35136529,-0.28110740,0.81213508,0.29052145,-0.06990040,-0.58530920,-0.71192977,0.46661933,-0.10506753,-0.62622151,0.23651189,0.56142324
0.06000000,0.02169174,0.72354160,-0.35142281,-0.28111826,0.81211980,0.29049749,-0.06990403,-0.58528739,-0.71229782,0.46624822,-0.10589357,-0.62594217,0.23672596,0.56175348
0.08000000,0.02169685,0.72348062,-0.35152167,-0.28116050,0.81209821,0.29045306,-0.06990580,-0.58526973,-0.71273074,0.46573399,-0.10689439,-0.62561742,0.23696637,0.56211909
0.10000000,0.02170052,0.72336937,-0.35159575,-0.28120251,0.81208022,0.29039006,-0.06990762,-0.58525107,-0.71323312,0.46509284,-0.10809113,-0.62522818,0.23722182,0.56251757
0.12000000,0.02170052,0.72323650,-0.35168144,-0.28121762,0.81208531,0.29036164,-0.06989921,-0.58522714,-0.71374610,0.46433039,-0.10947342,-0.62480329,0.23749846,0.56298579
0.14000000,0.02170206,0.72312699,-0.35171638,-0.28122924,0.81207869,0.29032729,-0.06990649,-0.58520340,-0.71441135,0.46343658,-0.11106418,-0.62428210,0.23783044,0.56352824
0.16000000,0.02169704,0.72307449,-0.35172859,-0.28123662,0.81205848,0.29031693,-0.06989660,-0.58514242,-0.71535449,0.46250442,-0.11299152,-0.62369115,0.23821840,0.56409978
0.18000000,0.02170677,0.72306419,-0.35175098,-0.28122967,0.81205334,0.29031393,-0.06988265,-0.58501521,-0.71646393,0.46146265,-0.11510918,-0.62311070,0.23863685,0.56471730
0.20000000,0.02169951,0.72305304,-0.35175071,-0.28127622,0.81206389,0.29031658,-0.06989901,-0.58475692,-0.71766849,0.46026541,-0.11741604,-0.62251811,0.23911384,0.56544202
0.22000000,0.02168142,0.72306682,-0.35174378,-0.28132291,0.81207506,0.29031374,-0.06989949,-0.58432311,-0.71912334,0.45889843,-0.12002482,-0.62186440,0.23971081,0.56630913
0.24000000,0.02168268,0.72306396,-0.35174632,-0.28127612,0.81207230,0.29032409,-0.06989232,-0.58368125,-0.72071111,0.45726080,-0.12260518,-0.62117223,0.24036292,0.56727402
0.26000000,0.02167578,0.72306589,-0.35173771,-0.28125970,0.81208585,0.29034238,-0.06989813,-0.58291563,-0.72214649,0.45536560,-0.12492328,-0.62050107,0.24103854,0.56822646
0.28000000,0.02166384,0.72307694,-0.35173681,-0.28125846,0.81206978,0.29033143,-0.06989534,-0.58199409,-0.72371342,0.45319857,-0.12737848,-0.61968526,0.24196774,0.56924306
0.30000000,0.02166787,0.72307151,-0.35173249,-0.28126450,0.81206922,0.29033122,-0.06989396,-0.58081482,-0.72565120,0.45091105,-0.13033756,-0.61852245,0.24308828,0.57041612
0.32000000,0.02168803,0.72306176,-0.35173692,-0.28128967,0.81205232,0.29033393,-0.06989432,-0.57953435,-0.72746947,0.44887041,-0.13344407,-0.61737905,0.24410808,0.57156230
0.34000000,0.02168879,0.72304715,-0.35174513,-0.28133598,0.81205045,0.29031987,-0.06989659,-0.57792177,-0.72890372,0.44678862,-0.13687062,-0.61628895,0.24505637,0.57284068
0.36000000,0.02167163,0.72301701,-0.35175591,-0.28140470,0.81203548,0.29029497,-0.06989358,-0.57590904,-0.73031016,0.44475874,-0.14092726,-0.61500759,0.24591213,0.57418244
0.38000000,0.02164635,0.72297407,-0.35175965,-0.28143610,0.81201812,0.29026893,-0.06989757,-0.57380872,-0.73194450,0.44306910,-0.14523084,-0.61363337,0.24669548,0.57545986
0.40000000,0.02161110,0.72294577,-0.35176107,-0.28146895,0.81203192,0.29025396,-0.06989581,-0.57138221,-0.73385853,0.44116953,-0.14969513,-0.61195033,0.24753591,0.57685445
0.42000000,0.02158819,0.72292978,-0.35176923,-0.28150065,0.81202534,0.29024503,-0.06989930,-0.56877549,-0.73618812,0.43907637,-0.15409725,-0.61004066,0.24856416,0.57846446
0.44000000,0.02155925,0.72292762,-0.35176046,-0.28153908,0.81202150,0.29022658,-0.06990692,-0.56629794,-0.73909359,0.43691813,-0.15823801,-0.60832240,0.24976421,0.58025264
0.46000000,0.02156017,0.72292953,-0.35174041,-0.28156317,0.81202483,0.29022853,-0.06990739,-0.56359609,-0.74226997,0.43427324,-0.16243535,-0.60692908,0.25113298,0.58210928
0.48000000,0.02160253,0.72293189,-0.35174030,-0.28155514,0.81202465,0.29023836,-0.06990832,-0.56089220,-0.74536957,0.43132456,-0.16698337,-0.60550130,0.25261392,0.58399109
0.50000000,0.02160740,0.72292956,-0.35175250,-0.28155273,0.81202487,0.29024887,-0.06990327,-0.55847339,-0.74845125,0.42832283,-0.17205504,-0.60373370,0.25396558,0.58604444
0.52000000,0.02160654,0.72293187,-0.35175535,-0.28156379,0.81202863,0.29024324,-0.06989081,-0.55609127,-0.75148000,0.42519361,-0.17744730,-0.60186981,0.25529903,0.58821543
0.54000000,0.02159930,0.72293966,-0.35173323,-0.28155683,0.81202044,0.29024820,-0.06989176,-0.55374258,-0.75444978,0.42199882,-0.18301033,-0.60023756,0.25672794,0.59015460
0.56000000,0.02157755,0.72294542,-0.35174329,-0.28156075,0.81202237,0.29024747,-0.06990219,-0.55149762,-0.75724907,0.41840128,-0.18851097,-0.59857095,0.25833347,0.59203504
0.58000000,0.02154691,0.72293297,-0.35175860,-0.28155606,0.81201670,0.29023605,-0.06989662,-0.54916199,-0.75986021,0.41443049,-0.19418958,-0.59668803,0.26001143,0.59397744
0.60000000,0.02155369,0.72294472,-0.35175183,-0.28153558,0.81203084,0.29023795,-0.06990067,-0.54677224,-0.76298313,0.41073133,-0.20046752,-0.59468746,0.26152827,0.59611993
0.62000000,0.02154425,0.72294918,-0.35174465,-0.28151640,0.81203119,0.29025182,-0.06989460,-0.54433954,-0.76649815,0.40735653,-0.20683285,-0.59286284,0.26299789,0.59842437
0.64000000,0.02153087,0.72293710,-0.35174894,-0.28152041,0.81203075,0.29025423,-0.06988867,-0.54152724,-0.77032679,0.40381392,-0.21329672,-0.59090780,0.26454884,0.60076246
0.66000000,0.02153915,0.72294887,-0.35174727,-0.28150397,0.81204058,0.29025591,-0.06988867,-0.53867194,-0.77385523,0.39994014,-0.21920104,-0.58870599,0.26626831,0.60317563
0.68000000,0.02137972,0.72293802,-0.35178026,-0.28151136,0.81204958,0.29022529,-0.06988600,-0.53491827,-0.77769676,0.39492099,-0.22578521,-0.58581100,0.26846742,0.60588575
0.70000000,0.02116811,0.72290536,-0.35178973,-0.28154111,0.81204581,0.29020283,-0.06987470,-0.53001909,-0.78266681,0.38936455,-0.23347504,-0.58222327,0.27104583,0.60934705
0.72000000,0.02135217,0.72296151,-0.35172117,-0.28149326,0.81204471,0.29026232,-0.06988499,-0.52558946,-0.78756800,0.38496431,-0.24028018,-0.57922712,0.27334375,0.61259976
0.74000000,0.02149585,0.72303697,-0.35166706,-0.28145512,0.81203895,0.29029089,-0.06988057,-0.52177321,-0.79169776,0.38080705,-0.24639643,-0.57702408,0.27568336,0.61534120
0.76000000,0.02148065,0.72300127,-0.35169512,-0.28149504,0.81204326,0.29025587,-0.06988449,-0.51822191,-0.79571751,0.37681997,-0.25284842,-0.57484311,0.27773614,0.61799912
0.78000000,0.02147422,0.72299369,-0.35169929,-0.28147914,0.81203711,0.29025856,-0.06989691,-0.51434043,-0.79996098,0.37293908,-0.26043381,-0.57240648,0.27946232,0.62073101
0.80000000,0.02148528,0.72300568,-0.35169788,-0.28147273,0.81204506,0.29028196,-0.06988812,-0.51053387,-0.80378092,0.36881843,-0.26833052,-0.56998523,0.28096530,0.62335561
0.82000000,0.02137928,0.72299060,-0.35171336,-0.28149203,0.81206175,0.29026165,-0.06988640,-0.50731664,-0.80721276,0.36454526,-0.27576680,-0.56753721,0.28259820,0.62598821
0.84000000,0.02125538,0.72300347,-0.35171700,-0.28151237,0.81203011,0.29023430,-0.06989053,-0.50412948,-0.81054638,0.36041835,-0.28305683,-0.56534622,0.28452702,0.62836171
0.86000000,0.02124410,0.72300627,-0.35170437,-0.28150344,0.81202956,0.29024267,-0.06989539,-0.50071106,-0.81467289,0.35618167,-0.29085287,-0.56315765,0.28647477,0.63108790
0.88000000,0.02132487,0.72300824,-0.35169635,-0.28150602,0.81204089,0.29025905,-0.06988854,-0.49746216,-0.81852371,0.35198381,-0.29816194,-0.56077133,0.28842785,0.63369543
0.90000000,0.02128534,0.72300824,-0.35170615,-0.28151462,0.81205513,0.29024282,-0.06989273,-0.49449009,-0.82248528,0.34807925,-0.30479490,-0.55829049,0.29051838,0.63626244
0.92000000,0.02122408,0.72300092,-0.35171697,-0.28151572,0.81204030,0.29022111,-0.06988885,-0.49103934,-0.82643559,0.34374151,-0.31177853,-0.55582390,0.29257869,0.63875869
0.94000000,0.02122288,0.72299237,-0.35170445,-0.28150113,0.81204419,0.29024204,-0.06990088,-0.48708812,-0.83084457,0.33916284,-0.31906316,-0.55306763,0.29434946,0.64146380
0.96000000,0.02130914,0.72300444,-0.35169628,-0.28150008,0.81203805,0.29026635,-0.06989932,-0.48334775,-0.83529937,0.33497344,-0.32625065,-0.55065456,0.29605450,0.64414974
0.98000000,0.02129991,0.72301451,-0.35169207,-0.28150492,0.81203100,0.29026423,-0.06989432,-0.47994512,-0.83915136,0.33082117,-0.33302381,-0.54839060,0.29789339,0.64697446
1.00000000,0.02119106,0.72300587,-0.35170676,-0.28150878,0.81203959,0.29024894,-0.06990673,-0.47645445,-0.84275751,0.32658890,-0.33986953,-0.54606703,0.30011137,0.64954662
1.02000000,0.02120935,0.72299881,-0.35170451,-0.28148505,0.81203916,0.29025862,-0.06994149,-0.47301457,-0.84632377,0.32245036,-0.34697736,-0.54383071,0.30210455,0.65211111
1.04000000,0.02129172,0.72301513,-0.35169690,-0.28150766,0.81202594,0.29026774,-0.07003734,-0.46957574,-0.85031310,0.31874206,-0.35425273,-0.54149373,0.30386491,0.65464542
1.06000000,0.02126803,0.72303787,-0.35169133,-0.28153742,0.81201636,0.29030951,-0.07021477,-0.46661932,-0.85420608,0.31522788,-0.36104981,-0.53911434,0.30578440,0.65712481
1.08000000,0.02119925,0.72303815,-0.35167810,-0.28163327,0.81195578,0.29034747,-0.07048796,-0.46367887,-0.85783128,0.31092368,-0.36841373,-0.53710605,0.30765357,0.65972625
1.10000000,0.02124420,0.72304813,-0.35166093,-0.28172424,0.81187344,0.29041565,-0.07089161,-0.46063381,-0.86149873,0.30666656,-0.37580712,-0.53521066,0.30929965,0.66198886
1.12000000,0.02127025,0.72308519,-0.35161716,-0.28195116,0.81172209,0.29057028,-0.07146460,-0.45755917,-0.86555293,0.30254864,-0.38313879,-0.53312700,0.31069118,0.66430080
1.14000000,0.02124698,0.72313784,-0.35150169,-0.28227733,0.81155898,0.29079200,-0.07216733,-0.45466738,-0.86907722,0.29871004,-0.38980976,-0.53095737,0.31223960,0.66674862
1.16000000,0.02106506,0.72325225,-0.35136804,-0.28278162,0.81134049,0.29107374,-0.07305428,-0.45209377,-0.87188423,0.29511209,-0.39638723,-0.52883707,0.31393613,0.66900690
1.18000000,0.02082490,0.72340962,-0.35118923,-0.28343807,0.81104825,0.29134455,-0.07392229,-0.44908491,-0.87486153,0.29157314,-0.40371564,-0.52646481,0.31576649,0.67115771
1.20000000,0.02061089,0.72362670,-0.35094115,-0.28410912,0.81070883,0.29166270,-0.07478864,-0.44608768,-0.87814360,0.28818653,-0.41077397,-0.52357930,0.31720414,0.67378703
1.22000000,0.02018603,0.72394526,-0.35069572,-0.28482225,0.81020964,0.29208368,-0.07609295,-0.44315534,-0.88126093,0.28511669,-0.41662142,-0.52159202,0.31860500,0.67604447
1.24000000,0.01984965,0.72419354,-0.35043382,-0.28560009,0.80964928,0.29260392,-0.07764515,-0.44015922,-0.88444327,0.28190996,-0.42223745,-0.51985253,0.32029789,0.67815709
1.26000000,0.01960670,0.72452780,-0.35013825,-0.28649082,0.80903476,0.29328812,-0.07933068,-0.43754842,-0.88753742,0.27869235,-0.42742977,-0.51808400,0.32208030,0.68014498
1.28000000,0.01923193,0.72491017,-0.34984008,-0.28741579,0.80854459,0.29401264,-0.08104552,-0.43463374,-0.89101681,0.27516407,-0.43320712,-0.51629995,0.32362283,0.68226698
1.30000000,0.01894256,0.72541815,-0.34943583,-0.28834063,0.80808770,0.29476411,-0.08280643,-0.43210534,-0.89429737,0.27225201,-0.43843947,-0.51469194,0.32482654,0.68417680
1.32000000,0.01855476,0.72615500,-0.34883742,-0.28945989,0.80749697,0.29560188,-0.08496850,-0.42969171,-0.89733352,0.26933795,-0.44300273,-0.51316896,0.32606304,0.68582006
1.34000000,0.01805660,0.72696624,-0.34827258,-0.29065258,0.80683314,0.29635482,-0.08697571,-0.42726124,-0.89966659,0.26630635,-0.44753132,-0.51160414,0.32743933,0.68759570
1.36000000,0.01745977,0.72768797,-0.34758396,-0.29205217,0.80611515,0.29715483,-0.08922505,-0.42501508,-0.90180379,0.26362635,-0.45260605,-0.50994856,0.32877595,0.68924712
1.38000000,0.01647208,0.72829819,-0.34678435,-0.29367056,0.80539423,0.29799978,-0.09160128,-0.42296915,-0.90363324,0.26141506,-0.45743809,-0.50845841,0.32996803,0.69078435
1.40000000,0.01527434,0.72887834,-0.34596095,-0.29542734,0.80454373,0.29897139,-0.09385201,-0.42058712,-0.90561121,0.25907383,-0.46243993,-0.50705572,0.33110657,0.69230775
1.42000000,0.01395087,0.72945532,-0.34508184,-0.29731599,0.80354793,0.30002767,-0.09633729,-0.41865056,-0.90800326,0.25670393,-0.46672791,-0.50564471,0.33206883,0.69407272
1.44000000,0.01245422,0.73002227,-0.34411680,-0.29922165,0.80261517,0.30102937,-0.09889229,-0.41701074,-0.91085381,0.25448217,-0.47013142,-0.50423552,0.33299699,0.69552009
1.46000000,0.01097390,0.73057684,-0.34301077,-0.30109644,0.80173921,0.30191276,-0.10147992,-0.41514965,-0.91348980,0.25178621,-0.47301718,-0.50293954,0.33403199,0.69699055
1.48000000,0.00958719,0.73135239,-0.34190473,-0.30315526,0.80085120,0.30284583,-0.10415213,-0.41361113,-0.91565505,0.24953210,-0.47590878,-0.50197620,0.33512019,0.69819792
1.50000000,0.00829487,0.73229302,-0.34081160,-0.30535708,0.80001134,0.30374531,-0.10686215,-0.41227543,-0.91743561,0.24734908,-0.47906434,-0.50081695,0.33609144,0.69938116
1.52000000,0.00705880,0.73315937,-0.33972520,-0.30738132,0.79913635,0.30473657,-0.10954123,-0.41097338,-0.91907335,0.24554011,-0.48256432,-0.49980145,0.33700436,0.70044533
1.54000000,0.00576068,0.73391910,-0.33874575,-0.30928785,0.79811580,0.30592493,-0.11227164,-0.40956146,-0.92081037,0.24389140,-0.48601643,-0.49853396,0.33771070,0.70149897
1.56000000,0.00454977,0.73461302,-0.33789490,-0.31115865,0.79719063,0.30702861,-0.11509699,-0.40836880,-0.92211264,0.24237398,-0.48877936,-0.49714690,0.33813902,0.70246750
1.58000000,0.00350608,0.73529194,-0.33707184,-0.31308025,0.79632784,0.30801594,-0.11785229,-0.40712581,-0.92344673,0.24117466,-0.49144148,-0.49635188,0.33877262,0.70321840
1.60000000,0.00254865,0.73601582,-0.33623062,-0.31515040,0.79531496,0.30904280,-0.12062981,-0.40595796,-0.92466810,0.24021260,-0.49334016,-0.49556208,0.33923997,0.70404038
1.62000000,0.00148771,0.73664046,-0.33544725,-0.31725978,0.79438899,0.30995320,-0.12328202,-0.40495474,-0.92572200,0.23956986,-0.49488528,-0.49494643,0.33980280,0.70485340
1.64000000,0.00034237,0.73713614,-0.33462055,-0.31922276,0.79353156,0.31087439,-0.12583963,-0.40405112,-0.92642849,0.23882145,-0.49622331,-0.49445325,0.34027806,0.70561745
1.66000000,-0.00081832,0.73765616,-0.33364801,-0.32109771,0.79261327,0.31191212,-0.12843681,-0.40313418,-0.92700360,0.23803472,-0.49764314,-0.49394146,0.34061362,0.70608080
1.68000000,-0.00196496,0.73829142,-0.33260752,-0.32294524,0.79176873,0.31283133,-0.13078763,-0.40219427,-0.92754654,0.23728943,-0.49898974,-0.49327548,0.34099175,0.70652908
1.70000000,-0.00299632,0.73895464,-0.33168758,-0.32473200,0.79099134,0.31368032,-0.13312958,-0.40156254,-0.92793012,0.23659804,-0.50018374,-0.49284023,0.34125502,0.70700560
1.72000000,-0.00393857,0.73966265,-0.33093316,-0.32655294,0.79019651,0.31452379,-0.13543940,-0.40099690,-0.92839300,0.23598491,-0.50139403,-0.49245311,0.34148673,0.70752108
1.74000000,-0.00483452,0.74039742,-0.33010169,-0.32821697,0.78940596,0.31527594,-0.13759579,-0.40067374,-0.92889053,0.23550252,-0.50236008,-0.49219885,0.34174031,0.70795598
1.76000000,-0.00574024,0.74097728,-0.32934701,-0.32962945,0.78873633,0.31593595,-0.13974202,-0.40040098,-0.92939399,0.23503960,-0.50313294,-0.49199264,0.34198845,0.70831758
1.78000000,-0.00658043,0.74149349,-0.32868518,-0.33081250,0.78815590,0.31658191,-0.14158867,-0.40022880,-0.92983146,0.23465021,-0.50375341,-0.49181999,0.34209732,0.70851788
1.80000000,-0.00733281,0.74195410,-0.32802718,-0.33190123,0.78758352,0.31733016,-0.14320970,-0.40013825,-0.93022629,0.23422798,-0.50434150,-0.49173024,0.34223727,0.70870685
1.82000000,-0.00798964,0.74241196,-0.32744063,-0.33301755,0.78705318,0.31797844,-0.14486727,-0.40007347,-0.93045917,0.23383321,-0.50478077,-0.49161403,0.34237698,0.70881395
1.84000000,-0.00855696,0.74281137,-0.32693015,-0.33401028,0.78658925,0.31855764,-0.14647985,-0.40002820,-0.93060573,0.23347410,-0.50517958,-0.49152888,0.34245049,0.70896024
1.86000000,-0.00906311,0.74314083,-0.32648880,-0.33486397,0.78617581,0.31905667,-0.14767390,-0.39998682,-0.93069331,0.23315541,-0.50554057,-0.49145784,0.34248448,0.70900303
1.88000000,-0.00953767,0.74341714,-0.32615948,-0.33578136,0.78582706,0.31958313,-0.14877898,-0.39995449,-0.93075308,0.23298793,-0.50582081,-0.49142000,0.34252970,0.70905159
1.90000000,-0.00987493,0.74364312,-0.32586292,-0.33668307,0.78550655,0.31998518,-0.14980430,-0.39995276,-0.93077243,0.23289707,-0.50602452,-0.49136609,0.34254385,0.70909661
1.92000000,-0.01009185,0.74379825,-0.32555505,-0.33745647,0.78515242,0.32028270,-0.15075273,-0.39993371,-0.93078748,0.23287333,-0.50616670,-0.49132355,0.34253570,0.70913409
1.94000000,-0.01026741,0.74396895,-0.32532499,-0.33815113,0.78482038,0.32053988,-0.15160526,-0.39989785,-0.93079042,0.23286505,-0.50620185,-0.49126732,0.34253920,0.70916718
1.96000000,-0.01039314,0.74408190,-0.32512544,-0.33874943,0.78451357,0.32075674,-0.15232483,-0.39990743,-0.93079143,0.23287277,-0.50621545,-0.49125436,0.34255324,0.70919616
1.98000000,-0.01055151,0.74417664,-0.32499111,-0.33918610,0.78425539,0.32094699,-0.15288462,-0.39988119,-0.93079039,0.23286400,-0.50622183,-0.49123925,0.34256165,0.70920879
2.00000000,-0.01074649,0.74421523,-0.32493989,-0.33937463,0.78410068,0.32104594,-0.15313686,-0.39987479,-0.93080637,0.23286294,-0.50623149,-0.49122974,0.34256051,0.70922149
2.02000000,-0.01095142,0.74423281,-0.32488542,-0.33939830,0.78403169,0.32110372,-0.15324251,-0.39986451,-0.93080875,0.23285557,-0.50623378,-0.49122228,0.34259846,0.70922608
2.04000000,-0.01112328,0.74428452,-0.32482006,-0.33941766,0.78398601,0.32113248,-0.15328921,-0.39984636,-0.93081941,0.23283979,-0.50623154,-0.49121428,0.34260816,0.70923442
2.06000000,-0.01124606,0.74434959,-0.32477484,-0.33943182,0.78396674,0.32117585,-0.15330708,-0.39982698,-0.93081852,0.23283702,-0.50623154,-0.49121533,0.34261149,0.70922986
2.08000000,-0.01133267,0.74439435,-0.32473618,-0.33942957,0.78395977,0.32119891,-0.15332044,-0.39979474,-0.93081748,0.23283702,-0.50623756,-0.49122470,0.34263914,0.70921798
2.10000000,-0.01137526,0.74439429,-0.32474658,-0.33942536,0.78396500,0.32121726,-0.15333177,-0.39974517,-0.93081618,0.23285203,-0.50623084,-0.49124726,0.34264907,0.70923448
2.12000000,-0.01138297,0.74440395,-0.32473596,-0.33944923,0.78395635,0.32121436,-0.15332357,-0.39967814,-0.93081157,0.23284276,-0.50623848,-0.49123831,0.34264766,0.70922003
2.14000000,-0.01138198,0.74439738,-0.32473175,-0.33944051,0.78394047,0.32124662,-0.15333042,-0.39957687,-0.93081776,0.23282420,-0.50625299,-0.49124182,0.34265468,0.70920364
2.16000000,-0.01137961,0.74441365,-0.32474038,-0.33943993,0.78392397,0.32123828,-0.15332960,-0.39939506,-0.93081995,0.23282213,-0.50625506,-0.49125534,0.34268043,0.70913161
2.18000000,-0.01137961,0.74442167,-0.32472608,-0.33944955,0.78392175,0.32124103,-0.15334220,-0.39910762,-0.93081608,0.23281200,-0.50626427,-0.49126867,0.34266552,0.70903883
2.20000000,-0.01137961,0.74444171,-0.32472565,-0.33950322,0.78391073,0.32124790,-0.15335576,-0.39872733,-0.93081763,0.23279521,-0.50626610,-0.49128906,0.34265700,0.70889128
2.22000000,-0.01137874,0.74449817,-0.32470265,-0.33957402,0.78387146,0.32126632,-0.15338601,-0.39829721,-0.93080937,0.23279381,-0.50627939,-0.49135435,0.34267029,0.70868144
2.24000000,-0.01137625,0.74455010,-0.32464009,-0.33966917,0.78383423,0.32130058,-0.15342573,-0.39778347,-0.93081648,0.23279466,-0.50628998,-0.49145564,0.34271334,0.70833672
2.26000000,-0.01138113,0.74465901,-0.32453816,-0.33983586,0.78378212,0.32134756,-0.15348105,-0.39718494,-0.93079809,0.23281024,-0.50627895,-0.49163186,0.34274988,0.70784337
2.28000000,-0.01137097,0.74479483,-0.32440614,-0.34003798,0.78370504,0.32138764,-0.15354694,-0.39660507,-0.93078924,0.23280086,-0.50627553,-0.49182737,0.34278525,0.70723588
2.30000000,-0.01136617,0.74497148,-0.32421075,-0.34033558,0.78362565,0.32143222,-0.15361543,-0.39601583,-0.93077025,0.23279303,-0.50627653,-0.49208878,0.34284153,0.70644890
2.32000000,-0.01136540,0.74517136,-0.32395310,-0.34073980,0.78351437,0.32149861,-0.15369433,-0.39533683,-0.93075078,0.23277945,-0.50627215,-0.49238156,0.34287282,0.70571567
2.34000000,-0.01136138,0.74543182,-0.32365197,-0.34124622,0.78340232,0.32158990,-0.15379242,-0.39442234,-0.93074603,0.23273487,-0.50627474,-0.49268112,0.34291487,0.70495192
2.36000000,-0.01134802,0.74567605,-0.32329012,-0.34173890,0.78322954,0.32166353,-0.15390251,-0.39332178,-0.93073443,0.23270798,-0.50627474,-0.49302909,0.34297803,0.70413593
2.38000000,-0.01133951,0.74595506,-0.32285856,-0.34227709,0.78300797,0.32175374,-0.15402937,-0.39225319,-0.93070222,0.23271618,-0.50626249,-0.49339911,0.34305923,0.70330869
2.40000000,-0.01131987,0.74624551,-0.32242419,-0.34287536,0.78278167,0.32185762,-0.15419673,-0.39132061,-0.93065510,0.23271605,-0.50625207,-0.49381852,0.34314833,0.70248177
2.42000000,-0.01126871,0.74658792,-0.32195706,-0.34353507,0.78255113,0.32195973,-0.15436692,-0.39040186,-0.93060691,0.23271605,-0.50625150,-0.49434457,0.34324261,0.70145896
2.44000000,-0.01109702,0.74703299,-0.32145265,-0.34437553,0.78229916,0.32209137,-0.15459148,-0.38953112,-0.93057456,0.23271006,-0.50623683,-0.49490817,0.34335882,0.70022561
2.46000000,-0.01076084,0.74761431,-0.32092183,-0.34539511,0.78202632,0.32222633,-0.15485442,-0.38855505,-0.93052022,0.23268361,-0.50623749,-0.49552726,0.34345063,0.69874076
2.48000000,-0.01034912,0.74827726,-0.32042765,-0.34646833,0.78173742,0.32238344,-0.15514882,-0.38738042,-0.93043378,0.23265447,-0.50624018,-0.49617780,0.34356746,0.69715405
2.50000000,-0.00976193,0.74901500,-0.31989570,-0.34756880,0.78143833,0.32260434,-0.15549144,-0.38617563,-0.93033903,0.23264419,-0.50622843,-0.49679904,0.34370294,0.69562451
2.52000000,-0.00900264,0.74961371,-0.31927828,-0.34868713,0.78112566,0.32284884,-0.15585626,-0.38500598,-0.93020227,0.23265860,-0.50619955,-0.49741871,0.34384160,0.69415457
2.54000000,-0.00813745,0.75027491,-0.31868837,-0.34993065,0.78079149,0.32307474,-0.15623763,-0.38378930,-0.92997065,0.23265321,-0.50619992,-0.49828319,0.34393234,0.69230135
2.56000000,-0.00714775,0.75099365,-0.31797806,-0.35125393,0.78043353,0.32331678,-0.15664052,-0.38256818,-0.92962673,0.23263876,-0.50618948,-0.49930718,0.34404454,0.69035578
2.58000000,-0.00617423,0.75175051,-0.31729187,-0.35251727,0.78001148,0.32358292,-0.15709960,-0.38129079,-0.92926430,0.23259291,-0.50618012,-0.50050676,0.34414894,0.68844126
2.60000000,-0.00525892,0.75261118,-0.31653660,-0.35372787,0.77948759,0.32389158,-0.15758218,-0.37968324,-0.92890217,0.23247500,-0.50617386,-0.50170559,0.34429744,0.68649275
2.62000000,-0.00437830,0.75336106,-0.31572050,-0.35500270,0.77887626,0.32421672,-0.15808774,-0.37774153,-0.92847972,0.23241451,-0.50616539,-0.50282037,0.34446838,0.68436323
2.64000000,-0.00347719,0.75421907,-0.31491207,-0.35637654,0.77835007,0.32454070,-0.15856866,-0.37554075,-0.92804257,0.23239131,-0.50615221,-0.50390362,0.34467676,0.68217212
2.66000000,-0.00253589,0.75504479,-0.31395520,-0.35794945,0.77784178,0.32492892,-0.15902198,-0.37276746,-0.92754697,0.23237695,-0.50612440,-0.50509523,0.34487385,0.67982416
2.68000000,-0.00150103,0.75593992,-0.31304177,-0.35992992,0.77731197,0.32532135,-0.15939095,-0.36988656,-0.92712562,0.23238535,-0.50607309,-0.50632446,0.34508667,0.67749893
2.70000000,-0.00049441,0.75690700,-0.31212855,-0.36196412,0.77663864,0.32563007,-0.15979923,-0.36748645,-0.92678878,0.23239997,-0.50598714,-0.50743441,0.34536812,0.67519630
2.72000000,0.00044661,0.75777129,-0.31108201,-0.36371925,0.77604332,0.32591710,-0.16024895,-0.36500391,-0.92644838,0.23238115,-0.50591008,-0.50857662,0.34567892,0.67267423
2.74000000,0.00168989,0.75893960,-0.30956093,-0.36575812,0.77550941,0.32622803,-0.16074704,-0.36245807,-0.92609339,0.23237429,-0.50585870,-0.50967361,0.34593759,0.66988120
2.76000000,0.00278996,0.76021668,-0.30824845,-0.36780677,0.77496443,0.32655126,-0.16133649,-0.35986655,-0.92566798,0.23236456,-0.50580398,-0.51068623,0.34619482,0.66685258
2.78000000,0.00406753,0.76159216,-0.30704728,-0.36993382,0.77440086,0.32698087,-0.16197646,-0.35740895,-0.92523117,0.23235884,-0.50574703,-0.51175277,0.34649846,0.66373611
2.80000000,0.00542977,0.76291946,-0.30594769,-0.37216175,0.77362699,0.32743564,-0.16261964,-0.35493289,-0.92480364,0.23236740,-0.50567579,-0.51313349,0.34676967,0.66060780
2.82000000,0.00687127,0.76403720,-0.30473686,-0.37435847,0.77272545,0.32782506,-0.16335214,-0.35237902,-0.92428987,0.23233705,-0.50558939,-0.51475025,0.34701539,0.65727738
2.84000000,0.00827494,0.76518852,-0.30353743,-0.37652294,0.77190758,0.32816215,-0.16412362,-0.34952478,-0.92375349,0.23227536,-0.50550434,-0.51634923,0.34721716,0.65384449
2.86000000,0.00968167,0.76630208,-0.30229077,-0.37878615,0.77105487,0.32847939,-0.16482618,-0.34635083,-0.92309544,0.23219020,-0.50544133,-0.51802700,0.34743001,0.65050094
2.88000000,0.01106069,0.76742046,-0.30106089,-0.38119524,0.77024775,0.32891873,-0.16535875,-0.34280138,-0.92227497,0.23216912,-0.50533174,-0.51978903,0.34770076,0.64712264
2.90000000,0.01266345,0.76879831,-0.29957657,-0.38405190,0.76957178,0.32941446,-0.16591711,-0.33907213,-0.92131880,0.23218968,-0.50512939,-0.52157233,0.34803118,0.64366996
2.92000000,0.01418674,0.77018173,-0.29806666,-0.38649553,0.76892097,0.32990042,-0.16649155,-0.33539607,-0.92029171,0.23220421,-0.50486322,-0.52321089,0.34839562,0.63986477
2.94000000,0.01562193,0.77168972,-0.29642445,-0.38885085,0.76810370,0.33048115,-0.16718922,-0.33148653,-0.91931600,0.23220231,-0.50464570,-0.52477457,0.34870882,0.63587537
2.96000000,0.01695804,0.77323310,-0.29490883,-0.39134807,0.76722619,0.33108928,-0.16788727,-0.32761527,-0.91838400,0.23223308,-0.50448172,-0.52660020,0.34898951,0.63202921
2.98000000,0.01845569,0.77490690,-0.29340267,-0.39401456,0.76629296,0.33168166,-0.16864925,-0.32418816,-0.91742612,0.23223314,-0.50427961,-0.52884802,0.34930213,0.62799008
3.00000000,0.01980621,0.77640198,-0.29194124,-0.39644597,0.76534501,0.33215196,-0.16959933,-0.32080258,-0.91652444,0.23217971,-0.50403593,-0.53119514,0.34970843,0.62384366
3.02000000,0.02140014,0.77772692,-0.29030865,-0.39892951,0.76450567,0.33264276,-0.17056194,-0.31709840,-0.91579609,0.23208696,-0.50392640,-0.53348446,0.35004359,0.61929129
3.04000000,0.02289852,0.77908538,-0.28878658,-0.40157422,0.76377798,0.33312585,-0.17129953,-0.31307617,-0.91496993,0.23202988,-0.50378005,-0.53574202,0.35032792,0.61465435
3.06000000,0.02456838,0.78046682,-0.28718242,-0.40443646,0.76310024,0.33359495,-0.17190461,-0.30885686,-0.91400420,0.23202621,-0.50354334,-0.53782068,0.35065124,0.61022214
3.08000000,0.02639898,0.78212824,-0.28550728,-0.40757521,0.76205717,0.33406630,-0.17258267,-0.30473363,-0.91298014,0.23203932,-0.50327891,-0.53952337,0.35102540,0.60572068
3.10000000,0.02804495,0.78376498,-0.28404367,-0.41024252,0.76105228,0.33440165,-0.17329502,-0.30051447,-0.91198624,0.23206584,-0.50299180,-0.54131104,0.35142277,0.60138279
3.12000000,0.02975187,0.78533298,-0.28244369,-0.41281261,0.76002685,0.33484506,-0.17404732,-0.29628375,-0.91118176,0.23210348,-0.50278076,-0.54346709,0.35176160,0.59653047
3.14000000,0.03142090,0.78699207,-0.28101273,-0.41586932,0.75903929,0.33542793,-0.17489145,-0.29200471,-0.91049171,0.23209534,-0.50257278,-0.54583903,0.35217221,0.59134938
3.16000000,0.03289189,0.78838894,-0.27962498,-0.41835597,0.75822382,0.33599219,-0.17580990,-0.28749745,-0.90978561,0.23205490,-0.50227934,-0.54842422,0.35265185,0.58637033
3.18000000,0.03449442,0.78968366,-0.27794122,-0.42099993,0.75752796,0.33662572,-0.17669098,-0.28292339,-0.90888899,0.23202247,-0.50200520,-0.55113903,0.35304374,0.58114831
3.20000000,0.03620084,0.79113869,-0.27634845,-0.42366251,0.75666886,0.33717331,-0.17742905,-0.27835373,-0.90767933,0.23200479,-0.50172974,-0.55352095,0.35344222,0.57605735
3.22000000,0.03810113,0.79289426,-0.27460304,-0.42658182,0.75582217,0.33769923,-0.17808811,-0.27356832,-0.90616180,0.23201608,-0.50148178,-0.55581300,0.35387410,0.57074359
3.24000000,0.03973924,0.79448451,-0.27302492,-0.42941963,0.75483938,0.33819000,-0.17868953,-0.26863724,-0.90446810,0.23204232,-0.50126367,-0.55840816,0.35427825,0.56540978
3.26000000,0.04134154,0.79610127,-0.27148441,-0.43226839,0.75376564,0.33871317,-0.17937734,-0.26368287,-0.90291280,0.23206038,-0.50108776,-0.56111237,0.35457757,0.56028097
3.28000000,0.04294330,0.79766692,-0.27001295,-0.43497287,0.75295112,0.33920778,-0.18025404,-0.25844869,-0.90164978,0.23208585,-0.50085096,-0.56408487,0.35496693,0.55463967
3.30000000,0.04440841,0.79911682,-0.26863573,-0.43754690,0.75231280,0.33965921,-0.18111856,-0.25326699,-0.90048892,0.23204966,-0.50054593,-0.56676511,0.35548377,0.54876894
3.32000000,0.04605752,0.80043833,-0.26677735,-0.44036706,0.75144315,0.34005714,-0.18203970,-0.24794822,-0.89940818,0.23203404,-0.50028608,-0.56904476,0.35602501,0.54274640
3.34000000,0.04765998,0.80179815,-0.26518234,-0.44298244,0.75052128,0.34041289,-0.18290785,-0.24248381,-0.89829081,0.23206863,-0.50004912,-0.57193039,0.35650354,0.53676952
3.36000000,0.04930117,0.80326784,-0.26372734,-0.44562885,0.74960902,0.34089285,-0.18361687,-0.23671174,-0.89696173,0.23206945,-0.49984578,-0.57566599,0.35695663,0.53058325
3.38000000,0.05078698,0.80492867,-0.26244514,-0.44832265,0.74857003,0.34146967,-0.18422014,-0.23013537,-0.89582225,0.23200599,-0.49950786,-0.57950014,0.35757024,0.52361429
3.40000000,0.05228455,0.80643368,-0.26107501,-0.45082480,0.74773883,0.34202697,-0.18475699,-0.22341863,-0.89498752,0.23196837,-0.49907479,-0.58280939,0.35822948,0.51609010
3.42000000,0.05367875,0.80789122,-0.25957198,-0.45325578,0.74702467,0.34258286,-0.18531289,-0.21678842,-0.89384940,0.23197352,-0.49873104,-0.58590405,0.35871423,0.50883734
3.44000000,0.05486392,0.80926276,-0.25826790,-0.45556317,0.74623945,0.34307844,-0.18602843,-0.21020147,-0.89239257,0.23204974,-0.49834160,-0.58895676,0.35911614,0.50210543
3.46000000,0.05621503,0.81037598,-0.25676064,-0.45800623,0.74554462,0.34364588,-0.18677790,-0.20382631,-0.89079346,0.23216300,-0.49800186,-0.59208829,0.35952866,0.49515065
3.48000000,0.05770567,0.81153530,-0.25526684,-0.46054016,0.74482134,0.34408961,-0.18751344,-0.19758428,-0.88927226,0.23221491,-0.49771763,-0.59511901,0.35994599,0.48825458
3.50000000,0.05917061,0.81289050,-0.25389598,-0.46295221,0.74410700,0.34448472,-0.18828262,-0.19173528,-0.88807199,0.23220070,-0.49747244,-0.59780317,0.36039193,0.48142987
3.52000000,0.06037513,0.81417514,-0.25278433,-0.46504117,0.74328785,0.34482008,-0.18898688,-0.18604650,-0.88673694,0.23215953,-0.49725741,-0.60063344,0.36098391,0.47482840
3.54000000,0.06176544,0.81558768,-0.25162778,-0.46707810,0.74244349,0.34521780,-0.18962657,-0.18014821,-0.88510261,0.23214536,-0.49701613,-0.60371978,0.36165981,0.46835518
3.56000000,0.06313737,0.81679201,-0.25052599,-0.46920754,0.74187657,0.34557157,-0.19007964,-0.17423544,-0.88361499,0.23215663,-0.49677344,-0.60689517,0.36228371,0.46166177
3.58000000,0.06442506,0.81786511,-0.24946538,-0.47141903,0.74128542,0.34587279,-0.19051921,-0.16831788,-0.88250102,0.23215268,-0.49657207,-0.60998961,0.36284338,0.45520672
3.60000000,0.06551324,0.81890644,-0.24827675,-0.47334488,0.74060101,0.34616738,-0.19096329,-0.16204028,-0.88148917,0.23212808,-0.49630978,-0.61339920,0.36337222,0.44829225
3.62000000,0.06647226,0.82000576,-0.24714655,-0.47530529,0.73992989,0.34644157,-0.19150238,-0.15573815,-0.88029774,0.23212730,-0.49600428,-0.61715765,0.36386400,0.44124434
3.64000000,0.06742344,0.82089437,-0.24602059,-0.47713892,0.73936938,0.34668813,-0.19205468,-0.14969485,-0.87878032,0.23212730,-0.49562747,-0.62057645,0.36435433,0.43461954
3.66000000,0.06859302,0.82172825,-0.24483279,-0.47898896,0.73882502,0.34700946,-0.19262928,-0.14364991,-0.87700860,0.23213017,-0.49527423,-0.62376648,0.36485214,0.42801928
3.68000000,0.06971067,0.82264714,-0.24376770,-0.48089306,0.73827729,0.34739405,-0.19316932,-0.13767758,-0.87524151,0.23216031,-0.49500982,-0.62666692,0.36533906,0.42130892
3.70000000,0.07074086,0.82360869,-0.24279931,-0.48254390,0.73765742,0.34771644,-0.19373683,-0.13154545,-0.87343615,0.23219411,-0.49479028,-0.62974199,0.36582182,0.41412787
3.72000000,0.07167878,0.82443594,-0.24201514,-0.48404286,0.73711019,0.34803597,-0.19432059,-0.12531650,-0.87157699,0.23217478,-0.49454026,-0.63287561,0.36626931,0.40696740
3.74000000,0.07257026,0.82535477,-0.24130220,-0.48541689,0.73668664,0.34835423,-0.19482073,-0.11911409,-0.86992328,0.23219333,-0.49430275,-0.63604787,0.36669152,0.40037937
3.76000000,0.07341205,0.82615647,-0.24057029,-0.48659525,0.73624023,0.34865339,-0.19520867,-0.11274476,-0.86873097,0.23224633,-0.49405095,-0.63944038,0.36720849,0.39353636
3.78000000,0.07420782,0.82683301,-0.23981445,-0.48786506,0.73583098,0.34892987,-0.19551874,-0.10625413,-0.86780472,0.23225165,-0.49377929,-0.64323674,0.36776045,0.38614648
3.80000000,0.07489744,0.82746229,-0.23909327,-0.48895352,0.73541243,0.34916914,-0.19574590,-0.09988909,-0.86683958,0.23226829,-0.49339754,-0.64693282,0.36837607,0.37876613
3.82000000,0.07565631,0.82817413,-0.23838100,-0.49023119,0.73498859,0.34941070,-0.19596078,-0.09353151,-0.86568074,0.23223074,-0.49294103,-0.65033821,0.36903194,0.37197643
3.84000000,0.07629778,0.82889267,-0.23775880,-0.49152137,0.73464042,0.34967845,-0.19620032,-0.08719575,-0.86443117,0.23217661,-0.49254347,-0.65329095,0.36969872,0.36516454
3.86000000,0.07673078,0.82943164,-0.23714303,-0.49266805,0.73433556,0.34989652,-0.19640222,-0.08087838,-0.86306908,0.23218948,-0.49226019,-0.65642646,0.37019476,0.35806597
3.88000000,0.07709888,0.82997168,-0.23657973,-0.49376674,0.73406629,0.35005128,-0.19660202,-0.07432993,-0.86151627,0.23224261,-0.49201655,-0.65971343,0.37065092,0.35056583
3.90000000,0.07757733,0.83040901,-0.23601182,-0.49457551,0.73383347,0.35018227,-0.19677659,-0.06795491,-0.85990628,0.23228721,-0.49161686,-0.66300029,0.37116278,0.34351672
3.92000000,0.07805793,0.83081575,-0.23552128,-0.49520426,0.73363721,0.35028576,-0.19695995,-0.06151434,-0.85825334,0.23225966,-0.49127623,-0.66634152,0.37179855,0.33652057
3.94000000,0.07855246,0.83117388,-0.23517714,-0.49570508,0.73345788,0.35040531,-0.19716394,-0.05512872,-0.85655736,0.23227880,-0.49096762,-0.66968823,0.37236950,0.32948111
3.96000000,0.07910364,0.83145182,-0.23491256,-0.49617481,0.73328561,0.35053594,-0.19734285,-0.04870527,-0.85485260,0.23230720,-0.49073660,-0.67353021,0.37279674,0.32228509
3.98000000,0.07958710,0.83166901,-0.23466877,-0.49663382,0.73311241,0.35059539,-0.19752026,-0.04227397,-0.85341584,0.23233384,-0.49053746,-0.67707310,0.37322484,0.31504983
4.00000000,0.07996174,0.83187372,-0.23442591,-0.49702506,0.73290971,0.35065548,-0.19769136,-0.03587014,-0.85200657,0.23231903,-0.49030948,-0.68033477,0.37370266,0.30765694
4.02000000,0.08024609,0.83202570,-0.23418923,-0.49739640,0.73275520,0.35069541,-0.19780902,-0.02933354,-0.85045486,0.23223515,-0.49011184,-0.68307490,0.37420948,0.30070724
4.04000000,0.08045150,0.83217921,-0.23394130,-0.49777904,0.73263067,0.35074249,-0.19791971,-0.02288577,-0.84891523,0.23225317,-0.48987088,-0.68640109,0.37467109,0.29374945
4.06000000,0.08058043,0.83233306,-0.23373770,-0.49816733,0.73252708,0.35080451,-0.19801189,-0.01642560,-0.84713655,0.23230298,-0.48960319,-0.68991022,0.37516675,0.28679027
4.08000000,0.08061161,0.83249819,-0.23352968,-0.49851733,0.73243938,0.35085931,-0.19807578,-0.00986595,-0.84551840,0.23235867,-0.48929751,-0.69328839,0.37572040,0.27954803
4.10000000,0.08062293,0.83266791,-0.23332848,-0.49877278,0.73233724,0.35087980,-0.19812874,-0.00357615,-0.84405203,0.23234004,-0.48902466,-0.69642732,0.37633426,0.27240618
4.12000000,0.08065710,0.83281740,-0.23319700,-0.49892649,0.73229293,0.35087968,-0.19816478,0.00255786,-0.84241459,0.23233691,-0.48867497,-0.69973382,0.37703697,0.26545377
4.14000000,0.08071383,0.83295547,-0.23310140,-0.49899330,0.73225443,0.35090507,-0.19819553,0.00880530,-0.84095000,0.23236938,-0.48829646,-0.70314930,0.37776921,0.25855628
4.16000000,0.08078366,0.83305197,-0.23304146,-0.49902933,0.73222899,0.35091843,-0.19823375,0.01464070,-0.83991090,0.23240950,-0.48787640,-0.70638608,0.37840849,0.25183238
4.18000000,0.08082036,0.83310451,-0.23302604,-0.49906242,0.73221325,0.35094158,-0.19826436,0.02069747,-0.83886832,0.23238621,-0.48739069,-0.70930994,0.37895512,0.24480357
4.20000000,0.08085394,0.83314087,-0.23300657,-0.49907363,0.73220345,0.35096497,-0.19829091,0.02696882,-0.83756785,0.23236039,-0.48688186,-0.71234653,0.37941365,0.23782743
4.22000000,0.08087331,0.83314567,-0.23300076,-0.49910591,0.73219792,0.35098043,-0.19831158,0.03305331,-0.83610961,0.23229756,-0.48658146,-0.71568922,0.37986913,0.23068977
4.24000000,0.08091367,0.83315293,-0.23299203,-0.49910136,0.73218519,0.35097269,-0.19831151,0.03890658,-0.83495888,0.23234312,-0.48630876,-0.71884152,0.38025898,0.22416267
4.26000000,0.08089290,0.83316883,-0.23298534,-0.49910191,0.73218145,0.35098339,-0.19831464,0.04490384,-0.83367922,0.23238203,-0.48601225,-0.72205222,0.38072722,0.21740584
4.28000000,0.08086420,0.83317645,-0.23297913,-0.49913388,0.73218684,0.35098052,-0.19832551,0.05088346,-0.83247208,0.23239493,-0.48581676,-0.72504709,0.38119838,0.21020756
4.30000000,0.08089405,0.83318855,-0.23295904,-0.49913294,0.73219344,0.35097920,-0.19833565,0.05734441,-0.83119884,0.23239422,-0.48558017,-0.72861631,0.38162274,0.20387229
4.32000000,0.08091695,0.83319407,-0.23295894,-0.49912735,0.73219366,0.35098169,-0.19832932,0.06285413,-0.82993910,0.23237805,-0.48538023,-0.73158465,0.38210079,0.19783270
4.34000000,0.08096616,0.83319641,-0.23295106,-0.49912273,0.73217952,0.35097816,-0.19832264,0.06903171,-0.82816146,0.23237747,-0.48508727,-0.73509986,0.38272553,0.19094998
4.36000000,0.08097178,0.83320093,-0.23295677,-0.49911210,0.73218304,0.35097462,-0.19831433,0.07440177,-0.82653969,0.23241772,-0.48491114,-0.73742320,0.38326801,0.18472908
4.38000000,0.08092974,0.83319944,-0.23296467,-0.49914403,0.73218946,0.35096417,-0.19830552,0.08043473,-0.82535079,0.23241745,-0.48479045,-0.74016864,0.38373748,0.17822798
4.40000000,0.08093446,0.83321177,-0.23293595,-0.49912800,0.73218743,0.35098042,-0.19831156,0.08654136,-0.82412400,0.23242538,-0.48459544,-0.74324415,0.38433362,0.17175415
4.42000000,0.08097995,0.83320647,-0.23292853,-0.49911815,0.73220152,0.35100600,-0.19829363,0.09201595,-0.82276616,0.23242108,-0.48433165,-0.74616130,0.38499495,0.16569395
4.44000000,0.08108666,0.83318758,-0.23292464,-0.49912255,0.73220695,0.35101039,-0.19826436,0.09757980,-0.82126434,0.23242393,-0.48402566,-0.74939529,0.38556909,0.15952058
4.46000000,0.08114344,0.83319279,-0.23291128,-0.49911603,0.73224168,0.35101351,-0.19822866,0.10300944,-0.81985374,0.23245297,-0.48370166,-0.75217295,0.38602183,0.15299408
4.48000000,0.08119283,0.83318918,-0.23290794,-0.49912497,0.73228265,0.35102219,-0.19817134,0.10897118,-0.81860453,0.23245364,-0.48351680,-0.75545660,0.38642553,0.14648001
4.50000000,0.08130383,0.83319556,-0.23290605,-0.49912415,0.73231903,0.35103836,-0.19811117,0.11444566,-0.81752830,0.23245426,-0.48327787,-0.75846670,0.38684776,0.14057855
4.52000000,0.08145130,0.83318206,-0.23289515,-0.49912696,0.73239059,0.35108651,-0.19801143,0.11944373,-0.81663827,0.23245015,-0.48304827,-0.76134098,0.38725535,0.13496032
4.54000000,0.08156912,0.83318779,-0.23290930,-0.49911873,0.73247901,0.35109763,-0.19784356,0.12454041,-0.81551946,0.23244265,-0.48281208,-0.76416420,0.38768393,0.12914660
4.56000000,0.08170758,0.83319543,-0.23290553,-0.49910350,0.73256721,0.35114451,-0.19761363,0.12949973,-0.81418012,0.23243790,-0.48251974,-0.76632603,0.38805722,0.12310561
4.58000000,0.08189191,0.83318782,-0.23288900,-0.49910740,0.73269930,0.35118539,-0.19732017,0.13478432,-0.81299233,0.23244274,-0.48231207,-0.76898330,0.38827793,0.11746460
4.60000000,0.08212406,0.83318078,-0.23288064,-0.49910812,0.73288270,0.35124592,-0.19697937,0.14037885,-0.81199543,0.23243106,-0.48210651,-0.77178012,0.38856072,0.11147264
4.62000000,0.08239686,0.83317211,-0.23286904,-0.49909962,0.73304295,0.35130677,-0.19660418,0.14533906,-0.81121027,0.23243916,-0.48192992,-0.77435750,0.38891903,0.10629849
4.64000000,0.08276751,0.83316409,-0.23284252,-0.49910244,0.73323156,0.35139460,-0.19623193,0.15011557,-0.81032669,0.23245612,-0.48163384,-0.77673156,0.38935812,0.10096159
4.66000000,0.08321443,0.83314939,-0.23282552,-0.49910930,0.73342236,0.35147553,-0.19586139,0.15473737,-0.80922510,0.23247369,-0.48138748,-0.77912255,0.38977081,0.09560471
4.68000000,0.08366705,0.83312110,-0.23281022,-0.49910824,0.73363186,0.35156082,-0.19551056,0.15935541,-0.80789349,0.23243958,-0.48125492,-0.78176273,0.39013281,0.09026990
4.70000000,0.08411427,0.83306581,-0.23281018,-0.49909253,0.73384330,0.35166786,-0.19515451,0.16372967,-0.80672625,0.23244482,-0.48112296,-0.78461655,0.39046821,0.08532219
4.72000000,0.08460264,0.83298572,-0.23281017,-0.49906429,0.73404845,0.35179862,-0.19473899,0.16846836,-0.80567001,0.23244776,-0.48097817,-0.78736052,0.39083435,0.08015910
4.74000000,0.08507005,0.83286937,-0.23280859,-0.49904981,0.73431164,0.35193003,-0.19421613,0.17309724,-0.80476025,0.23244367,-0.48076931,-0.79001643,0.39123463,0.07493790
4.76000000,0.08560307,0.83274714,-0.23279394,-0.49903379,0.73461448,0.35207366,-0.19347136,0.17757778,-0.80401081,0.23246782,-0.48059270,-0.79213809,0.39162561,0.06997917
4.78000000,0.08625634,0.83260898,-0.23276537,-0.49902351,0.73491001,0.35221002,-0.19257957,0.18165214,-0.80312392,0.23246745,-0.48039020,-0.79385104,0.39204031,0.06534106
4.80000000,0.08681293,0.83243282,-0.23275146,-0.49900160,0.73521963,0.35235015,-0.19167517,0.18534116,-0.80213251,0.23245070,-0.48020606,-0.79569357,0.39251188,0.06072011
4.82000000,0.08734175,0.83223770,-0.23274634,-0.49897506,0.73561198,0.35246017,-0.19076813,0.18953611,-0.80107160,0.23244691,-0.48008245,-0.79804190,0.39293951,0.05570407
4.84000000,0.08795683,0.83203301,-0.23270211,-0.49896694,0.73605189,0.35260049,-0.18988622,0.19354967,-0.80010173,0.23243657,-0.48003557,-0.80003800,0.39327850,0.05140049
4.86000000,0.08866517,0.83186248,-0.23265150,-0.49893675,0.73652621,0.35276860,-0.18908574,0.19765948,-0.79922153,0.23245417,-0.47981729,-0.80202644,0.39370312,0.04704547
4.88000000,0.08945209,0.83170135,-0.23258490,-0.49890415,0.73697086,0.35295009,-0.18823203,0.20161491,-0.79836892,0.23245371,-0.47972388,-0.80425263,0.39395504,0.04270174
4.90000000,0.09034187,0.83155697,-0.23255452,-0.49885496,0.73738849,0.35317432,-0.18718297,0.20565275,-0.79756659,0.23245423,-0.47955010,-0.80624610,0.39418807,0.03837300
4.92000000,0.09137377,0.83135441,-0.23253335,-0.49877888,0.73790882,0.35345033,-0.18595743,0.20943116,-0.79671174,0.23245423,-0.47927047,-0.80789319,0.39449574,0.03459399
4.94000000,0.09247502,0.83111380,-0.23255200,-0.49867433,0.73849856,0.35373641,-0.18473223,0.21267387,-0.79571125,0.23248189,-0.47889229,-0.80988480,0.39472608,0.03071909
4.96000000,0.09344642,0.83088260,-0.23253360,-0.49857977,0.73907035,0.35401058,-0.18369522,0.21599334,-0.79466036,0.23246742,-0.47868732,-0.81233852,0.39494730,0.02671221
4.98000000,0.09436438,0.83064787,-0.23250513,-0.49850372,0.73971880,0.35431998,-0.18268958,0.21925746,-0.79373924,0.23245433,-0.47857557,-0.81434619,0.39518390,0.02298221
5.00000000,0.09534271,0.83043602,-0.23246500,-0.49844093,0.74028289,0.35466342,-0.18147603,0.22287276,-0.79279289,0.23245229,-0.47845869,-0.81624589,0.39547061,0.01919560
