gracetata/LocomotionHEC/legged_lab/Reference Data/ArmHack/StandPerturb/TestData/ArmOnly/special/arms_default_forward_return_down_39p5s_50hz.csv
time_s,left_shoulder_pitch_joint,left_shoulder_roll_joint,left_shoulder_yaw_joint,left_elbow_joint,left_wrist_roll_joint,left_wrist_pitch_joint,left_wrist_yaw_joint,right_shoulder_pitch_joint,right_shoulder_roll_joint,right_shoulder_yaw_joint,right_elbow_joint,right_wrist_roll_joint,right_wrist_pitch_joint,right_wrist_yaw_joint
0.00000000,0.30000000,0.25000000,0.00000000,0.97000000,0.15000000,0.00000000,0.00000000,0.30000000,-0.25000000,0.00000000,0.97000000,-0.15000000,0.00000000,0.00000000
0.02000000,0.30000000,0.25000000,0.00000000,0.97000000,0.15000000,0.00000000,0.00000000,0.30000000,-0.25000000,0.00000000,0.97000000,-0.15000000,0.00000000,0.00000000
0.04000000,0.30000000,0.25000000,0.00000000,0.97000000,0.15000000,0.00000000,0.00000000,0.30000000,-0.25000000,0.00000000,0.97000000,-0.15000000,0.00000000,0.00000000
0.06000000,0.30000000,0.25000000,0.00000000,0.97000000,0.15000000,0.00000000,0.00000000,0.30000000,-0.25000000,0.00000000,0.97000000,-0.15000000,0.00000000,0.00000000
0.08000000,0.30000000,0.25000000,0.00000000,0.97000000,0.15000000,0.00000000,0.00000000,0.30000000,-0.25000000,0.00000000,0.97000000,-0.15000000,0.00000000,0.00000000
0.10000000,0.30000000,0.25000000,0.00000000,0.97000000,0.15000000,0.00000000,0.00000000,0.30000000,-0.25000000,0.00000000,0.97000000,-0.15000000,0.00000000,0.00000000
0.12000000,0.30000000,0.25000000,0.00000000,0.97000000,0.15000000,0.00000000,0.00000000,0.30000000,-0.25000000,0.00000000,0.97000000,-0.15000000,0.00000000,0.00000000
0.14000000,0.30000000,0.25000000,0.00000000,0.97000000,0.15000000,0.00000000,0.00000000,0.30000000,-0.25000000,0.00000000,0.97000000,-0.15000000,0.00000000,0.00000000
0.16000000,0.30000000,0.25000000,0.00000000,0.97000000,0.15000000,0.00000000,0.00000000,0.30000000,-0.25000000,0.00000000,0.97000000,-0.15000000,0.00000000,0.00000000
0.18000000,0.30000000,0.25000000,0.00000000,0.97000000,0.15000000,0.00000000,0.00000000,0.30000000,-0.25000000,0.00000000,0.97000000,-0.15000000,0.00000000,0.00000000
0.20000000,0.30000000,0.25000000,0.00000000,0.97000000,0.15000000,0.00000000,0.00000000,0.30000000,-0.25000000,0.00000000,0.97000000,-0.15000000,0.00000000,0.00000000
0.22000000,0.30000000,0.25000000,0.00000000,0.97000000,0.15000000,0.00000000,0.00000000,0.30000000,-0.25000000,0.00000000,0.97000000,-0.15000000,0.00000000,0.00000000
0.24000000,0.30000000,0.25000000,0.00000000,0.97000000,0.15000000,0.00000000,0.00000000,0.30000000,-0.25000000,0.00000000,0.97000000,-0.15000000,0.00000000,0.00000000
0.26000000,0.30000000,0.25000000,0.00000000,0.97000000,0.15000000,0.00000000,0.00000000,0.30000000,-0.25000000,0.00000000,0.97000000,-0.15000000,0.00000000,0.00000000
0.28000000,0.30000000,0.25000000,0.00000000,0.97000000,0.15000000,0.00000000,0.00000000,0.30000000,-0.25000000,0.00000000,0.97000000,-0.15000000,0.00000000,0.00000000
0.30000000,0.30000000,0.25000000,0.00000000,0.97000000,0.15000000,0.00000000,0.00000000,0.30000000,-0.25000000,0.00000000,0.97000000,-0.15000000,0.00000000,0.00000000
0.32000000,0.30000000,0.25000000,0.00000000,0.97000000,0.15000000,0.00000000,0.00000000,0.30000000,-0.25000000,0.00000000,0.97000000,-0.15000000,0.00000000,0.00000000
0.34000000,0.30000000,0.25000000,0.00000000,0.97000000,0.15000000,0.00000000,0.00000000,0.30000000,-0.25000000,0.00000000,0.97000000,-0.15000000,0.00000000,0.00000000
0.36000000,0.30000000,0.25000000,0.00000000,0.97000000,0.15000000,0.00000000,0.00000000,0.30000000,-0.25000000,0.00000000,0.97000000,-0.15000000,0.00000000,0.00000000
0.38000000,0.30000000,0.25000000,0.00000000,0.97000000,0.15000000,0.00000000,0.00000000,0.30000000,-0.25000000,0.00000000,0.97000000,-0.15000000,0.00000000,0.00000000
0.40000000,0.30000000,0.25000000,0.00000000,0.97000000,0.15000000,0.00000000,0.00000000,0.30000000,-0.25000000,0.00000000,0.97000000,-0.15000000,0.00000000,0.00000000
0.42000000,0.30000000,0.25000000,0.00000000,0.97000000,0.15000000,0.00000000,0.00000000,0.30000000,-0.25000000,0.00000000,0.97000000,-0.15000000,0.00000000,0.00000000
0.44000000,0.30000000,0.25000000,0.00000000,0.97000000,0.15000000,0.00000000,0.00000000,0.30000000,-0.25000000,0.00000000,0.97000000,-0.15000000,0.00000000,0.00000000
0.46000000,0.30000000,0.25000000,0.00000000,0.97000000,0.15000000,0.00000000,0.00000000,0.30000000,-0.25000000,0.00000000,0.97000000,-0.15000000,0.00000000,0.00000000
0.48000000,0.30000000,0.25000000,0.00000000,0.97000000,0.15000000,0.00000000,0.00000000,0.30000000,-0.25000000,0.00000000,0.97000000,-0.15000000,0.00000000,0.00000000
0.50000000,0.30000000,0.25000000,0.00000000,0.97000000,0.15000000,0.00000000,0.00000000,0.30000000,-0.25000000,0.00000000,0.97000000,-0.15000000,0.00000000,0.00000000
0.52000000,0.30000000,0.25000000,0.00000000,0.97000000,0.15000000,0.00000000,0.00000000,0.30000000,-0.25000000,0.00000000,0.97000000,-0.15000000,0.00000000,0.00000000
0.54000000,0.30000000,0.25000000,0.00000000,0.97000000,0.15000000,0.00000000,0.00000000,0.30000000,-0.25000000,0.00000000,0.97000000,-0.15000000,0.00000000,0.00000000
0.56000000,0.30000000,0.25000000,0.00000000,0.97000000,0.15000000,0.00000000,0.00000000,0.30000000,-0.25000000,0.00000000,0.97000000,-0.15000000,0.00000000,0.00000000
0.58000000,0.30000000,0.25000000,0.00000000,0.97000000,0.15000000,0.00000000,0.00000000,0.30000000,-0.25000000,0.00000000,0.97000000,-0.15000000,0.00000000,0.00000000
0.60000000,0.30000000,0.25000000,0.00000000,0.97000000,0.15000000,0.00000000,0.00000000,0.30000000,-0.25000000,0.00000000,0.97000000,-0.15000000,0.00000000,0.00000000
0.62000000,0.30000000,0.25000000,0.00000000,0.97000000,0.15000000,0.00000000,0.00000000,0.30000000,-0.25000000,0.00000000,0.97000000,-0.15000000,0.00000000,0.00000000
0.64000000,0.30000000,0.25000000,0.00000000,0.97000000,0.15000000,0.00000000,0.00000000,0.30000000,-0.25000000,0.00000000,0.97000000,-0.15000000,0.00000000,0.00000000
0.66000000,0.30000000,0.25000000,0.00000000,0.97000000,0.15000000,0.00000000,0.00000000,0.30000000,-0.25000000,0.00000000,0.97000000,-0.15000000,0.00000000,0.00000000
0.68000000,0.30000000,0.25000000,0.00000000,0.97000000,0.15000000,0.00000000,0.00000000,0.30000000,-0.25000000,0.00000000,0.97000000,-0.15000000,0.00000000,0.00000000
0.70000000,0.30000000,0.25000000,0.00000000,0.97000000,0.15000000,0.00000000,0.00000000,0.30000000,-0.25000000,0.00000000,0.97000000,-0.15000000,0.00000000,0.00000000
0.72000000,0.30000000,0.25000000,0.00000000,0.97000000,0.15000000,0.00000000,0.00000000,0.30000000,-0.25000000,0.00000000,0.97000000,-0.15000000,0.00000000,0.00000000
0.74000000,0.30000000,0.25000000,0.00000000,0.97000000,0.15000000,0.00000000,0.00000000,0.30000000,-0.25000000,0.00000000,0.97000000,-0.15000000,0.00000000,0.00000000
0.76000000,0.30000000,0.25000000,0.00000000,0.97000000,0.15000000,0.00000000,0.00000000,0.30000000,-0.25000000,0.00000000,0.97000000,-0.15000000,0.00000000,0.00000000
0.78000000,0.30000000,0.25000000,0.00000000,0.97000000,0.15000000,0.00000000,0.00000000,0.30000000,-0.25000000,0.00000000,0.97000000,-0.15000000,0.00000000,0.00000000
0.80000000,0.30000000,0.25000000,0.00000000,0.97000000,0.15000000,0.00000000,0.00000000,0.30000000,-0.25000000,0.00000000,0.97000000,-0.15000000,0.00000000,0.00000000
0.82000000,0.30000000,0.25000000,0.00000000,0.97000000,0.15000000,0.00000000,0.00000000,0.30000000,-0.25000000,0.00000000,0.97000000,-0.15000000,0.00000000,0.00000000
0.84000000,0.30000000,0.25000000,0.00000000,0.97000000,0.15000000,0.00000000,0.00000000,0.30000000,-0.25000000,0.00000000,0.97000000,-0.15000000,0.00000000,0.00000000
0.86000000,0.30000000,0.25000000,0.00000000,0.97000000,0.15000000,0.00000000,0.00000000,0.30000000,-0.25000000,0.00000000,0.97000000,-0.15000000,0.00000000,0.00000000
0.88000000,0.30000000,0.25000000,0.00000000,0.97000000,0.15000000,0.00000000,0.00000000,0.30000000,-0.25000000,0.00000000,0.97000000,-0.15000000,0.00000000,0.00000000
0.90000000,0.30000000,0.25000000,0.00000000,0.97000000,0.15000000,0.00000000,0.00000000,0.30000000,-0.25000000,0.00000000,0.97000000,-0.15000000,0.00000000,0.00000000
0.92000000,0.30000000,0.25000000,0.00000000,0.97000000,0.15000000,0.00000000,0.00000000,0.30000000,-0.25000000,0.00000000,0.97000000,-0.15000000,0.00000000,0.00000000
0.94000000,0.30000000,0.25000000,0.00000000,0.97000000,0.15000000,0.00000000,0.00000000,0.30000000,-0.25000000,0.00000000,0.97000000,-0.15000000,0.00000000,0.00000000
0.96000000,0.30000000,0.25000000,0.00000000,0.97000000,0.15000000,0.00000000,0.00000000,0.30000000,-0.25000000,0.00000000,0.97000000,-0.15000000,0.00000000,0.00000000
0.98000000,0.30000000,0.25000000,0.00000000,0.97000000,0.15000000,0.00000000,0.00000000,0.30000000,-0.25000000,0.00000000,0.97000000,-0.15000000,0.00000000,0.00000000
1.00000000,0.30000000,0.25000000,0.00000000,0.97000000,0.15000000,0.00000000,0.00000000,0.30000000,-0.25000000,0.00000000,0.97000000,-0.15000000,0.00000000,0.00000000
1.02000000,0.30000000,0.25000000,0.00000000,0.97000000,0.15000000,0.00000000,0.00000000,0.30000000,-0.25000000,0.00000000,0.97000000,-0.15000000,0.00000000,0.00000000
1.04000000,0.30000000,0.25000000,0.00000000,0.97000000,0.15000000,0.00000000,0.00000000,0.30000000,-0.25000000,0.00000000,0.97000000,-0.15000000,0.00000000,0.00000000
1.06000000,0.30000000,0.25000000,0.00000000,0.97000000,0.15000000,0.00000000,0.00000000,0.30000000,-0.25000000,0.00000000,0.97000000,-0.15000000,0.00000000,0.00000000
1.08000000,0.30000000,0.25000000,0.00000000,0.97000000,0.15000000,0.00000000,0.00000000,0.30000000,-0.25000000,0.00000000,0.97000000,-0.15000000,0.00000000,0.00000000
1.10000000,0.30000000,0.25000000,0.00000000,0.97000000,0.15000000,0.00000000,0.00000000,0.30000000,-0.25000000,0.00000000,0.97000000,-0.15000000,0.00000000,0.00000000
1.12000000,0.30000000,0.25000000,0.00000000,0.97000000,0.15000000,0.00000000,0.00000000,0.30000000,-0.25000000,0.00000000,0.97000000,-0.15000000,0.00000000,0.00000000
1.14000000,0.30000000,0.25000000,0.00000000,0.97000000,0.15000000,0.00000000,0.00000000,0.30000000,-0.25000000,0.00000000,0.97000000,-0.15000000,0.00000000,0.00000000
1.16000000,0.30000000,0.25000000,0.00000000,0.97000000,0.15000000,0.00000000,0.00000000,0.30000000,-0.25000000,0.00000000,0.97000000,-0.15000000,0.00000000,0.00000000
1.18000000,0.30000000,0.25000000,0.00000000,0.97000000,0.15000000,0.00000000,0.00000000,0.30000000,-0.25000000,0.00000000,0.97000000,-0.15000000,0.00000000,0.00000000
1.20000000,0.30000000,0.25000000,0.00000000,0.97000000,0.15000000,0.00000000,0.00000000,0.30000000,-0.25000000,0.00000000,0.97000000,-0.15000000,0.00000000,0.00000000
1.22000000,0.30000000,0.25000000,0.00000000,0.97000000,0.15000000,0.00000000,0.00000000,0.30000000,-0.25000000,0.00000000,0.97000000,-0.15000000,0.00000000,0.00000000
1.24000000,0.30000000,0.25000000,0.00000000,0.97000000,0.15000000,0.00000000,0.00000000,0.30000000,-0.25000000,0.00000000,0.97000000,-0.15000000,0.00000000,0.00000000
1.26000000,0.30000000,0.25000000,0.00000000,0.97000000,0.15000000,0.00000000,0.00000000,0.30000000,-0.25000000,0.00000000,0.97000000,-0.15000000,0.00000000,0.00000000
1.28000000,0.30000000,0.25000000,0.00000000,0.97000000,0.15000000,0.00000000,0.00000000,0.30000000,-0.25000000,0.00000000,0.97000000,-0.15000000,0.00000000,0.00000000
1.30000000,0.30000000,0.25000000,0.00000000,0.97000000,0.15000000,0.00000000,0.00000000,0.30000000,-0.25000000,0.00000000,0.97000000,-0.15000000,0.00000000,0.00000000
1.32000000,0.30000000,0.25000000,0.00000000,0.97000000,0.15000000,0.00000000,0.00000000,0.30000000,-0.25000000,0.00000000,0.97000000,-0.15000000,0.00000000,0.00000000
1.34000000,0.30000000,0.25000000,0.00000000,0.97000000,0.15000000,0.00000000,0.00000000,0.30000000,-0.25000000,0.00000000,0.97000000,-0.15000000,0.00000000,0.00000000
1.36000000,0.30000000,0.25000000,0.00000000,0.97000000,0.15000000,0.00000000,0.00000000,0.30000000,-0.25000000,0.00000000,0.97000000,-0.15000000,0.00000000,0.00000000
1.38000000,0.30000000,0.25000000,0.00000000,0.97000000,0.15000000,0.00000000,0.00000000,0.30000000,-0.25000000,0.00000000,0.97000000,-0.15000000,0.00000000,0.00000000
1.40000000,0.30000000,0.25000000,0.00000000,0.97000000,0.15000000,0.00000000,0.00000000,0.30000000,-0.25000000,0.00000000,0.97000000,-0.15000000,0.00000000,0.00000000
1.42000000,0.30000000,0.25000000,0.00000000,0.97000000,0.15000000,0.00000000,0.00000000,0.30000000,-0.25000000,0.00000000,0.97000000,-0.15000000,0.00000000,0.00000000
1.44000000,0.30000000,0.25000000,0.00000000,0.97000000,0.15000000,0.00000000,0.00000000,0.30000000,-0.25000000,0.00000000,0.97000000,-0.15000000,0.00000000,0.00000000
1.46000000,0.30000000,0.25000000,0.00000000,0.97000000,0.15000000,0.00000000,0.00000000,0.30000000,-0.25000000,0.00000000,0.97000000,-0.15000000,0.00000000,0.00000000
1.48000000,0.30000000,0.25000000,0.00000000,0.97000000,0.15000000,0.00000000,0.00000000,0.30000000,-0.25000000,0.00000000,0.97000000,-0.15000000,0.00000000,0.00000000
1.50000000,0.30000000,0.25000000,0.00000000,0.97000000,0.15000000,0.00000000,0.00000000,0.30000000,-0.25000000,0.00000000,0.97000000,-0.15000000,0.00000000,0.00000000
1.52000000,0.30000000,0.25000000,0.00000000,0.97000000,0.15000000,0.00000000,0.00000000,0.30000000,-0.25000000,0.00000000,0.97000000,-0.15000000,0.00000000,0.00000000
1.54000000,0.30000000,0.25000000,0.00000000,0.97000000,0.15000000,0.00000000,0.00000000,0.30000000,-0.25000000,0.00000000,0.97000000,-0.15000000,0.00000000,0.00000000
1.56000000,0.30000000,0.25000000,0.00000000,0.97000000,0.15000000,0.00000000,0.00000000,0.30000000,-0.25000000,0.00000000,0.97000000,-0.15000000,0.00000000,0.00000000
1.58000000,0.30000000,0.25000000,0.00000000,0.97000000,0.15000000,0.00000000,0.00000000,0.30000000,-0.25000000,0.00000000,0.97000000,-0.15000000,0.00000000,0.00000000
1.60000000,0.30000000,0.25000000,0.00000000,0.97000000,0.15000000,0.00000000,0.00000000,0.30000000,-0.25000000,0.00000000,0.97000000,-0.15000000,0.00000000,0.00000000
1.62000000,0.30000000,0.25000000,0.00000000,0.97000000,0.15000000,0.00000000,0.00000000,0.30000000,-0.25000000,0.00000000,0.97000000,-0.15000000,0.00000000,0.00000000
1.64000000,0.30000000,0.25000000,0.00000000,0.97000000,0.15000000,0.00000000,0.00000000,0.30000000,-0.25000000,0.00000000,0.97000000,-0.15000000,0.00000000,0.00000000
1.66000000,0.30000000,0.25000000,0.00000000,0.97000000,0.15000000,0.00000000,0.00000000,0.30000000,-0.25000000,0.00000000,0.97000000,-0.15000000,0.00000000,0.00000000
1.68000000,0.30000000,0.25000000,0.00000000,0.97000000,0.15000000,0.00000000,0.00000000,0.30000000,-0.25000000,0.00000000,0.97000000,-0.15000000,0.00000000,0.00000000
1.70000000,0.30000000,0.25000000,0.00000000,0.97000000,0.15000000,0.00000000,0.00000000,0.30000000,-0.25000000,0.00000000,0.97000000,-0.15000000,0.00000000,0.00000000
1.72000000,0.30000000,0.25000000,0.00000000,0.97000000,0.15000000,0.00000000,0.00000000,0.30000000,-0.25000000,0.00000000,0.97000000,-0.15000000,0.00000000,0.00000000
1.74000000,0.30000000,0.25000000,0.00000000,0.97000000,0.15000000,0.00000000,0.00000000,0.30000000,-0.25000000,0.00000000,0.97000000,-0.15000000,0.00000000,0.00000000
1.76000000,0.30000000,0.25000000,0.00000000,0.97000000,0.15000000,0.00000000,0.00000000,0.30000000,-0.25000000,0.00000000,0.97000000,-0.15000000,0.00000000,0.00000000
1.78000000,0.30000000,0.25000000,0.00000000,0.97000000,0.15000000,0.00000000,0.00000000,0.30000000,-0.25000000,0.00000000,0.97000000,-0.15000000,0.00000000,0.00000000
1.80000000,0.30000000,0.25000000,0.00000000,0.97000000,0.15000000,0.00000000,0.00000000,0.30000000,-0.25000000,0.00000000,0.97000000,-0.15000000,0.00000000,0.00000000
1.82000000,0.30000000,0.25000000,0.00000000,0.97000000,0.15000000,0.00000000,0.00000000,0.30000000,-0.25000000,0.00000000,0.97000000,-0.15000000,0.00000000,0.00000000
1.84000000,0.30000000,0.25000000,0.00000000,0.97000000,0.15000000,0.00000000,0.00000000,0.30000000,-0.25000000,0.00000000,0.97000000,-0.15000000,0.00000000,0.00000000
1.86000000,0.30000000,0.25000000,0.00000000,0.97000000,0.15000000,0.00000000,0.00000000,0.30000000,-0.25000000,0.00000000,0.97000000,-0.15000000,0.00000000,0.00000000
1.88000000,0.30000000,0.25000000,0.00000000,0.97000000,0.15000000,0.00000000,0.00000000,0.30000000,-0.25000000,0.00000000,0.97000000,-0.15000000,0.00000000,0.00000000
1.90000000,0.30000000,0.25000000,0.00000000,0.97000000,0.15000000,0.00000000,0.00000000,0.30000000,-0.25000000,0.00000000,0.97000000,-0.15000000,0.00000000,0.00000000
1.92000000,0.30000000,0.25000000,0.00000000,0.97000000,0.15000000,0.00000000,0.00000000,0.30000000,-0.25000000,0.00000000,0.97000000,-0.15000000,0.00000000,0.00000000
1.94000000,0.30000000,0.25000000,0.00000000,0.97000000,0.15000000,0.00000000,0.00000000,0.30000000,-0.25000000,0.00000000,0.97000000,-0.15000000,0.00000000,0.00000000
1.96000000,0.30000000,0.25000000,0.00000000,0.97000000,0.15000000,0.00000000,0.00000000,0.30000000,-0.25000000,0.00000000,0.97000000,-0.15000000,0.00000000,0.00000000
1.98000000,0.30000000,0.25000000,0.00000000,0.97000000,0.15000000,0.00000000,0.00000000,0.30000000,-0.25000000,0.00000000,0.97000000,-0.15000000,0.00000000,0.00000000
2.00000000,0.30000000,0.25000000,0.00000000,0.97000000,0.15000000,0.00000000,0.00000000,0.30000000,-0.25000000,0.00000000,0.97000000,-0.15000000,0.00000000,0.00000000
2.02000000,0.30000000,0.25000000,0.00000000,0.97000000,0.15000000,0.00000000,0.00000000,0.30000000,-0.25000000,0.00000000,0.97000000,-0.15000000,0.00000000,0.00000000
2.04000000,0.30000000,0.25000000,0.00000000,0.97000000,0.15000000,0.00000000,0.00000000,0.30000000,-0.25000000,0.00000000,0.97000000,-0.15000000,0.00000000,0.00000000
2.06000000,0.30000000,0.25000000,0.00000000,0.97000000,0.15000000,0.00000000,0.00000000,0.30000000,-0.25000000,0.00000000,0.97000000,-0.15000000,0.00000000,0.00000000
2.08000000,0.30000000,0.25000000,0.00000000,0.97000000,0.15000000,0.00000000,0.00000000,0.30000000,-0.25000000,0.00000000,0.97000000,-0.15000000,0.00000000,0.00000000
2.10000000,0.30000000,0.25000000,0.00000000,0.97000000,0.15000000,0.00000000,0.00000000,0.30000000,-0.25000000,0.00000000,0.97000000,-0.15000000,0.00000000,0.00000000
2.12000000,0.30000000,0.25000000,0.00000000,0.97000000,0.15000000,0.00000000,0.00000000,0.30000000,-0.25000000,0.00000000,0.97000000,-0.15000000,0.00000000,0.00000000
2.14000000,0.30000000,0.25000000,0.00000000,0.97000000,0.15000000,0.00000000,0.00000000,0.30000000,-0.25000000,0.00000000,0.97000000,-0.15000000,0.00000000,0.00000000
2.16000000,0.30000000,0.25000000,0.00000000,0.97000000,0.15000000,0.00000000,0.00000000,0.30000000,-0.25000000,0.00000000,0.97000000,-0.15000000,0.00000000,0.00000000
2.18000000,0.30000000,0.25000000,0.00000000,0.97000000,0.15000000,0.00000000,0.00000000,0.30000000,-0.25000000,0.00000000,0.97000000,-0.15000000,0.00000000,0.00000000
2.20000000,0.30000000,0.25000000,0.00000000,0.97000000,0.15000000,0.00000000,0.00000000,0.30000000,-0.25000000,0.00000000,0.97000000,-0.15000000,0.00000000,0.00000000
2.22000000,0.30000000,0.25000000,0.00000000,0.97000000,0.15000000,0.00000000,0.00000000,0.30000000,-0.25000000,0.00000000,0.97000000,-0.15000000,0.00000000,0.00000000
2.24000000,0.30000000,0.25000000,0.00000000,0.97000000,0.15000000,0.00000000,0.00000000,0.30000000,-0.25000000,0.00000000,0.97000000,-0.15000000,0.00000000,0.00000000
2.26000000,0.30000000,0.25000000,0.00000000,0.97000000,0.15000000,0.00000000,0.00000000,0.30000000,-0.25000000,0.00000000,0.97000000,-0.15000000,0.00000000,0.00000000
2.28000000,0.30000000,0.25000000,0.00000000,0.97000000,0.15000000,0.00000000,0.00000000,0.30000000,-0.25000000,0.00000000,0.97000000,-0.15000000,0.00000000,0.00000000
2.30000000,0.30000000,0.25000000,0.00000000,0.97000000,0.15000000,0.00000000,0.00000000,0.30000000,-0.25000000,0.00000000,0.97000000,-0.15000000,0.00000000,0.00000000
2.32000000,0.30000000,0.25000000,0.00000000,0.97000000,0.15000000,0.00000000,0.00000000,0.30000000,-0.25000000,0.00000000,0.97000000,-0.15000000,0.00000000,0.00000000
2.34000000,0.30000000,0.25000000,0.00000000,0.97000000,0.15000000,0.00000000,0.00000000,0.30000000,-0.25000000,0.00000000,0.97000000,-0.15000000,0.00000000,0.00000000
2.36000000,0.30000000,0.25000000,0.00000000,0.97000000,0.15000000,0.00000000,0.00000000,0.30000000,-0.25000000,0.00000000,0.97000000,-0.15000000,0.00000000,0.00000000
2.38000000,0.30000000,0.25000000,0.00000000,0.97000000,0.15000000,0.00000000,0.00000000,0.30000000,-0.25000000,0.00000000,0.97000000,-0.15000000,0.00000000,0.00000000
2.40000000,0.30000000,0.25000000,0.00000000,0.97000000,0.15000000,0.00000000,0.00000000,0.30000000,-0.25000000,0.00000000,0.97000000,-0.15000000,0.00000000,0.00000000
2.42000000,0.30000000,0.25000000,0.00000000,0.97000000,0.15000000,0.00000000,0.00000000,0.30000000,-0.25000000,0.00000000,0.97000000,-0.15000000,0.00000000,0.00000000
2.44000000,0.30000000,0.25000000,0.00000000,0.97000000,0.15000000,0.00000000,0.00000000,0.30000000,-0.25000000,0.00000000,0.97000000,-0.15000000,0.00000000,0.00000000
2.46000000,0.30000000,0.25000000,0.00000000,0.97000000,0.15000000,0.00000000,0.00000000,0.30000000,-0.25000000,0.00000000,0.97000000,-0.15000000,0.00000000,0.00000000
2.48000000,0.30000000,0.25000000,0.00000000,0.97000000,0.15000000,0.00000000,0.00000000,0.30000000,-0.25000000,0.00000000,0.97000000,-0.15000000,0.00000000,0.00000000
2.50000000,0.30000000,0.25000000,0.00000000,0.97000000,0.15000000,0.00000000,0.00000000,0.30000000,-0.25000000,0.00000000,0.97000000,-0.15000000,0.00000000,0.00000000
2.52000000,0.30000000,0.25000000,0.00000000,0.97000000,0.15000000,0.00000000,0.00000000,0.30000000,-0.25000000,0.00000000,0.97000000,-0.15000000,0.00000000,0.00000000
2.54000000,0.30000000,0.25000000,0.00000000,0.97000000,0.15000000,0.00000000,0.00000000,0.30000000,-0.25000000,0.00000000,0.97000000,-0.15000000,0.00000000,0.00000000
2.56000000,0.30000000,0.25000000,0.00000000,0.97000000,0.15000000,0.00000000,0.00000000,0.30000000,-0.25000000,0.00000000,0.97000000,-0.15000000,0.00000000,0.00000000
2.58000000,0.30000000,0.25000000,0.00000000,0.97000000,0.15000000,0.00000000,0.00000000,0.30000000,-0.25000000,0.00000000,0.97000000,-0.15000000,0.00000000,0.00000000
2.60000000,0.30000000,0.25000000,0.00000000,0.97000000,0.15000000,0.00000000,0.00000000,0.30000000,-0.25000000,0.00000000,0.97000000,-0.15000000,0.00000000,0.00000000
2.62000000,0.30000000,0.25000000,0.00000000,0.97000000,0.15000000,0.00000000,0.00000000,0.30000000,-0.25000000,0.00000000,0.97000000,-0.15000000,0.00000000,0.00000000
2.64000000,0.30000000,0.25000000,0.00000000,0.97000000,0.15000000,0.00000000,0.00000000,0.30000000,-0.25000000,0.00000000,0.97000000,-0.15000000,0.00000000,0.00000000
2.66000000,0.30000000,0.25000000,0.00000000,0.97000000,0.15000000,0.00000000,0.00000000,0.30000000,-0.25000000,0.00000000,0.97000000,-0.15000000,0.00000000,0.00000000
2.68000000,0.30000000,0.25000000,0.00000000,0.97000000,0.15000000,0.00000000,0.00000000,0.30000000,-0.25000000,0.00000000,0.97000000,-0.15000000,0.00000000,0.00000000
2.70000000,0.30000000,0.25000000,0.00000000,0.97000000,0.15000000,0.00000000,0.00000000,0.30000000,-0.25000000,0.00000000,0.97000000,-0.15000000,0.00000000,0.00000000
2.72000000,0.30000000,0.25000000,0.00000000,0.97000000,0.15000000,0.00000000,0.00000000,0.30000000,-0.25000000,0.00000000,0.97000000,-0.15000000,0.00000000,0.00000000
2.74000000,0.30000000,0.25000000,0.00000000,0.97000000,0.15000000,0.00000000,0.00000000,0.30000000,-0.25000000,0.00000000,0.97000000,-0.15000000,0.00000000,0.00000000
2.76000000,0.30000000,0.25000000,0.00000000,0.97000000,0.15000000,0.00000000,0.00000000,0.30000000,-0.25000000,0.00000000,0.97000000,-0.15000000,0.00000000,0.00000000
2.78000000,0.30000000,0.25000000,0.00000000,0.97000000,0.15000000,0.00000000,0.00000000,0.30000000,-0.25000000,0.00000000,0.97000000,-0.15000000,0.00000000,0.00000000
2.80000000,0.30000000,0.25000000,0.00000000,0.97000000,0.15000000,0.00000000,0.00000000,0.30000000,-0.25000000,0.00000000,0.97000000,-0.15000000,0.00000000,0.00000000
2.82000000,0.30000000,0.25000000,0.00000000,0.97000000,0.15000000,0.00000000,0.00000000,0.30000000,-0.25000000,0.00000000,0.97000000,-0.15000000,0.00000000,0.00000000
2.84000000,0.30000000,0.25000000,0.00000000,0.97000000,0.15000000,0.00000000,0.00000000,0.30000000,-0.25000000,0.00000000,0.97000000,-0.15000000,0.00000000,0.00000000
2.86000000,0.30000000,0.25000000,0.00000000,0.97000000,0.15000000,0.00000000,0.00000000,0.30000000,-0.25000000,0.00000000,0.97000000,-0.15000000,0.00000000,0.00000000
2.88000000,0.30000000,0.25000000,0.00000000,0.97000000,0.15000000,0.00000000,0.00000000,0.30000000,-0.25000000,0.00000000,0.97000000,-0.15000000,0.00000000,0.00000000
2.90000000,0.30000000,0.25000000,0.00000000,0.97000000,0.15000000,0.00000000,0.00000000,0.30000000,-0.25000000,0.00000000,0.97000000,-0.15000000,0.00000000,0.00000000
2.92000000,0.30000000,0.25000000,0.00000000,0.97000000,0.15000000,0.00000000,0.00000000,0.30000000,-0.25000000,0.00000000,0.97000000,-0.15000000,0.00000000,0.00000000
2.94000000,0.30000000,0.25000000,0.00000000,0.97000000,0.15000000,0.00000000,0.00000000,0.30000000,-0.25000000,0.00000000,0.97000000,-0.15000000,0.00000000,0.00000000
2.96000000,0.30000000,0.25000000,0.00000000,0.97000000,0.15000000,0.00000000,0.00000000,0.30000000,-0.25000000,0.00000000,0.97000000,-0.15000000,0.00000000,0.00000000
2.98000000,0.30000000,0.25000000,0.00000000,0.97000000,0.15000000,0.00000000,0.00000000,0.30000000,-0.25000000,0.00000000,0.97000000,-0.15000000,0.00000000,0.00000000
3.00000000,0.30000000,0.25000000,0.00000000,0.97000000,0.15000000,0.00000000,0.00000000,0.30000000,-0.25000000,0.00000000,0.97000000,-0.15000000,0.00000000,0.00000000
3.02000000,0.30000000,0.25000000,0.00000000,0.97000000,0.15000000,0.00000000,0.00000000,0.30000000,-0.25000000,0.00000000,0.97000000,-0.15000000,0.00000000,0.00000000
3.04000000,0.30000000,0.25000000,0.00000000,0.97000000,0.15000000,0.00000000,0.00000000,0.30000000,-0.25000000,0.00000000,0.97000000,-0.15000000,0.00000000,0.00000000
3.06000000,0.30000000,0.25000000,0.00000000,0.97000000,0.15000000,0.00000000,0.00000000,0.30000000,-0.25000000,0.00000000,0.97000000,-0.15000000,0.00000000,0.00000000
3.08000000,0.30000000,0.25000000,0.00000000,0.97000000,0.15000000,0.00000000,0.00000000,0.30000000,-0.25000000,0.00000000,0.97000000,-0.15000000,0.00000000,0.00000000
3.10000000,0.30000000,0.25000000,0.00000000,0.97000000,0.15000000,0.00000000,0.00000000,0.30000000,-0.25000000,0.00000000,0.97000000,-0.15000000,0.00000000,0.00000000
3.12000000,0.30000000,0.25000000,0.00000000,0.97000000,0.15000000,0.00000000,0.00000000,0.30000000,-0.25000000,0.00000000,0.97000000,-0.15000000,0.00000000,0.00000000
3.14000000,0.30000000,0.25000000,0.00000000,0.97000000,0.15000000,0.00000000,0.00000000,0.30000000,-0.25000000,0.00000000,0.97000000,-0.15000000,0.00000000,0.00000000
3.16000000,0.30000000,0.25000000,0.00000000,0.97000000,0.15000000,0.00000000,0.00000000,0.30000000,-0.25000000,0.00000000,0.97000000,-0.15000000,0.00000000,0.00000000
3.18000000,0.30000000,0.25000000,0.00000000,0.97000000,0.15000000,0.00000000,0.00000000,0.30000000,-0.25000000,0.00000000,0.97000000,-0.15000000,0.00000000,0.00000000
3.20000000,0.30000000,0.25000000,0.00000000,0.97000000,0.15000000,0.00000000,0.00000000,0.30000000,-0.25000000,0.00000000,0.97000000,-0.15000000,0.00000000,0.00000000
3.22000000,0.30000000,0.25000000,0.00000000,0.97000000,0.15000000,0.00000000,0.00000000,0.30000000,-0.25000000,0.00000000,0.97000000,-0.15000000,0.00000000,0.00000000
3.24000000,0.30000000,0.25000000,0.00000000,0.97000000,0.15000000,0.00000000,0.00000000,0.30000000,-0.25000000,0.00000000,0.97000000,-0.15000000,0.00000000,0.00000000
3.26000000,0.30000000,0.25000000,0.00000000,0.97000000,0.15000000,0.00000000,0.00000000,0.30000000,-0.25000000,0.00000000,0.97000000,-0.15000000,0.00000000,0.00000000
3.28000000,0.30000000,0.25000000,0.00000000,0.97000000,0.15000000,0.00000000,0.00000000,0.30000000,-0.25000000,0.00000000,0.97000000,-0.15000000,0.00000000,0.00000000
3.30000000,0.30000000,0.25000000,0.00000000,0.97000000,0.15000000,0.00000000,0.00000000,0.30000000,-0.25000000,0.00000000,0.97000000,-0.15000000,0.00000000,0.00000000
3.32000000,0.30000000,0.25000000,0.00000000,0.97000000,0.15000000,0.00000000,0.00000000,0.30000000,-0.25000000,0.00000000,0.97000000,-0.15000000,0.00000000,0.00000000
3.34000000,0.30000000,0.25000000,0.00000000,0.97000000,0.15000000,0.00000000,0.00000000,0.30000000,-0.25000000,0.00000000,0.97000000,-0.15000000,0.00000000,0.00000000
3.36000000,0.30000000,0.25000000,0.00000000,0.97000000,0.15000000,0.00000000,0.00000000,0.30000000,-0.25000000,0.00000000,0.97000000,-0.15000000,0.00000000,0.00000000
3.38000000,0.30000000,0.25000000,0.00000000,0.97000000,0.15000000,0.00000000,0.00000000,0.30000000,-0.25000000,0.00000000,0.97000000,-0.15000000,0.00000000,0.00000000
3.40000000,0.30000000,0.25000000,0.00000000,0.97000000,0.15000000,0.00000000,0.00000000,0.30000000,-0.25000000,0.00000000,0.97000000,-0.15000000,0.00000000,0.00000000
3.42000000,0.30000000,0.25000000,0.00000000,0.97000000,0.15000000,0.00000000,0.00000000,0.30000000,-0.25000000,0.00000000,0.97000000,-0.15000000,0.00000000,0.00000000
3.44000000,0.30000000,0.25000000,0.00000000,0.97000000,0.15000000,0.00000000,0.00000000,0.30000000,-0.25000000,0.00000000,0.97000000,-0.15000000,0.00000000,0.00000000
3.46000000,0.30000000,0.25000000,0.00000000,0.97000000,0.15000000,0.00000000,0.00000000,0.30000000,-0.25000000,0.00000000,0.97000000,-0.15000000,0.00000000,0.00000000
3.48000000,0.30000000,0.25000000,0.00000000,0.97000000,0.15000000,0.00000000,0.00000000,0.30000000,-0.25000000,0.00000000,0.97000000,-0.15000000,0.00000000,0.00000000
3.50000000,0.30000000,0.25000000,0.00000000,0.97000000,0.15000000,0.00000000,0.00000000,0.30000000,-0.25000000,0.00000000,0.97000000,-0.15000000,0.00000000,0.00000000
3.52000000,0.30000000,0.25000000,0.00000000,0.97000000,0.15000000,0.00000000,0.00000000,0.30000000,-0.25000000,0.00000000,0.97000000,-0.15000000,0.00000000,0.00000000
3.54000000,0.30000000,0.25000000,0.00000000,0.97000000,0.15000000,0.00000000,0.00000000,0.30000000,-0.25000000,0.00000000,0.97000000,-0.15000000,0.00000000,0.00000000
3.56000000,0.30000000,0.25000000,0.00000000,0.97000000,0.15000000,0.00000000,0.00000000,0.30000000,-0.25000000,0.00000000,0.97000000,-0.15000000,0.00000000,0.00000000
3.58000000,0.30000000,0.25000000,0.00000000,0.97000000,0.15000000,0.00000000,0.00000000,0.30000000,-0.25000000,0.00000000,0.97000000,-0.15000000,0.00000000,0.00000000
3.60000000,0.30000000,0.25000000,0.00000000,0.97000000,0.15000000,0.00000000,0.00000000,0.30000000,-0.25000000,0.00000000,0.97000000,-0.15000000,0.00000000,0.00000000
3.62000000,0.30000000,0.25000000,0.00000000,0.97000000,0.15000000,0.00000000,0.00000000,0.30000000,-0.25000000,0.00000000,0.97000000,-0.15000000,0.00000000,0.00000000
3.64000000,0.30000000,0.25000000,0.00000000,0.97000000,0.15000000,0.00000000,0.00000000,0.30000000,-0.25000000,0.00000000,0.97000000,-0.15000000,0.00000000,0.00000000
3.66000000,0.30000000,0.25000000,0.00000000,0.97000000,0.15000000,0.00000000,0.00000000,0.30000000,-0.25000000,0.00000000,0.97000000,-0.15000000,0.00000000,0.00000000
3.68000000,0.30000000,0.25000000,0.00000000,0.97000000,0.15000000,0.00000000,0.00000000,0.30000000,-0.25000000,0.00000000,0.97000000,-0.15000000,0.00000000,0.00000000
3.70000000,0.30000000,0.25000000,0.00000000,0.97000000,0.15000000,0.00000000,0.00000000,0.30000000,-0.25000000,0.00000000,0.97000000,-0.15000000,0.00000000,0.00000000
3.72000000,0.30000000,0.25000000,0.00000000,0.97000000,0.15000000,0.00000000,0.00000000,0.30000000,-0.25000000,0.00000000,0.97000000,-0.15000000,0.00000000,0.00000000
3.74000000,0.30000000,0.25000000,0.00000000,0.97000000,0.15000000,0.00000000,0.00000000,0.30000000,-0.25000000,0.00000000,0.97000000,-0.15000000,0.00000000,0.00000000
3.76000000,0.30000000,0.25000000,0.00000000,0.97000000,0.15000000,0.00000000,0.00000000,0.30000000,-0.25000000,0.00000000,0.97000000,-0.15000000,0.00000000,0.00000000
3.78000000,0.30000000,0.25000000,0.00000000,0.97000000,0.15000000,0.00000000,0.00000000,0.30000000,-0.25000000,0.00000000,0.97000000,-0.15000000,0.00000000,0.00000000
3.80000000,0.30000000,0.25000000,0.00000000,0.97000000,0.15000000,0.00000000,0.00000000,0.30000000,-0.25000000,0.00000000,0.97000000,-0.15000000,0.00000000,0.00000000
3.82000000,0.30000000,0.25000000,0.00000000,0.97000000,0.15000000,0.00000000,0.00000000,0.30000000,-0.25000000,0.00000000,0.97000000,-0.15000000,0.00000000,0.00000000
3.84000000,0.30000000,0.25000000,0.00000000,0.97000000,0.15000000,0.00000000,0.00000000,0.30000000,-0.25000000,0.00000000,0.97000000,-0.15000000,0.00000000,0.00000000
3.86000000,0.30000000,0.25000000,0.00000000,0.97000000,0.15000000,0.00000000,0.00000000,0.30000000,-0.25000000,0.00000000,0.97000000,-0.15000000,0.00000000,0.00000000
3.88000000,0.30000000,0.25000000,0.00000000,0.97000000,0.15000000,0.00000000,0.00000000,0.30000000,-0.25000000,0.00000000,0.97000000,-0.15000000,0.00000000,0.00000000
3.90000000,0.30000000,0.25000000,0.00000000,0.97000000,0.15000000,0.00000000,0.00000000,0.30000000,-0.25000000,0.00000000,0.97000000,-0.15000000,0.00000000,0.00000000
3.92000000,0.30000000,0.25000000,0.00000000,0.97000000,0.15000000,0.00000000,0.00000000,0.30000000,-0.25000000,0.00000000,0.97000000,-0.15000000,0.00000000,0.00000000
3.94000000,0.30000000,0.25000000,0.00000000,0.97000000,0.15000000,0.00000000,0.00000000,0.30000000,-0.25000000,0.00000000,0.97000000,-0.15000000,0.00000000,0.00000000
3.96000000,0.30000000,0.25000000,0.00000000,0.97000000,0.15000000,0.00000000,0.00000000,0.30000000,-0.25000000,0.00000000,0.97000000,-0.15000000,0.00000000,0.00000000
3.98000000,0.30000000,0.25000000,0.00000000,0.97000000,0.15000000,0.00000000,0.00000000,0.30000000,-0.25000000,0.00000000,0.97000000,-0.15000000,0.00000000,0.00000000
4.00000000,0.30000000,0.25000000,0.00000000,0.97000000,0.15000000,0.00000000,0.00000000,0.30000000,-0.25000000,0.00000000,0.97000000,-0.15000000,0.00000000,0.00000000
4.02000000,0.30000000,0.25000000,0.00000000,0.97000000,0.15000000,0.00000000,0.00000000,0.30000000,-0.25000000,0.00000000,0.97000000,-0.15000000,0.00000000,0.00000000
4.04000000,0.30000000,0.25000000,0.00000000,0.97000000,0.15000000,0.00000000,0.00000000,0.30000000,-0.25000000,0.00000000,0.97000000,-0.15000000,0.00000000,0.00000000
4.06000000,0.30000000,0.25000000,0.00000000,0.97000000,0.15000000,0.00000000,0.00000000,0.30000000,-0.25000000,0.00000000,0.97000000,-0.15000000,0.00000000,0.00000000
4.08000000,0.30000000,0.25000000,0.00000000,0.97000000,0.15000000,0.00000000,0.00000000,0.30000000,-0.25000000,0.00000000,0.97000000,-0.15000000,0.00000000,0.00000000
4.10000000,0.30000000,0.25000000,0.00000000,0.97000000,0.15000000,0.00000000,0.00000000,0.30000000,-0.25000000,0.00000000,0.97000000,-0.15000000,0.00000000,0.00000000
4.12000000,0.30000000,0.25000000,0.00000000,0.97000000,0.15000000,0.00000000,0.00000000,0.30000000,-0.25000000,0.00000000,0.97000000,-0.15000000,0.00000000,0.00000000
4.14000000,0.30000000,0.25000000,0.00000000,0.97000000,0.15000000,0.00000000,0.00000000,0.30000000,-0.25000000,0.00000000,0.97000000,-0.15000000,0.00000000,0.00000000
4.16000000,0.30000000,0.25000000,0.00000000,0.97000000,0.15000000,0.00000000,0.00000000,0.30000000,-0.25000000,0.00000000,0.97000000,-0.15000000,0.00000000,0.00000000
4.18000000,0.30000000,0.25000000,0.00000000,0.97000000,0.15000000,0.00000000,0.00000000,0.30000000,-0.25000000,0.00000000,0.97000000,-0.15000000,0.00000000,0.00000000
4.20000000,0.30000000,0.25000000,0.00000000,0.97000000,0.15000000,0.00000000,0.00000000,0.30000000,-0.25000000,0.00000000,0.97000000,-0.15000000,0.00000000,0.00000000
4.22000000,0.30000000,0.25000000,0.00000000,0.97000000,0.15000000,0.00000000,0.00000000,0.30000000,-0.25000000,0.00000000,0.97000000,-0.15000000,0.00000000,0.00000000
4.24000000,0.30000000,0.25000000,0.00000000,0.97000000,0.15000000,0.00000000,0.00000000,0.30000000,-0.25000000,0.00000000,0.97000000,-0.15000000,0.00000000,0.00000000
4.26000000,0.30000000,0.25000000,0.00000000,0.97000000,0.15000000,0.00000000,0.00000000,0.30000000,-0.25000000,0.00000000,0.97000000,-0.15000000,0.00000000,0.00000000
4.28000000,0.30000000,0.25000000,0.00000000,0.97000000,0.15000000,0.00000000,0.00000000,0.30000000,-0.25000000,0.00000000,0.97000000,-0.15000000,0.00000000,0.00000000
4.30000000,0.30000000,0.25000000,0.00000000,0.97000000,0.15000000,0.00000000,0.00000000,0.30000000,-0.25000000,0.00000000,0.97000000,-0.15000000,0.00000000,0.00000000
4.32000000,0.30000000,0.25000000,0.00000000,0.97000000,0.15000000,0.00000000,0.00000000,0.30000000,-0.25000000,0.00000000,0.97000000,-0.15000000,0.00000000,0.00000000
4.34000000,0.30000000,0.25000000,0.00000000,0.97000000,0.15000000,0.00000000,0.00000000,0.30000000,-0.25000000,0.00000000,0.97000000,-0.15000000,0.00000000,0.00000000
4.36000000,0.30000000,0.25000000,0.00000000,0.97000000,0.15000000,0.00000000,0.00000000,0.30000000,-0.25000000,0.00000000,0.97000000,-0.15000000,0.00000000,0.00000000
4.38000000,0.30000000,0.25000000,0.00000000,0.97000000,0.15000000,0.00000000,0.00000000,0.30000000,-0.25000000,0.00000000,0.97000000,-0.15000000,0.00000000,0.00000000
4.40000000,0.30000000,0.25000000,0.00000000,0.97000000,0.15000000,0.00000000,0.00000000,0.30000000,-0.25000000,0.00000000,0.97000000,-0.15000000,0.00000000,0.00000000
4.42000000,0.30000000,0.25000000,0.00000000,0.97000000,0.15000000,0.00000000,0.00000000,0.30000000,-0.25000000,0.00000000,0.97000000,-0.15000000,0.00000000,0.00000000
4.44000000,0.30000000,0.25000000,0.00000000,0.97000000,0.15000000,0.00000000,0.00000000,0.30000000,-0.25000000,0.00000000,0.97000000,-0.15000000,0.00000000,0.00000000
4.46000000,0.30000000,0.25000000,0.00000000,0.97000000,0.15000000,0.00000000,0.00000000,0.30000000,-0.25000000,0.00000000,0.97000000,-0.15000000,0.00000000,0.00000000
4.48000000,0.30000000,0.25000000,0.00000000,0.97000000,0.15000000,0.00000000,0.00000000,0.30000000,-0.25000000,0.00000000,0.97000000,-0.15000000,0.00000000,0.00000000
4.50000000,0.30000000,0.25000000,0.00000000,0.97000000,0.15000000,0.00000000,0.00000000,0.30000000,-0.25000000,0.00000000,0.97000000,-0.15000000,0.00000000,0.00000000
4.52000000,0.30000000,0.25000000,0.00000000,0.97000000,0.15000000,0.00000000,0.00000000,0.30000000,-0.25000000,0.00000000,0.97000000,-0.15000000,0.00000000,0.00000000
4.54000000,0.30000000,0.25000000,0.00000000,0.97000000,0.15000000,0.00000000,0.00000000,0.30000000,-0.25000000,0.00000000,0.97000000,-0.15000000,0.00000000,0.00000000
4.56000000,0.30000000,0.25000000,0.00000000,0.97000000,0.15000000,0.00000000,0.00000000,0.30000000,-0.25000000,0.00000000,0.97000000,-0.15000000,0.00000000,0.00000000
4.58000000,0.30000000,0.25000000,0.00000000,0.97000000,0.15000000,0.00000000,0.00000000,0.30000000,-0.25000000,0.00000000,0.97000000,-0.15000000,0.00000000,0.00000000
4.60000000,0.30000000,0.25000000,0.00000000,0.97000000,0.15000000,0.00000000,0.00000000,0.30000000,-0.25000000,0.00000000,0.97000000,-0.15000000,0.00000000,0.00000000
4.62000000,0.30000000,0.25000000,0.00000000,0.97000000,0.15000000,0.00000000,0.00000000,0.30000000,-0.25000000,0.00000000,0.97000000,-0.15000000,0.00000000,0.00000000
4.64000000,0.30000000,0.25000000,0.00000000,0.97000000,0.15000000,0.00000000,0.00000000,0.30000000,-0.25000000,0.00000000,0.97000000,-0.15000000,0.00000000,0.00000000
4.66000000,0.30000000,0.25000000,0.00000000,0.97000000,0.15000000,0.00000000,0.00000000,0.30000000,-0.25000000,0.00000000,0.97000000,-0.15000000,0.00000000,0.00000000
4.68000000,0.30000000,0.25000000,0.00000000,0.97000000,0.15000000,0.00000000,0.00000000,0.30000000,-0.25000000,0.00000000,0.97000000,-0.15000000,0.00000000,0.00000000
4.70000000,0.30000000,0.25000000,0.00000000,0.97000000,0.15000000,0.00000000,0.00000000,0.30000000,-0.25000000,0.00000000,0.97000000,-0.15000000,0.00000000,0.00000000
4.72000000,0.30000000,0.25000000,0.00000000,0.97000000,0.15000000,0.00000000,0.00000000,0.30000000,-0.25000000,0.00000000,0.97000000,-0.15000000,0.00000000,0.00000000
4.74000000,0.30000000,0.25000000,0.00000000,0.97000000,0.15000000,0.00000000,0.00000000,0.30000000,-0.25000000,0.00000000,0.97000000,-0.15000000,0.00000000,0.00000000
4.76000000,0.30000000,0.25000000,0.00000000,0.97000000,0.15000000,0.00000000,0.00000000,0.30000000,-0.25000000,0.00000000,0.97000000,-0.15000000,0.00000000,0.00000000
4.78000000,0.30000000,0.25000000,0.00000000,0.97000000,0.15000000,0.00000000,0.00000000,0.30000000,-0.25000000,0.00000000,0.97000000,-0.15000000,0.00000000,0.00000000
4.80000000,0.30000000,0.25000000,0.00000000,0.97000000,0.15000000,0.00000000,0.00000000,0.30000000,-0.25000000,0.00000000,0.97000000,-0.15000000,0.00000000,0.00000000
4.82000000,0.30000000,0.25000000,0.00000000,0.97000000,0.15000000,0.00000000,0.00000000,0.30000000,-0.25000000,0.00000000,0.97000000,-0.15000000,0.00000000,0.00000000
4.84000000,0.30000000,0.25000000,0.00000000,0.97000000,0.15000000,0.00000000,0.00000000,0.30000000,-0.25000000,0.00000000,0.97000000,-0.15000000,0.00000000,0.00000000
4.86000000,0.30000000,0.25000000,0.00000000,0.97000000,0.15000000,0.00000000,0.00000000,0.30000000,-0.25000000,0.00000000,0.97000000,-0.15000000,0.00000000,0.00000000
4.88000000,0.30000000,0.25000000,0.00000000,0.97000000,0.15000000,0.00000000,0.00000000,0.30000000,-0.25000000,0.00000000,0.97000000,-0.15000000,0.00000000,0.00000000
4.90000000,0.30000000,0.25000000,0.00000000,0.97000000,0.15000000,0.00000000,0.00000000,0.30000000,-0.25000000,0.00000000,0.97000000,-0.15000000,0.00000000,0.00000000
4.92000000,0.30000000,0.25000000,0.00000000,0.97000000,0.15000000,0.00000000,0.00000000,0.30000000,-0.25000000,0.00000000,0.97000000,-0.15000000,0.00000000,0.00000000
4.94000000,0.30000000,0.25000000,0.00000000,0.97000000,0.15000000,0.00000000,0.00000000,0.30000000,-0.25000000,0.00000000,0.97000000,-0.15000000,0.00000000,0.00000000
4.96000000,0.30000000,0.25000000,0.00000000,0.97000000,0.15000000,0.00000000,0.00000000,0.30000000,-0.25000000,0.00000000,0.97000000,-0.15000000,0.00000000,0.00000000
4.98000000,0.30000000,0.25000000,0.00000000,0.97000000,0.15000000,0.00000000,0.00000000,0.30000000,-0.25000000,0.00000000,0.97000000,-0.15000000,0.00000000,0.00000000
5.00000000,0.30000000,0.25000000,0.00000000,0.97000000,0.15000000,0.00000000,0.00000000,0.30000000,-0.25000000,0.00000000,0.97000000,-0.15000000,0.00000000,0.00000000
5.02000000,0.29999974,0.25000019,-0.00000010,0.96999962,0.15000016,0.00000017,-0.00000026,0.29999975,-0.25000020,0.00000009,0.96999960,-0.15000015,0.00000017,0.00000026
5.04000000,0.29999796,0.25000152,-0.00000076,0.96999694,0.15000127,0.00000133,-0.00000210,0.29999801,-0.25000160,0.00000070,0.96999681,-0.15000122,0.00000136,0.00000210
5.06000000,0.29999315,0.25000511,-0.00000255,0.96998972,0.15000426,0.00000447,-0.00000706,0.29999333,-0.25000539,0.00000236,0.96998929,-0.15000410,0.00000456,0.00000704
5.08000000,0.29998384,0.25001205,-0.00000602,0.96997573,0.15001006,0.00001056,-0.00001666,0.29998426,-0.25001272,0.00000558,0.96997472,-0.15000967,0.00001075,0.00001661
5.10000000,0.29996858,0.25002342,-0.00001170,0.96995283,0.15001956,0.00002052,-0.00003239,0.29996940,-0.25002473,0.00001084,0.96995085,-0.15001880,0.00002090,0.00003230
5.12000000,0.29994597,0.25004029,-0.00002012,0.96991886,0.15003365,0.00003529,-0.00005570,0.29994737,-0.25004253,0.00001864,0.96991547,-0.15003234,0.00003594,0.00005555
5.14000000,0.29991460,0.25006367,-0.00003179,0.96987176,0.15005318,0.00005578,-0.00008804,0.29991682,-0.25006722,0.00002946,0.96986640,-0.15005112,0.00005681,0.00008781
5.16000000,0.29987312,0.25009460,-0.00004724,0.96980947,0.15007901,0.00008288,-0.00013080,0.29987641,-0.25009987,0.00004377,0.96980151,-0.15007595,0.00008441,0.00013046
5.18000000,0.29982019,0.25013406,-0.00006694,0.96972999,0.15011197,0.00011745,-0.00018537,0.29982486,-0.25014153,0.00006203,0.96971870,-0.15010763,0.00011962,0.00018488
5.20000000,0.29975450,0.25018304,-0.00009139,0.96963136,0.15015287,0.00016036,-0.00025308,0.29976088,-0.25019323,0.00008469,0.96961595,-0.15014694,0.00016331,0.00025241
5.22000000,0.29967478,0.25024248,-0.00012107,0.96951165,0.15020251,0.00021243,-0.00033527,0.29968323,-0.25025597,0.00011220,0.96949124,-0.15019466,0.00021634,0.00033438
5.24000000,0.29957977,0.25031331,-0.00015644,0.96936898,0.15026167,0.00027449,-0.00043321,0.29959069,-0.25033075,0.00014497,0.96934260,-0.15025153,0.00027955,0.00043206
5.26000000,0.29946824,0.25039646,-0.00019796,0.96920151,0.15033112,0.00034734,-0.00054819,0.29948206,-0.25041853,0.00018345,0.96916813,-0.15031828,0.00035374,0.00054673
5.28000000,0.29933899,0.25049283,-0.00024608,0.96900743,0.15041160,0.00043177,-0.00068143,0.29935617,-0.25052026,0.00022804,0.96896594,-0.15039564,0.00043971,0.00067961
5.30000000,0.29919085,0.25060327,-0.00030123,0.96878498,0.15050384,0.00052853,-0.00083414,0.29921188,-0.25063686,0.00027915,0.96873420,-0.15048431,0.00053826,0.00083192
5.32000000,0.29902267,0.25072866,-0.00036384,0.96853244,0.15060856,0.00063838,-0.00100752,0.29904808,-0.25076923,0.00033717,0.96847111,-0.15058498,0.00065014,0.00100484
5.34000000,0.29883333,0.25086983,-0.00043433,0.96824812,0.15072646,0.00076206,-0.00120271,0.29886365,-0.25091825,0.00040249,0.96817490,-0.15069831,0.00077609,0.00119951
5.36000000,0.29862172,0.25102760,-0.00051311,0.96793037,0.15085822,0.00090028,-0.00142085,0.29865755,-0.25108480,0.00047549,0.96784387,-0.15082496,0.00091686,0.00141707
5.38000000,0.29838678,0.25120276,-0.00060057,0.96757759,0.15100451,0.00105374,-0.00166305,0.29842871,-0.25126972,0.00055654,0.96747635,-0.15096559,0.00107314,0.00165863
5.40000000,0.29812747,0.25139610,-0.00069711,0.96718819,0.15116599,0.00122313,-0.00193038,0.29817614,-0.25147382,0.00064600,0.96707068,-0.15112080,0.00124565,0.00192524
5.42000000,0.29784275,0.25160838,-0.00080310,0.96676066,0.15134327,0.00140911,-0.00222389,0.29789882,-0.25169791,0.00074422,0.96662528,-0.15129122,0.00143505,0.00221798
5.44000000,0.29753163,0.25184034,-0.00091892,0.96629349,0.15153700,0.00161232,-0.00254462,0.29759579,-0.25194278,0.00085156,0.96613858,-0.15147743,0.00164201,0.00253785
5.46000000,0.29719315,0.25209270,-0.00104493,0.96578522,0.15174776,0.00183342,-0.00289355,0.29726610,-0.25220919,0.00096833,0.96560907,-0.15168003,0.00186717,0.00288586
5.48000000,0.29682636,0.25236617,-0.00118149,0.96523444,0.15197616,0.00207301,-0.00327168,0.29690884,-0.25249789,0.00109487,0.96503527,-0.15189958,0.00211117,0.00326298
5.50000000,0.29643032,0.25266144,-0.00132892,0.96463975,0.15222276,0.00233170,-0.00367995,0.29652310,-0.25280960,0.00123149,0.96441573,-0.15213662,0.00237462,0.00367016
5.52000000,0.29600415,0.25297918,-0.00148758,0.96399982,0.15248813,0.00261007,-0.00411928,0.29610801,-0.25314502,0.00137852,0.96374904,-0.15239170,0.00265812,0.00410833
5.54000000,0.29554698,0.25332003,-0.00165777,0.96331332,0.15277280,0.00290869,-0.00459058,0.29566271,-0.25350485,0.00153624,0.96303385,-0.15266535,0.00296224,0.00457837
5.56000000,0.29505794,0.25368464,-0.00183983,0.96257898,0.15307731,0.00322813,-0.00509472,0.29518639,-0.25388976,0.00170495,0.96226883,-0.15295806,0.00328755,0.00508117
5.58000000,0.29453622,0.25407362,-0.00203406,0.96179557,0.15340218,0.00356891,-0.00563256,0.29467823,-0.25430039,0.00188493,0.96145267,-0.15327033,0.00363461,0.00561758
5.60000000,0.29398102,0.25448756,-0.00224075,0.96096187,0.15374789,0.00393157,-0.00620491,0.29413746,-0.25473737,0.00207647,0.96058413,-0.15360265,0.00400395,0.00618841
5.62000000,0.29339155,0.25492706,-0.00246020,0.96007671,0.15411494,0.00431661,-0.00681259,0.29356330,-0.25520133,0.00227983,0.95966198,-0.15395547,0.00439607,0.00679448
5.64000000,0.29276705,0.25539266,-0.00269268,0.95913897,0.15450380,0.00472452,-0.00745638,0.29295504,-0.25569285,0.00249528,0.95868504,-0.15432926,0.00481150,0.00743655
5.66000000,0.29210680,0.25588492,-0.00293848,0.95814754,0.15491493,0.00515580,-0.00813702,0.29231195,-0.25621252,0.00272305,0.95765217,-0.15472445,0.00525071,0.00811538
5.68000000,0.29141009,0.25640437,-0.00319786,0.95710135,0.15534875,0.00561088,-0.00885526,0.29163335,-0.25676088,0.00296341,0.95656226,-0.15514147,0.00571418,0.00883171
5.70000000,0.29067623,0.25695152,-0.00347106,0.95599937,0.15580572,0.00609024,-0.00961179,0.29091856,-0.25733849,0.00321658,0.95541423,-0.15558072,0.00620236,0.00958623
5.72000000,0.28990454,0.25752686,-0.00375834,0.95484061,0.15628623,0.00659430,-0.01040732,0.29016693,-0.25794586,0.00348281,0.95420704,-0.15604261,0.00671570,0.01037964
5.74000000,0.28909440,0.25813087,-0.00405994,0.95362410,0.15679068,0.00712348,-0.01124248,0.28937785,-0.25858350,0.00376229,0.95293968,-0.15652752,0.00725462,0.01121258
5.76000000,0.28824518,0.25876403,-0.00437609,0.95234890,0.15731948,0.00767819,-0.01211794,0.28855070,-0.25925189,0.00405526,0.95161119,-0.15703582,0.00781954,0.01208571
5.78000000,0.28735628,0.25942676,-0.00470701,0.95101413,0.15787297,0.00825881,-0.01303429,0.28768490,-0.25995152,0.00436192,0.95022063,-0.15756787,0.00841085,0.01299963
5.80000000,0.28642713,0.26011951,-0.00505291,0.94961891,0.15845154,0.00886573,-0.01399215,0.28677990,-0.26068283,0.00468247,0.94876710,-0.15812401,0.00902894,0.01395493
5.82000000,0.28545717,0.26084268,-0.00541401,0.94816241,0.15905551,0.00949930,-0.01499207,0.28583515,-0.26144626,0.00501709,0.94724973,-0.15870458,0.00967418,0.01495220
5.84000000,0.28444587,0.26159668,-0.00579050,0.94664383,0.15968523,0.01015988,-0.01603461,0.28485013,-0.26224223,0.00536598,0.94566768,-0.15930989,0.01034692,0.01599197
5.86000000,0.28339271,0.26238188,-0.00618257,0.94506241,0.16034101,0.01084780,-0.01712030,0.28382435,-0.26307114,0.00572931,0.94402017,-0.15994025,0.01104750,0.01707477
5.88000000,0.28229721,0.26319865,-0.00659040,0.94341740,0.16102315,0.01156337,-0.01824965,0.28275732,-0.26393338,0.00610724,0.94230640,-0.16059596,0.01177624,0.01820111
5.90000000,0.28115890,0.26404734,-0.00701417,0.94170810,0.16173196,0.01230691,-0.01942312,0.28164859,-0.26482931,0.00649994,0.94052567,-0.16127730,0.01253347,0.01937147
5.92000000,0.27997732,0.26492829,-0.00745405,0.93993383,0.16246770,0.01307871,-0.02064120,0.28049772,-0.26575930,0.00690757,0.93867725,-0.16198453,0.01331948,0.02058630
5.94000000,0.27875205,0.26584181,-0.00791020,0.93809396,0.16323065,0.01387905,-0.02190432,0.27930430,-0.26672368,0.00733028,0.93676048,-0.16271791,0.01413456,0.02184607
5.96000000,0.27748268,0.26678821,-0.00838276,0.93618787,0.16402106,0.01470820,-0.02321290,0.27806792,-0.26772276,0.00776819,0.93477472,-0.16347769,0.01497897,0.02315117
5.98000000,0.27616882,0.26776779,-0.00887188,0.93421497,0.16483917,0.01556641,-0.02456735,0.27678821,-0.26875686,0.00822146,0.93271937,-0.16426410,0.01585297,0.02450201
6.00000000,0.27481011,0.26878080,-0.00937771,0.93217472,0.16568521,0.01645391,-0.02596803,0.27546481,-0.26982627,0.00869020,0.93059385,-0.16507735,0.01675681,0.02589897
6.02000000,0.27340619,0.26982752,-0.00990036,0.93006659,0.16655940,0.01737094,-0.02741532,0.27409738,-0.27093125,0.00917453,0.92839762,-0.16591766,0.01769073,0.02734241
6.04000000,0.27195674,0.27090818,-0.01043996,0.92789009,0.16746194,0.01831771,-0.02890954,0.27268561,-0.27207207,0.00967457,0.92613015,-0.16678523,0.01865493,0.02883265
6.06000000,0.27046145,0.27202302,-0.01099662,0.92564476,0.16839303,0.01929443,-0.03045102,0.27122918,-0.27324897,0.01019043,0.92379098,-0.16768023,0.01964962,0.03037003
6.08000000,0.26892004,0.27317225,-0.01157046,0.92333016,0.16935283,0.02030127,-0.03204005,0.26972783,-0.27446218,0.01072220,0.92137964,-0.16860284,0.02067500,0.03195484
6.10000000,0.26733222,0.27435608,-0.01216158,0.92094589,0.17034153,0.02133843,-0.03367692,0.26818128,-0.27571191,0.01126997,0.91889572,-0.16955322,0.02173125,0.03358735
6.12000000,0.26569776,0.27557468,-0.01277005,0.91849157,0.17135928,0.02240605,-0.03536187,0.26658930,-0.27699835,0.01183384,0.91633883,-0.17053153,0.02281853,0.03526782
6.14000000,0.26401641,0.27682824,-0.01339599,0.91596685,0.17240622,0.02350430,-0.03709516,0.26495165,-0.27832169,0.01241389,0.91370859,-0.17153789,0.02393699,0.03699650
6.16000000,0.26228797,0.27811692,-0.01403945,0.91337141,0.17348248,0.02463331,-0.03887699,0.26326813,-0.27968210,0.01301018,0.91100468,-0.17257245,0.02508679,0.03877360
6.18000000,0.26051224,0.27944085,-0.01470052,0.91070496,0.17458819,0.02579321,-0.04070758,0.26153855,-0.28107973,0.01362278,0.90822679,-0.17363531,0.02626804,0.04059931
6.20000000,0.25868904,0.28080017,-0.01537926,0.90796724,0.17572346,0.02698411,-0.04258710,0.25976274,-0.28251472,0.01425176,0.90537464,-0.17472658,0.02748087,0.04247383
6.22000000,0.25681821,0.28219500,-0.01607574,0.90515800,0.17688838,0.02820612,-0.04451572,0.25794054,-0.28398719,0.01489717,0.90244799,-0.17584636,0.02872538,0.04439732
6.24000000,0.25489962,0.28362544,-0.01678999,0.90227703,0.17808305,0.02945934,-0.04649357,0.25607181,-0.28549726,0.01555906,0.89944662,-0.17699473,0.03000166,0.04636992
6.26000000,0.25293314,0.28509158,-0.01752207,0.89932416,0.17930753,0.03074383,-0.04852080,0.25415644,-0.28704502,0.01623747,0.89637033,-0.17817176,0.03130980,0.04839175
6.28000000,0.25091867,0.28659351,-0.01827202,0.89629922,0.18056190,0.03205967,-0.05059750,0.25219433,-0.28863056,0.01693244,0.89321896,-0.17937752,0.03264987,0.05046293
6.30000000,0.24885612,0.28813128,-0.01903987,0.89320208,0.18184621,0.03340692,-0.05272377,0.25018538,-0.29025394,0.01764400,0.88999238,-0.18061205,0.03402192,0.05258354
6.32000000,0.24674541,0.28970496,-0.01982564,0.89003263,0.18316050,0.03478563,-0.05489967,0.24812954,-0.29191521,0.01837216,0.88669047,-0.18187541,0.03542600,0.05475366
6.34000000,0.24458651,0.29131457,-0.02062936,0.88679080,0.18450481,0.03619581,-0.05712527,0.24602674,-0.29361443,0.01911696,0.88331316,-0.18316762,0.03686215,0.05697334
6.36000000,0.24237936,0.29296016,-0.02145104,0.88347654,0.18587915,0.03763751,-0.05940060,0.24387696,-0.29535162,0.01987840,0.87986037,-0.18448870,0.03833039,0.05924262
6.38000000,0.24012395,0.29464172,-0.02229068,0.88008980,0.18728355,0.03911073,-0.06172568,0.24168017,-0.29712679,0.02065649,0.87633209,-0.18583867,0.03983073,0.06156152
6.40000000,0.23782027,0.29635927,-0.02314830,0.87663059,0.18871800,0.04061548,-0.06410052,0.23943637,-0.29893995,0.02145122,0.87272831,-0.18721753,0.04136318,0.06393004
6.42000000,0.23546835,0.29811279,-0.02402387,0.87309893,0.19018249,0.04215175,-0.06652510,0.23714557,-0.30079108,0.02226261,0.86904905,-0.18862527,0.04292773,0.06634816
6.44000000,0.23306821,0.29990226,-0.02491740,0.86949486,0.19167701,0.04371951,-0.06899938,0.23480781,-0.30268017,0.02309063,0.86529435,-0.19006187,0.04452435,0.06881587
6.46000000,0.23061989,0.30172765,-0.02582886,0.86581846,0.19320153,0.04531874,-0.07152333,0.23242312,-0.30460717,0.02393527,0.86146429,-0.19152731,0.04615302,0.07133311
6.48000000,0.22812346,0.30358891,-0.02675823,0.86206980,0.19475600,0.04694939,-0.07409688,0.22999158,-0.30657204,0.02479650,0.85755896,-0.19302154,0.04781369,0.07389981
6.50000000,0.22557899,0.30548599,-0.02770549,0.85824901,0.19634039,0.04861143,-0.07671995,0.22751324,-0.30857472,0.02567431,0.85357849,-0.19454452,0.04950632,0.07651590
6.52000000,0.22298658,0.30741881,-0.02867059,0.85435624,0.19795463,0.05030478,-0.07939244,0.22498821,-0.31061514,0.02656866,0.84952302,-0.19609621,0.05123085,0.07918129
6.54000000,0.22034633,0.30938729,-0.02965350,0.85039163,0.19959865,0.05202937,-0.08211425,0.22241658,-0.31269320,0.02747951,0.84539271,-0.19767652,0.05298719,0.08189586
6.56000000,0.21765837,0.31139135,-0.03065418,0.84635538,0.20127239,0.05378513,-0.08488524,0.21979849,-0.31480882,0.02840683,0.84118777,-0.19928539,0.05477527,0.08465948
6.58000000,0.21492284,0.31343088,-0.03167256,0.84224769,0.20297574,0.05557197,-0.08770527,0.21713405,-0.31696188,0.02935055,0.83690840,-0.20092274,0.05659500,0.08747201
6.60000000,0.21213989,0.31550576,-0.03270860,0.83806879,0.20470863,0.05738978,-0.09057419,0.21442343,-0.31915227,0.03031063,0.83255486,-0.20258847,0.05844628,0.09033330
6.62000000,0.20930968,0.31761587,-0.03376223,0.83381894,0.20647094,0.05923845,-0.09349183,0.21166679,-0.32137984,0.03128702,0.82812739,-0.20428248,0.06032899,0.09324318
6.64000000,0.20643241,0.31976108,-0.03483339,0.82949841,0.20826256,0.06111788,-0.09645798,0.20886429,-0.32364447,0.03227964,0.82362628,-0.20600467,0.06224301,0.09620144
6.66000000,0.20350826,0.32194124,-0.03592199,0.82510749,0.21008336,0.06302792,-0.09947246,0.20601614,-0.32594598,0.03328844,0.81905185,-0.20775491,0.06418821,0.09920791
6.68000000,0.20053745,0.32415618,-0.03702797,0.82064650,0.21193323,0.06496844,-0.10253505,0.20312254,-0.32828423,0.03431333,0.81440442,-0.20953308,0.06616445,0.10226235
6.70000000,0.19752019,0.32640575,-0.03815123,0.81611578,0.21381201,0.06693929,-0.10564551,0.20018371,-0.33065903,0.03535424,0.80968434,-0.21133905,0.06817159,0.10536453
6.72000000,0.19445674,0.32868977,-0.03929169,0.81151568,0.21571955,0.06894032,-0.10880359,0.19719988,-0.33307019,0.03641110,0.80489198,-0.21317268,0.07020946,0.10851422
6.74000000,0.19134734,0.33100804,-0.04044926,0.80684658,0.21765571,0.07097137,-0.11200905,0.19417129,-0.33551751,0.03748380,0.80002774,-0.21503380,0.07227790,0.11171115
6.76000000,0.18819225,0.33336038,-0.04162384,0.80210889,0.21962032,0.07303226,-0.11526160,0.19109821,-0.33800079,0.03857227,0.79509204,-0.21692227,0.07437672,0.11495505
6.78000000,0.18499176,0.33574656,-0.04281532,0.79730301,0.22161320,0.07512280,-0.11856096,0.18798090,-0.34051981,0.03967640,0.79008531,-0.21883792,0.07650575,0.11824563
6.80000000,0.18174615,0.33816639,-0.04402360,0.79242939,0.22363417,0.07724281,-0.12190683,0.18481965,-0.34307434,0.04079609,0.78500800,-0.22078057,0.07866479,0.12158260
6.82000000,0.17845574,0.34061962,-0.04524856,0.78748849,0.22568304,0.07939210,-0.12529888,0.18161475,-0.34566413,0.04193124,0.77986060,-0.22275004,0.08085364,0.12496564
6.84000000,0.17512083,0.34310602,-0.04649008,0.78248077,0.22775962,0.08157044,-0.12873681,0.17836652,-0.34828895,0.04308174,0.77464359,-0.22474614,0.08307209,0.12839442
6.86000000,0.17174176,0.34562535,-0.04774804,0.77740674,0.22986369,0.08377763,-0.13222026,0.17507528,-0.35094852,0.04424748,0.76935750,-0.22676867,0.08531991,0.13186861
6.88000000,0.16831887,0.34817735,-0.04902231,0.77226691,0.23199505,0.08601345,-0.13574889,0.17174135,-0.35364258,0.04542833,0.76400285,-0.22881744,0.08759689,0.13538785
6.90000000,0.16485251,0.35076176,-0.05031277,0.76706182,0.23415348,0.08827765,-0.13932232,0.16836509,-0.35637085,0.04662418,0.75858021,-0.23089222,0.08990277,0.13895178
6.92000000,0.16134306,0.35337830,-0.05161927,0.76179200,0.23633874,0.09057001,-0.14294019,0.16494684,-0.35913305,0.04783490,0.75309015,-0.23299279,0.09223733,0.14256003
6.94000000,0.15779088,0.35602669,-0.05294168,0.75645803,0.23855061,0.09289028,-0.14660210,0.16148699,-0.36192887,0.04906036,0.74753325,-0.23511894,0.09460031,0.14621219
6.96000000,0.15419637,0.35870664,-0.05427984,0.75106050,0.24078883,0.09523819,-0.15030764,0.15798591,-0.36475801,0.05030042,0.74191013,-0.23727043,0.09699145,0.14990788
6.98000000,0.15055993,0.36141786,-0.05563362,0.74560000,0.24305317,0.09761349,-0.15405642,0.15444398,-0.36762015,0.05155494,0.73622142,-0.23944701,0.09941048,0.15364669
7.00000000,0.14688197,0.36416003,-0.05700285,0.74007716,0.24534335,0.10001592,-0.15784799,0.15086161,-0.37051497,0.05282379,0.73046776,-0.24164844,0.10185713,0.15742818
7.02000000,0.14316292,0.36693284,-0.05838738,0.73449261,0.24765913,0.10244518,-0.16168193,0.14723922,-0.37344213,0.05410682,0.72464981,-0.24387447,0.10433112,0.16125192
7.04000000,0.13940321,0.36973596,-0.05978705,0.72884701,0.25000022,0.10490101,-0.16555778,0.14357723,-0.37640130,0.05540387,0.71876825,-0.24612484,0.10683215,0.16511746
7.06000000,0.13560328,0.37256907,-0.06120169,0.72314102,0.25236635,0.10738310,-0.16947509,0.13987606,-0.37939212,0.05671480,0.71282379,-0.24839928,0.10935994,0.16902435
7.08000000,0.13176360,0.37543182,-0.06263113,0.71737533,0.25475724,0.10989116,-0.17343339,0.13613618,-0.38241423,0.05803944,0.70681712,-0.25069751,0.11191417,0.17297212
7.10000000,0.12788462,0.37832386,-0.06407519,0.71155064,0.25717260,0.11242489,-0.17743219,0.13235802,-0.38546726,0.05937764,0.70074899,-0.25301926,0.11449454,0.17696029
7.12000000,0.12396683,0.38124485,-0.06553371,0.70566766,0.25961213,0.11498397,-0.18147100,0.12854205,-0.38855085,0.06072923,0.69462015,-0.25536425,0.11710074,0.18098836
7.14000000,0.12001071,0.38419441,-0.06700650,0.69972713,0.26207552,0.11756809,-0.18554933,0.12468875,-0.39166460,0.06209404,0.68843134,-0.25773217,0.11973242,0.18505584
7.16000000,0.11601676,0.38717217,-0.06849337,0.69372979,0.26456247,0.12017692,-0.18966666,0.12079861,-0.39480813,0.06347190,0.68218335,-0.26012274,0.12238928,0.18916222
7.18000000,0.11198548,0.39017777,-0.06999413,0.68767641,0.26707266,0.12281013,-0.19382247,0.11687211,-0.39798103,0.06486264,0.67587696,-0.26253565,0.12507096,0.19330697
7.20000000,0.10791740,0.39321080,-0.07150860,0.68156775,0.26960577,0.12546738,-0.19801622,0.11290976,-0.40118291,0.06626608,0.66951300,-0.26497060,0.12777713,0.19748957
7.22000000,0.10381303,0.39627089,-0.07303658,0.67540461,0.27216147,0.12814833,-0.20224737,0.10891206,-0.40441335,0.06768204,0.66309228,-0.26742726,0.13050744,0.20170948
7.24000000,0.09967291,0.39935764,-0.07457786,0.66918778,0.27473943,0.13085264,-0.20651538,0.10487955,-0.40767192,0.06911033,0.65661563,-0.26990532,0.13326153,0.20596614
7.26000000,0.09549759,0.40247063,-0.07613225,0.66291809,0.27733932,0.13357994,-0.21081969,0.10081274,-0.41095820,0.07055076,0.65008390,-0.27240445,0.13603904,0.21025899
7.28000000,0.09128761,0.40560945,-0.07769954,0.65659637,0.27996078,0.13632987,-0.21515971,0.09671219,-0.41427176,0.07200315,0.64349797,-0.27492432,0.13883960,0.21458747
7.30000000,0.08704355,0.40877370,-0.07927953,0.65022346,0.28260347,0.13910208,-0.21953489,0.09257843,-0.41761214,0.07346730,0.63685871,-0.27746459,0.14166283,0.21895101
7.32000000,0.08276596,0.41196294,-0.08087199,0.64380021,0.28526704,0.14189618,-0.22394461,0.08841201,-0.42097892,0.07494301,0.63016700,-0.28002494,0.14450837,0.22334901
7.34000000,0.07845542,0.41517674,-0.08247672,0.63732748,0.28795112,0.14471180,-0.22838830,0.08421351,-0.42437162,0.07643009,0.62342376,-0.28260500,0.14737582,0.22778088
7.36000000,0.07411253,0.41841466,-0.08409349,0.63080617,0.29065534,0.14754855,-0.23286535,0.07998350,-0.42778979,0.07792834,0.61662990,-0.28520442,0.15026480,0.23224602
7.38000000,0.06973787,0.42167627,-0.08572209,0.62423717,0.29337935,0.15040605,-0.23737515,0.07572254,-0.43123296,0.07943754,0.60978635,-0.28782286,0.15317491,0.23674382
7.40000000,0.06533206,0.42496111,-0.08736229,0.61762137,0.29612276,0.15328391,-0.24191706,0.07143123,-0.43470066,0.08095749,0.60289405,-0.29045996,0.15610574,0.24127366
7.42000000,0.06089568,0.42826873,-0.08901387,0.61095969,0.29888519,0.15618173,-0.24649048,0.06711017,-0.43819240,0.08248798,0.59595395,-0.29311534,0.15905691,0.24583491
7.44000000,0.05642938,0.43159867,-0.09067658,0.60425306,0.30166627,0.15909909,-0.25109475,0.06275994,-0.44170771,0.08402880,0.58896703,-0.29578863,0.16202798,0.25042694
7.46000000,0.05193376,0.43495046,-0.09235021,0.59750242,0.30446559,0.16203561,-0.25572924,0.05838117,-0.44524609,0.08557973,0.58193425,-0.29847947,0.16501855,0.25504910
7.48000000,0.04740947,0.43832363,-0.09403452,0.59070871,0.30728277,0.16499086,-0.26039330,0.05397446,-0.44880703,0.08714056,0.57485660,-0.30118748,0.16802820,0.25970076
7.50000000,0.04285713,0.44171771,-0.09572927,0.58387290,0.31011742,0.16796442,-0.26508626,0.04954045,-0.45239005,0.08871106,0.56773509,-0.30391227,0.17105651,0.26438124
7.52000000,0.03827739,0.44513222,-0.09743421,0.57699595,0.31296912,0.17095588,-0.26980747,0.04507974,-0.45599464,0.09029101,0.56057072,-0.30665346,0.17410304,0.26908989
7.54000000,0.03367092,0.44856667,-0.09914911,0.57007883,0.31583748,0.17396481,-0.27455625,0.04059299,-0.45962027,0.09188018,0.55336452,-0.30941066,0.17716736,0.27382604
7.56000000,0.02903835,0.45202056,-0.10087373,0.56312255,0.31872208,0.17699078,-0.27933192,0.03608083,-0.46326643,0.09347836,0.54611750,-0.31218347,0.18024903,0.27858900
7.58000000,0.02438036,0.45549341,-0.10260781,0.55612809,0.32162251,0.18003335,-0.28413379,0.03154390,-0.46693261,0.09508531,0.53883072,-0.31497150,0.18334762,0.28337811
7.60000000,0.01969762,0.45898472,-0.10435110,0.54909646,0.32453835,0.18309209,-0.28896119,0.02698287,-0.47061826,0.09670079,0.53150521,-0.31777434,0.18646267,0.28819267
7.62000000,0.01499081,0.46249397,-0.10610335,0.54202868,0.32746919,0.18616656,-0.29381340,0.02239839,-0.47432287,0.09832459,0.52414204,-0.32059159,0.18959374,0.29303197
7.64000000,0.01026060,0.46602067,-0.10786432,0.53492578,0.33041459,0.18925631,-0.29868973,0.01779112,-0.47804588,0.09995645,0.51674227,-0.32342285,0.19274036,0.29789534
7.66000000,0.00550768,0.46956430,-0.10963374,0.52778877,0.33337413,0.19236089,-0.30358947,0.01316174,-0.48178677,0.10159615,0.50930698,-0.32626770,0.19590210,0.30278204
7.68000000,0.00073275,0.47312434,-0.11141135,0.52061871,0.33634738,0.19547985,-0.30851190,0.00851091,-0.48554499,0.10324344,0.50183726,-0.32912572,0.19907848,0.30769138
7.70000000,-0.00406349,0.47670027,-0.11319690,0.51341664,0.33933390,0.19861273,-0.31345631,0.00383932,-0.48931998,0.10489808,0.49433418,-0.33199650,0.20226903,0.31262264
7.72000000,-0.00888035,0.48029157,-0.11499012,0.50618362,0.34233325,0.20175908,-0.31842197,-0.00085235,-0.49311120,0.10655984,0.48679887,-0.33487962,0.20547330,0.31757509
7.74000000,-0.01371712,0.48389771,-0.11679075,0.49892071,0.34534500,0.20491843,-0.32340814,-0.00556340,-0.49691808,0.10822846,0.47923241,-0.33777466,0.20869081,0.32254801
7.76000000,-0.01857308,0.48751816,-0.11859853,0.49162898,0.34836871,0.20809032,-0.32841411,-0.01029315,-0.50074007,0.10990370,0.47163593,-0.34068118,0.21192109,0.32754065
7.78000000,-0.02344751,0.49115239,-0.12041319,0.48430950,0.35140391,0.21127427,-0.33343911,-0.01504089,-0.50457660,0.11158532,0.46401054,-0.34359876,0.21516366,0.33255230
7.80000000,-0.02833970,0.49479985,-0.12223445,0.47696337,0.35445017,0.21446982,-0.33848243,-0.01980593,-0.50842711,0.11327307,0.45635738,-0.34652697,0.21841804,0.33758220
7.82000000,-0.03324891,0.49846001,-0.12406206,0.46959166,0.35750704,0.21767650,-0.34354329,-0.02458755,-0.51229102,0.11496668,0.44867758,-0.34946537,0.22168375,0.34262961
7.84000000,-0.03817443,0.50213232,-0.12589573,0.46219548,0.36057406,0.22089382,-0.34862097,-0.02938505,-0.51616776,0.11666593,0.44097228,-0.35241353,0.22496030,0.34769377
7.86000000,-0.04311552,0.50581624,-0.12773520,0.45477592,0.36365076,0.22412132,-0.35371469,-0.03419771,-0.52005675,0.11837054,0.43324263,-0.35537100,0.22824721,0.35277395
7.88000000,-0.04807143,0.50951122,-0.12958019,0.44733409,0.36673671,0.22735849,-0.35882370,-0.03902482,-0.52395741,0.12008027,0.42548977,-0.35833735,0.23154398,0.35786937
7.90000000,-0.05304144,0.51321670,-0.13143043,0.43987110,0.36983143,0.23060488,-0.36394723,-0.04386565,-0.52786917,0.12179486,0.41771488,-0.36131214,0.23485013,0.36297928
7.92000000,-0.05802479,0.51693213,-0.13328564,0.43238807,0.37293446,0.23385998,-0.36908453,-0.04871949,-0.53179143,0.12351405,0.40991910,-0.36429491,0.23816515,0.36810291
7.94000000,-0.06302075,0.52065696,-0.13514553,0.42488612,0.37604533,0.23712331,-0.37423481,-0.05358560,-0.53572361,0.12523759,0.40210361,-0.36728523,0.24148856,0.37323949
7.96000000,-0.06802856,0.52439063,-0.13700984,0.41736637,0.37916359,0.24039439,-0.37939731,-0.05846325,-0.53966511,0.12696522,0.39426958,-0.37028264,0.24481985,0.37838827
7.98000000,-0.07304746,0.52813257,-0.13887828,0.40982995,0.38228875,0.24367271,-0.38457126,-0.06335171,-0.54361536,0.12869668,0.38641818,-0.37328670,0.24815853,0.38354845
8.00000000,-0.07807672,0.53188222,-0.14075058,0.40227799,0.38542036,0.24695779,-0.38975587,-0.06825025,-0.54757374,0.13043171,0.37855060,-0.37629695,0.25150409,0.38871928
8.02000000,-0.08311556,0.53563903,-0.14262644,0.39471164,0.38855794,0.25024914,-0.39495037,-0.07315813,-0.55153968,0.13217005,0.37066802,-0.37931293,0.25485603,0.39389996
8.04000000,-0.08816323,0.53940241,-0.14450559,0.38713203,0.39170102,0.25354625,-0.40015397,-0.07807461,-0.55551256,0.13391143,0.36277163,-0.38233421,0.25821384,0.39908972
8.06000000,-0.09321897,0.54317181,-0.14638774,0.37954031,0.39484912,0.25684864,-0.40536588,-0.08299894,-0.55949179,0.13565560,0.35486262,-0.38536031,0.26157701,0.40428777
8.08000000,-0.09828202,0.54694666,-0.14827261,0.37193761,0.39800178,0.26015579,-0.41058533,-0.08793040,-0.56347678,0.13740229,0.34694217,-0.38839078,0.26494505,0.40949334
8.10000000,-0.10335160,0.55072639,-0.15015992,0.36432509,0.40115850,0.26346722,-0.41581152,-0.09286822,-0.56746691,0.13915123,0.33901150,-0.39142517,0.26831744,0.41470563
8.12000000,-0.10842697,0.55451042,-0.15204938,0.35670390,0.40431882,0.26678242,-0.42104367,-0.09781167,-0.57146159,0.14090217,0.33107179,-0.39446302,0.27169367,0.41992386
8.14000000,-0.11350734,0.55829819,-0.15394070,0.34907519,0.40748226,0.27010089,-0.42628098,-0.10276000,-0.57546021,0.14265483,0.32312424,-0.39750386,0.27507323,0.42514724
8.16000000,-0.11859195,0.56208911,-0.15583360,0.34144011,0.41064834,0.27342214,-0.43152265,-0.10771246,-0.57946216,0.14440896,0.31517006,-0.40054724,0.27845562,0.43037497
8.18000000,-0.12368002,0.56588263,-0.15772780,0.33379983,0.41381658,0.27674564,-0.43676791,-0.11266829,-0.58346685,0.14616428,0.30721046,-0.40359270,0.28184031,0.43560628
8.20000000,-0.12877080,0.56967815,-0.15962299,0.32615549,0.41698650,0.28007091,-0.44201595,-0.11762676,-0.58747366,0.14792053,0.29924663,-0.40663977,0.28522679,0.44084036
8.22000000,-0.13386351,0.57347512,-0.16151891,0.31850825,0.42015762,0.28339744,-0.44726597,-0.12258710,-0.59148199,0.14967745,0.29127979,-0.40968800,0.28861456,0.44607642
8.24000000,-0.13895737,0.57727294,-0.16341526,0.31085928,0.42332946,0.28672473,-0.45251719,-0.12754858,-0.59549123,0.15143477,0.28331113,-0.41273692,0.29200310,0.45131368
8.26000000,-0.14405163,0.58107106,-0.16531174,0.30320972,0.42650154,0.29005227,-0.45776881,-0.13251042,-0.59950077,0.15319223,0.27534187,-0.41578608,0.29539190,0.45655132
8.28000000,-0.14914549,0.58486888,-0.16720809,0.29556075,0.42967338,0.29337956,-0.46302003,-0.13747190,-0.60351001,0.15494955,0.26737321,-0.41883500,0.29878044,0.46178858
8.30000000,-0.15423820,0.58866585,-0.16910401,0.28791351,0.43284450,0.29670609,-0.46827005,-0.14243224,-0.60751834,0.15670647,0.25940637,-0.42188323,0.30216821,0.46702464
8.32000000,-0.15932898,0.59246137,-0.17099920,0.28026917,0.43601442,0.30003136,-0.47351809,-0.14739071,-0.61152515,0.15846272,0.25144254,-0.42493030,0.30555469,0.47225872
8.34000000,-0.16441705,0.59625489,-0.17289340,0.27262889,0.43918266,0.30335486,-0.47876335,-0.15234654,-0.61552984,0.16021804,0.24348294,-0.42797576,0.30893938,0.47749003
8.36000000,-0.16950166,0.60004581,-0.17478630,0.26499381,0.44234874,0.30667611,-0.48400502,-0.15729900,-0.61953179,0.16197217,0.23552876,-0.43101914,0.31232177,0.48271776
8.38000000,-0.17458203,0.60383358,-0.17667762,0.25736510,0.44551218,0.30999458,-0.48924233,-0.16224733,-0.62353041,0.16372483,0.22758121,-0.43405998,0.31570133,0.48794114
8.40000000,-0.17965740,0.60761761,-0.17856708,0.24974391,0.44867250,0.31330978,-0.49447448,-0.16719078,-0.62752509,0.16547577,0.21964150,-0.43709783,0.31907756,0.49315937
8.42000000,-0.18472698,0.61139734,-0.18045439,0.24213139,0.45182922,0.31662121,-0.49970067,-0.17212860,-0.63151522,0.16722471,0.21171083,-0.44013222,0.32244995,0.49837166
8.44000000,-0.18979003,0.61517219,-0.18233926,0.23452869,0.45498188,0.31992836,-0.50492012,-0.17706006,-0.63550021,0.16897140,0.20379038,-0.44316269,0.32581799,0.50357723
8.46000000,-0.19484577,0.61894159,-0.18422141,0.22693697,0.45812998,0.32323075,-0.51013203,-0.18198439,-0.63947944,0.17071557,0.19588137,-0.44618879,0.32918116,0.50877528
8.48000000,-0.19989344,0.62270497,-0.18610056,0.21935736,0.46127306,0.32652786,-0.51533563,-0.18690087,-0.64345232,0.17245695,0.18798498,-0.44921007,0.33253897,0.51396504
8.50000000,-0.20493228,0.62646178,-0.18797642,0.21179101,0.46441064,0.32981921,-0.52053013,-0.19180875,-0.64741826,0.17419529,0.18010240,-0.45222605,0.33589091,0.51914572
8.52000000,-0.20996154,0.63021143,-0.18984872,0.20423905,0.46754225,0.33310429,-0.52571474,-0.19670729,-0.65137664,0.17593032,0.17223482,-0.45523630,0.33923647,0.52431655
8.54000000,-0.21498044,0.63395337,-0.19171716,0.19670263,0.47066741,0.33638261,-0.53088869,-0.20159575,-0.65532689,0.17766178,0.16438342,-0.45824036,0.34257515,0.52947673
8.56000000,-0.21998825,0.63768704,-0.19358147,0.18918288,0.47378567,0.33965369,-0.53605119,-0.20647340,-0.65926839,0.17938941,0.15654939,-0.46123777,0.34590644,0.53462551
8.58000000,-0.22498421,0.64141187,-0.19544136,0.18168093,0.47689654,0.34291702,-0.54120147,-0.21133951,-0.66320057,0.18111295,0.14873390,-0.46422809,0.34922985,0.53976209
8.60000000,-0.22996756,0.64512730,-0.19729657,0.17419790,0.47999957,0.34617212,-0.54633877,-0.21619335,-0.66712283,0.18283214,0.14093812,-0.46721086,0.35254487,0.54488572
8.62000000,-0.23493757,0.64883278,-0.19914681,0.16673491,0.48309429,0.34941851,-0.55146230,-0.22103418,-0.67103459,0.18454673,0.13316323,-0.47018565,0.35585102,0.54999563
8.64000000,-0.23989348,0.65252776,-0.20099180,0.15929308,0.48618024,0.35265568,-0.55657131,-0.22586129,-0.67493525,0.18625646,0.12541037,-0.47315200,0.35914779,0.55509105
8.66000000,-0.24483457,0.65621168,-0.20283127,0.15187352,0.48925694,0.35588318,-0.56166503,-0.23067395,-0.67882424,0.18796107,0.11768072,-0.47610947,0.36243470,0.56017123
8.68000000,-0.24976009,0.65988399,-0.20466494,0.14447734,0.49232396,0.35910050,-0.56674271,-0.23547145,-0.68270098,0.18966032,0.10997542,-0.47905763,0.36571125,0.56523539
8.70000000,-0.25466930,0.66354415,-0.20649255,0.13710563,0.49538083,0.36230718,-0.57180357,-0.24025307,-0.68656489,0.19135393,0.10229562,-0.48199603,0.36897696,0.57028280
8.72000000,-0.25956149,0.66719161,-0.20831381,0.12975950,0.49842709,0.36550273,-0.57684689,-0.24501811,-0.69041540,0.19304168,0.09464246,-0.48492424,0.37223134,0.57531270
8.74000000,-0.26443592,0.67082584,-0.21012847,0.12244002,0.50146229,0.36868668,-0.58187189,-0.24976585,-0.69425193,0.19472330,0.08701707,-0.48784182,0.37547391,0.58032435
8.76000000,-0.26929188,0.67444629,-0.21193625,0.11514829,0.50448600,0.37185857,-0.58687786,-0.25449560,-0.69807392,0.19639854,0.07942059,-0.49074834,0.37870419,0.58531699
8.78000000,-0.27412865,0.67805243,-0.21373688,0.10788538,0.50749775,0.37501792,-0.59186403,-0.25920665,-0.70188080,0.19806716,0.07185413,-0.49364338,0.38192170,0.59028991
8.80000000,-0.27894551,0.68164373,-0.21553010,0.10065236,0.51049710,0.37816427,-0.59682969,-0.26389832,-0.70567202,0.19972892,0.06431882,-0.49652650,0.38512597,0.59524236
8.82000000,-0.28374175,0.68521966,-0.21731565,0.09345029,0.51348362,0.38129715,-0.60177410,-0.26856991,-0.70944701,0.20138356,0.05681574,-0.49939728,0.38831652,0.60017362
8.84000000,-0.28851668,0.68877970,-0.21909326,0.08628023,0.51645687,0.38441611,-0.60669653,-0.27322074,-0.71320523,0.20303085,0.04934602,-0.50225530,0.39149290,0.60508296
8.86000000,-0.29326960,0.69232333,-0.22086268,0.07914322,0.51941641,0.38752069,-0.61159627,-0.27785012,-0.71694612,0.20467055,0.04191073,-0.50510015,0.39465464,0.60996966
8.88000000,-0.29799981,0.69585003,-0.22262365,0.07204032,0.52236181,0.39061044,-0.61647260,-0.28245739,-0.72066913,0.20630241,0.03451096,-0.50793141,0.39780126,0.61483303
8.90000000,-0.30270662,0.69935928,-0.22437590,0.06497254,0.52529265,0.39368491,-0.62132481,-0.28704187,-0.72437374,0.20792621,0.02714779,-0.51074866,0.40093233,0.61967233
8.92000000,-0.30738936,0.70285059,-0.22611919,0.05794091,0.52820849,0.39674365,-0.62615221,-0.29160290,-0.72805939,0.20954169,0.01982228,-0.51355150,0.40404738,0.62448689
8.94000000,-0.31204735,0.70632344,-0.22785327,0.05094645,0.53110892,0.39978622,-0.63095408,-0.29613983,-0.73172557,0.21114864,0.01253550,-0.51633953,0.40714597,0.62927600
8.96000000,-0.31667992,0.70977733,-0.22957789,0.04399017,0.53399352,0.40281219,-0.63572975,-0.30065199,-0.73537173,0.21274682,0.00528848,-0.51911234,0.41022764,0.63403896
8.98000000,-0.32128639,0.71321178,-0.23129279,0.03707305,0.53686188,0.40582112,-0.64047853,-0.30513874,-0.73899736,0.21433599,-0.00191772,-0.52186954,0.41329196,0.63877511
9.00000000,-0.32586613,0.71662629,-0.23299773,0.03019610,0.53971358,0.40881258,-0.64519974,-0.30959945,-0.74260195,0.21591594,-0.00908209,-0.52461073,0.41633849,0.64348376
9.02000000,-0.33041847,0.72002037,-0.23469248,0.02336029,0.54254823,0.41178614,-0.64989270,-0.31403346,-0.74618497,0.21748644,-0.01620360,-0.52733552,0.41936680,0.64816424
9.04000000,-0.33494276,0.72339354,-0.23637679,0.01656658,0.54536541,0.41474139,-0.65455676,-0.31844017,-0.74974591,0.21904727,-0.02328125,-0.53004353,0.42237645,0.65281590
9.06000000,-0.33943838,0.72674533,-0.23805042,0.00981594,0.54816473,0.41767791,-0.65919125,-0.32281894,-0.75328429,0.22059820,-0.03031403,-0.53273437,0.42536702,0.65743806
9.08000000,-0.34390468,0.73007527,-0.23971313,0.00310931,0.55094581,0.42059527,-0.66379552,-0.32716917,-0.75679960,0.22213902,-0.03730095,-0.53540766,0.42833809,0.66203009
9.10000000,-0.34834106,0.73338289,-0.24136471,-0.00355237,0.55370824,0.42349309,-0.66836894,-0.33149023,-0.76029134,0.22366951,-0.04424105,-0.53806304,0.43128926,0.66659134
9.12000000,-0.35274687,0.73666773,-0.24300491,-0.01016817,0.55645165,0.42637095,-0.67291085,-0.33578154,-0.76375904,0.22518946,-0.05113335,-0.54070014,0.43422009,0.67112118
9.14000000,-0.35712153,0.73992934,-0.24463351,-0.01673717,0.55917566,0.42922845,-0.67742065,-0.34004250,-0.76720221,0.22669866,-0.05797690,-0.54331858,0.43713020,0.67561898
9.16000000,-0.36146442,0.74316726,-0.24625028,-0.02325848,0.56187988,0.43206520,-0.68189770,-0.34427251,-0.77062038,0.22819691,-0.06477076,-0.54591800,0.44001918,0.68008412
9.18000000,-0.36577496,0.74638106,-0.24785501,-0.02973121,0.56456396,0.43488082,-0.68634139,-0.34847101,-0.77401308,0.22968399,-0.07151400,-0.54849806,0.44288663,0.68451599
9.20000000,-0.37005255,0.74957030,-0.24944747,-0.03615446,0.56722753,0.43767492,-0.69075111,-0.35263743,-0.77737986,0.23115970,-0.07820571,-0.55105841,0.44573217,0.68891399
9.22000000,-0.37429661,0.75273455,-0.25102746,-0.04252737,0.56987022,0.44044713,-0.69512629,-0.35677119,-0.78072024,0.23262385,-0.08484497,-0.55359868,0.44855540,0.69327753
9.24000000,-0.37850659,0.75587337,-0.25259475,-0.04884909,0.57249168,0.44319706,-0.69946631,-0.36087174,-0.78403380,0.23407624,-0.09143090,-0.55611855,0.45135596,0.69760601
9.26000000,-0.38268191,0.75898636,-0.25414914,-0.05511878,0.57509157,0.44592436,-0.70377062,-0.36493855,-0.78732008,0.23551667,-0.09796263,-0.55861768,0.45413347,0.70189886
9.28000000,-0.38682203,0.76207311,-0.25569042,-0.06133561,0.57766953,0.44862867,-0.70803863,-0.36897106,-0.79057865,0.23694496,-0.10443928,-0.56109574,0.45688756,0.70615552
9.30000000,-0.39092640,0.76513320,-0.25721840,-0.06749875,0.58022523,0.45130962,-0.71226978,-0.37296876,-0.79380909,0.23836092,-0.11086000,-0.56355240,0.45961787,0.71037543
9.32000000,-0.39499448,0.76816623,-0.25873287,-0.07360741,0.58275834,0.45396687,-0.71646353,-0.37693111,-0.79701097,0.23976436,-0.11722396,-0.56598735,0.46232404,0.71455803
9.34000000,-0.39902576,0.77117183,-0.26023363,-0.07966079,0.58526853,0.45660008,-0.72061934,-0.38085761,-0.80018387,0.24115510,-0.12353035,-0.56840026,0.46500572,0.71870278
9.36000000,-0.40301971,0.77414959,-0.26172050,-0.08565813,0.58775548,0.45920891,-0.72473667,-0.38474775,-0.80332740,0.24253296,-0.12977834,-0.57079083,0.46766258,0.72280916
9.38000000,-0.40697583,0.77709915,-0.26319329,-0.09159866,0.59021887,0.46179303,-0.72881500,-0.38860105,-0.80644115,0.24389777,-0.13596715,-0.57315875,0.47029426,0.72687664
9.40000000,-0.41089362,0.78002014,-0.26465181,-0.09748164,0.59265840,0.46435211,-0.73285381,-0.39241702,-0.80952474,0.24524936,-0.14209599,-0.57550374,0.47290046,0.73090471
9.42000000,-0.41477260,0.78291218,-0.26609587,-0.10330633,0.59507376,0.46688584,-0.73685261,-0.39619518,-0.81257777,0.24658756,-0.14816412,-0.57782549,0.47548083,0.73489288
9.44000000,-0.41861228,0.78577493,-0.26752531,-0.10907202,0.59746465,0.46939390,-0.74081091,-0.39993506,-0.81559988,0.24791220,-0.15417079,-0.58012372,0.47803506,0.73884065
9.46000000,-0.42241221,0.78860804,-0.26893995,-0.11477801,0.59983078,0.47187599,-0.74472822,-0.40363623,-0.81859070,0.24922313,-0.16011525,-0.58239816,0.48056285,0.74274754
9.48000000,-0.42617192,0.79141116,-0.27033962,-0.12042361,0.60217187,0.47433182,-0.74860407,-0.40729822,-0.82154987,0.25052018,-0.16599681,-0.58464853,0.48306388,0.74661308
9.50000000,-0.42989097,0.79418397,-0.27172415,-0.12600816,0.60448765,0.47676108,-0.75243801,-0.41092061,-0.82447703,0.25180321,-0.17181476,-0.58687456,0.48553787,0.75043682
9.52000000,-0.43356893,0.79692614,-0.27309338,-0.13153100,0.60677783,0.47916351,-0.75622958,-0.41450298,-0.82737185,0.25307206,-0.17756842,-0.58907599,0.48798452,0.75421831
9.54000000,-0.43720537,0.79963736,-0.27444716,-0.13699150,0.60904217,0.48153881,-0.75997836,-0.41804491,-0.83023399,0.25432658,-0.18325713,-0.59125257,0.49040355,0.75795712
9.56000000,-0.44079988,0.80231731,-0.27578532,-0.14238903,0.61128039,0.48388672,-0.76368390,-0.42154599,-0.83306313,0.25556664,-0.18888025,-0.59340406,0.49279469,0.76165281
9.58000000,-0.44435206,0.80496570,-0.27710773,-0.14772300,0.61349226,0.48620699,-0.76734581,-0.42500584,-0.83585895,0.25679210,-0.19443715,-0.59553021,0.49515767,0.76530497
9.60000000,-0.44786151,0.80758224,-0.27841423,-0.15299282,0.61567752,0.48849935,-0.77096368,-0.42842409,-0.83862115,0.25800282,-0.19992721,-0.59763078,0.49749223,0.76891322
9.62000000,-0.45132787,0.81016665,-0.27970469,-0.15819791,0.61783595,0.49076355,-0.77453711,-0.43180035,-0.84134942,0.25919867,-0.20534985,-0.59970556,0.49979811,0.77247715
9.64000000,-0.45475076,0.81271865,-0.28097896,-0.16333774,0.61996731,0.49299937,-0.77806574,-0.43513428,-0.84404348,0.26037952,-0.21070450,-0.60175433,0.50207509,0.77599639
9.66000000,-0.45812983,0.81523798,-0.28223692,-0.16841177,0.62207138,0.49520656,-0.78154919,-0.43842552,-0.84670305,0.26154526,-0.21599059,-0.60377686,0.50432291,0.77947058
9.68000000,-0.46146474,0.81772438,-0.28347844,-0.17341949,0.62414796,0.49738490,-0.78498712,-0.44167375,-0.84932787,0.26269576,-0.22120760,-0.60577296,0.50654136,0.78289936
9.70000000,-0.46475515,0.82017761,-0.28470340,-0.17836039,0.62619683,0.49953419,-0.78837917,-0.44487865,-0.85191766,0.26383091,-0.22635500,-0.60774243,0.50873021,0.78628240
9.72000000,-0.46800076,0.82259744,-0.28591168,-0.18323401,0.62821780,0.50165420,-0.79172504,-0.44803990,-0.85447219,0.26495060,-0.23143231,-0.60968508,0.51088925,0.78961937
9.74000000,-0.47120125,0.82498362,-0.28710316,-0.18803989,0.63021068,0.50374474,-0.79502440,-0.45115721,-0.85699121,0.26605473,-0.23643904,-0.61160073,0.51301828,0.79290995
9.76000000,-0.47435634,0.82733596,-0.28827774,-0.19277758,0.63217529,0.50580563,-0.79827695,-0.45423029,-0.85947449,0.26714320,-0.24137474,-0.61348920,0.51511710,0.79615385
9.78000000,-0.47746574,0.82965423,-0.28943531,-0.19744668,0.63411145,0.50783668,-0.80148241,-0.45725888,-0.86192181,0.26821590,-0.24623898,-0.61535032,0.51718554,0.79935078
9.80000000,-0.48052919,0.83193825,-0.29057577,-0.20204678,0.63601899,0.50983771,-0.80464049,-0.46024271,-0.86433297,0.26927276,-0.25103134,-0.61718395,0.51922341,0.80250047
9.82000000,-0.48354645,0.83418782,-0.29169903,-0.20657750,0.63789777,0.51180856,-0.80775095,-0.46318154,-0.86670777,0.27031367,-0.25575142,-0.61898992,0.52123055,0.80560265
9.84000000,-0.48651726,0.83640276,-0.29280501,-0.21103849,0.63974764,0.51374908,-0.81081354,-0.46607514,-0.86904602,0.27133856,-0.26039885,-0.62076809,0.52320679,0.80865709
9.86000000,-0.48944141,0.83858292,-0.29389361,-0.21542941,0.64156844,0.51565912,-0.81382802,-0.46892329,-0.87134753,0.27234736,-0.26497328,-0.62251833,0.52515199,0.81166356
9.88000000,-0.49231868,0.84072813,-0.29496477,-0.21974994,0.64336006,0.51753855,-0.81679417,-0.47172579,-0.87361216,0.27333998,-0.26947439,-0.62424052,0.52706601,0.81462182
9.90000000,-0.49514889,0.84283824,-0.29601840,-0.22399979,0.64512237,0.51938722,-0.81971181,-0.47448243,-0.87583973,0.27431637,-0.27390186,-0.62593453,0.52894872,0.81753170
9.92000000,-0.49793184,0.84491312,-0.29705444,-0.22817869,0.64685526,0.52120503,-0.82258073,-0.47719305,-0.87803012,0.27527645,-0.27825540,-0.62760026,0.53080000,0.82039299
9.94000000,-0.50066737,0.84695265,-0.29807282,-0.23228638,0.64855861,0.52299187,-0.82540076,-0.47985749,-0.88018318,0.27622017,-0.28253477,-0.62923761,0.53261973,0.82320552
9.96000000,-0.50335533,0.84895671,-0.29907350,-0.23632263,0.65023235,0.52474763,-0.82817175,-0.48247558,-0.88229880,0.27714749,-0.28673971,-0.63084648,0.53440781,0.82596914
9.98000000,-0.50599558,0.85092519,-0.30005641,-0.24028724,0.65187637,0.52647222,-0.83089356,-0.48504721,-0.88437686,0.27805834,-0.29087002,-0.63242679,0.53616415,0.82868371
10.00000000,-0.50858799,0.85285801,-0.30102151,-0.24418001,0.65349061,0.52816557,-0.83356605,-0.48757224,-0.88641728,0.27895269,-0.29492549,-0.63397848,0.53788868,0.83134910
10.02000000,-0.51113246,0.85475509,-0.30196877,-0.24800080,0.65507500,0.52982761,-0.83618912,-0.49005058,-0.88841996,0.27983050,-0.29890596,-0.63550146,0.53958131,0.83396519
10.04000000,-0.51362889,0.85661635,-0.30289814,-0.25174946,0.65662947,0.53145826,-0.83876267,-0.49248212,-0.89038483,0.28069173,-0.30281129,-0.63699569,0.54124198,0.83653189
10.06000000,-0.51607721,0.85844174,-0.30380960,-0.25542586,0.65815399,0.53305749,-0.84128662,-0.49486681,-0.89231183,0.28153637,-0.30664135,-0.63846113,0.54287065,0.83904913
10.08000000,-0.51847735,0.86023121,-0.30470313,-0.25902993,0.65964851,0.53462525,-0.84376090,-0.49720457,-0.89420092,0.28236439,-0.31039605,-0.63989773,0.54446727,0.84151684
10.10000000,-0.52082927,0.86198473,-0.30557870,-0.26256159,0.66111300,0.53616152,-0.84618548,-0.49949537,-0.89605205,0.28317578,-0.31407531,-0.64130547,0.54603182,0.84393496
10.12000000,-0.52313295,0.86370228,-0.30643632,-0.26602080,0.66254745,0.53766627,-0.84856032,-0.50173917,-0.89786521,0.28397051,-0.31767909,-0.64268433,0.54756427,0.84630348
10.14000000,-0.52538836,0.86538384,-0.30727596,-0.26940754,0.66395185,0.53913949,-0.85088540,-0.50393596,-0.89964038,0.28474860,-0.32120737,-0.64403430,0.54906461,0.84862238
10.16000000,-0.52759551,0.86702943,-0.30809764,-0.27272180,0.66532619,0.54058119,-0.85316073,-0.50608574,-0.90137757,0.28551004,-0.32466016,-0.64535538,0.55053285,0.85089166
10.18000000,-0.52975441,0.86863904,-0.30890136,-0.27596363,0.66667050,0.54199137,-0.85538633,-0.50818854,-0.90307679,0.28625484,-0.32803747,-0.64664759,0.55196900,0.85311134
10.20000000,-0.53186512,0.87021272,-0.30968713,-0.27913308,0.66798479,0.54337008,-0.85756223,-0.51024438,-0.90473806,0.28698300,-0.33133938,-0.64791095,0.55337308,0.85528146
10.22000000,-0.53392767,0.87175049,-0.31045498,-0.28223022,0.66926910,0.54471733,-0.85968850,-0.51225333,-0.90636144,0.28769456,-0.33456596,-0.64914548,0.55474513,0.85740207
10.24000000,-0.53594214,0.87325242,-0.31120493,-0.28525516,0.67052347,0.54603317,-0.86176520,-0.51421544,-0.90794698,0.28838953,-0.33771733,-0.65035124,0.55608520,0.85947325
10.26000000,-0.53790862,0.87471856,-0.31193701,-0.28820803,0.67174795,0.54731766,-0.86379243,-0.51613081,-0.90949474,0.28906794,-0.34079362,-0.65152827,0.55739334,0.86149508
10.28000000,-0.53982721,0.87614900,-0.31265126,-0.29108900,0.67294262,0.54857088,-0.86577028,-0.51799954,-0.91100481,0.28972983,-0.34379499,-0.65267664,0.55866962,0.86346768
10.30000000,-0.54169804,0.87754383,-0.31334774,-0.29389824,0.67410754,0.54979289,-0.86769890,-0.51982174,-0.91247728,0.29037524,-0.34672164,-0.65379642,0.55991413,0.86539117
10.32000000,-0.54352124,0.87890315,-0.31402648,-0.29663596,0.67524281,0.55098379,-0.86957842,-0.52159755,-0.91391227,0.29100422,-0.34957379,-0.65488769,0.56112696,0.86726569
10.34000000,-0.54529697,0.88022708,-0.31468755,-0.29930241,0.67634852,0.55214369,-0.87140901,-0.52332713,-0.91530990,0.29161682,-0.35235168,-0.65595055,0.56230821,0.86909140
10.36000000,-0.54702541,0.88151576,-0.31533101,-0.30189785,0.67742478,0.55327270,-0.87319084,-0.52501065,-0.91667031,0.29221311,-0.35505559,-0.65698511,0.56345801,0.87086850
10.38000000,-0.54870676,0.88276932,-0.31595695,-0.30442257,0.67847172,0.55437095,-0.87492413,-0.52664830,-0.91799365,0.29279316,-0.35768583,-0.65799147,0.56457647,0.87259718
10.40000000,-0.55034122,0.88398792,-0.31656542,-0.30687689,0.67948947,0.55543857,-0.87660908,-0.52824028,-0.91928009,0.29335703,-0.36024272,-0.65896978,0.56566375,0.87427765
10.42000000,-0.55192904,0.88517175,-0.31715654,-0.30926116,0.68047817,0.55647573,-0.87824595,-0.52978683,-0.92052982,0.29390480,-0.36272664,-0.65992016,0.56672000,0.87591016
10.44000000,-0.55347045,0.88632098,-0.31773038,-0.31157576,0.68143797,0.55748257,-0.87983498,-0.53128818,-0.92174303,0.29443657,-0.36513798,-0.66084277,0.56774538,0.87749497
10.46000000,-0.55496574,0.88743582,-0.31828704,-0.31382109,0.68236906,0.55845929,-0.88137646,-0.53274461,-0.92291993,0.29495243,-0.36747715,-0.66173777,0.56874007,0.87903235
10.48000000,-0.55641519,0.88851648,-0.31882664,-0.31599759,0.68327160,0.55940606,-0.88287068,-0.53415638,-0.92406075,0.29545247,-0.36974462,-0.66260534,0.56970427,0.88052259
10.50000000,-0.55781911,0.88956320,-0.31934929,-0.31810572,0.68414579,0.56032309,-0.88431797,-0.53552381,-0.92516573,0.29593680,-0.37194085,-0.66344565,0.57063819,0.88196603
10.52000000,-0.55917782,0.89057621,-0.31985512,-0.32014597,0.68499183,0.56121059,-0.88571865,-0.53684721,-0.92623514,0.29640554,-0.37406637,-0.66425890,0.57154203,0.88336299
10.54000000,-0.56049168,0.89155579,-0.32034424,-0.32211887,0.68580994,0.56206880,-0.88707310,-0.53812692,-0.92726924,0.29685881,-0.37612172,-0.66504531,0.57241603,0.88471383
10.56000000,-0.56176105,0.89250219,-0.32081680,-0.32402496,0.68660035,0.56289795,-0.88838168,-0.53936330,-0.92826832,0.29729672,-0.37810748,-0.66580509,0.57326044,0.88601893
10.58000000,-0.56298632,0.89341571,-0.32127295,-0.32586483,0.68736330,0.56369829,-0.88964480,-0.54055672,-0.92923270,0.29771943,-0.38002425,-0.66653847,0.57407552,0.88727870
10.60000000,-0.56416790,0.89429666,-0.32171283,-0.32763910,0.68809904,0.56447009,-0.89086288,-0.54170759,-0.93016269,0.29812706,-0.38187267,-0.66724570,0.57486153,0.88849353
10.62000000,-0.56530621,0.89514535,-0.32213660,-0.32934840,0.68880785,0.56521363,-0.89203635,-0.54281632,-0.93105862,0.29851976,-0.38365340,-0.66792704,0.57561876,0.88966389
10.64000000,-0.56640171,0.89596212,-0.32254443,-0.33099341,0.68948999,0.56592920,-0.89316570,-0.54388335,-0.93192086,0.29889769,-0.38536717,-0.66858275,0.57634750,0.89079023
10.66000000,-0.56745487,0.89674732,-0.32293650,-0.33257483,0.69014577,0.56661712,-0.89425139,-0.54490913,-0.93274977,0.29926102,-0.38701468,-0.66921311,0.57704808,0.89187303
10.68000000,-0.56846617,0.89750132,-0.32331299,-0.33409341,0.69077549,0.56727770,-0.89529393,-0.54589415,-0.93354574,0.29960991,-0.38859673,-0.66981842,0.57772082,0.89291280
10.70000000,-0.56943613,0.89822449,-0.32367409,-0.33554991,0.69137946,0.56791127,-0.89629385,-0.54683890,-0.93430917,0.29994453,-0.39011410,-0.67039899,0.57836606,0.89391007
10.72000000,-0.57036528,0.89891724,-0.32401999,-0.33694513,0.69195803,0.56851819,-0.89725171,-0.54774390,-0.93504048,0.30026508,-0.39156763,-0.67095513,0.57898415,0.89486537
10.74000000,-0.57125418,0.89957997,-0.32435091,-0.33827990,0.69251152,0.56909881,-0.89816806,-0.54860970,-0.93574011,0.30057174,-0.39295819,-0.67148718,0.57957546,0.89577929
10.76000000,-0.57210340,0.90021313,-0.32466706,-0.33955510,0.69304032,0.56965352,-0.89904352,-0.54943685,-0.93640850,0.30086471,-0.39428668,-0.67199548,0.58014038,0.89665242
10.78000000,-0.57291354,0.90081714,-0.32496866,-0.34077161,0.69354477,0.57018270,-0.89987868,-0.55022593,-0.93704614,0.30114419,-0.39555404,-0.67248039,0.58067930,0.89748536
10.80000000,-0.57368523,0.90139248,-0.32525594,-0.34193037,0.69402528,0.57068676,-0.90067421,-0.55097756,-0.93765351,0.30141042,-0.39676123,-0.67294228,0.58119264,0.89827877
10.82000000,-0.57441909,0.90193963,-0.32552914,-0.34303235,0.69448225,0.57116612,-0.90143074,-0.55169235,-0.93823112,0.30166359,-0.39790926,-0.67338153,0.58168082,0.89903329
10.84000000,-0.57511580,0.90245908,-0.32578852,-0.34407854,0.69491607,0.57162120,-0.90214898,-0.55237095,-0.93877948,0.30190395,-0.39899917,-0.67379855,0.58214429,0.89974962
10.86000000,-0.57577605,0.90295134,-0.32603432,-0.34506997,0.69532720,0.57205248,-0.90282962,-0.55301404,-0.93929915,0.30213172,-0.40003204,-0.67419374,0.58258350,0.90042845
10.88000000,-0.57640055,0.90341694,-0.32626680,-0.34600771,0.69571606,0.57246039,-0.90347341,-0.55362230,-0.93979067,0.30234717,-0.40100898,-0.67456753,0.58299893,0.90107052
10.90000000,-0.57699002,0.90385644,-0.32648625,-0.34689287,0.69608311,0.57284543,-0.90408109,-0.55419646,-0.94025463,0.30255053,-0.40193113,-0.67492035,0.58339105,0.90167659
10.92000000,-0.57754522,0.90427038,-0.32669294,-0.34772657,0.69642882,0.57320809,-0.90465344,-0.55473723,-0.94069161,0.30274207,-0.40279967,-0.67525267,0.58376039,0.90224742
10.94000000,-0.57806694,0.90465936,-0.32688717,-0.34850998,0.69675369,0.57354887,-0.90519128,-0.55524539,-0.94110224,0.30292205,-0.40361583,-0.67556494,0.58410745,0.90278383
10.96000000,-0.57855598,0.90502397,-0.32706923,-0.34924432,0.69705820,0.57386831,-0.90569542,-0.55572171,-0.94148715,0.30309076,-0.40438085,-0.67585765,0.58443276,0.90328663
10.98000000,-0.57901315,0.90536482,-0.32723942,-0.34993082,0.69734287,0.57416693,-0.90616672,-0.55616701,-0.94184698,0.30324848,-0.40509604,-0.67613130,0.58473688,0.90375667
11.00000000,-0.57943932,0.90568256,-0.32739808,-0.35057075,0.69760824,0.57444530,-0.90660605,-0.55658210,-0.94218240,0.30339551,-0.40576273,-0.67638638,0.58502038,0.90419484
11.02000000,-0.57983536,0.90597783,-0.32754551,-0.35116544,0.69785484,0.57470399,-0.90701432,-0.55696784,-0.94249411,0.30353213,-0.40638227,-0.67662342,0.58528383,0.90460202
11.04000000,-0.58020215,0.90625130,-0.32768207,-0.35171622,0.69808324,0.57494358,-0.90739245,-0.55732510,-0.94278281,0.30365867,-0.40695607,-0.67684297,0.58552783,0.90497914
11.06000000,-0.58054063,0.90650366,-0.32780808,-0.35222449,0.69829400,0.57516468,-0.90774138,-0.55765479,-0.94304922,0.30377544,-0.40748558,-0.67704557,0.58575299,0.90532715
11.08000000,-0.58085175,0.90673562,-0.32792390,-0.35269166,0.69848773,0.57536789,-0.90806211,-0.55795782,-0.94329409,0.30388278,-0.40797228,-0.67723178,0.58595995,0.90564702
11.10000000,-0.58113647,0.90694790,-0.32802989,-0.35311919,0.69866501,0.57555387,-0.90835562,-0.55823514,-0.94351818,0.30398100,-0.40841768,-0.67740220,0.58614935,0.90593976
11.12000000,-0.58139578,0.90714124,-0.32812643,-0.35350859,0.69882649,0.57572326,-0.90862295,-0.55848771,-0.94372228,0.30407046,-0.40882335,-0.67755741,0.58632186,0.90620637
11.14000000,-0.58163072,0.90731640,-0.32821389,-0.35386137,0.69897278,0.57587672,-0.90886515,-0.55871655,-0.94390720,0.30415151,-0.40919087,-0.67769804,0.58647814,0.90644793
11.16000000,-0.58184233,0.90747417,-0.32829267,-0.35417912,0.69910454,0.57601494,-0.90908329,-0.55892265,-0.94407375,0.30422451,-0.40952190,-0.67782469,0.58661891,0.90666549
11.18000000,-0.58203167,0.90761534,-0.32836316,-0.35446344,0.69922244,0.57613862,-0.90927848,-0.55910708,-0.94422277,0.30428983,-0.40981811,-0.67793802,0.58674486,0.90686016
11.20000000,-0.58219985,0.90774073,-0.32842577,-0.35471598,0.69932716,0.57624847,-0.90945186,-0.55927088,-0.94435514,0.30434785,-0.41008120,-0.67803869,0.58685674,0.90703308
11.22000000,-0.58234799,0.90785117,-0.32848092,-0.35493843,0.69941940,0.57634523,-0.90960457,-0.55941517,-0.94447174,0.30439896,-0.41031294,-0.67812736,0.58695529,0.90718539
11.24000000,-0.58247724,0.90794754,-0.32852904,-0.35513251,0.69949988,0.57642966,-0.90973781,-0.55954106,-0.94457347,0.30444355,-0.41051513,-0.67820472,0.58704126,0.90731827
11.26000000,-0.58258877,0.90803069,-0.32857056,-0.35529998,0.69956933,0.57650251,-0.90985279,-0.55964969,-0.94466125,0.30448203,-0.41068960,-0.67827147,0.58711545,0.90743294
11.28000000,-0.58268378,0.90810152,-0.32860593,-0.35544265,0.69962849,0.57656457,-0.90995073,-0.55974223,-0.94473603,0.30451480,-0.41083824,-0.67832834,0.58717866,0.90753062
11.30000000,-0.58276350,0.90816096,-0.32863561,-0.35556236,0.69967813,0.57661664,-0.91003292,-0.55981988,-0.94479877,0.30454231,-0.41096295,-0.67837606,0.58723169,0.90761259
11.32000000,-0.58282919,0.90820994,-0.32866006,-0.35566099,0.69971903,0.57665955,-0.91010063,-0.55988386,-0.94485047,0.30456497,-0.41106570,-0.67841537,0.58727538,0.90768012
11.34000000,-0.58288212,0.90824940,-0.32867976,-0.35574047,0.69975199,0.57669412,-0.91015520,-0.55993541,-0.94489213,0.30458323,-0.41114851,-0.67844705,0.58731059,0.90773454
11.36000000,-0.58292360,0.90828033,-0.32869521,-0.35580276,0.69977782,0.57672122,-0.91019796,-0.55997582,-0.94492478,0.30459754,-0.41121340,-0.67847188,0.58733819,0.90777719
11.38000000,-0.58295497,0.90830371,-0.32870688,-0.35584986,0.69979735,0.57674171,-0.91023030,-0.56000637,-0.94494947,0.30460836,-0.41126247,-0.67849066,0.58735906,0.90780945
11.40000000,-0.58297758,0.90832058,-0.32871530,-0.35588383,0.69981144,0.57675648,-0.91025361,-0.56002840,-0.94496727,0.30461616,-0.41129785,-0.67850420,0.58737410,0.90783270
11.42000000,-0.58299284,0.90833195,-0.32872098,-0.35590673,0.69982094,0.57676644,-0.91026934,-0.56004326,-0.94497928,0.30462142,-0.41132172,-0.67851333,0.58738425,0.90784839
11.44000000,-0.58300215,0.90833889,-0.32872445,-0.35592072,0.69982674,0.57677253,-0.91027894,-0.56005233,-0.94498661,0.30462464,-0.41133629,-0.67851890,0.58739044,0.90785796
11.46000000,-0.58300696,0.90834248,-0.32872624,-0.35592794,0.69982973,0.57677567,-0.91028390,-0.56005701,-0.94499040,0.30462630,-0.41134381,-0.67852178,0.58739364,0.90786290
11.48000000,-0.58300874,0.90834381,-0.32872690,-0.35593062,0.69983084,0.57677683,-0.91028574,-0.56005875,-0.94499180,0.30462691,-0.41134660,-0.67852285,0.58739483,0.90786474
11.50000000,-0.58300900,0.90834400,-0.32872700,-0.35593100,0.69983100,0.57677700,-0.91028600,-0.56005900,-0.94499200,0.30462700,-0.41134700,-0.67852300,0.58739500,0.90786500
11.52000000,-0.58300900,0.90834400,-0.32872700,-0.35593100,0.69983100,0.57677700,-0.91028600,-0.56005900,-0.94499200,0.30462700,-0.41134700,-0.67852300,0.58739500,0.90786500
11.54000000,-0.58300900,0.90834400,-0.32872700,-0.35593100,0.69983100,0.57677700,-0.91028600,-0.56005900,-0.94499200,0.30462700,-0.41134700,-0.67852300,0.58739500,0.90786500
11.56000000,-0.58300900,0.90834400,-0.32872700,-0.35593100,0.69983100,0.57677700,-0.91028600,-0.56005900,-0.94499200,0.30462700,-0.41134700,-0.67852300,0.58739500,0.90786500
11.58000000,-0.58300900,0.90834400,-0.32872700,-0.35593100,0.69983100,0.57677700,-0.91028600,-0.56005900,-0.94499200,0.30462700,-0.41134700,-0.67852300,0.58739500,0.90786500
11.60000000,-0.58300900,0.90834400,-0.32872700,-0.35593100,0.69983100,0.57677700,-0.91028600,-0.56005900,-0.94499200,0.30462700,-0.41134700,-0.67852300,0.58739500,0.90786500
11.62000000,-0.58300900,0.90834400,-0.32872700,-0.35593100,0.69983100,0.57677700,-0.91028600,-0.56005900,-0.94499200,0.30462700,-0.41134700,-0.67852300,0.58739500,0.90786500
11.64000000,-0.58300900,0.90834400,-0.32872700,-0.35593100,0.69983100,0.57677700,-0.91028600,-0.56005900,-0.94499200,0.30462700,-0.41134700,-0.67852300,0.58739500,0.90786500
11.66000000,-0.58300900,0.90834400,-0.32872700,-0.35593100,0.69983100,0.57677700,-0.91028600,-0.56005900,-0.94499200,0.30462700,-0.41134700,-0.67852300,0.58739500,0.90786500
11.68000000,-0.58300900,0.90834400,-0.32872700,-0.35593100,0.69983100,0.57677700,-0.91028600,-0.56005900,-0.94499200,0.30462700,-0.41134700,-0.67852300,0.58739500,0.90786500
11.70000000,-0.58300900,0.90834400,-0.32872700,-0.35593100,0.69983100,0.57677700,-0.91028600,-0.56005900,-0.94499200,0.30462700,-0.41134700,-0.67852300,0.58739500,0.90786500
11.72000000,-0.58300900,0.90834400,-0.32872700,-0.35593100,0.69983100,0.57677700,-0.91028600,-0.56005900,-0.94499200,0.30462700,-0.41134700,-0.67852300,0.58739500,0.90786500
11.74000000,-0.58300900,0.90834400,-0.32872700,-0.35593100,0.69983100,0.57677700,-0.91028600,-0.56005900,-0.94499200,0.30462700,-0.41134700,-0.67852300,0.58739500,0.90786500
