gracetata/LocomotionHEC/legged_lab/Reference Data/ArmHack/StandPerturb/TestData/ArmOnly/special/arms_down_to_forward_horizontal_20s_50hz.csv
time_s,left_shoulder_pitch_joint,left_shoulder_roll_joint,left_shoulder_yaw_joint,left_elbow_joint,left_wrist_roll_joint,left_wrist_pitch_joint,left_wrist_yaw_joint,right_shoulder_pitch_joint,right_shoulder_roll_joint,right_shoulder_yaw_joint,right_elbow_joint,right_wrist_roll_joint,right_wrist_pitch_joint,right_wrist_yaw_joint
0.00000000,0.24318400,0.32195600,-0.10706700,0.73631100,0.06639300,0.04969900,0.00659100,0.25242400,-0.31495700,0.11346700,0.69877600,-0.06790300,0.05015400,-0.00154600
0.02000000,0.24318400,0.32195600,-0.10706700,0.73631100,0.06639300,0.04969900,0.00659100,0.25242400,-0.31495700,0.11346700,0.69877600,-0.06790300,0.05015400,-0.00154600
0.04000000,0.24318400,0.32195600,-0.10706700,0.73631100,0.06639300,0.04969900,0.00659100,0.25242400,-0.31495700,0.11346700,0.69877600,-0.06790300,0.05015400,-0.00154600
0.06000000,0.24318400,0.32195600,-0.10706700,0.73631100,0.06639300,0.04969900,0.00659100,0.25242400,-0.31495700,0.11346700,0.69877600,-0.06790300,0.05015400,-0.00154600
0.08000000,0.24318400,0.32195600,-0.10706700,0.73631100,0.06639300,0.04969900,0.00659100,0.25242400,-0.31495700,0.11346700,0.69877600,-0.06790300,0.05015400,-0.00154600
0.10000000,0.24318400,0.32195600,-0.10706700,0.73631100,0.06639300,0.04969900,0.00659100,0.25242400,-0.31495700,0.11346700,0.69877600,-0.06790300,0.05015400,-0.00154600
0.12000000,0.24318400,0.32195600,-0.10706700,0.73631100,0.06639300,0.04969900,0.00659100,0.25242400,-0.31495700,0.11346700,0.69877600,-0.06790300,0.05015400,-0.00154600
0.14000000,0.24318400,0.32195600,-0.10706700,0.73631100,0.06639300,0.04969900,0.00659100,0.25242400,-0.31495700,0.11346700,0.69877600,-0.06790300,0.05015400,-0.00154600
0.16000000,0.24318400,0.32195600,-0.10706700,0.73631100,0.06639300,0.04969900,0.00659100,0.25242400,-0.31495700,0.11346700,0.69877600,-0.06790300,0.05015400,-0.00154600
0.18000000,0.24318400,0.32195600,-0.10706700,0.73631100,0.06639300,0.04969900,0.00659100,0.25242400,-0.31495700,0.11346700,0.69877600,-0.06790300,0.05015400,-0.00154600
0.20000000,0.24318400,0.32195600,-0.10706700,0.73631100,0.06639300,0.04969900,0.00659100,0.25242400,-0.31495700,0.11346700,0.69877600,-0.06790300,0.05015400,-0.00154600
0.22000000,0.24318400,0.32195600,-0.10706700,0.73631100,0.06639300,0.04969900,0.00659100,0.25242400,-0.31495700,0.11346700,0.69877600,-0.06790300,0.05015400,-0.00154600
0.24000000,0.24318400,0.32195600,-0.10706700,0.73631100,0.06639300,0.04969900,0.00659100,0.25242400,-0.31495700,0.11346700,0.69877600,-0.06790300,0.05015400,-0.00154600
0.26000000,0.24318400,0.32195600,-0.10706700,0.73631100,0.06639300,0.04969900,0.00659100,0.25242400,-0.31495700,0.11346700,0.69877600,-0.06790300,0.05015400,-0.00154600
0.28000000,0.24318400,0.32195600,-0.10706700,0.73631100,0.06639300,0.04969900,0.00659100,0.25242400,-0.31495700,0.11346700,0.69877600,-0.06790300,0.05015400,-0.00154600
0.30000000,0.24318400,0.32195600,-0.10706700,0.73631100,0.06639300,0.04969900,0.00659100,0.25242400,-0.31495700,0.11346700,0.69877600,-0.06790300,0.05015400,-0.00154600
0.32000000,0.24318400,0.32195600,-0.10706700,0.73631100,0.06639300,0.04969900,0.00659100,0.25242400,-0.31495700,0.11346700,0.69877600,-0.06790300,0.05015400,-0.00154600
0.34000000,0.24318400,0.32195600,-0.10706700,0.73631100,0.06639300,0.04969900,0.00659100,0.25242400,-0.31495700,0.11346700,0.69877600,-0.06790300,0.05015400,-0.00154600
0.36000000,0.24318400,0.32195600,-0.10706700,0.73631100,0.06639300,0.04969900,0.00659100,0.25242400,-0.31495700,0.11346700,0.69877600,-0.06790300,0.05015400,-0.00154600
0.38000000,0.24318400,0.32195600,-0.10706700,0.73631100,0.06639300,0.04969900,0.00659100,0.25242400,-0.31495700,0.11346700,0.69877600,-0.06790300,0.05015400,-0.00154600
0.40000000,0.24318400,0.32195600,-0.10706700,0.73631100,0.06639300,0.04969900,0.00659100,0.25242400,-0.31495700,0.11346700,0.69877600,-0.06790300,0.05015400,-0.00154600
0.42000000,0.24318400,0.32195600,-0.10706700,0.73631100,0.06639300,0.04969900,0.00659100,0.25242400,-0.31495700,0.11346700,0.69877600,-0.06790300,0.05015400,-0.00154600
0.44000000,0.24318400,0.32195600,-0.10706700,0.73631100,0.06639300,0.04969900,0.00659100,0.25242400,-0.31495700,0.11346700,0.69877600,-0.06790300,0.05015400,-0.00154600
0.46000000,0.24318400,0.32195600,-0.10706700,0.73631100,0.06639300,0.04969900,0.00659100,0.25242400,-0.31495700,0.11346700,0.69877600,-0.06790300,0.05015400,-0.00154600
0.48000000,0.24318400,0.32195600,-0.10706700,0.73631100,0.06639300,0.04969900,0.00659100,0.25242400,-0.31495700,0.11346700,0.69877600,-0.06790300,0.05015400,-0.00154600
0.50000000,0.24318400,0.32195600,-0.10706700,0.73631100,0.06639300,0.04969900,0.00659100,0.25242400,-0.31495700,0.11346700,0.69877600,-0.06790300,0.05015400,-0.00154600
0.52000000,0.24318400,0.32195600,-0.10706700,0.73631100,0.06639300,0.04969900,0.00659100,0.25242400,-0.31495700,0.11346700,0.69877600,-0.06790300,0.05015400,-0.00154600
0.54000000,0.24318400,0.32195600,-0.10706700,0.73631100,0.06639300,0.04969900,0.00659100,0.25242400,-0.31495700,0.11346700,0.69877600,-0.06790300,0.05015400,-0.00154600
0.56000000,0.24318400,0.32195600,-0.10706700,0.73631100,0.06639300,0.04969900,0.00659100,0.25242400,-0.31495700,0.11346700,0.69877600,-0.06790300,0.05015400,-0.00154600
0.58000000,0.24318400,0.32195600,-0.10706700,0.73631100,0.06639300,0.04969900,0.00659100,0.25242400,-0.31495700,0.11346700,0.69877600,-0.06790300,0.05015400,-0.00154600
0.60000000,0.24318400,0.32195600,-0.10706700,0.73631100,0.06639300,0.04969900,0.00659100,0.25242400,-0.31495700,0.11346700,0.69877600,-0.06790300,0.05015400,-0.00154600
0.62000000,0.24318400,0.32195600,-0.10706700,0.73631100,0.06639300,0.04969900,0.00659100,0.25242400,-0.31495700,0.11346700,0.69877600,-0.06790300,0.05015400,-0.00154600
0.64000000,0.24318400,0.32195600,-0.10706700,0.73631100,0.06639300,0.04969900,0.00659100,0.25242400,-0.31495700,0.11346700,0.69877600,-0.06790300,0.05015400,-0.00154600
0.66000000,0.24318400,0.32195600,-0.10706700,0.73631100,0.06639300,0.04969900,0.00659100,0.25242400,-0.31495700,0.11346700,0.69877600,-0.06790300,0.05015400,-0.00154600
0.68000000,0.24318400,0.32195600,-0.10706700,0.73631100,0.06639300,0.04969900,0.00659100,0.25242400,-0.31495700,0.11346700,0.69877600,-0.06790300,0.05015400,-0.00154600
0.70000000,0.24318400,0.32195600,-0.10706700,0.73631100,0.06639300,0.04969900,0.00659100,0.25242400,-0.31495700,0.11346700,0.69877600,-0.06790300,0.05015400,-0.00154600
0.72000000,0.24318400,0.32195600,-0.10706700,0.73631100,0.06639300,0.04969900,0.00659100,0.25242400,-0.31495700,0.11346700,0.69877600,-0.06790300,0.05015400,-0.00154600
0.74000000,0.24318400,0.32195600,-0.10706700,0.73631100,0.06639300,0.04969900,0.00659100,0.25242400,-0.31495700,0.11346700,0.69877600,-0.06790300,0.05015400,-0.00154600
0.76000000,0.24318400,0.32195600,-0.10706700,0.73631100,0.06639300,0.04969900,0.00659100,0.25242400,-0.31495700,0.11346700,0.69877600,-0.06790300,0.05015400,-0.00154600
0.78000000,0.24318400,0.32195600,-0.10706700,0.73631100,0.06639300,0.04969900,0.00659100,0.25242400,-0.31495700,0.11346700,0.69877600,-0.06790300,0.05015400,-0.00154600
0.80000000,0.24318400,0.32195600,-0.10706700,0.73631100,0.06639300,0.04969900,0.00659100,0.25242400,-0.31495700,0.11346700,0.69877600,-0.06790300,0.05015400,-0.00154600
0.82000000,0.24318400,0.32195600,-0.10706700,0.73631100,0.06639300,0.04969900,0.00659100,0.25242400,-0.31495700,0.11346700,0.69877600,-0.06790300,0.05015400,-0.00154600
0.84000000,0.24318400,0.32195600,-0.10706700,0.73631100,0.06639300,0.04969900,0.00659100,0.25242400,-0.31495700,0.11346700,0.69877600,-0.06790300,0.05015400,-0.00154600
0.86000000,0.24318400,0.32195600,-0.10706700,0.73631100,0.06639300,0.04969900,0.00659100,0.25242400,-0.31495700,0.11346700,0.69877600,-0.06790300,0.05015400,-0.00154600
0.88000000,0.24318400,0.32195600,-0.10706700,0.73631100,0.06639300,0.04969900,0.00659100,0.25242400,-0.31495700,0.11346700,0.69877600,-0.06790300,0.05015400,-0.00154600
0.90000000,0.24318400,0.32195600,-0.10706700,0.73631100,0.06639300,0.04969900,0.00659100,0.25242400,-0.31495700,0.11346700,0.69877600,-0.06790300,0.05015400,-0.00154600
0.92000000,0.24318400,0.32195600,-0.10706700,0.73631100,0.06639300,0.04969900,0.00659100,0.25242400,-0.31495700,0.11346700,0.69877600,-0.06790300,0.05015400,-0.00154600
0.94000000,0.24318400,0.32195600,-0.10706700,0.73631100,0.06639300,0.04969900,0.00659100,0.25242400,-0.31495700,0.11346700,0.69877600,-0.06790300,0.05015400,-0.00154600
0.96000000,0.24318400,0.32195600,-0.10706700,0.73631100,0.06639300,0.04969900,0.00659100,0.25242400,-0.31495700,0.11346700,0.69877600,-0.06790300,0.05015400,-0.00154600
0.98000000,0.24318400,0.32195600,-0.10706700,0.73631100,0.06639300,0.04969900,0.00659100,0.25242400,-0.31495700,0.11346700,0.69877600,-0.06790300,0.05015400,-0.00154600
1.00000000,0.24318400,0.32195600,-0.10706700,0.73631100,0.06639300,0.04969900,0.00659100,0.25242400,-0.31495700,0.11346700,0.69877600,-0.06790300,0.05015400,-0.00154600
1.02000000,0.24318400,0.32195600,-0.10706700,0.73631100,0.06639300,0.04969900,0.00659100,0.25242400,-0.31495700,0.11346700,0.69877600,-0.06790300,0.05015400,-0.00154600
1.04000000,0.24318400,0.32195600,-0.10706700,0.73631100,0.06639300,0.04969900,0.00659100,0.25242400,-0.31495700,0.11346700,0.69877600,-0.06790300,0.05015400,-0.00154600
1.06000000,0.24318400,0.32195600,-0.10706700,0.73631100,0.06639300,0.04969900,0.00659100,0.25242400,-0.31495700,0.11346700,0.69877600,-0.06790300,0.05015400,-0.00154600
1.08000000,0.24318400,0.32195600,-0.10706700,0.73631100,0.06639300,0.04969900,0.00659100,0.25242400,-0.31495700,0.11346700,0.69877600,-0.06790300,0.05015400,-0.00154600
1.10000000,0.24318400,0.32195600,-0.10706700,0.73631100,0.06639300,0.04969900,0.00659100,0.25242400,-0.31495700,0.11346700,0.69877600,-0.06790300,0.05015400,-0.00154600
1.12000000,0.24318400,0.32195600,-0.10706700,0.73631100,0.06639300,0.04969900,0.00659100,0.25242400,-0.31495700,0.11346700,0.69877600,-0.06790300,0.05015400,-0.00154600
1.14000000,0.24318400,0.32195600,-0.10706700,0.73631100,0.06639300,0.04969900,0.00659100,0.25242400,-0.31495700,0.11346700,0.69877600,-0.06790300,0.05015400,-0.00154600
1.16000000,0.24318400,0.32195600,-0.10706700,0.73631100,0.06639300,0.04969900,0.00659100,0.25242400,-0.31495700,0.11346700,0.69877600,-0.06790300,0.05015400,-0.00154600
1.18000000,0.24318400,0.32195600,-0.10706700,0.73631100,0.06639300,0.04969900,0.00659100,0.25242400,-0.31495700,0.11346700,0.69877600,-0.06790300,0.05015400,-0.00154600
1.20000000,0.24318400,0.32195600,-0.10706700,0.73631100,0.06639300,0.04969900,0.00659100,0.25242400,-0.31495700,0.11346700,0.69877600,-0.06790300,0.05015400,-0.00154600
1.22000000,0.24318400,0.32195600,-0.10706700,0.73631100,0.06639300,0.04969900,0.00659100,0.25242400,-0.31495700,0.11346700,0.69877600,-0.06790300,0.05015400,-0.00154600
1.24000000,0.24318400,0.32195600,-0.10706700,0.73631100,0.06639300,0.04969900,0.00659100,0.25242400,-0.31495700,0.11346700,0.69877600,-0.06790300,0.05015400,-0.00154600
1.26000000,0.24318400,0.32195600,-0.10706700,0.73631100,0.06639300,0.04969900,0.00659100,0.25242400,-0.31495700,0.11346700,0.69877600,-0.06790300,0.05015400,-0.00154600
1.28000000,0.24318400,0.32195600,-0.10706700,0.73631100,0.06639300,0.04969900,0.00659100,0.25242400,-0.31495700,0.11346700,0.69877600,-0.06790300,0.05015400,-0.00154600
1.30000000,0.24318400,0.32195600,-0.10706700,0.73631100,0.06639300,0.04969900,0.00659100,0.25242400,-0.31495700,0.11346700,0.69877600,-0.06790300,0.05015400,-0.00154600
1.32000000,0.24318400,0.32195600,-0.10706700,0.73631100,0.06639300,0.04969900,0.00659100,0.25242400,-0.31495700,0.11346700,0.69877600,-0.06790300,0.05015400,-0.00154600
1.34000000,0.24318400,0.32195600,-0.10706700,0.73631100,0.06639300,0.04969900,0.00659100,0.25242400,-0.31495700,0.11346700,0.69877600,-0.06790300,0.05015400,-0.00154600
1.36000000,0.24318400,0.32195600,-0.10706700,0.73631100,0.06639300,0.04969900,0.00659100,0.25242400,-0.31495700,0.11346700,0.69877600,-0.06790300,0.05015400,-0.00154600
1.38000000,0.24318400,0.32195600,-0.10706700,0.73631100,0.06639300,0.04969900,0.00659100,0.25242400,-0.31495700,0.11346700,0.69877600,-0.06790300,0.05015400,-0.00154600
1.40000000,0.24318400,0.32195600,-0.10706700,0.73631100,0.06639300,0.04969900,0.00659100,0.25242400,-0.31495700,0.11346700,0.69877600,-0.06790300,0.05015400,-0.00154600
1.42000000,0.24318400,0.32195600,-0.10706700,0.73631100,0.06639300,0.04969900,0.00659100,0.25242400,-0.31495700,0.11346700,0.69877600,-0.06790300,0.05015400,-0.00154600
1.44000000,0.24318400,0.32195600,-0.10706700,0.73631100,0.06639300,0.04969900,0.00659100,0.25242400,-0.31495700,0.11346700,0.69877600,-0.06790300,0.05015400,-0.00154600
1.46000000,0.24318400,0.32195600,-0.10706700,0.73631100,0.06639300,0.04969900,0.00659100,0.25242400,-0.31495700,0.11346700,0.69877600,-0.06790300,0.05015400,-0.00154600
1.48000000,0.24318400,0.32195600,-0.10706700,0.73631100,0.06639300,0.04969900,0.00659100,0.25242400,-0.31495700,0.11346700,0.69877600,-0.06790300,0.05015400,-0.00154600
1.50000000,0.24318400,0.32195600,-0.10706700,0.73631100,0.06639300,0.04969900,0.00659100,0.25242400,-0.31495700,0.11346700,0.69877600,-0.06790300,0.05015400,-0.00154600
1.52000000,0.24318400,0.32195600,-0.10706700,0.73631100,0.06639300,0.04969900,0.00659100,0.25242400,-0.31495700,0.11346700,0.69877600,-0.06790300,0.05015400,-0.00154600
1.54000000,0.24318400,0.32195600,-0.10706700,0.73631100,0.06639300,0.04969900,0.00659100,0.25242400,-0.31495700,0.11346700,0.69877600,-0.06790300,0.05015400,-0.00154600
1.56000000,0.24318400,0.32195600,-0.10706700,0.73631100,0.06639300,0.04969900,0.00659100,0.25242400,-0.31495700,0.11346700,0.69877600,-0.06790300,0.05015400,-0.00154600
1.58000000,0.24318400,0.32195600,-0.10706700,0.73631100,0.06639300,0.04969900,0.00659100,0.25242400,-0.31495700,0.11346700,0.69877600,-0.06790300,0.05015400,-0.00154600
1.60000000,0.24318400,0.32195600,-0.10706700,0.73631100,0.06639300,0.04969900,0.00659100,0.25242400,-0.31495700,0.11346700,0.69877600,-0.06790300,0.05015400,-0.00154600
1.62000000,0.24318400,0.32195600,-0.10706700,0.73631100,0.06639300,0.04969900,0.00659100,0.25242400,-0.31495700,0.11346700,0.69877600,-0.06790300,0.05015400,-0.00154600
1.64000000,0.24318400,0.32195600,-0.10706700,0.73631100,0.06639300,0.04969900,0.00659100,0.25242400,-0.31495700,0.11346700,0.69877600,-0.06790300,0.05015400,-0.00154600
1.66000000,0.24318400,0.32195600,-0.10706700,0.73631100,0.06639300,0.04969900,0.00659100,0.25242400,-0.31495700,0.11346700,0.69877600,-0.06790300,0.05015400,-0.00154600
1.68000000,0.24318400,0.32195600,-0.10706700,0.73631100,0.06639300,0.04969900,0.00659100,0.25242400,-0.31495700,0.11346700,0.69877600,-0.06790300,0.05015400,-0.00154600
1.70000000,0.24318400,0.32195600,-0.10706700,0.73631100,0.06639300,0.04969900,0.00659100,0.25242400,-0.31495700,0.11346700,0.69877600,-0.06790300,0.05015400,-0.00154600
1.72000000,0.24318400,0.32195600,-0.10706700,0.73631100,0.06639300,0.04969900,0.00659100,0.25242400,-0.31495700,0.11346700,0.69877600,-0.06790300,0.05015400,-0.00154600
1.74000000,0.24318400,0.32195600,-0.10706700,0.73631100,0.06639300,0.04969900,0.00659100,0.25242400,-0.31495700,0.11346700,0.69877600,-0.06790300,0.05015400,-0.00154600
1.76000000,0.24318400,0.32195600,-0.10706700,0.73631100,0.06639300,0.04969900,0.00659100,0.25242400,-0.31495700,0.11346700,0.69877600,-0.06790300,0.05015400,-0.00154600
1.78000000,0.24318400,0.32195600,-0.10706700,0.73631100,0.06639300,0.04969900,0.00659100,0.25242400,-0.31495700,0.11346700,0.69877600,-0.06790300,0.05015400,-0.00154600
1.80000000,0.24318400,0.32195600,-0.10706700,0.73631100,0.06639300,0.04969900,0.00659100,0.25242400,-0.31495700,0.11346700,0.69877600,-0.06790300,0.05015400,-0.00154600
1.82000000,0.24318400,0.32195600,-0.10706700,0.73631100,0.06639300,0.04969900,0.00659100,0.25242400,-0.31495700,0.11346700,0.69877600,-0.06790300,0.05015400,-0.00154600
1.84000000,0.24318400,0.32195600,-0.10706700,0.73631100,0.06639300,0.04969900,0.00659100,0.25242400,-0.31495700,0.11346700,0.69877600,-0.06790300,0.05015400,-0.00154600
1.86000000,0.24318400,0.32195600,-0.10706700,0.73631100,0.06639300,0.04969900,0.00659100,0.25242400,-0.31495700,0.11346700,0.69877600,-0.06790300,0.05015400,-0.00154600
1.88000000,0.24318400,0.32195600,-0.10706700,0.73631100,0.06639300,0.04969900,0.00659100,0.25242400,-0.31495700,0.11346700,0.69877600,-0.06790300,0.05015400,-0.00154600
1.90000000,0.24318400,0.32195600,-0.10706700,0.73631100,0.06639300,0.04969900,0.00659100,0.25242400,-0.31495700,0.11346700,0.69877600,-0.06790300,0.05015400,-0.00154600
1.92000000,0.24318400,0.32195600,-0.10706700,0.73631100,0.06639300,0.04969900,0.00659100,0.25242400,-0.31495700,0.11346700,0.69877600,-0.06790300,0.05015400,-0.00154600
1.94000000,0.24318400,0.32195600,-0.10706700,0.73631100,0.06639300,0.04969900,0.00659100,0.25242400,-0.31495700,0.11346700,0.69877600,-0.06790300,0.05015400,-0.00154600
1.96000000,0.24318400,0.32195600,-0.10706700,0.73631100,0.06639300,0.04969900,0.00659100,0.25242400,-0.31495700,0.11346700,0.69877600,-0.06790300,0.05015400,-0.00154600
1.98000000,0.24318400,0.32195600,-0.10706700,0.73631100,0.06639300,0.04969900,0.00659100,0.25242400,-0.31495700,0.11346700,0.69877600,-0.06790300,0.05015400,-0.00154600
2.00000000,0.24318400,0.32195600,-0.10706700,0.73631100,0.06639300,0.04969900,0.00659100,0.25242400,-0.31495700,0.11346700,0.69877600,-0.06790300,0.05015400,-0.00154600
2.02000000,0.24318400,0.32195600,-0.10706700,0.73631100,0.06639300,0.04969900,0.00659100,0.25242400,-0.31495700,0.11346700,0.69877600,-0.06790300,0.05015400,-0.00154600
2.04000000,0.24318400,0.32195600,-0.10706700,0.73631100,0.06639300,0.04969900,0.00659100,0.25242400,-0.31495700,0.11346700,0.69877600,-0.06790300,0.05015400,-0.00154600
2.06000000,0.24318400,0.32195600,-0.10706700,0.73631100,0.06639300,0.04969900,0.00659100,0.25242400,-0.31495700,0.11346700,0.69877600,-0.06790300,0.05015400,-0.00154600
2.08000000,0.24318400,0.32195600,-0.10706700,0.73631100,0.06639300,0.04969900,0.00659100,0.25242400,-0.31495700,0.11346700,0.69877600,-0.06790300,0.05015400,-0.00154600
2.10000000,0.24318400,0.32195600,-0.10706700,0.73631100,0.06639300,0.04969900,0.00659100,0.25242400,-0.31495700,0.11346700,0.69877600,-0.06790300,0.05015400,-0.00154600
2.12000000,0.24318400,0.32195600,-0.10706700,0.73631100,0.06639300,0.04969900,0.00659100,0.25242400,-0.31495700,0.11346700,0.69877600,-0.06790300,0.05015400,-0.00154600
2.14000000,0.24318400,0.32195600,-0.10706700,0.73631100,0.06639300,0.04969900,0.00659100,0.25242400,-0.31495700,0.11346700,0.69877600,-0.06790300,0.05015400,-0.00154600
2.16000000,0.24318400,0.32195600,-0.10706700,0.73631100,0.06639300,0.04969900,0.00659100,0.25242400,-0.31495700,0.11346700,0.69877600,-0.06790300,0.05015400,-0.00154600
2.18000000,0.24318400,0.32195600,-0.10706700,0.73631100,0.06639300,0.04969900,0.00659100,0.25242400,-0.31495700,0.11346700,0.69877600,-0.06790300,0.05015400,-0.00154600
2.20000000,0.24318400,0.32195600,-0.10706700,0.73631100,0.06639300,0.04969900,0.00659100,0.25242400,-0.31495700,0.11346700,0.69877600,-0.06790300,0.05015400,-0.00154600
2.22000000,0.24318400,0.32195600,-0.10706700,0.73631100,0.06639300,0.04969900,0.00659100,0.25242400,-0.31495700,0.11346700,0.69877600,-0.06790300,0.05015400,-0.00154600
2.24000000,0.24318400,0.32195600,-0.10706700,0.73631100,0.06639300,0.04969900,0.00659100,0.25242400,-0.31495700,0.11346700,0.69877600,-0.06790300,0.05015400,-0.00154600
2.26000000,0.24318400,0.32195600,-0.10706700,0.73631100,0.06639300,0.04969900,0.00659100,0.25242400,-0.31495700,0.11346700,0.69877600,-0.06790300,0.05015400,-0.00154600
2.28000000,0.24318400,0.32195600,-0.10706700,0.73631100,0.06639300,0.04969900,0.00659100,0.25242400,-0.31495700,0.11346700,0.69877600,-0.06790300,0.05015400,-0.00154600
2.30000000,0.24318400,0.32195600,-0.10706700,0.73631100,0.06639300,0.04969900,0.00659100,0.25242400,-0.31495700,0.11346700,0.69877600,-0.06790300,0.05015400,-0.00154600
2.32000000,0.24318400,0.32195600,-0.10706700,0.73631100,0.06639300,0.04969900,0.00659100,0.25242400,-0.31495700,0.11346700,0.69877600,-0.06790300,0.05015400,-0.00154600
2.34000000,0.24318400,0.32195600,-0.10706700,0.73631100,0.06639300,0.04969900,0.00659100,0.25242400,-0.31495700,0.11346700,0.69877600,-0.06790300,0.05015400,-0.00154600
2.36000000,0.24318400,0.32195600,-0.10706700,0.73631100,0.06639300,0.04969900,0.00659100,0.25242400,-0.31495700,0.11346700,0.69877600,-0.06790300,0.05015400,-0.00154600
2.38000000,0.24318400,0.32195600,-0.10706700,0.73631100,0.06639300,0.04969900,0.00659100,0.25242400,-0.31495700,0.11346700,0.69877600,-0.06790300,0.05015400,-0.00154600
2.40000000,0.24318400,0.32195600,-0.10706700,0.73631100,0.06639300,0.04969900,0.00659100,0.25242400,-0.31495700,0.11346700,0.69877600,-0.06790300,0.05015400,-0.00154600
2.42000000,0.24318400,0.32195600,-0.10706700,0.73631100,0.06639300,0.04969900,0.00659100,0.25242400,-0.31495700,0.11346700,0.69877600,-0.06790300,0.05015400,-0.00154600
2.44000000,0.24318400,0.32195600,-0.10706700,0.73631100,0.06639300,0.04969900,0.00659100,0.25242400,-0.31495700,0.11346700,0.69877600,-0.06790300,0.05015400,-0.00154600
2.46000000,0.24318400,0.32195600,-0.10706700,0.73631100,0.06639300,0.04969900,0.00659100,0.25242400,-0.31495700,0.11346700,0.69877600,-0.06790300,0.05015400,-0.00154600
2.48000000,0.24318400,0.32195600,-0.10706700,0.73631100,0.06639300,0.04969900,0.00659100,0.25242400,-0.31495700,0.11346700,0.69877600,-0.06790300,0.05015400,-0.00154600
2.50000000,0.24318400,0.32195600,-0.10706700,0.73631100,0.06639300,0.04969900,0.00659100,0.25242400,-0.31495700,0.11346700,0.69877600,-0.06790300,0.05015400,-0.00154600
2.52000000,0.24318400,0.32195600,-0.10706700,0.73631100,0.06639300,0.04969900,0.00659100,0.25242400,-0.31495700,0.11346700,0.69877600,-0.06790300,0.05015400,-0.00154600
2.54000000,0.24318400,0.32195600,-0.10706700,0.73631100,0.06639300,0.04969900,0.00659100,0.25242400,-0.31495700,0.11346700,0.69877600,-0.06790300,0.05015400,-0.00154600
2.56000000,0.24318400,0.32195600,-0.10706700,0.73631100,0.06639300,0.04969900,0.00659100,0.25242400,-0.31495700,0.11346700,0.69877600,-0.06790300,0.05015400,-0.00154600
2.58000000,0.24318400,0.32195600,-0.10706700,0.73631100,0.06639300,0.04969900,0.00659100,0.25242400,-0.31495700,0.11346700,0.69877600,-0.06790300,0.05015400,-0.00154600
2.60000000,0.24318400,0.32195600,-0.10706700,0.73631100,0.06639300,0.04969900,0.00659100,0.25242400,-0.31495700,0.11346700,0.69877600,-0.06790300,0.05015400,-0.00154600
2.62000000,0.24318400,0.32195600,-0.10706700,0.73631100,0.06639300,0.04969900,0.00659100,0.25242400,-0.31495700,0.11346700,0.69877600,-0.06790300,0.05015400,-0.00154600
2.64000000,0.24318400,0.32195600,-0.10706700,0.73631100,0.06639300,0.04969900,0.00659100,0.25242400,-0.31495700,0.11346700,0.69877600,-0.06790300,0.05015400,-0.00154600
2.66000000,0.24318400,0.32195600,-0.10706700,0.73631100,0.06639300,0.04969900,0.00659100,0.25242400,-0.31495700,0.11346700,0.69877600,-0.06790300,0.05015400,-0.00154600
2.68000000,0.24318400,0.32195600,-0.10706700,0.73631100,0.06639300,0.04969900,0.00659100,0.25242400,-0.31495700,0.11346700,0.69877600,-0.06790300,0.05015400,-0.00154600
2.70000000,0.24318400,0.32195600,-0.10706700,0.73631100,0.06639300,0.04969900,0.00659100,0.25242400,-0.31495700,0.11346700,0.69877600,-0.06790300,0.05015400,-0.00154600
2.72000000,0.24318400,0.32195600,-0.10706700,0.73631100,0.06639300,0.04969900,0.00659100,0.25242400,-0.31495700,0.11346700,0.69877600,-0.06790300,0.05015400,-0.00154600
2.74000000,0.24318400,0.32195600,-0.10706700,0.73631100,0.06639300,0.04969900,0.00659100,0.25242400,-0.31495700,0.11346700,0.69877600,-0.06790300,0.05015400,-0.00154600
2.76000000,0.24318400,0.32195600,-0.10706700,0.73631100,0.06639300,0.04969900,0.00659100,0.25242400,-0.31495700,0.11346700,0.69877600,-0.06790300,0.05015400,-0.00154600
2.78000000,0.24318400,0.32195600,-0.10706700,0.73631100,0.06639300,0.04969900,0.00659100,0.25242400,-0.31495700,0.11346700,0.69877600,-0.06790300,0.05015400,-0.00154600
2.80000000,0.24318400,0.32195600,-0.10706700,0.73631100,0.06639300,0.04969900,0.00659100,0.25242400,-0.31495700,0.11346700,0.69877600,-0.06790300,0.05015400,-0.00154600
2.82000000,0.24318400,0.32195600,-0.10706700,0.73631100,0.06639300,0.04969900,0.00659100,0.25242400,-0.31495700,0.11346700,0.69877600,-0.06790300,0.05015400,-0.00154600
2.84000000,0.24318400,0.32195600,-0.10706700,0.73631100,0.06639300,0.04969900,0.00659100,0.25242400,-0.31495700,0.11346700,0.69877600,-0.06790300,0.05015400,-0.00154600
2.86000000,0.24318400,0.32195600,-0.10706700,0.73631100,0.06639300,0.04969900,0.00659100,0.25242400,-0.31495700,0.11346700,0.69877600,-0.06790300,0.05015400,-0.00154600
2.88000000,0.24318400,0.32195600,-0.10706700,0.73631100,0.06639300,0.04969900,0.00659100,0.25242400,-0.31495700,0.11346700,0.69877600,-0.06790300,0.05015400,-0.00154600
2.90000000,0.24318400,0.32195600,-0.10706700,0.73631100,0.06639300,0.04969900,0.00659100,0.25242400,-0.31495700,0.11346700,0.69877600,-0.06790300,0.05015400,-0.00154600
2.92000000,0.24318400,0.32195600,-0.10706700,0.73631100,0.06639300,0.04969900,0.00659100,0.25242400,-0.31495700,0.11346700,0.69877600,-0.06790300,0.05015400,-0.00154600
2.94000000,0.24318400,0.32195600,-0.10706700,0.73631100,0.06639300,0.04969900,0.00659100,0.25242400,-0.31495700,0.11346700,0.69877600,-0.06790300,0.05015400,-0.00154600
2.96000000,0.24318400,0.32195600,-0.10706700,0.73631100,0.06639300,0.04969900,0.00659100,0.25242400,-0.31495700,0.11346700,0.69877600,-0.06790300,0.05015400,-0.00154600
2.98000000,0.24318400,0.32195600,-0.10706700,0.73631100,0.06639300,0.04969900,0.00659100,0.25242400,-0.31495700,0.11346700,0.69877600,-0.06790300,0.05015400,-0.00154600
3.00000000,0.24318400,0.32195600,-0.10706700,0.73631100,0.06639300,0.04969900,0.00659100,0.25242400,-0.31495700,0.11346700,0.69877600,-0.06790300,0.05015400,-0.00154600
3.02000000,0.24318400,0.32195600,-0.10706700,0.73631100,0.06639300,0.04969900,0.00659100,0.25242400,-0.31495700,0.11346700,0.69877600,-0.06790300,0.05015400,-0.00154600
3.04000000,0.24318400,0.32195600,-0.10706700,0.73631100,0.06639300,0.04969900,0.00659100,0.25242400,-0.31495700,0.11346700,0.69877600,-0.06790300,0.05015400,-0.00154600
3.06000000,0.24318400,0.32195600,-0.10706700,0.73631100,0.06639300,0.04969900,0.00659100,0.25242400,-0.31495700,0.11346700,0.69877600,-0.06790300,0.05015400,-0.00154600
3.08000000,0.24318400,0.32195600,-0.10706700,0.73631100,0.06639300,0.04969900,0.00659100,0.25242400,-0.31495700,0.11346700,0.69877600,-0.06790300,0.05015400,-0.00154600
3.10000000,0.24318400,0.32195600,-0.10706700,0.73631100,0.06639300,0.04969900,0.00659100,0.25242400,-0.31495700,0.11346700,0.69877600,-0.06790300,0.05015400,-0.00154600
3.12000000,0.24318400,0.32195600,-0.10706700,0.73631100,0.06639300,0.04969900,0.00659100,0.25242400,-0.31495700,0.11346700,0.69877600,-0.06790300,0.05015400,-0.00154600
3.14000000,0.24318400,0.32195600,-0.10706700,0.73631100,0.06639300,0.04969900,0.00659100,0.25242400,-0.31495700,0.11346700,0.69877600,-0.06790300,0.05015400,-0.00154600
3.16000000,0.24318400,0.32195600,-0.10706700,0.73631100,0.06639300,0.04969900,0.00659100,0.25242400,-0.31495700,0.11346700,0.69877600,-0.06790300,0.05015400,-0.00154600
3.18000000,0.24318400,0.32195600,-0.10706700,0.73631100,0.06639300,0.04969900,0.00659100,0.25242400,-0.31495700,0.11346700,0.69877600,-0.06790300,0.05015400,-0.00154600
3.20000000,0.24318400,0.32195600,-0.10706700,0.73631100,0.06639300,0.04969900,0.00659100,0.25242400,-0.31495700,0.11346700,0.69877600,-0.06790300,0.05015400,-0.00154600
3.22000000,0.24318400,0.32195600,-0.10706700,0.73631100,0.06639300,0.04969900,0.00659100,0.25242400,-0.31495700,0.11346700,0.69877600,-0.06790300,0.05015400,-0.00154600
3.24000000,0.24318400,0.32195600,-0.10706700,0.73631100,0.06639300,0.04969900,0.00659100,0.25242400,-0.31495700,0.11346700,0.69877600,-0.06790300,0.05015400,-0.00154600
3.26000000,0.24318400,0.32195600,-0.10706700,0.73631100,0.06639300,0.04969900,0.00659100,0.25242400,-0.31495700,0.11346700,0.69877600,-0.06790300,0.05015400,-0.00154600
3.28000000,0.24318400,0.32195600,-0.10706700,0.73631100,0.06639300,0.04969900,0.00659100,0.25242400,-0.31495700,0.11346700,0.69877600,-0.06790300,0.05015400,-0.00154600
3.30000000,0.24318400,0.32195600,-0.10706700,0.73631100,0.06639300,0.04969900,0.00659100,0.25242400,-0.31495700,0.11346700,0.69877600,-0.06790300,0.05015400,-0.00154600
3.32000000,0.24318400,0.32195600,-0.10706700,0.73631100,0.06639300,0.04969900,0.00659100,0.25242400,-0.31495700,0.11346700,0.69877600,-0.06790300,0.05015400,-0.00154600
3.34000000,0.24318400,0.32195600,-0.10706700,0.73631100,0.06639300,0.04969900,0.00659100,0.25242400,-0.31495700,0.11346700,0.69877600,-0.06790300,0.05015400,-0.00154600
3.36000000,0.24318400,0.32195600,-0.10706700,0.73631100,0.06639300,0.04969900,0.00659100,0.25242400,-0.31495700,0.11346700,0.69877600,-0.06790300,0.05015400,-0.00154600
3.38000000,0.24318400,0.32195600,-0.10706700,0.73631100,0.06639300,0.04969900,0.00659100,0.25242400,-0.31495700,0.11346700,0.69877600,-0.06790300,0.05015400,-0.00154600
3.40000000,0.24318400,0.32195600,-0.10706700,0.73631100,0.06639300,0.04969900,0.00659100,0.25242400,-0.31495700,0.11346700,0.69877600,-0.06790300,0.05015400,-0.00154600
3.42000000,0.24318400,0.32195600,-0.10706700,0.73631100,0.06639300,0.04969900,0.00659100,0.25242400,-0.31495700,0.11346700,0.69877600,-0.06790300,0.05015400,-0.00154600
3.44000000,0.24318400,0.32195600,-0.10706700,0.73631100,0.06639300,0.04969900,0.00659100,0.25242400,-0.31495700,0.11346700,0.69877600,-0.06790300,0.05015400,-0.00154600
3.46000000,0.24318400,0.32195600,-0.10706700,0.73631100,0.06639300,0.04969900,0.00659100,0.25242400,-0.31495700,0.11346700,0.69877600,-0.06790300,0.05015400,-0.00154600
3.48000000,0.24318400,0.32195600,-0.10706700,0.73631100,0.06639300,0.04969900,0.00659100,0.25242400,-0.31495700,0.11346700,0.69877600,-0.06790300,0.05015400,-0.00154600
3.50000000,0.24318400,0.32195600,-0.10706700,0.73631100,0.06639300,0.04969900,0.00659100,0.25242400,-0.31495700,0.11346700,0.69877600,-0.06790300,0.05015400,-0.00154600
3.52000000,0.24318400,0.32195600,-0.10706700,0.73631100,0.06639300,0.04969900,0.00659100,0.25242400,-0.31495700,0.11346700,0.69877600,-0.06790300,0.05015400,-0.00154600
3.54000000,0.24318400,0.32195600,-0.10706700,0.73631100,0.06639300,0.04969900,0.00659100,0.25242400,-0.31495700,0.11346700,0.69877600,-0.06790300,0.05015400,-0.00154600
3.56000000,0.24318400,0.32195600,-0.10706700,0.73631100,0.06639300,0.04969900,0.00659100,0.25242400,-0.31495700,0.11346700,0.69877600,-0.06790300,0.05015400,-0.00154600
3.58000000,0.24318400,0.32195600,-0.10706700,0.73631100,0.06639300,0.04969900,0.00659100,0.25242400,-0.31495700,0.11346700,0.69877600,-0.06790300,0.05015400,-0.00154600
3.60000000,0.24318400,0.32195600,-0.10706700,0.73631100,0.06639300,0.04969900,0.00659100,0.25242400,-0.31495700,0.11346700,0.69877600,-0.06790300,0.05015400,-0.00154600
3.62000000,0.24318400,0.32195600,-0.10706700,0.73631100,0.06639300,0.04969900,0.00659100,0.25242400,-0.31495700,0.11346700,0.69877600,-0.06790300,0.05015400,-0.00154600
3.64000000,0.24318400,0.32195600,-0.10706700,0.73631100,0.06639300,0.04969900,0.00659100,0.25242400,-0.31495700,0.11346700,0.69877600,-0.06790300,0.05015400,-0.00154600
3.66000000,0.24318400,0.32195600,-0.10706700,0.73631100,0.06639300,0.04969900,0.00659100,0.25242400,-0.31495700,0.11346700,0.69877600,-0.06790300,0.05015400,-0.00154600
3.68000000,0.24318400,0.32195600,-0.10706700,0.73631100,0.06639300,0.04969900,0.00659100,0.25242400,-0.31495700,0.11346700,0.69877600,-0.06790300,0.05015400,-0.00154600
3.70000000,0.24318400,0.32195600,-0.10706700,0.73631100,0.06639300,0.04969900,0.00659100,0.25242400,-0.31495700,0.11346700,0.69877600,-0.06790300,0.05015400,-0.00154600
3.72000000,0.24318400,0.32195600,-0.10706700,0.73631100,0.06639300,0.04969900,0.00659100,0.25242400,-0.31495700,0.11346700,0.69877600,-0.06790300,0.05015400,-0.00154600
3.74000000,0.24318400,0.32195600,-0.10706700,0.73631100,0.06639300,0.04969900,0.00659100,0.25242400,-0.31495700,0.11346700,0.69877600,-0.06790300,0.05015400,-0.00154600
3.76000000,0.24318400,0.32195600,-0.10706700,0.73631100,0.06639300,0.04969900,0.00659100,0.25242400,-0.31495700,0.11346700,0.69877600,-0.06790300,0.05015400,-0.00154600
3.78000000,0.24318400,0.32195600,-0.10706700,0.73631100,0.06639300,0.04969900,0.00659100,0.25242400,-0.31495700,0.11346700,0.69877600,-0.06790300,0.05015400,-0.00154600
3.80000000,0.24318400,0.32195600,-0.10706700,0.73631100,0.06639300,0.04969900,0.00659100,0.25242400,-0.31495700,0.11346700,0.69877600,-0.06790300,0.05015400,-0.00154600
3.82000000,0.24318400,0.32195600,-0.10706700,0.73631100,0.06639300,0.04969900,0.00659100,0.25242400,-0.31495700,0.11346700,0.69877600,-0.06790300,0.05015400,-0.00154600
3.84000000,0.24318400,0.32195600,-0.10706700,0.73631100,0.06639300,0.04969900,0.00659100,0.25242400,-0.31495700,0.11346700,0.69877600,-0.06790300,0.05015400,-0.00154600
3.86000000,0.24318400,0.32195600,-0.10706700,0.73631100,0.06639300,0.04969900,0.00659100,0.25242400,-0.31495700,0.11346700,0.69877600,-0.06790300,0.05015400,-0.00154600
3.88000000,0.24318400,0.32195600,-0.10706700,0.73631100,0.06639300,0.04969900,0.00659100,0.25242400,-0.31495700,0.11346700,0.69877600,-0.06790300,0.05015400,-0.00154600
3.90000000,0.24318400,0.32195600,-0.10706700,0.73631100,0.06639300,0.04969900,0.00659100,0.25242400,-0.31495700,0.11346700,0.69877600,-0.06790300,0.05015400,-0.00154600
3.92000000,0.24318400,0.32195600,-0.10706700,0.73631100,0.06639300,0.04969900,0.00659100,0.25242400,-0.31495700,0.11346700,0.69877600,-0.06790300,0.05015400,-0.00154600
3.94000000,0.24318400,0.32195600,-0.10706700,0.73631100,0.06639300,0.04969900,0.00659100,0.25242400,-0.31495700,0.11346700,0.69877600,-0.06790300,0.05015400,-0.00154600
3.96000000,0.24318400,0.32195600,-0.10706700,0.73631100,0.06639300,0.04969900,0.00659100,0.25242400,-0.31495700,0.11346700,0.69877600,-0.06790300,0.05015400,-0.00154600
3.98000000,0.24318400,0.32195600,-0.10706700,0.73631100,0.06639300,0.04969900,0.00659100,0.25242400,-0.31495700,0.11346700,0.69877600,-0.06790300,0.05015400,-0.00154600
4.00000000,0.24318400,0.32195600,-0.10706700,0.73631100,0.06639300,0.04969900,0.00659100,0.25242400,-0.31495700,0.11346700,0.69877600,-0.06790300,0.05015400,-0.00154600
4.02000000,0.24318400,0.32195600,-0.10706700,0.73631100,0.06639300,0.04969900,0.00659100,0.25242400,-0.31495700,0.11346700,0.69877600,-0.06790300,0.05015400,-0.00154600
4.04000000,0.24318400,0.32195600,-0.10706700,0.73631100,0.06639300,0.04969900,0.00659100,0.25242400,-0.31495700,0.11346700,0.69877600,-0.06790300,0.05015400,-0.00154600
4.06000000,0.24318400,0.32195600,-0.10706700,0.73631100,0.06639300,0.04969900,0.00659100,0.25242400,-0.31495700,0.11346700,0.69877600,-0.06790300,0.05015400,-0.00154600
4.08000000,0.24318400,0.32195600,-0.10706700,0.73631100,0.06639300,0.04969900,0.00659100,0.25242400,-0.31495700,0.11346700,0.69877600,-0.06790300,0.05015400,-0.00154600
4.10000000,0.24318400,0.32195600,-0.10706700,0.73631100,0.06639300,0.04969900,0.00659100,0.25242400,-0.31495700,0.11346700,0.69877600,-0.06790300,0.05015400,-0.00154600
4.12000000,0.24318400,0.32195600,-0.10706700,0.73631100,0.06639300,0.04969900,0.00659100,0.25242400,-0.31495700,0.11346700,0.69877600,-0.06790300,0.05015400,-0.00154600
4.14000000,0.24318400,0.32195600,-0.10706700,0.73631100,0.06639300,0.04969900,0.00659100,0.25242400,-0.31495700,0.11346700,0.69877600,-0.06790300,0.05015400,-0.00154600
4.16000000,0.24318400,0.32195600,-0.10706700,0.73631100,0.06639300,0.04969900,0.00659100,0.25242400,-0.31495700,0.11346700,0.69877600,-0.06790300,0.05015400,-0.00154600
4.18000000,0.24318400,0.32195600,-0.10706700,0.73631100,0.06639300,0.04969900,0.00659100,0.25242400,-0.31495700,0.11346700,0.69877600,-0.06790300,0.05015400,-0.00154600
4.20000000,0.24318400,0.32195600,-0.10706700,0.73631100,0.06639300,0.04969900,0.00659100,0.25242400,-0.31495700,0.11346700,0.69877600,-0.06790300,0.05015400,-0.00154600
4.22000000,0.24318400,0.32195600,-0.10706700,0.73631100,0.06639300,0.04969900,0.00659100,0.25242400,-0.31495700,0.11346700,0.69877600,-0.06790300,0.05015400,-0.00154600
4.24000000,0.24318400,0.32195600,-0.10706700,0.73631100,0.06639300,0.04969900,0.00659100,0.25242400,-0.31495700,0.11346700,0.69877600,-0.06790300,0.05015400,-0.00154600
4.26000000,0.24318400,0.32195600,-0.10706700,0.73631100,0.06639300,0.04969900,0.00659100,0.25242400,-0.31495700,0.11346700,0.69877600,-0.06790300,0.05015400,-0.00154600
4.28000000,0.24318400,0.32195600,-0.10706700,0.73631100,0.06639300,0.04969900,0.00659100,0.25242400,-0.31495700,0.11346700,0.69877600,-0.06790300,0.05015400,-0.00154600
4.30000000,0.24318400,0.32195600,-0.10706700,0.73631100,0.06639300,0.04969900,0.00659100,0.25242400,-0.31495700,0.11346700,0.69877600,-0.06790300,0.05015400,-0.00154600
4.32000000,0.24318400,0.32195600,-0.10706700,0.73631100,0.06639300,0.04969900,0.00659100,0.25242400,-0.31495700,0.11346700,0.69877600,-0.06790300,0.05015400,-0.00154600
4.34000000,0.24318400,0.32195600,-0.10706700,0.73631100,0.06639300,0.04969900,0.00659100,0.25242400,-0.31495700,0.11346700,0.69877600,-0.06790300,0.05015400,-0.00154600
4.36000000,0.24318400,0.32195600,-0.10706700,0.73631100,0.06639300,0.04969900,0.00659100,0.25242400,-0.31495700,0.11346700,0.69877600,-0.06790300,0.05015400,-0.00154600
4.38000000,0.24318400,0.32195600,-0.10706700,0.73631100,0.06639300,0.04969900,0.00659100,0.25242400,-0.31495700,0.11346700,0.69877600,-0.06790300,0.05015400,-0.00154600
4.40000000,0.24318400,0.32195600,-0.10706700,0.73631100,0.06639300,0.04969900,0.00659100,0.25242400,-0.31495700,0.11346700,0.69877600,-0.06790300,0.05015400,-0.00154600
4.42000000,0.24318400,0.32195600,-0.10706700,0.73631100,0.06639300,0.04969900,0.00659100,0.25242400,-0.31495700,0.11346700,0.69877600,-0.06790300,0.05015400,-0.00154600
4.44000000,0.24318400,0.32195600,-0.10706700,0.73631100,0.06639300,0.04969900,0.00659100,0.25242400,-0.31495700,0.11346700,0.69877600,-0.06790300,0.05015400,-0.00154600
4.46000000,0.24318400,0.32195600,-0.10706700,0.73631100,0.06639300,0.04969900,0.00659100,0.25242400,-0.31495700,0.11346700,0.69877600,-0.06790300,0.05015400,-0.00154600
4.48000000,0.24318400,0.32195600,-0.10706700,0.73631100,0.06639300,0.04969900,0.00659100,0.25242400,-0.31495700,0.11346700,0.69877600,-0.06790300,0.05015400,-0.00154600
4.50000000,0.24318400,0.32195600,-0.10706700,0.73631100,0.06639300,0.04969900,0.00659100,0.25242400,-0.31495700,0.11346700,0.69877600,-0.06790300,0.05015400,-0.00154600
4.52000000,0.24318400,0.32195600,-0.10706700,0.73631100,0.06639300,0.04969900,0.00659100,0.25242400,-0.31495700,0.11346700,0.69877600,-0.06790300,0.05015400,-0.00154600
4.54000000,0.24318400,0.32195600,-0.10706700,0.73631100,0.06639300,0.04969900,0.00659100,0.25242400,-0.31495700,0.11346700,0.69877600,-0.06790300,0.05015400,-0.00154600
4.56000000,0.24318400,0.32195600,-0.10706700,0.73631100,0.06639300,0.04969900,0.00659100,0.25242400,-0.31495700,0.11346700,0.69877600,-0.06790300,0.05015400,-0.00154600
4.58000000,0.24318400,0.32195600,-0.10706700,0.73631100,0.06639300,0.04969900,0.00659100,0.25242400,-0.31495700,0.11346700,0.69877600,-0.06790300,0.05015400,-0.00154600
4.60000000,0.24318400,0.32195600,-0.10706700,0.73631100,0.06639300,0.04969900,0.00659100,0.25242400,-0.31495700,0.11346700,0.69877600,-0.06790300,0.05015400,-0.00154600
4.62000000,0.24318400,0.32195600,-0.10706700,0.73631100,0.06639300,0.04969900,0.00659100,0.25242400,-0.31495700,0.11346700,0.69877600,-0.06790300,0.05015400,-0.00154600
4.64000000,0.24318400,0.32195600,-0.10706700,0.73631100,0.06639300,0.04969900,0.00659100,0.25242400,-0.31495700,0.11346700,0.69877600,-0.06790300,0.05015400,-0.00154600
4.66000000,0.24318400,0.32195600,-0.10706700,0.73631100,0.06639300,0.04969900,0.00659100,0.25242400,-0.31495700,0.11346700,0.69877600,-0.06790300,0.05015400,-0.00154600
4.68000000,0.24318400,0.32195600,-0.10706700,0.73631100,0.06639300,0.04969900,0.00659100,0.25242400,-0.31495700,0.11346700,0.69877600,-0.06790300,0.05015400,-0.00154600
4.70000000,0.24318400,0.32195600,-0.10706700,0.73631100,0.06639300,0.04969900,0.00659100,0.25242400,-0.31495700,0.11346700,0.69877600,-0.06790300,0.05015400,-0.00154600
4.72000000,0.24318400,0.32195600,-0.10706700,0.73631100,0.06639300,0.04969900,0.00659100,0.25242400,-0.31495700,0.11346700,0.69877600,-0.06790300,0.05015400,-0.00154600
4.74000000,0.24318400,0.32195600,-0.10706700,0.73631100,0.06639300,0.04969900,0.00659100,0.25242400,-0.31495700,0.11346700,0.69877600,-0.06790300,0.05015400,-0.00154600
4.76000000,0.24318400,0.32195600,-0.10706700,0.73631100,0.06639300,0.04969900,0.00659100,0.25242400,-0.31495700,0.11346700,0.69877600,-0.06790300,0.05015400,-0.00154600
4.78000000,0.24318400,0.32195600,-0.10706700,0.73631100,0.06639300,0.04969900,0.00659100,0.25242400,-0.31495700,0.11346700,0.69877600,-0.06790300,0.05015400,-0.00154600
4.80000000,0.24318400,0.32195600,-0.10706700,0.73631100,0.06639300,0.04969900,0.00659100,0.25242400,-0.31495700,0.11346700,0.69877600,-0.06790300,0.05015400,-0.00154600
4.82000000,0.24318400,0.32195600,-0.10706700,0.73631100,0.06639300,0.04969900,0.00659100,0.25242400,-0.31495700,0.11346700,0.69877600,-0.06790300,0.05015400,-0.00154600
4.84000000,0.24318400,0.32195600,-0.10706700,0.73631100,0.06639300,0.04969900,0.00659100,0.25242400,-0.31495700,0.11346700,0.69877600,-0.06790300,0.05015400,-0.00154600
4.86000000,0.24318400,0.32195600,-0.10706700,0.73631100,0.06639300,0.04969900,0.00659100,0.25242400,-0.31495700,0.11346700,0.69877600,-0.06790300,0.05015400,-0.00154600
4.88000000,0.24318400,0.32195600,-0.10706700,0.73631100,0.06639300,0.04969900,0.00659100,0.25242400,-0.31495700,0.11346700,0.69877600,-0.06790300,0.05015400,-0.00154600
4.90000000,0.24318400,0.32195600,-0.10706700,0.73631100,0.06639300,0.04969900,0.00659100,0.25242400,-0.31495700,0.11346700,0.69877600,-0.06790300,0.05015400,-0.00154600
4.92000000,0.24318400,0.32195600,-0.10706700,0.73631100,0.06639300,0.04969900,0.00659100,0.25242400,-0.31495700,0.11346700,0.69877600,-0.06790300,0.05015400,-0.00154600
4.94000000,0.24318400,0.32195600,-0.10706700,0.73631100,0.06639300,0.04969900,0.00659100,0.25242400,-0.31495700,0.11346700,0.69877600,-0.06790300,0.05015400,-0.00154600
4.96000000,0.24318400,0.32195600,-0.10706700,0.73631100,0.06639300,0.04969900,0.00659100,0.25242400,-0.31495700,0.11346700,0.69877600,-0.06790300,0.05015400,-0.00154600
4.98000000,0.24318400,0.32195600,-0.10706700,0.73631100,0.06639300,0.04969900,0.00659100,0.25242400,-0.31495700,0.11346700,0.69877600,-0.06790300,0.05015400,-0.00154600
5.00000000,0.24318400,0.32195600,-0.10706700,0.73631100,0.06639300,0.04969900,0.00659100,0.25242400,-0.31495700,0.11346700,0.69877600,-0.06790300,0.05015400,-0.00154600
5.02000000,0.24318370,0.32195622,-0.10706708,0.73631060,0.06639323,0.04969919,0.00659066,0.25242370,-0.31495723,0.11346707,0.69877559,-0.06790323,0.05015420,-0.00154566
5.04000000,0.24318158,0.32195772,-0.10706765,0.73630780,0.06639486,0.04970055,0.00658831,0.25242162,-0.31495885,0.11346756,0.69877274,-0.06790479,0.05015558,-0.00154333
5.06000000,0.24317586,0.32196178,-0.10706918,0.73630024,0.06639924,0.04970419,0.00658197,0.25241600,-0.31496321,0.11346888,0.69876506,-0.06790901,0.05015929,-0.00153704
5.08000000,0.24316481,0.32196962,-0.10707215,0.73628562,0.06640772,0.04971125,0.00656970,0.25240512,-0.31497164,0.11347144,0.69875021,-0.06791719,0.05016648,-0.00152487
5.10000000,0.24314670,0.32198247,-0.10707701,0.73626169,0.06642160,0.04972280,0.00654961,0.25238732,-0.31498544,0.11347563,0.69872588,-0.06793057,0.05017825,-0.00150494
5.12000000,0.24311987,0.32200151,-0.10708421,0.73622622,0.06644217,0.04973991,0.00651983,0.25236094,-0.31500590,0.11348184,0.69868983,-0.06795040,0.05019570,-0.00147541
5.14000000,0.24308268,0.32202791,-0.10709418,0.73617706,0.06647068,0.04976364,0.00647856,0.25232436,-0.31503426,0.11349044,0.69863986,-0.06797788,0.05021988,-0.00143448
5.16000000,0.24303353,0.32206280,-0.10710737,0.73611208,0.06650837,0.04979499,0.00642401,0.25227603,-0.31507175,0.11350182,0.69857382,-0.06801421,0.05025185,-0.00138037
5.18000000,0.24297085,0.32210729,-0.10712419,0.73602921,0.06655642,0.04983498,0.00635445,0.25221438,-0.31511955,0.11351632,0.69848959,-0.06806054,0.05029261,-0.00131138
5.20000000,0.24289310,0.32216247,-0.10714505,0.73592642,0.06661603,0.04988458,0.00626817,0.25213793,-0.31517883,0.11353431,0.69838513,-0.06811800,0.05034316,-0.00122580
5.22000000,0.24279879,0.32222940,-0.10717035,0.73580174,0.06668834,0.04994475,0.00616351,0.25204518,-0.31525075,0.11355613,0.69825841,-0.06818770,0.05040449,-0.00112199
5.24000000,0.24268645,0.32230913,-0.10720049,0.73565324,0.06677447,0.05001641,0.00603884,0.25193471,-0.31533642,0.11358212,0.69810747,-0.06827072,0.05047753,-0.00099834
5.26000000,0.24255466,0.32240267,-0.10723585,0.73547901,0.06687551,0.05010049,0.00589259,0.25180511,-0.31543692,0.11361261,0.69793039,-0.06836813,0.05056323,-0.00085327
5.28000000,0.24240202,0.32251101,-0.10727680,0.73527721,0.06699254,0.05019787,0.00572319,0.25165500,-0.31555332,0.11364793,0.69772529,-0.06848094,0.05066249,-0.00068526
5.30000000,0.24222717,0.32263511,-0.10732371,0.73504605,0.06712660,0.05030942,0.00552914,0.25148304,-0.31568666,0.11368839,0.69749034,-0.06861017,0.05077619,-0.00049279
5.32000000,0.24202876,0.32277592,-0.10737694,0.73478376,0.06727871,0.05043599,0.00530896,0.25128793,-0.31583795,0.11373429,0.69722376,-0.06875681,0.05090520,-0.00027440
5.34000000,0.24180552,0.32293437,-0.10743683,0.73448863,0.06744987,0.05057841,0.00506122,0.25106840,-0.31600819,0.11378594,0.69692380,-0.06892180,0.05105037,-0.00002868
5.36000000,0.24155618,0.32311134,-0.10750373,0.73415899,0.06764104,0.05073748,0.00478451,0.25082319,-0.31619834,0.11384364,0.69658876,-0.06910608,0.05121251,0.00024578
5.38000000,0.24127950,0.32330771,-0.10757796,0.73379322,0.06785317,0.05091399,0.00447746,0.25055111,-0.31640932,0.11390765,0.69621700,-0.06931057,0.05139242,0.00055033
5.40000000,0.24097429,0.32352433,-0.10765984,0.73338972,0.06808717,0.05110871,0.00413875,0.25025096,-0.31664207,0.11397827,0.69580690,-0.06953614,0.05159089,0.00088628
5.42000000,0.24063938,0.32376204,-0.10774970,0.73294697,0.06834395,0.05132237,0.00376708,0.24992161,-0.31689747,0.11405576,0.69535689,-0.06978367,0.05180867,0.00125493
5.44000000,0.24027363,0.32402162,-0.10784782,0.73246345,0.06862436,0.05155570,0.00336119,0.24956193,-0.31717637,0.11414038,0.69486546,-0.07005398,0.05204650,0.00165751
5.46000000,0.23987595,0.32430388,-0.10795452,0.73193770,0.06892926,0.05180940,0.00291986,0.24917085,-0.31747964,0.11423240,0.69433111,-0.07034790,0.05230509,0.00209525
5.48000000,0.23944526,0.32460956,-0.10807007,0.73136832,0.06925947,0.05208417,0.00244189,0.24874730,-0.31780807,0.11433205,0.69375240,-0.07066621,0.05258516,0.00256932
5.50000000,0.23898052,0.32493941,-0.10819476,0.73075392,0.06961579,0.05238065,0.00192614,0.24829027,-0.31816247,0.11443958,0.69312795,-0.07100969,0.05288736,0.00308087
5.52000000,0.23848072,0.32529414,-0.10832885,0.73009318,0.06999898,0.05269950,0.00137148,0.24779877,-0.31854361,0.11455522,0.69245639,-0.07137909,0.05321236,0.00363102
5.54000000,0.23794488,0.32567445,-0.10847261,0.72938479,0.07040981,0.05304135,0.00077683,0.24727182,-0.31895223,0.11467920,0.69173640,-0.07177511,0.05356080,0.00422083
5.56000000,0.23737205,0.32608101,-0.10862629,0.72862750,0.07084899,0.05340679,0.00014112,0.24670850,-0.31938905,0.11481174,0.69096671,-0.07219848,0.05393328,0.00485135
5.58000000,0.23676132,0.32651448,-0.10879015,0.72782010,0.07131724,0.05379641,-0.00053664,0.24610790,-0.31985478,0.11495304,0.69014609,-0.07264985,0.05433042,0.00552360
5.60000000,0.23611179,0.32697548,-0.10896441,0.72696141,0.07181523,0.05421079,-0.00125747,0.24546915,-0.32035010,0.11510333,0.68927335,-0.07312991,0.05475278,0.00623856
5.62000000,0.23542260,0.32746463,-0.10914931,0.72605029,0.07234362,0.05465046,-0.00202230,0.24479140,-0.32087566,0.11526279,0.68834732,-0.07363927,0.05520093,0.00699716
5.64000000,0.23469293,0.32798251,-0.10934508,0.72508566,0.07290306,0.05511596,-0.00283206,0.24407384,-0.32143208,0.11543162,0.68736689,-0.07417855,0.05567541,0.00780033
5.66000000,0.23392198,0.32852969,-0.10955192,0.72406644,0.07349414,0.05560780,-0.00368763,0.24331568,-0.32202000,0.11561000,0.68633099,-0.07474834,0.05617673,0.00864893
5.68000000,0.23310897,0.32910672,-0.10977004,0.72299163,0.07411748,0.05612647,-0.00458988,0.24251615,-0.32263998,0.11579811,0.68523858,-0.07534922,0.05670540,0.00954384
5.70000000,0.23225315,0.32971413,-0.10999965,0.72186023,0.07477362,0.05667244,-0.00553963,0.24167454,-0.32329260,0.11599612,0.68408865,-0.07598173,0.05726190,0.01048585
5.72000000,0.23135383,0.33035243,-0.11024093,0.72067130,0.07546313,0.05724618,-0.00653767,0.24079014,-0.32397841,0.11620420,0.68288026,-0.07664641,0.05784670,0.01147576
5.74000000,0.23041029,0.33102210,-0.11049407,0.71942393,0.07618654,0.05784811,-0.00758476,0.23986226,-0.32469792,0.11642251,0.68161248,-0.07734375,0.05846024,0.01251433
5.76000000,0.22942190,0.33172361,-0.11075924,0.71811726,0.07694433,0.05847867,-0.00868164,0.23889027,-0.32545165,0.11665120,0.68028441,-0.07807425,0.05910295,0.01360228
5.78000000,0.22838802,0.33245740,-0.11103663,0.71675045,0.07773700,0.05913824,-0.00982901,0.23787355,-0.32624006,0.11689041,0.67889522,-0.07883837,0.05977525,0.01474030
5.80000000,0.22730804,0.33322392,-0.11132637,0.71532269,0.07856502,0.05982723,-0.01102753,0.23681149,-0.32706363,0.11714029,0.67744410,-0.07963655,0.06047752,0.01592906
5.82000000,0.22618139,0.33402355,-0.11162865,0.71383324,0.07942882,0.06054599,-0.01227784,0.23570353,-0.32792279,0.11740097,0.67593026,-0.08046924,0.06121014,0.01716920
5.84000000,0.22500751,0.33485671,-0.11194359,0.71228135,0.08032882,0.06129487,-0.01358056,0.23454913,-0.32881796,0.11767258,0.67435297,-0.08133682,0.06197346,0.01846131
5.86000000,0.22378589,0.33572375,-0.11227133,0.71066635,0.08126543,0.06207422,-0.01493627,0.23334779,-0.32974953,0.11795523,0.67271152,-0.08223969,0.06276783,0.01980598
5.88000000,0.22251603,0.33662503,-0.11261203,0.70898757,0.08223903,0.06288434,-0.01634551,0.23209900,-0.33071790,0.11824904,0.67100526,-0.08317822,0.06359357,0.02120375
5.90000000,0.22119746,0.33756088,-0.11296579,0.70724439,0.08324997,0.06372553,-0.01780882,0.23080230,-0.33172341,0.11855413,0.66923355,-0.08415274,0.06445099,0.02265513
5.92000000,0.21982973,0.33853163,-0.11333274,0.70543623,0.08429860,0.06459809,-0.01932667,0.22945727,-0.33276641,0.11887058,0.66739578,-0.08516360,0.06534037,0.02416063
5.94000000,0.21841242,0.33953755,-0.11371299,0.70356253,0.08538525,0.06550227,-0.02089954,0.22806348,-0.33384721,0.11919851,0.66549140,-0.08621110,0.06626199,0.02572069
5.96000000,0.21694515,0.34057895,-0.11410664,0.70162276,0.08651020,0.06643834,-0.02252786,0.22662056,-0.33496612,0.11953800,0.66351989,-0.08729553,0.06721610,0.02733575
5.98000000,0.21542754,0.34165607,-0.11451380,0.69961646,0.08767374,0.06740651,-0.02421205,0.22512813,-0.33612341,0.11988914,0.66148073,-0.08841716,0.06820294,0.02900622
6.00000000,0.21385925,0.34276915,-0.11493456,0.69754315,0.08887614,0.06840702,-0.02595247,0.22358587,-0.33731935,0.12025200,0.65937349,-0.08957624,0.06922274,0.03073248
6.02000000,0.21223996,0.34391844,-0.11536900,0.69540243,0.09011764,0.06944006,-0.02774949,0.22199345,-0.33855418,0.12062666,0.65719771,-0.09077302,0.07027570,0.03251487
6.04000000,0.21056938,0.34510413,-0.11581720,0.69319389,0.09139846,0.07050582,-0.02960344,0.22035060,-0.33982812,0.12101319,0.65495303,-0.09200770,0.07136201,0.03435371
6.06000000,0.20884725,0.34632641,-0.11627924,0.69091719,0.09271882,0.07160447,-0.03151460,0.21865704,-0.34114139,0.12141165,0.65263906,-0.09328049,0.07248185,0.03624931
6.08000000,0.20707330,0.34758546,-0.11675517,0.68857201,0.09407889,0.07273618,-0.03348326,0.21691253,-0.34249415,0.12182210,0.65025548,-0.09459158,0.07363538,0.03820194
6.10000000,0.20524733,0.34888144,-0.11724506,0.68615804,0.09547886,0.07390108,-0.03550965,0.21511686,-0.34388660,0.12224458,0.64780199,-0.09594111,0.07482273,0.04021183
6.12000000,0.20336913,0.35021449,-0.11774896,0.68367502,0.09691886,0.07509929,-0.03759400,0.21326982,-0.34531887,0.12267915,0.64527832,-0.09732924,0.07604405,0.04227921
6.14000000,0.20143853,0.35158473,-0.11826693,0.68112273,0.09839904,0.07633094,-0.03973651,0.21137126,-0.34679110,0.12312584,0.64268425,-0.09875611,0.07729945,0.04440427
6.16000000,0.19945537,0.35299226,-0.11879899,0.67850096,0.09991952,0.07759611,-0.04193734,0.20942101,-0.34830341,0.12358469,0.64001956,-0.10022181,0.07858902,0.04658718
6.18000000,0.19741953,0.35443719,-0.11934519,0.67580955,0.10148039,0.07889490,-0.04419664,0.20741895,-0.34985589,0.12405573,0.63728408,-0.10172645,0.07991284,0.04882808
6.20000000,0.19533090,0.35591959,-0.11990555,0.67304834,0.10308173,0.08022736,-0.04651452,0.20536498,-0.35144863,0.12453899,0.63447768,-0.10327011,0.08127100,0.05112709
6.22000000,0.19318940,0.35743952,-0.12048009,0.67021724,0.10472361,0.08159355,-0.04889107,0.20325902,-0.35308169,0.12503448,0.63160022,-0.10485285,0.08266353,0.05348429
6.24000000,0.19099496,0.35899702,-0.12106884,0.66731615,0.10640608,0.08299352,-0.05132638,0.20110099,-0.35475511,0.12554221,0.62865164,-0.10647471,0.08409049,0.05589977
6.26000000,0.18874754,0.36059211,-0.12167180,0.66434502,0.10812916,0.08442728,-0.05382048,0.19889087,-0.35646894,0.12606221,0.62563187,-0.10813572,0.08555190,0.05837355
6.28000000,0.18644712,0.36222483,-0.12228898,0.66130383,0.10989288,0.08589485,-0.05637339,0.19662863,-0.35822318,0.12659447,0.62254089,-0.10983590,0.08704777,0.06090568
6.30000000,0.18409371,0.36389515,-0.12292038,0.65819258,0.11169722,0.08739623,-0.05898511,0.19431427,-0.36001784,0.12713899,0.61937871,-0.11157525,0.08857810,0.06349613
6.32000000,0.18168733,0.36560307,-0.12356599,0.65501130,0.11354218,0.08893141,-0.06165562,0.19194782,-0.36185289,0.12769576,0.61614535,-0.11335375,0.09014288,0.06614490
6.34000000,0.17922802,0.36734856,-0.12422580,0.65176005,0.11542772,0.09050035,-0.06438487,0.18952932,-0.36372830,0.12826478,0.61284087,-0.11517137,0.09174207,0.06885192
6.36000000,0.17671585,0.36913157,-0.12489979,0.64843891,0.11735379,0.09210301,-0.06717278,0.18705884,-0.36564402,0.12884604,0.60946537,-0.11702806,0.09337564,0.07161713
6.38000000,0.17415090,0.37095203,-0.12558795,0.64504800,0.11932033,0.09373935,-0.07001926,0.18453645,-0.36759999,0.12943950,0.60601894,-0.11892375,0.09504352,0.07444043
6.40000000,0.17153328,0.37280988,-0.12629023,0.64158746,0.12132725,0.09540929,-0.07292420,0.18196226,-0.36959612,0.13004515,0.60250175,-0.12085838,0.09674566,0.07732171
6.42000000,0.16886311,0.37470503,-0.12700661,0.63805744,0.12337445,0.09711275,-0.07588745,0.17933640,-0.37163233,0.13066296,0.59891394,-0.12283184,0.09848197,0.08026084
6.44000000,0.16614053,0.37663737,-0.12773706,0.63445815,0.12546184,0.09884964,-0.07890886,0.17665901,-0.37370850,0.13129289,0.59525573,-0.12484403,0.10025235,0.08325764
6.46000000,0.16336572,0.37860679,-0.12848151,0.63078979,0.12758927,0.10061986,-0.08198824,0.17393024,-0.37582451,0.13193492,0.59152732,-0.12689483,0.10205671,0.08631195
6.48000000,0.16053884,0.38061315,-0.12923994,0.62705262,0.12975662,0.10242330,-0.08512539,0.17115027,-0.37798022,0.13258898,0.58772896,-0.12898411,0.10389491,0.08942356
6.50000000,0.15766012,0.38265632,-0.13001227,0.62324689,0.13196373,0.10425981,-0.08832010,0.16831931,-0.38017547,0.13325505,0.58386092,-0.13111171,0.10576684,0.09259225
6.52000000,0.15472975,0.38473614,-0.13079846,0.61937289,0.13421043,0.10612926,-0.09157210,0.16543758,-0.38241009,0.13393306,0.57992351,-0.13327747,0.10767234,0.09581777
6.54000000,0.15174799,0.38685243,-0.13159844,0.61543095,0.13649653,0.10803151,-0.09488114,0.16250530,-0.38468391,0.13462296,0.57591703,-0.13548123,0.10961126,0.09909987
6.56000000,0.14871509,0.38900503,-0.13241214,0.61142140,0.13882184,0.10996638,-0.09824694,0.15952272,-0.38699673,0.13532470,0.57184184,-0.13772277,0.11158344,0.10243826
6.58000000,0.14563132,0.39119372,-0.13323949,0.60734461,0.14118615,0.11193370,-0.10166919,0.15649013,-0.38934834,0.13603820,0.56769831,-0.14000191,0.11358869,0.10583264
6.60000000,0.14249698,0.39341831,-0.13408040,0.60320095,0.14358923,0.11393328,-0.10514755,0.15340780,-0.39173851,0.13676341,0.56348682,-0.14231843,0.11562683,0.10928268
6.62000000,0.13931238,0.39567857,-0.13493480,0.59899085,0.14603085,0.11596493,-0.10868171,0.15027604,-0.39416701,0.13750025,0.55920779,-0.14467210,0.11769765,0.11278806
6.64000000,0.13607784,0.39797428,-0.13580260,0.59471473,0.14851075,0.11802844,-0.11227127,0.14709518,-0.39663360,0.13824864,0.55486167,-0.14706267,0.11980095,0.11634839
6.66000000,0.13279370,0.40030518,-0.13668370,0.59037304,0.15102868,0.12012358,-0.11591588,0.14386554,-0.39913800,0.13900850,0.55044890,-0.14948990,0.12193649,0.11996332
6.68000000,0.12946033,0.40267103,-0.13757802,0.58596627,0.15358436,0.12225014,-0.11961512,0.14058749,-0.40167994,0.13977976,0.54596999,-0.15195351,0.12410405,0.12363244
6.70000000,0.12607811,0.40507155,-0.13848544,0.58149491,0.15617749,0.12440786,-0.12336858,0.13726139,-0.40425915,0.14056232,0.54142543,-0.15445324,0.12630338,0.12735534
6.72000000,0.12264742,0.40750647,-0.13940586,0.57695948,0.15880779,0.12659650,-0.12717583,0.13388763,-0.40687531,0.14135609,0.53681575,-0.15698878,0.12853422,0.13113158
6.74000000,0.11916868,0.40997550,-0.14033917,0.57236052,0.16147492,0.12881580,-0.13103640,0.13046661,-0.40952811,0.14216098,0.53214150,-0.15955983,0.13079631,0.13496072
6.76000000,0.11564231,0.41247833,-0.14128527,0.56769859,0.16417857,0.13106548,-0.13494983,0.12699876,-0.41221724,0.14297690,0.52740325,-0.16216609,0.13308938,0.13884228
6.78000000,0.11206874,0.41501466,-0.14224402,0.56297427,0.16691840,0.13334527,-0.13891563,0.12348450,-0.41494235,0.14380373,0.52260159,-0.16480723,0.13541312,0.14277579
6.80000000,0.10844845,0.41758416,-0.14321531,0.55818817,0.16969407,0.13565488,-0.14293330,0.11992427,-0.41770311,0.14464137,0.51773714,-0.16748291,0.13776726,0.14676075
6.82000000,0.10478188,0.42018649,-0.14419902,0.55334091,0.17250521,0.13799400,-0.14700231,0.11631855,-0.42049914,0.14548972,0.51281052,-0.17019278,0.14015149,0.15079662
6.84000000,0.10106954,0.42282131,-0.14519501,0.54843312,0.17535144,0.14036233,-0.15112213,0.11266781,-0.42333009,0.14634866,0.50782239,-0.17293649,0.14256548,0.15488289
6.86000000,0.09731191,0.42548828,-0.14620314,0.54346547,0.17823240,0.14275954,-0.15529220,0.10897254,-0.42619556,0.14721808,0.50277342,-0.17571366,0.14500892,0.15901901
6.88000000,0.09350951,0.42818702,-0.14722329,0.53843864,0.18114767,0.14518532,-0.15951195,0.10523324,-0.42909518,0.14809786,0.49766429,-0.17852393,0.14748147,0.16320440
6.90000000,0.08966288,0.43091716,-0.14825531,0.53335331,0.18409687,0.14763932,-0.16378080,0.10145043,-0.43202853,0.14898787,0.49249571,-0.18136689,0.14998278,0.16743849
6.92000000,0.08577254,0.43367831,-0.14929905,0.52821022,0.18707957,0.15012120,-0.16809814,0.09762465,-0.43499521,0.14988800,0.48726842,-0.18424214,0.15251252,0.17172068
6.94000000,0.08183905,0.43647009,-0.15035437,0.52301008,0.19009535,0.15263060,-0.17246337,0.09375644,-0.43799479,0.15079811,0.48198315,-0.18714929,0.15507031,0.17605036
6.96000000,0.07786299,0.43929209,-0.15142111,0.51775366,0.19314378,0.15516717,-0.17687585,0.08984636,-0.44102684,0.15171807,0.47664067,-0.19008791,0.15765579,0.18042691
6.98000000,0.07384493,0.44214389,-0.15249912,0.51244171,0.19622441,0.15773053,-0.18133494,0.08589498,-0.44409092,0.15264774,0.47124176,-0.19305756,0.16026857,0.18484968
7.00000000,0.06978547,0.44502509,-0.15358823,0.50707502,0.19933678,0.16032031,-0.18583998,0.08190288,-0.44718657,0.15358700,0.46578722,-0.19605781,0.16290828,0.18931804
7.02000000,0.06568521,0.44793524,-0.15468830,0.50165440,0.20248043,0.16293611,-0.19039029,0.07787065,-0.45031333,0.15453570,0.46027786,-0.19908822,0.16557452,0.19383130
7.04000000,0.06154476,0.45087390,-0.15579914,0.49618066,0.20565489,0.16557755,-0.19498519,0.07379892,-0.45347073,0.15549369,0.45471451,-0.20214833,0.16826689,0.19838879
7.06000000,0.05736477,0.45384064,-0.15692059,0.49065464,0.20885967,0.16824422,-0.19962399,0.06968829,-0.45665830,0.15646083,0.44909802,-0.20523766,0.17098498,0.20298981
7.08000000,0.05314587,0.45683499,-0.15805249,0.48507717,0.21209428,0.17093571,-0.20430596,0.06553939,-0.45987553,0.15743698,0.44342924,-0.20835576,0.17372837,0.20763366
7.10000000,0.04888871,0.45985650,-0.15919464,0.47944913,0.21535822,0.17365160,-0.20903039,0.06135288,-0.46312194,0.15842198,0.43770907,-0.21150212,0.17649663,0.21231962
7.12000000,0.04459396,0.46290468,-0.16034689,0.47377140,0.21865098,0.17639148,-0.21379654,0.05712940,-0.46639701,0.15941567,0.43193838,-0.21467627,0.17928934,0.21704695
7.14000000,0.04026230,0.46597907,-0.16150903,0.46804486,0.22197205,0.17915491,-0.21860365,0.05286962,-0.46970023,0.16041791,0.42611810,-0.21787770,0.18210605,0.22181492
7.16000000,0.03589440,0.46907917,-0.16268090,0.46227043,0.22532089,0.18194145,-0.22345097,0.04857420,-0.47303108,0.16142853,0.42024913,-0.22110591,0.18494632,0.22662277
7.18000000,0.03149098,0.47220449,-0.16386230,0.45644902,0.22869697,0.18475066,-0.22833772,0.04424385,-0.47638903,0.16244737,0.41433242,-0.22436038,0.18780969,0.23146973
7.20000000,0.02705273,0.47535452,-0.16505304,0.45058157,0.23209976,0.18758208,-0.23326312,0.03987925,-0.47977353,0.16347427,0.40836892,-0.22764059,0.19069571,0.23635502
7.22000000,0.02258037,0.47852876,-0.16625293,0.44466903,0.23552869,0.19043527,-0.23822637,0.03548111,-0.48318405,0.16450906,0.40235959,-0.23094600,0.19360391,0.24127785
7.24000000,0.01807463,0.48172670,-0.16746178,0.43871237,0.23898322,0.19330975,-0.24322666,0.03105014,-0.48662001,0.16555157,0.39630541,-0.23427609,0.19653382,0.24623743
7.26000000,0.01353625,0.48494780,-0.16867938,0.43271254,0.24246277,0.19620506,-0.24826318,0.02658707,-0.49008088,0.16660164,0.39020736,-0.23763030,0.19948495,0.25123294
7.28000000,0.00896597,0.48819155,-0.16990555,0.42667055,0.24596678,0.19912071,-0.25333510,0.02209262,-0.49356606,0.16765908,0.38406645,-0.24100809,0.20245683,0.25626356
7.30000000,0.00436454,0.49145739,-0.17114007,0.42058738,0.24949467,0.20205624,-0.25844159,0.01756756,-0.49707500,0.16872373,0.37788370,-0.24440890,0.20544895,0.26132846
7.32000000,-0.00026726,0.49474480,-0.17238274,0.41446406,0.25304585,0.20501114,-0.26358178,0.01301261,-0.50060710,0.16979542,0.37166013,-0.24783216,0.20846084,0.26642680
7.34000000,-0.00492867,0.49805322,-0.17363335,0.40830159,0.25661973,0.20798493,-0.26875484,0.00842856,-0.50416178,0.17087395,0.36539677,-0.25127730,0.21149197,0.27155773
7.36000000,-0.00961891,0.50138211,-0.17489170,0.40210101,0.26021572,0.21097712,-0.27395988,0.00381615,-0.50773845,0.17195915,0.35909468,-0.25474374,0.21454185,0.27672040
7.38000000,-0.01433719,0.50473089,-0.17615757,0.39586336,0.26383319,0.21398719,-0.27919604,-0.00082383,-0.51133649,0.17305084,0.35275492,-0.25823091,0.21760996,0.28191392
7.40000000,-0.01908271,0.50809901,-0.17743075,0.38958970,0.26747156,0.21701464,-0.28446243,-0.00549060,-0.51495531,0.17414883,0.34637855,-0.26173821,0.22069578,0.28713743
7.42000000,-0.02385466,0.51148589,-0.17871102,0.38328109,0.27113019,0.22005896,-0.28975817,-0.01018337,-0.51859429,0.17525294,0.33996667,-0.26526505,0.22379880,0.29239004
7.44000000,-0.02865224,0.51489096,-0.17999817,0.37693860,0.27480847,0.22311962,-0.29508234,-0.01490134,-0.52225281,0.17636298,0.33352034,-0.26881084,0.22691848,0.29767085
7.46000000,-0.03347463,0.51831363,-0.18129197,0.37056331,0.27850578,0.22619611,-0.30043404,-0.01964371,-0.52593025,0.17747876,0.32704069,-0.27237495,0.23005429,0.30297898
7.48000000,-0.03832100,0.52175333,-0.18259221,0.36415632,0.28222147,0.22928790,-0.30581235,-0.02440966,-0.52962598,0.17860008,0.32052881,-0.27595679,0.23320570,0.30831350
7.50000000,-0.04319053,0.52520946,-0.18389866,0.35771873,0.28595490,0.23239446,-0.31121636,-0.02919837,-0.53333936,0.17972677,0.31398583,-0.27955574,0.23637216,0.31367350
7.52000000,-0.04808236,0.52868142,-0.18521109,0.35125163,0.28970545,0.23551526,-0.31664513,-0.03400903,-0.53706975,0.18085861,0.30741286,-0.28317118,0.23955312,0.31905806
7.54000000,-0.05299566,0.53216863,-0.18652929,0.34475616,0.29347245,0.23864975,-0.32209772,-0.03884080,-0.54081652,0.18199542,0.30081105,-0.28680249,0.24274805,0.32446625
7.56000000,-0.05792958,0.53567046,-0.18785301,0.33823343,0.29725526,0.24179739,-0.32757319,-0.04369284,-0.54457901,0.18313701,0.29418154,-0.29044903,0.24595639,0.32989714
7.58000000,-0.06288326,0.53918632,-0.18918204,0.33168458,0.30105322,0.24495764,-0.33307059,-0.04856432,-0.54835656,0.18428316,0.28752548,-0.29411018,0.24917757,0.33534978
7.60000000,-0.06785584,0.54271559,-0.19051613,0.32511074,0.30486567,0.24812994,-0.33858897,-0.05345438,-0.55214853,0.18543369,0.28084402,-0.29778530,0.25241104,0.34082322
7.62000000,-0.07284645,0.54625766,-0.19185507,0.31851307,0.30869195,0.25131375,-0.34412735,-0.05836218,-0.55595425,0.18658839,0.27413833,-0.30147374,0.25565624,0.34631650
7.64000000,-0.07785422,0.54981191,-0.19319861,0.31189270,0.31253138,0.25450851,-0.34968479,-0.06328685,-0.55977306,0.18774706,0.26740958,-0.30517487,0.25891260,0.35182868
7.66000000,-0.08287828,0.55337772,-0.19454652,0.30525080,0.31638330,0.25771366,-0.35526029,-0.06822754,-0.56360429,0.18890950,0.26065895,-0.30888804,0.26217955,0.35735879
7.68000000,-0.08791774,0.55695447,-0.19589856,0.29858854,0.32024703,0.26092863,-0.36085289,-0.07318338,-0.56744726,0.19007550,0.25388763,-0.31261259,0.26545652,0.36290585
7.70000000,-0.09297173,0.56054152,-0.19725450,0.29190708,0.32412190,0.26415287,-0.36646161,-0.07815350,-0.57130131,0.19124487,0.24709679,-0.31634787,0.26874292,0.36846890
7.72000000,-0.09803934,0.56413824,-0.19861409,0.28520760,0.32800721,0.26738581,-0.37208545,-0.08313702,-0.57516575,0.19241738,0.24028763,-0.32009322,0.27203820,0.37404695
7.74000000,-0.10311970,0.56774401,-0.19997710,0.27849128,0.33190230,0.27062687,-0.37772344,-0.08813307,-0.57903991,0.19359285,0.23346136,-0.32384800,0.27534175,0.37963902
7.76000000,-0.10821190,0.57135818,-0.20134330,0.27175930,0.33580646,0.27387549,-0.38337456,-0.09314077,-0.58292310,0.19477105,0.22661917,-0.32761152,0.27865301,0.38524413
7.78000000,-0.11331504,0.57498013,-0.20271242,0.26501285,0.33971902,0.27713109,-0.38903783,-0.09815923,-0.58681464,0.19595179,0.21976227,-0.33138314,0.28197139,0.39086129
7.80000000,-0.11842823,0.57860920,-0.20408424,0.25825313,0.34363927,0.28039310,-0.39471225,-0.10318757,-0.59071383,0.19713485,0.21289188,-0.33516218,0.28529629,0.39648950
7.82000000,-0.12355056,0.58224475,-0.20545852,0.25148132,0.34756653,0.28366094,-0.40039681,-0.10822490,-0.59461999,0.19832003,0.20600921,-0.33894797,0.28862714,0.40212777
7.84000000,-0.12868112,0.58588615,-0.20683500,0.24469863,0.35150011,0.28693403,-0.40609051,-0.11327032,-0.59853244,0.19950711,0.19911548,-0.34273985,0.29196334,0.40777510
7.86000000,-0.13381900,0.58953275,-0.20821345,0.23790626,0.35543930,0.29021179,-0.41179233,-0.11832294,-0.60245046,0.20069588,0.19221191,-0.34653714,0.29530431,0.41343050
7.88000000,-0.13896329,0.59318389,-0.20959361,0.23110541,0.35938340,0.29349365,-0.41750127,-0.12338187,-0.60637338,0.20188614,0.18529973,-0.35033916,0.29864944,0.41909295
7.90000000,-0.14411309,0.59683894,-0.21097525,0.22429729,0.36333172,0.29677901,-0.42321631,-0.12844621,-0.61030049,0.20307767,0.17838016,-0.35414526,0.30199815,0.42476145
7.92000000,-0.14926746,0.60049725,-0.21235813,0.21748311,0.36728356,0.30006730,-0.42893644,-0.13351505,-0.61423109,0.20427027,0.17145442,-0.35795474,0.30534984,0.43043500
7.94000000,-0.15442551,0.60415816,-0.21374198,0.21066408,0.37123820,0.30335792,-0.43466064,-0.13858751,-0.61816449,0.20546371,0.16452376,-0.36176693,0.30870392,0.43611259
7.96000000,-0.15958631,0.60782102,-0.21512658,0.20384141,0.37519496,0.30665031,-0.44038790,-0.14366267,-0.62210000,0.20665778,0.15758939,-0.36558115,0.31205978,0.44179321
7.98000000,-0.16474895,0.61148518,-0.21651167,0.19701631,0.37915313,0.30994386,-0.44611719,-0.14873963,-0.62603690,0.20785229,0.15065256,-0.36939674,0.31541684,0.44747585
8.00000000,-0.16991250,0.61515000,-0.21789700,0.19019000,0.38311200,0.31323800,-0.45184750,-0.15381750,-0.62997450,0.20904700,0.14371450,-0.37321300,0.31877450,0.45315950
8.02000000,-0.17507605,0.61881482,-0.21928233,0.18336369,0.38707087,0.31653214,-0.45757781,-0.15889537,-0.63391210,0.21024171,0.13677644,-0.37702926,0.32213216,0.45884315
8.04000000,-0.18023869,0.62247898,-0.22066742,0.17653859,0.39102904,0.31982569,-0.46330710,-0.16397233,-0.63784900,0.21143622,0.12983961,-0.38084485,0.32548922,0.46452579
8.06000000,-0.18539949,0.62614184,-0.22205202,0.16971592,0.39498580,0.32311808,-0.46903436,-0.16904749,-0.64178451,0.21263029,0.12290524,-0.38465907,0.32884508,0.47020641
8.08000000,-0.19055754,0.62980275,-0.22343587,0.16289689,0.39894044,0.32640870,-0.47475856,-0.17411995,-0.64571791,0.21382373,0.11597458,-0.38847126,0.33219916,0.47588400
8.10000000,-0.19571191,0.63346106,-0.22481875,0.15608271,0.40289228,0.32969699,-0.48047869,-0.17918879,-0.64964851,0.21501633,0.10904884,-0.39228074,0.33555085,0.48155755
8.12000000,-0.20086171,0.63711611,-0.22620039,0.14927459,0.40684060,0.33298235,-0.48619373,-0.18425313,-0.65357562,0.21620786,0.10212927,-0.39608684,0.33889956,0.48722605
8.14000000,-0.20600600,0.64076725,-0.22758055,0.14247374,0.41078470,0.33626421,-0.49190267,-0.18931206,-0.65749854,0.21739812,0.09521709,-0.39988886,0.34224469,0.49288850
8.16000000,-0.21114388,0.64441385,-0.22895900,0.13568137,0.41472389,0.33954197,-0.49760449,-0.19436468,-0.66141656,0.21858689,0.08831352,-0.40368615,0.34558566,0.49854390
8.18000000,-0.21627444,0.64805525,-0.23033548,0.12889868,0.41865747,0.34281506,-0.50329819,-0.19941010,-0.66532901,0.21977397,0.08141979,-0.40747803,0.34892186,0.50419123
8.20000000,-0.22139677,0.65169080,-0.23170976,0.12212687,0.42258473,0.34608290,-0.50898275,-0.20444743,-0.66923517,0.22095915,0.07453712,-0.41126382,0.35225271,0.50982950
8.22000000,-0.22650996,0.65531987,-0.23308158,0.11536715,0.42650498,0.34934491,-0.51465717,-0.20947577,-0.67313436,0.22214221,0.06766673,-0.41504286,0.35557761,0.51545771
8.24000000,-0.23161310,0.65894182,-0.23445070,0.10862070,0.43041754,0.35260051,-0.52032044,-0.21449423,-0.67702590,0.22332295,0.06080983,-0.41881448,0.35889599,0.52107487
8.26000000,-0.23670530,0.66255599,-0.23581690,0.10188872,0.43432170,0.35584913,-0.52597156,-0.21950193,-0.68090909,0.22450115,0.05396764,-0.42257800,0.36220725,0.52667998
8.28000000,-0.24178566,0.66616176,-0.23717991,0.09517240,0.43821679,0.35909019,-0.53160955,-0.22449798,-0.68478325,0.22567662,0.04714137,-0.42633278,0.36551080,0.53227205
8.30000000,-0.24685327,0.66975848,-0.23853950,0.08847292,0.44210210,0.36232313,-0.53723339,-0.22948150,-0.68864769,0.22684913,0.04033221,-0.43007813,0.36880608,0.53785010
8.32000000,-0.25190726,0.67334553,-0.23989544,0.08179146,0.44597697,0.36554737,-0.54284211,-0.23445162,-0.69250174,0.22801850,0.03354137,-0.43381341,0.37209248,0.54341315
8.34000000,-0.25694672,0.67692228,-0.24124748,0.07512920,0.44984070,0.36876234,-0.54843471,-0.23940746,-0.69634471,0.22918450,0.02677005,-0.43753796,0.37536945,0.54896021
8.36000000,-0.26197078,0.68048809,-0.24259539,0.06848730,0.45369262,0.37196749,-0.55401021,-0.24434815,-0.70017594,0.23034694,0.02001942,-0.44125113,0.37863640,0.55449032
8.38000000,-0.26697855,0.68404234,-0.24393893,0.06186693,0.45753205,0.37516225,-0.55956765,-0.24927282,-0.70399475,0.23150561,0.01329067,-0.44495226,0.38189276,0.56000250
8.40000000,-0.27196916,0.68758441,-0.24527787,0.05526926,0.46135833,0.37834606,-0.56510603,-0.25418062,-0.70780047,0.23266031,0.00658498,-0.44864070,0.38513796,0.56549578
8.42000000,-0.27694174,0.69111368,-0.24661196,0.04869542,0.46517078,0.38151836,-0.57062441,-0.25907068,-0.71159244,0.23381084,-0.00009648,-0.45231582,0.38837143,0.57096922
8.44000000,-0.28189542,0.69462954,-0.24794099,0.04214657,0.46896874,0.38467861,-0.57612181,-0.26394216,-0.71536999,0.23495699,-0.00675254,-0.45597697,0.39159261,0.57642186
8.46000000,-0.28682934,0.69813137,-0.24926471,0.03562384,0.47275155,0.38782625,-0.58159728,-0.26879420,-0.71913248,0.23609858,-0.01338205,-0.45962351,0.39480095,0.58185275
8.48000000,-0.29174264,0.70161858,-0.25058291,0.02912837,0.47651855,0.39096074,-0.58704987,-0.27362597,-0.72287925,0.23723539,-0.01998386,-0.46325482,0.39799588,0.58726094
8.50000000,-0.29663447,0.70509054,-0.25189534,0.02266127,0.48026910,0.39408154,-0.59247864,-0.27843663,-0.72660964,0.23836723,-0.02655683,-0.46687026,0.40117684,0.59264550
8.52000000,-0.30150400,0.70854667,-0.25320179,0.01622368,0.48400253,0.39718810,-0.59788265,-0.28322534,-0.73032302,0.23949392,-0.03309981,-0.47046921,0.40434330,0.59800550
8.54000000,-0.30635037,0.71198637,-0.25450203,0.00981669,0.48771822,0.40027989,-0.60326096,-0.28799129,-0.73401875,0.24061524,-0.03961169,-0.47405105,0.40749471,0.60334002
8.56000000,-0.31117276,0.71540904,-0.25579583,0.00344140,0.49141553,0.40335638,-0.60861266,-0.29273366,-0.73769619,0.24173102,-0.04609134,-0.47761516,0.41063052,0.60864815
8.58000000,-0.31597034,0.71881411,-0.25708298,-0.00290109,0.49509381,0.40641704,-0.61393683,-0.29745163,-0.74135471,0.24284106,-0.05253767,-0.48116095,0.41375020,0.61392896
8.60000000,-0.32074229,0.72220099,-0.25836325,-0.00920970,0.49875244,0.40946136,-0.61923257,-0.30214440,-0.74499369,0.24394517,-0.05894955,-0.48468779,0.41685322,0.61918157
8.62000000,-0.32548781,0.72556911,-0.25963643,-0.01548336,0.50239081,0.41248881,-0.62449896,-0.30681117,-0.74861251,0.24504316,-0.06532592,-0.48819509,0.41993904,0.62440508
8.64000000,-0.33020609,0.72891789,-0.26090230,-0.02172101,0.50600828,0.41549888,-0.62973512,-0.31145115,-0.75221055,0.24613485,-0.07166568,-0.49168226,0.42300715,0.62959860
8.66000000,-0.33489633,0.73224678,-0.26216065,-0.02792159,0.50960427,0.41849107,-0.63494016,-0.31606356,-0.75578722,0.24722005,-0.07796777,-0.49514870,0.42605703,0.63476127
8.68000000,-0.33955774,0.73555520,-0.26341126,-0.03408406,0.51317815,0.42146486,-0.64011322,-0.32064761,-0.75934190,0.24829858,-0.08423113,-0.49859384,0.42908816,0.63989220
8.70000000,-0.34418954,0.73884261,-0.26465393,-0.04020738,0.51672933,0.42441976,-0.64525341,-0.32520256,-0.76287400,0.24937027,-0.09045470,-0.50201710,0.43210005,0.64499054
8.72000000,-0.34879097,0.74210845,-0.26588845,-0.04629055,0.52025722,0.42735529,-0.65035990,-0.32972762,-0.76638294,0.25043492,-0.09663745,-0.50541791,0.43509217,0.65005544
8.74000000,-0.35336125,0.74535220,-0.26711462,-0.05233254,0.52376123,0.43027094,-0.65543182,-0.33422207,-0.76986812,0.25149236,-0.10277836,-0.50879570,0.43806405,0.65508606
8.76000000,-0.35789963,0.74857330,-0.26833222,-0.05833237,0.52724078,0.43316625,-0.66046834,-0.33868514,-0.77332899,0.25254243,-0.10887641,-0.51214991,0.44101518,0.66008157
8.78000000,-0.36240537,0.75177124,-0.26954107,-0.06428903,0.53069531,0.43604073,-0.66546863,-0.34311611,-0.77676495,0.25358494,-0.11493059,-0.51548000,0.44394509,0.66504115
8.80000000,-0.36687773,0.75494548,-0.27074096,-0.07020157,0.53412424,0.43889392,-0.67043188,-0.34751425,-0.78017547,0.25461973,-0.12093992,-0.51878541,0.44685329,0.66996398
8.82000000,-0.37131598,0.75809551,-0.27193170,-0.07606902,0.53752703,0.44172534,-0.67535728,-0.35187885,-0.78355997,0.25564663,-0.12690342,-0.52206562,0.44973931,0.67484927
8.84000000,-0.37571940,0.76122083,-0.27311310,-0.08189043,0.54090311,0.44453455,-0.68024403,-0.35620920,-0.78691792,0.25666547,-0.13282013,-0.52532009,0.45260268,0.67969623
8.86000000,-0.38008730,0.76432093,-0.27428497,-0.08766486,0.54425195,0.44732109,-0.68509135,-0.36050462,-0.79024877,0.25767609,-0.13868910,-0.52854830,0.45544295,0.68450408
8.88000000,-0.38441896,0.76739532,-0.27544711,-0.09339140,0.54757302,0.45008452,-0.68989846,-0.36476440,-0.79355199,0.25867833,-0.14450938,-0.53174973,0.45825966,0.68927205
8.90000000,-0.38871371,0.77044350,-0.27659936,-0.09906913,0.55086578,0.45282440,-0.69466461,-0.36898788,-0.79682706,0.25967202,-0.15028007,-0.53492388,0.46105237,0.69399938
8.92000000,-0.39297087,0.77346501,-0.27774151,-0.10469717,0.55412972,0.45554029,-0.69938904,-0.37317439,-0.80007347,0.26065702,-0.15600024,-0.53807024,0.46382063,0.69868534
8.94000000,-0.39718977,0.77645936,-0.27887341,-0.11027464,0.55736433,0.45823178,-0.70407101,-0.37732329,-0.80329070,0.26163317,-0.16166902,-0.54118834,0.46656402,0.70332919
8.96000000,-0.40136976,0.77942610,-0.27999486,-0.11580066,0.56056911,0.46089845,-0.70870981,-0.38143392,-0.80647827,0.26260031,-0.16728551,-0.54427767,0.46928211,0.70793021
8.98000000,-0.40551021,0.78236476,-0.28110570,-0.12127440,0.56374357,0.46353989,-0.71330471,-0.38550565,-0.80963567,0.26355830,-0.17284886,-0.54733778,0.47197448,0.71248770
9.00000000,-0.40961047,0.78527491,-0.28220577,-0.12669502,0.56688722,0.46615569,-0.71785502,-0.38953788,-0.81276243,0.26450700,-0.17835822,-0.55036819,0.47464072,0.71700096
9.02000000,-0.41366993,0.78815611,-0.28329488,-0.13206171,0.56999959,0.46874547,-0.72236006,-0.39352998,-0.81585808,0.26544626,-0.18381276,-0.55336844,0.47728043,0.72146932
9.04000000,-0.41768799,0.79100791,-0.28437289,-0.13737366,0.57308022,0.47130883,-0.72681915,-0.39748136,-0.81892216,0.26637593,-0.18921167,-0.55633809,0.47989321,0.72589209
9.06000000,-0.42166405,0.79382991,-0.28543963,-0.14263008,0.57612865,0.47384540,-0.73123163,-0.40139144,-0.82195421,0.26729589,-0.19455415,-0.55927671,0.48247869,0.73026864
9.08000000,-0.42559754,0.79662169,-0.28649495,-0.14783022,0.57914443,0.47635480,-0.73559686,-0.40525965,-0.82495379,0.26820600,-0.19983942,-0.56218386,0.48503648,0.73459832
9.10000000,-0.42948788,0.79938284,-0.28753869,-0.15297331,0.58212713,0.47883668,-0.73991420,-0.40908543,-0.82792047,0.26910613,-0.20506671,-0.56505911,0.48756622,0.73888051
9.12000000,-0.43333451,0.80211298,-0.28857071,-0.15805864,0.58507633,0.48129068,-0.74418305,-0.41286824,-0.83085382,0.26999614,-0.21023529,-0.56790207,0.49006753,0.74311460
9.14000000,-0.43713691,0.80481172,-0.28959086,-0.16308547,0.58799160,0.48371646,-0.74840280,-0.41660754,-0.83375344,0.27087592,-0.21534442,-0.57071234,0.49254008,0.74729999
9.16000000,-0.44089454,0.80747869,-0.29059899,-0.16805312,0.59087256,0.48611367,-0.75257287,-0.42030281,-0.83661891,0.27174534,-0.22039339,-0.57348951,0.49498352,0.75143611
9.18000000,-0.44460688,0.81011351,-0.29159498,-0.17296091,0.59371879,0.48848200,-0.75669269,-0.42395355,-0.83944986,0.27260428,-0.22538152,-0.57623322,0.49739751,0.75552238
9.20000000,-0.44827345,0.81271584,-0.29257869,-0.17780817,0.59652993,0.49082112,-0.76076170,-0.42755927,-0.84224589,0.27345263,-0.23030814,-0.57894309,0.49978174,0.75955825
9.22000000,-0.45189374,0.81528534,-0.29354998,-0.18259427,0.59930560,0.49313073,-0.76477937,-0.43111950,-0.84500665,0.27429027,-0.23517259,-0.58161877,0.50213588,0.76354321
9.24000000,-0.45546731,0.81782167,-0.29450873,-0.18731859,0.60204543,0.49541052,-0.76874517,-0.43463376,-0.84773176,0.27511710,-0.23997425,-0.58425991,0.50445962,0.76747672
9.26000000,-0.45899368,0.82032450,-0.29545483,-0.19198052,0.60474908,0.49766020,-0.77265860,-0.43810161,-0.85042089,0.27593302,-0.24471250,-0.58686617,0.50675269,0.77135828
9.28000000,-0.46247242,0.82279353,-0.29638814,-0.19657948,0.60741621,0.49987950,-0.77651917,-0.44152263,-0.85307369,0.27673791,-0.24938675,-0.58943722,0.50901478,0.77518742
9.30000000,-0.46590311,0.82522845,-0.29730856,-0.20111491,0.61004651,0.50206814,-0.78032642,-0.44489639,-0.85568985,0.27753168,-0.25399643,-0.59197276,0.51124562,0.77896366
9.32000000,-0.46928533,0.82762897,-0.29821598,-0.20558627,0.61263964,0.50422586,-0.78407988,-0.44822249,-0.85826906,0.27831424,-0.25854099,-0.59447249,0.51344495,0.78268656
9.34000000,-0.47261870,0.82999482,-0.29911030,-0.20999304,0.61519532,0.50635242,-0.78777912,-0.45150054,-0.86081100,0.27908550,-0.26301990,-0.59693610,0.51561251,0.78635568
9.36000000,-0.47590284,0.83232572,-0.29999140,-0.21433473,0.61771325,0.50844756,-0.79142373,-0.45473018,-0.86331540,0.27984536,-0.26743267,-0.59936333,0.51774805,0.78997061
9.38000000,-0.47913738,0.83462143,-0.30085920,-0.21861085,0.62019315,0.51051107,-0.79501329,-0.45791104,-0.86578199,0.28059375,-0.27177879,-0.60175390,0.51985135,0.79353094
9.40000000,-0.48232198,0.83688169,-0.30171360,-0.22282095,0.62263477,0.51254272,-0.79854745,-0.46104280,-0.86821049,0.28133059,-0.27605782,-0.60410757,0.52192217,0.79703632
9.42000000,-0.48545632,0.83910628,-0.30255451,-0.22696461,0.62503785,0.51454230,-0.80202581,-0.46412513,-0.87060066,0.28205580,-0.28026931,-0.60642409,0.52396031,0.80048636
9.44000000,-0.48854009,0.84129497,-0.30338186,-0.23104140,0.62740216,0.51650962,-0.80544806,-0.46715772,-0.87295227,0.28276930,-0.28441284,-0.60870323,0.52596556,0.80388074
9.46000000,-0.49157299,0.84344757,-0.30419556,-0.23505095,0.62972747,0.51844449,-0.80881386,-0.47014030,-0.87526509,0.28347104,-0.28848803,-0.61094477,0.52793774,0.80721913
9.48000000,-0.49455475,0.84556386,-0.30499554,-0.23899289,0.63201357,0.52034674,-0.81212290,-0.47307258,-0.87753891,0.28416094,-0.29249451,-0.61314853,0.52987666,0.81050123
9.50000000,-0.49748512,0.84764368,-0.30578173,-0.24286689,0.63426027,0.52221619,-0.81537490,-0.47595431,-0.87977353,0.28483895,-0.29643192,-0.61531429,0.53178216,0.81372675
9.52000000,-0.50036384,0.84968685,-0.30655406,-0.24667262,0.63646738,0.52405270,-0.81856961,-0.47878527,-0.88196878,0.28550502,-0.30029996,-0.61744189,0.53365409,0.81689544
9.54000000,-0.50319072,0.85169321,-0.30731249,-0.25040979,0.63863473,0.52585614,-0.82170676,-0.48156524,-0.88412449,0.28615908,-0.30409832,-0.61953117,0.53549229,0.82000705
9.56000000,-0.50596553,0.85366263,-0.30805694,-0.25407815,0.64076216,0.52762636,-0.82478614,-0.48429401,-0.88624050,0.28680111,-0.30782673,-0.62158197,0.53729665,0.82306136
9.58000000,-0.50868811,0.85559497,-0.30878739,-0.25767744,0.64284955,0.52936325,-0.82780755,-0.48697140,-0.88831667,0.28743104,-0.31148494,-0.62359416,0.53906703,0.82605816
9.60000000,-0.51135828,0.85749012,-0.30950377,-0.26120746,0.64489675,0.53106671,-0.83077080,-0.48959726,-0.89035288,0.28804885,-0.31507275,-0.62556762,0.54080334,0.82899729
9.62000000,-0.51397590,0.85934797,-0.31020605,-0.26466800,0.64690367,0.53273665,-0.83367574,-0.49217145,-0.89234901,0.28865450,-0.31858994,-0.62750225,0.54250548,0.83187857
9.64000000,-0.51654085,0.86116843,-0.31089421,-0.26805891,0.64887021,0.53437299,-0.83652222,-0.49469384,-0.89430498,0.28924796,-0.32203637,-0.62939794,0.54417336,0.83470187
9.66000000,-0.51905302,0.86295144,-0.31156820,-0.27138005,0.65079628,0.53597565,-0.83931013,-0.49716432,-0.89622070,0.28982922,-0.32541187,-0.63125463,0.54580693,0.83746708
9.68000000,-0.52151233,0.86469693,-0.31222801,-0.27463130,0.65268182,0.53754459,-0.84203938,-0.49958282,-0.89809611,0.29039824,-0.32871635,-0.63307225,0.54740612,0.84017410
9.70000000,-0.52391871,0.86640485,-0.31287362,-0.27781258,0.65452678,0.53907977,-0.84470989,-0.50194927,-0.89993116,0.29095501,-0.33194971,-0.63485075,0.54897090,0.84282287
9.72000000,-0.52627212,0.86807517,-0.31350502,-0.28092383,0.65633112,0.54058115,-0.84732161,-0.50426363,-0.90172582,0.29149953,-0.33511189,-0.63659010,0.55050123,0.84541332
9.74000000,-0.52857254,0.86970789,-0.31412220,-0.28396502,0.65809484,0.54204872,-0.84987452,-0.50652587,-0.90348006,0.29203179,-0.33820287,-0.63829028,0.55199710,0.84794545
9.76000000,-0.53081996,0.87130298,-0.31472516,-0.28693615,0.65981792,0.54348248,-0.85236862,-0.50873599,-0.90519389,0.29255179,-0.34122264,-0.63995129,0.55345851,0.85041923
9.78000000,-0.53301440,0.87286048,-0.31531391,-0.28983724,0.66150039,0.54488245,-0.85480393,-0.51089402,-0.90686731,0.29305952,-0.34417122,-0.64157315,0.55488547,0.85283471
9.80000000,-0.53515590,0.87438041,-0.31588845,-0.29266834,0.66314227,0.54624864,-0.85718048,-0.51299998,-0.90850037,0.29355501,-0.34704868,-0.64315589,0.55627800,0.85519191
9.82000000,-0.53724453,0.87586281,-0.31644881,-0.29542955,0.66474361,0.54758110,-0.85949836,-0.51505395,-0.91009311,0.29403827,-0.34985508,-0.64469955,0.55763616,0.85749092
9.84000000,-0.53928037,0.87730774,-0.31699501,-0.29812096,0.66630448,0.54887989,-0.86175766,-0.51705601,-0.91164559,0.29450931,-0.35259056,-0.64620419,0.55895998,0.85973182
9.86000000,-0.54126353,0.87871527,-0.31752707,-0.30074273,0.66782496,0.55014506,-0.86395849,-0.51900626,-0.91315790,0.29496816,-0.35525525,-0.64766989,0.56024955,0.86191473
9.88000000,-0.54319413,0.88008551,-0.31804504,-0.30329502,0.66930514,0.55137671,-0.86610100,-0.52090482,-0.91463013,0.29541485,-0.35784932,-0.64909676,0.56150495,0.86403979
9.90000000,-0.54507233,0.88141856,-0.31854894,-0.30577804,0.67074514,0.55257492,-0.86818535,-0.52275186,-0.91606240,0.29584942,-0.36037299,-0.65048489,0.56272627,0.86610717
9.92000000,-0.54689830,0.88271454,-0.31903883,-0.30819201,0.67214511,0.55373982,-0.87021174,-0.52454753,-0.91745485,0.29627190,-0.36282648,-0.65183442,0.56391362,0.86811706
9.94000000,-0.54867225,0.88397359,-0.31951476,-0.31053719,0.67350518,0.55487153,-0.87218040,-0.52629204,-0.91880761,0.29668235,-0.36521006,-0.65314551,0.56506715,0.87006969
9.96000000,-0.55039438,0.88519587,-0.31997680,-0.31281389,0.67482554,0.55597018,-0.87409156,-0.52798560,-0.92012088,0.29708081,-0.36752403,-0.65441830,0.56618699,0.87196529
9.98000000,-0.55206496,0.88638156,-0.32042500,-0.31502243,0.67610636,0.55703594,-0.87594551,-0.52962845,-0.92139482,0.29746734,-0.36976871,-0.65565298,0.56727330,0.87380413
10.00000000,-0.55368425,0.88753085,-0.32085944,-0.31716315,0.67734786,0.55806898,-0.87774253,-0.53122087,-0.92262965,0.29784200,-0.37194449,-0.65684976,0.56832626,0.87558652
10.02000000,-0.55525254,0.88864393,-0.32128020,-0.31923646,0.67855026,0.55906949,-0.87948295,-0.53276313,-0.92382559,0.29820486,-0.37405173,-0.65800884,0.56934606,0.87731278
10.04000000,-0.55677015,0.88972105,-0.32168736,-0.32124276,0.67971380,0.56003766,-0.88116714,-0.53425556,-0.92498288,0.29855600,-0.37609089,-0.65913047,0.57033290,0.87898325
10.06000000,-0.55823742,0.89076245,-0.32208101,-0.32318253,0.68083875,0.56097373,-0.88279546,-0.53569848,-0.92610179,0.29889549,-0.37806240,-0.66021490,0.57128701,0.88059831
10.08000000,-0.55965473,0.89176837,-0.32246126,-0.32505623,0.68192540,0.56187791,-0.88436833,-0.53709227,-0.92718259,0.29922342,-0.37996678,-0.66126240,0.57220863,0.88215837
10.10000000,-0.56102246,0.89273912,-0.32282821,-0.32686439,0.68297403,0.56275047,-0.88588618,-0.53843730,-0.92822559,0.29953987,-0.38180455,-0.66227326,0.57309801,0.88366387
10.12000000,-0.56234103,0.89367497,-0.32318197,-0.32860757,0.68398497,0.56359166,-0.88734949,-0.53973400,-0.92923110,0.29984496,-0.38357626,-0.66324778,0.57395543,0.88511525
10.14000000,-0.56361089,0.89457625,-0.32352267,-0.33028635,0.68495857,0.56440178,-0.88875873,-0.54098279,-0.93019947,0.30013877,-0.38528252,-0.66418631,0.57478117,0.88651302
10.16000000,-0.56483251,0.89544329,-0.32385041,-0.33190135,0.68589518,0.56518113,-0.89011444,-0.54218413,-0.93113104,0.30042142,-0.38692397,-0.66508918,0.57557554,0.88785769
10.18000000,-0.56600639,0.89627645,-0.32416535,-0.33345324,0.68679518,0.56593001,-0.89141716,-0.54333853,-0.93202621,0.30069303,-0.38850126,-0.66595676,0.57633886,0.88914980
10.20000000,-0.56713304,0.89707608,-0.32446763,-0.33494269,0.68765898,0.56664877,-0.89266747,-0.54444649,-0.93288537,0.30095371,-0.39001510,-0.66678945,0.57707148,0.89038994
10.22000000,-0.56821302,0.89784260,-0.32475737,-0.33637045,0.68848700,0.56733776,-0.89386599,-0.54550855,-0.93370894,0.30120359,-0.39146622,-0.66758763,0.57777375,0.89157870
10.24000000,-0.56924690,0.89857639,-0.32503476,-0.33773726,0.68927967,0.56799733,-0.89501336,-0.54652527,-0.93449735,0.30144280,-0.39285541,-0.66835175,0.57844605,0.89271672
10.26000000,-0.57023529,0.89927790,-0.32529993,-0.33904393,0.69003746,0.56862789,-0.89611024,-0.54749726,-0.93525108,0.30167149,-0.39418348,-0.66908225,0.57908876,0.89380467
10.28000000,-0.57117883,0.89994757,-0.32555307,-0.34029130,0.69076087,0.56922982,-0.89715733,-0.54842514,-0.93597059,0.30188980,-0.39545126,-0.66977959,0.57970230,0.89484324
10.30000000,-0.57207815,0.90058587,-0.32579435,-0.34148023,0.69145038,0.56980356,-0.89815537,-0.54930954,-0.93665640,0.30209788,-0.39665965,-0.67044427,0.58028710,0.89583315
10.32000000,-0.57293397,0.90119328,-0.32602396,-0.34261163,0.69210652,0.57034953,-0.89910512,-0.55015115,-0.93730902,0.30229589,-0.39780958,-0.67107678,0.58084360,0.89677516
10.34000000,-0.57374698,0.90177031,-0.32624208,-0.34368644,0.69272986,0.57086820,-0.90000737,-0.55095068,-0.93792900,0.30248400,-0.39890199,-0.67167766,0.58137227,0.89767007
10.36000000,-0.57451793,0.90231749,-0.32644892,-0.34470566,0.69332094,0.57136004,-0.90086294,-0.55170884,-0.93851692,0.30266238,-0.39993789,-0.67224745,0.58187359,0.89851867
10.38000000,-0.57524760,0.90283537,-0.32664469,-0.34567029,0.69388038,0.57182554,-0.90167270,-0.55242640,-0.93907334,0.30283121,-0.40091832,-0.67278673,0.58234807,0.89932184
10.40000000,-0.57593679,0.90332452,-0.32682959,-0.34658141,0.69440877,0.57226521,-0.90243753,-0.55310415,-0.93959890,0.30299067,-0.40184435,-0.67329609,0.58279622,0.90008044
10.42000000,-0.57658632,0.90378552,-0.32700385,-0.34744010,0.69490676,0.57267959,-0.90315836,-0.55374290,-0.94009422,0.30314096,-0.40271709,-0.67377615,0.58321858,0.90079540
10.44000000,-0.57719705,0.90421899,-0.32716771,-0.34824750,0.69537501,0.57306921,-0.90383612,-0.55434350,-0.94055995,0.30328226,-0.40353771,-0.67422752,0.58361572,0.90146765
10.46000000,-0.57776988,0.90462555,-0.32732139,-0.34900479,0.69581419,0.57343465,-0.90447183,-0.55490682,-0.94099677,0.30341480,-0.40430740,-0.67465089,0.58398820,0.90209817
10.48000000,-0.57830572,0.90500586,-0.32746515,-0.34971318,0.69622502,0.57377650,-0.90506648,-0.55543377,-0.94140539,0.30353878,-0.40502739,-0.67504691,0.58433664,0.90268798
10.50000000,-0.57880552,0.90536059,-0.32759924,-0.35037392,0.69660821,0.57409535,-0.90562114,-0.55592527,-0.94178653,0.30365442,-0.40569895,-0.67541631,0.58466164,0.90323813
10.52000000,-0.57927026,0.90569044,-0.32772393,-0.35098832,0.69696453,0.57439183,-0.90613689,-0.55638230,-0.94214093,0.30376195,-0.40632340,-0.67575979,0.58496384,0.90374968
10.54000000,-0.57970095,0.90599612,-0.32783948,-0.35155770,0.69729474,0.57466660,-0.90661486,-0.55680585,-0.94246936,0.30386160,-0.40690211,-0.67607810,0.58524391,0.90422375
10.56000000,-0.58009863,0.90627838,-0.32794618,-0.35208345,0.69759964,0.57492030,-0.90705619,-0.55719693,-0.94277263,0.30395362,-0.40743646,-0.67637202,0.58550250,0.90466149
10.58000000,-0.58046438,0.90653796,-0.32804430,-0.35256697,0.69788005,0.57515363,-0.90746208,-0.55755661,-0.94305153,0.30403824,-0.40792789,-0.67664233,0.58574033,0.90506407
10.60000000,-0.58079929,0.90677567,-0.32813416,-0.35300972,0.69813683,0.57536729,-0.90783375,-0.55788596,-0.94330693,0.30411573,-0.40837790,-0.67688986,0.58595811,0.90543272
10.62000000,-0.58110450,0.90699229,-0.32821604,-0.35341322,0.69837083,0.57556201,-0.90817246,-0.55818611,-0.94353968,0.30418635,-0.40878800,-0.67711543,0.58615658,0.90576867
10.64000000,-0.58138118,0.90718866,-0.32829027,-0.35377899,0.69858296,0.57573852,-0.90847951,-0.55845819,-0.94375066,0.30425036,-0.40915976,-0.67731992,0.58633649,0.90607322
10.66000000,-0.58163052,0.90736563,-0.32835717,-0.35410863,0.69877413,0.57589759,-0.90875622,-0.55870340,-0.94394081,0.30430806,-0.40949480,-0.67750420,0.58649863,0.90634768
10.68000000,-0.58185376,0.90752408,-0.32841706,-0.35440376,0.69894529,0.57604001,-0.90900396,-0.55892293,-0.94411105,0.30435971,-0.40979476,-0.67766919,0.58664380,0.90659340
10.70000000,-0.58205217,0.90766489,-0.32847029,-0.35466605,0.69909740,0.57616658,-0.90922414,-0.55911804,-0.94426234,0.30440561,-0.41006134,-0.67781583,0.58677281,0.90681179
10.72000000,-0.58222702,0.90778899,-0.32851720,-0.35489721,0.69923146,0.57627813,-0.90941819,-0.55929000,-0.94439568,0.30444607,-0.41029629,-0.67794506,0.58688651,0.90700426
10.74000000,-0.58237966,0.90789733,-0.32855815,-0.35509901,0.69934849,0.57637551,-0.90958759,-0.55944011,-0.94451208,0.30448139,-0.41050139,-0.67805787,0.58698577,0.90717227
10.76000000,-0.58251145,0.90799087,-0.32859351,-0.35527324,0.69944953,0.57645959,-0.90973384,-0.55956971,-0.94461258,0.30451188,-0.41067847,-0.67815528,0.58707147,0.90731734
10.78000000,-0.58262379,0.90807060,-0.32862365,-0.35542174,0.69953566,0.57653125,-0.90985851,-0.55968018,-0.94469825,0.30453787,-0.41082941,-0.67823830,0.58714451,0.90744099
10.80000000,-0.58271810,0.90813753,-0.32864895,-0.35554642,0.69960797,0.57659142,-0.90996317,-0.55977293,-0.94477017,0.30455969,-0.41095613,-0.67830800,0.58720584,0.90754480
10.82000000,-0.58279585,0.90819271,-0.32866981,-0.35564921,0.69966758,0.57664102,-0.91004945,-0.55984938,-0.94482945,0.30457768,-0.41106059,-0.67836546,0.58725639,0.90763038
10.84000000,-0.58285853,0.90823720,-0.32868663,-0.35573208,0.69971563,0.57668101,-0.91011901,-0.55991103,-0.94487725,0.30459218,-0.41114482,-0.67841179,0.58729715,0.90769937
10.86000000,-0.58290768,0.90827209,-0.32869982,-0.35579706,0.69975332,0.57671236,-0.91017356,-0.55995936,-0.94491474,0.30460356,-0.41121086,-0.67844812,0.58732912,0.90775348
10.88000000,-0.58294487,0.90829849,-0.32870979,-0.35584622,0.69978183,0.57673609,-0.91021483,-0.55999594,-0.94494310,0.30461216,-0.41126083,-0.67847560,0.58735330,0.90779441
10.90000000,-0.58297170,0.90831753,-0.32871699,-0.35588169,0.69980240,0.57675320,-0.91024461,-0.56002232,-0.94496356,0.30461837,-0.41129688,-0.67849543,0.58737075,0.90782394
10.92000000,-0.58298981,0.90833038,-0.32872185,-0.35590562,0.69981628,0.57676475,-0.91026470,-0.56004012,-0.94497736,0.30462256,-0.41132121,-0.67850881,0.58738252,0.90784387
10.94000000,-0.58300086,0.90833822,-0.32872482,-0.35592024,0.69982476,0.57677181,-0.91027697,-0.56005100,-0.94498579,0.30462512,-0.41133606,-0.67851699,0.58738971,0.90785604
10.96000000,-0.58300658,0.90834228,-0.32872635,-0.35592780,0.69982914,0.57677545,-0.91028331,-0.56005662,-0.94499015,0.30462644,-0.41134374,-0.67852121,0.58739342,0.90786233
10.98000000,-0.58300870,0.90834378,-0.32872692,-0.35593060,0.69983077,0.57677681,-0.91028566,-0.56005870,-0.94499177,0.30462693,-0.41134659,-0.67852277,0.58739480,0.90786466
11.00000000,-0.58300900,0.90834400,-0.32872700,-0.35593100,0.69983100,0.57677700,-0.91028600,-0.56005900,-0.94499200,0.30462700,-0.41134700,-0.67852300,0.58739500,0.90786500
11.02000000,-0.58300900,0.90834400,-0.32872700,-0.35593100,0.69983100,0.57677700,-0.91028600,-0.56005900,-0.94499200,0.30462700,-0.41134700,-0.67852300,0.58739500,0.90786500
11.04000000,-0.58300900,0.90834400,-0.32872700,-0.35593100,0.69983100,0.57677700,-0.91028600,-0.56005900,-0.94499200,0.30462700,-0.41134700,-0.67852300,0.58739500,0.90786500
11.06000000,-0.58300900,0.90834400,-0.32872700,-0.35593100,0.69983100,0.57677700,-0.91028600,-0.56005900,-0.94499200,0.30462700,-0.41134700,-0.67852300,0.58739500,0.90786500
11.08000000,-0.58300900,0.90834400,-0.32872700,-0.35593100,0.69983100,0.57677700,-0.91028600,-0.56005900,-0.94499200,0.30462700,-0.41134700,-0.67852300,0.58739500,0.90786500
11.10000000,-0.58300900,0.90834400,-0.32872700,-0.35593100,0.69983100,0.57677700,-0.91028600,-0.56005900,-0.94499200,0.30462700,-0.41134700,-0.67852300,0.58739500,0.90786500
11.12000000,-0.58300900,0.90834400,-0.32872700,-0.35593100,0.69983100,0.57677700,-0.91028600,-0.56005900,-0.94499200,0.30462700,-0.41134700,-0.67852300,0.58739500,0.90786500
11.14000000,-0.58300900,0.90834400,-0.32872700,-0.35593100,0.69983100,0.57677700,-0.91028600,-0.56005900,-0.94499200,0.30462700,-0.41134700,-0.67852300,0.58739500,0.90786500
11.16000000,-0.58300900,0.90834400,-0.32872700,-0.35593100,0.69983100,0.57677700,-0.91028600,-0.56005900,-0.94499200,0.30462700,-0.41134700,-0.67852300,0.58739500,0.90786500
11.18000000,-0.58300900,0.90834400,-0.32872700,-0.35593100,0.69983100,0.57677700,-0.91028600,-0.56005900,-0.94499200,0.30462700,-0.41134700,-0.67852300,0.58739500,0.90786500
11.20000000,-0.58300900,0.90834400,-0.32872700,-0.35593100,0.69983100,0.57677700,-0.91028600,-0.56005900,-0.94499200,0.30462700,-0.41134700,-0.67852300,0.58739500,0.90786500
11.22000000,-0.58300900,0.90834400,-0.32872700,-0.35593100,0.69983100,0.57677700,-0.91028600,-0.56005900,-0.94499200,0.30462700,-0.41134700,-0.67852300,0.58739500,0.90786500
11.24000000,-0.58300900,0.90834400,-0.32872700,-0.35593100,0.69983100,0.57677700,-0.91028600,-0.56005900,-0.94499200,0.30462700,-0.41134700,-0.67852300,0.58739500,0.90786500
11.26000000,-0.58300900,0.90834400,-0.32872700,-0.35593100,0.69983100,0.57677700,-0.91028600,-0.56005900,-0.94499200,0.30462700,-0.41134700,-0.67852300,0.58739500,0.90786500
11.28000000,-0.58300900,0.90834400,-0.32872700,-0.35593100,0.69983100,0.57677700,-0.91028600,-0.56005900,-0.94499200,0.30462700,-0.41134700,-0.67852300,0.58739500,0.90786500
11.30000000,-0.58300900,0.90834400,-0.32872700,-0.35593100,0.69983100,0.57677700,-0.91028600,-0.56005900,-0.94499200,0.30462700,-0.41134700,-0.67852300,0.58739500,0.90786500
11.32000000,-0.58300900,0.90834400,-0.32872700,-0.35593100,0.69983100,0.57677700,-0.91028600,-0.56005900,-0.94499200,0.30462700,-0.41134700,-0.67852300,0.58739500,0.90786500
11.34000000,-0.58300900,0.90834400,-0.32872700,-0.35593100,0.69983100,0.57677700,-0.91028600,-0.56005900,-0.94499200,0.30462700,-0.41134700,-0.67852300,0.58739500,0.90786500
11.36000000,-0.58300900,0.90834400,-0.32872700,-0.35593100,0.69983100,0.57677700,-0.91028600,-0.56005900,-0.94499200,0.30462700,-0.41134700,-0.67852300,0.58739500,0.90786500
11.38000000,-0.58300900,0.90834400,-0.32872700,-0.35593100,0.69983100,0.57677700,-0.91028600,-0.56005900,-0.94499200,0.30462700,-0.41134700,-0.67852300,0.58739500,0.90786500
11.40000000,-0.58300900,0.90834400,-0.32872700,-0.35593100,0.69983100,0.57677700,-0.91028600,-0.56005900,-0.94499200,0.30462700,-0.41134700,-0.67852300,0.58739500,0.90786500
11.42000000,-0.58300900,0.90834400,-0.32872700,-0.35593100,0.69983100,0.57677700,-0.91028600,-0.56005900,-0.94499200,0.30462700,-0.41134700,-0.67852300,0.58739500,0.90786500
11.44000000,-0.58300900,0.90834400,-0.32872700,-0.35593100,0.69983100,0.57677700,-0.91028600,-0.56005900,-0.94499200,0.30462700,-0.41134700,-0.67852300,0.58739500,0.90786500
11.46000000,-0.58300900,0.90834400,-0.32872700,-0.35593100,0.69983100,0.57677700,-0.91028600,-0.56005900,-0.94499200,0.30462700,-0.41134700,-0.67852300,0.58739500,0.90786500
11.48000000,-0.58300900,0.90834400,-0.32872700,-0.35593100,0.69983100,0.57677700,-0.91028600,-0.56005900,-0.94499200,0.30462700,-0.41134700,-0.67852300,0.58739500,0.90786500
11.50000000,-0.58300900,0.90834400,-0.32872700,-0.35593100,0.69983100,0.57677700,-0.91028600,-0.56005900,-0.94499200,0.30462700,-0.41134700,-0.67852300,0.58739500,0.90786500
11.52000000,-0.58300900,0.90834400,-0.32872700,-0.35593100,0.69983100,0.57677700,-0.91028600,-0.56005900,-0.94499200,0.30462700,-0.41134700,-0.67852300,0.58739500,0.90786500
11.54000000,-0.58300900,0.90834400,-0.32872700,-0.35593100,0.69983100,0.57677700,-0.91028600,-0.56005900,-0.94499200,0.30462700,-0.41134700,-0.67852300,0.58739500,0.90786500
11.56000000,-0.58300900,0.90834400,-0.32872700,-0.35593100,0.69983100,0.57677700,-0.91028600,-0.56005900,-0.94499200,0.30462700,-0.41134700,-0.67852300,0.58739500,0.90786500
11.58000000,-0.58300900,0.90834400,-0.32872700,-0.35593100,0.69983100,0.57677700,-0.91028600,-0.56005900,-0.94499200,0.30462700,-0.41134700,-0.67852300,0.58739500,0.90786500
11.60000000,-0.58300900,0.90834400,-0.32872700,-0.35593100,0.69983100,0.57677700,-0.91028600,-0.56005900,-0.94499200,0.30462700,-0.41134700,-0.67852300,0.58739500,0.90786500
11.62000000,-0.58300900,0.90834400,-0.32872700,-0.35593100,0.69983100,0.57677700,-0.91028600,-0.56005900,-0.94499200,0.30462700,-0.41134700,-0.67852300,0.58739500,0.90786500
11.64000000,-0.58300900,0.90834400,-0.32872700,-0.35593100,0.69983100,0.57677700,-0.91028600,-0.56005900,-0.94499200,0.30462700,-0.41134700,-0.67852300,0.58739500,0.90786500
11.66000000,-0.58300900,0.90834400,-0.32872700,-0.35593100,0.69983100,0.57677700,-0.91028600,-0.56005900,-0.94499200,0.30462700,-0.41134700,-0.67852300,0.58739500,0.90786500
