gracetata/LocomotionHEC/legged_lab/Reference Data/ArmHack/StandPerturb/TestData/ArmOnly/special/arms_down_flat_forward_return_flat_25p5s_50hz.csv
time_s,left_shoulder_pitch_joint,left_shoulder_roll_joint,left_shoulder_yaw_joint,left_elbow_joint,left_wrist_roll_joint,left_wrist_pitch_joint,left_wrist_yaw_joint,right_shoulder_pitch_joint,right_shoulder_roll_joint,right_shoulder_yaw_joint,right_elbow_joint,right_wrist_roll_joint,right_wrist_pitch_joint,right_wrist_yaw_joint
0.00000000,0.24318400,0.32195600,-0.10706700,0.73631100,0.06639300,0.04969900,0.00659100,0.25242400,-0.31495700,0.11346700,0.69877600,-0.06790300,0.05015400,-0.00154600
0.02000000,0.24318401,0.32195609,-0.10706702,0.73631077,0.06639315,0.04969907,0.00659101,0.25242400,-0.31495709,0.11346702,0.69877578,-0.06790315,0.05015407,-0.00154601
0.04000000,0.24318405,0.32195669,-0.10706718,0.73630918,0.06639418,0.04969953,0.00659106,0.25242404,-0.31495770,0.11346717,0.69877424,-0.06790417,0.05015453,-0.00154607
0.06000000,0.24318417,0.32195830,-0.10706762,0.73630487,0.06639695,0.04970077,0.00659120,0.25242413,-0.31495934,0.11346758,0.69877007,-0.06790695,0.05015577,-0.00154623
0.08000000,0.24318441,0.32196144,-0.10706846,0.73629653,0.06640233,0.04970319,0.00659147,0.25242431,-0.31496254,0.11346838,0.69876200,-0.06791232,0.05015819,-0.00154654
0.10000000,0.24318480,0.32196659,-0.10706985,0.73628285,0.06641114,0.04970714,0.00659192,0.25242460,-0.31496777,0.11346968,0.69874876,-0.06792113,0.05016214,-0.00154705
0.12000000,0.24318537,0.32197422,-0.10707190,0.73626255,0.06642423,0.04971301,0.00659259,0.25242503,-0.31497553,0.11347161,0.69872912,-0.06793421,0.05016801,-0.00154780
0.14000000,0.24318617,0.32198481,-0.10707475,0.73623437,0.06644239,0.04972116,0.00659351,0.25242563,-0.31498631,0.11347430,0.69870185,-0.06795236,0.05017616,-0.00154885
0.16000000,0.24318722,0.32199883,-0.10707852,0.73619708,0.06646642,0.04973195,0.00659474,0.25242642,-0.31500057,0.11347785,0.69866577,-0.06797638,0.05018695,-0.00155023
0.18000000,0.24318857,0.32201674,-0.10708334,0.73614946,0.06649711,0.04974572,0.00659630,0.25242743,-0.31501878,0.11348238,0.69861968,-0.06800706,0.05020072,-0.00155200
0.20000000,0.24319024,0.32203898,-0.10708932,0.73609031,0.06653524,0.04976282,0.00659824,0.25242869,-0.31504141,0.11348801,0.69856244,-0.06804516,0.05021782,-0.00155420
0.22000000,0.24319227,0.32206600,-0.10709659,0.73601845,0.06658155,0.04978360,0.00660060,0.25243022,-0.31506889,0.11349485,0.69849292,-0.06809145,0.05023860,-0.00155687
0.24000000,0.24319470,0.32209823,-0.10710525,0.73593275,0.06663679,0.04980839,0.00660341,0.25243204,-0.31510167,0.11350301,0.69840998,-0.06814666,0.05026339,-0.00156005
0.26000000,0.24319754,0.32213609,-0.10711544,0.73583205,0.06670169,0.04983751,0.00660672,0.25243418,-0.31514018,0.11351260,0.69831254,-0.06821152,0.05029251,-0.00156379
0.28000000,0.24320085,0.32218001,-0.10712725,0.73571525,0.06677696,0.04987129,0.00661055,0.25243667,-0.31518485,0.11352372,0.69819952,-0.06828676,0.05032629,-0.00156813
0.30000000,0.24320463,0.32223039,-0.10714080,0.73558126,0.06686332,0.04991004,0.00661495,0.25243952,-0.31523610,0.11353648,0.69806986,-0.06837307,0.05036504,-0.00157311
0.32000000,0.24320894,0.32228764,-0.10715620,0.73542901,0.06696145,0.04995407,0.00661994,0.25244275,-0.31529433,0.11355097,0.69792253,-0.06847115,0.05040907,-0.00157876
0.34000000,0.24321379,0.32235215,-0.10717355,0.73525744,0.06707203,0.05000369,0.00662557,0.25244640,-0.31535995,0.11356731,0.69775651,-0.06858166,0.05045869,-0.00158514
0.36000000,0.24321922,0.32242432,-0.10719296,0.73506552,0.06719572,0.05005919,0.00663187,0.25245048,-0.31543335,0.11358558,0.69757080,-0.06870529,0.05051419,-0.00159227
0.38000000,0.24322525,0.32250451,-0.10721453,0.73485226,0.06733317,0.05012087,0.00663887,0.25245502,-0.31551492,0.11360589,0.69736443,-0.06884267,0.05057587,-0.00160019
0.40000000,0.24323191,0.32259310,-0.10723836,0.73461664,0.06748503,0.05018901,0.00664660,0.25246003,-0.31560503,0.11362832,0.69713644,-0.06899444,0.05064401,-0.00160894
0.42000000,0.24323923,0.32269047,-0.10726455,0.73435771,0.06765191,0.05026389,0.00665510,0.25246553,-0.31570406,0.11365297,0.69688588,-0.06916123,0.05071890,-0.00161856
0.44000000,0.24324724,0.32279696,-0.10729319,0.73407450,0.06783444,0.05034580,0.00666439,0.25247156,-0.31581238,0.11367994,0.69661183,-0.06934366,0.05080080,-0.00162908
0.46000000,0.24325596,0.32291292,-0.10732438,0.73376610,0.06803320,0.05043499,0.00667451,0.25247811,-0.31593033,0.11370930,0.69631340,-0.06954232,0.05088999,-0.00164053
0.48000000,0.24326542,0.32303870,-0.10735821,0.73343158,0.06824880,0.05053173,0.00668549,0.25248523,-0.31605827,0.11374115,0.69598971,-0.06975780,0.05098673,-0.00165296
0.50000000,0.24327564,0.32317464,-0.10739477,0.73307006,0.06848181,0.05063628,0.00669735,0.25249291,-0.31619654,0.11377557,0.69563988,-0.06999068,0.05109128,-0.00166639
0.52000000,0.24328665,0.32332106,-0.10743415,0.73268066,0.06873278,0.05074890,0.00671013,0.25250119,-0.31634547,0.11381265,0.69526307,-0.07024152,0.05120390,-0.00168086
0.54000000,0.24329847,0.32347828,-0.10747644,0.73226253,0.06900227,0.05086982,0.00672385,0.25251008,-0.31650539,0.11385246,0.69485846,-0.07051086,0.05132482,-0.00169639
0.56000000,0.24331113,0.32364663,-0.10752172,0.73181483,0.06929081,0.05099930,0.00673854,0.25251960,-0.31667662,0.11389508,0.69442523,-0.07079926,0.05145430,-0.00171302
0.58000000,0.24332465,0.32382640,-0.10757007,0.73133674,0.06959895,0.05113756,0.00675423,0.25252977,-0.31685947,0.11394060,0.69396261,-0.07110722,0.05159256,-0.00173078
0.60000000,0.24333905,0.32401789,-0.10762158,0.73082747,0.06992717,0.05128484,0.00677094,0.25254060,-0.31705425,0.11398909,0.69346981,-0.07143527,0.05173985,-0.00174970
0.62000000,0.24335435,0.32422140,-0.10767631,0.73028623,0.07027600,0.05144137,0.00678870,0.25255211,-0.31726125,0.11404062,0.69294608,-0.07178392,0.05189637,-0.00176980
0.64000000,0.24337058,0.32443722,-0.10773436,0.72971227,0.07064592,0.05160736,0.00680754,0.25256431,-0.31748077,0.11409527,0.69239068,-0.07215364,0.05206236,-0.00179112
0.66000000,0.24338776,0.32466562,-0.10779579,0.72910485,0.07103741,0.05178302,0.00682747,0.25257723,-0.31771309,0.11415310,0.69180290,-0.07254491,0.05223803,-0.00181369
0.68000000,0.24340590,0.32490687,-0.10786068,0.72846324,0.07145093,0.05196858,0.00684852,0.25259087,-0.31795848,0.11421419,0.69118204,-0.07295821,0.05242358,-0.00183752
0.70000000,0.24342503,0.32516125,-0.10792910,0.72778673,0.07188695,0.05216422,0.00687072,0.25260525,-0.31821722,0.11427860,0.69052741,-0.07339399,0.05261923,-0.00186265
0.72000000,0.24344516,0.32542901,-0.10800112,0.72707464,0.07234590,0.05237016,0.00689409,0.25262040,-0.31848957,0.11434640,0.68983835,-0.07385269,0.05282517,-0.00188910
0.74000000,0.24346632,0.32571040,-0.10807680,0.72632630,0.07282821,0.05258658,0.00691865,0.25263631,-0.31877578,0.11441765,0.68911421,-0.07433475,0.05304159,-0.00191690
0.76000000,0.24348852,0.32600566,-0.10815622,0.72554105,0.07333430,0.05281368,0.00694442,0.25265300,-0.31907611,0.11449241,0.68835435,-0.07484057,0.05326869,-0.00194607
0.78000000,0.24351179,0.32631504,-0.10823943,0.72471826,0.07386460,0.05305163,0.00697142,0.25267050,-0.31939080,0.11457075,0.68755818,-0.07537058,0.05350664,-0.00197663
0.80000000,0.24353613,0.32663877,-0.10832650,0.72385732,0.07441948,0.05330061,0.00699967,0.25268881,-0.31972007,0.11465272,0.68672508,-0.07592516,0.05375562,-0.00200861
0.82000000,0.24356157,0.32697707,-0.10841749,0.72295762,0.07499934,0.05356080,0.00702919,0.25270794,-0.32006417,0.11473838,0.68585448,-0.07650471,0.05401582,-0.00204203
0.84000000,0.24358812,0.32733016,-0.10851246,0.72201859,0.07560455,0.05383237,0.00706001,0.25272790,-0.32042332,0.11482778,0.68494582,-0.07710960,0.05428738,-0.00207692
0.86000000,0.24361580,0.32769825,-0.10861146,0.72103966,0.07623548,0.05411548,0.00709213,0.25274872,-0.32079773,0.11492099,0.68399854,-0.07774019,0.05457049,-0.00211328
0.88000000,0.24364463,0.32808155,-0.10871456,0.72002028,0.07689248,0.05441029,0.00712558,0.25277039,-0.32118760,0.11501804,0.68301213,-0.07839683,0.05486530,-0.00215115
0.90000000,0.24367461,0.32848026,-0.10882180,0.71895992,0.07757589,0.05471694,0.00716038,0.25279294,-0.32159315,0.11511900,0.68198606,-0.07907987,0.05517196,-0.00219054
0.92000000,0.24370576,0.32889458,-0.10893323,0.71785806,0.07828604,0.05503560,0.00719653,0.25281637,-0.32201457,0.11522391,0.68091984,-0.07978964,0.05549062,-0.00223147
0.94000000,0.24373811,0.32932468,-0.10904891,0.71671422,0.07902325,0.05536640,0.00723407,0.25284069,-0.32245205,0.11533281,0.67981299,-0.08052646,0.05582142,-0.00227396
0.96000000,0.24377165,0.32977075,-0.10916889,0.71552791,0.07978784,0.05570948,0.00727300,0.25286592,-0.32290577,0.11544576,0.67866505,-0.08129064,0.05616450,-0.00231802
0.98000000,0.24380641,0.33023296,-0.10929321,0.71429866,0.08058010,0.05606498,0.00731334,0.25289205,-0.32337591,0.11556280,0.67747556,-0.08208247,0.05652000,-0.00236369
1.00000000,0.24384239,0.33071149,-0.10942192,0.71302604,0.08140031,0.05643302,0.00735510,0.25291911,-0.32386264,0.11568397,0.67624409,-0.08290224,0.05688804,-0.00241096
1.02000000,0.24387961,0.33120649,-0.10955505,0.71170960,0.08224876,0.05681374,0.00739830,0.25294711,-0.32436613,0.11580930,0.67497023,-0.08375024,0.05726876,-0.00245986
1.04000000,0.24391809,0.33171812,-0.10969266,0.71034894,0.08312572,0.05720724,0.00744295,0.25297604,-0.32488653,0.11593885,0.67365357,-0.08462672,0.05766226,-0.00251041
1.06000000,0.24395782,0.33224652,-0.10983479,0.70894366,0.08403143,0.05761365,0.00748906,0.25300592,-0.32542400,0.11607265,0.67229373,-0.08553195,0.05806867,-0.00256261
1.08000000,0.24399883,0.33279186,-0.10998146,0.70749336,0.08496616,0.05803308,0.00753665,0.25303676,-0.32597869,0.11621073,0.67089034,-0.08646617,0.05848810,-0.00261648
1.10000000,0.24404112,0.33335425,-0.11013272,0.70599769,0.08593013,0.05846563,0.00758573,0.25306856,-0.32655072,0.11635314,0.66944304,-0.08742962,0.05892065,-0.00267204
1.12000000,0.24408470,0.33393384,-0.11028861,0.70445630,0.08692357,0.05891140,0.00763631,0.25310134,-0.32714025,0.11649989,0.66795150,-0.08842252,0.05936642,-0.00272930
1.14000000,0.24412959,0.33453074,-0.11044916,0.70286885,0.08794669,0.05937049,0.00768841,0.25313509,-0.32774739,0.11665103,0.66641538,-0.08944510,0.05982552,-0.00278827
1.16000000,0.24417579,0.33514509,-0.11061440,0.70123501,0.08899971,0.05984300,0.00774202,0.25316983,-0.32837228,0.11680659,0.66483439,-0.09049755,0.06029803,-0.00284896
1.18000000,0.24422330,0.33577699,-0.11078436,0.69955449,0.09008282,0.06032901,0.00779717,0.25320556,-0.32901501,0.11696659,0.66320821,-0.09158008,0.06078404,-0.00291139
1.20000000,0.24427215,0.33642655,-0.11095907,0.69782699,0.09119620,0.06082860,0.00785385,0.25324230,-0.32967572,0.11713107,0.66153658,-0.09269286,0.06128363,-0.00297556
1.22000000,0.24432233,0.33709389,-0.11113855,0.69605224,0.09234004,0.06134186,0.00791209,0.25328003,-0.33035449,0.11730004,0.65981923,-0.09383608,0.06179689,-0.00304148
1.24000000,0.24437386,0.33777908,-0.11132285,0.69422999,0.09351449,0.06186885,0.00797189,0.25331878,-0.33105144,0.11747354,0.65805591,-0.09500991,0.06232389,-0.00310917
1.26000000,0.24442673,0.33848223,-0.11151197,0.69235997,0.09471973,0.06240966,0.00803326,0.25335854,-0.33176665,0.11765159,0.65624637,-0.09621449,0.06286470,-0.00317864
1.28000000,0.24448096,0.33920343,-0.11170595,0.69044198,0.09595589,0.06296435,0.00809619,0.25339933,-0.33250021,0.11783420,0.65439041,-0.09744999,0.06341939,-0.00324989
1.30000000,0.24453656,0.33994275,-0.11190480,0.68847579,0.09722311,0.06353297,0.00816072,0.25344113,-0.33325221,0.11802140,0.65248780,-0.09871653,0.06398801,-0.00332292
1.32000000,0.24459352,0.34070026,-0.11210854,0.68646119,0.09852153,0.06411559,0.00822682,0.25348397,-0.33402272,0.11821321,0.65053836,-0.10001425,0.06457064,-0.00339776
1.34000000,0.24465186,0.34147605,-0.11231720,0.68439801,0.09985126,0.06471227,0.00829453,0.25352784,-0.33481181,0.11840965,0.64854191,-0.10134327,0.06516731,-0.00347440
1.36000000,0.24471158,0.34227017,-0.11253079,0.68228608,0.10121242,0.06532304,0.00836383,0.25357275,-0.33561955,0.11861072,0.64649827,-0.10270370,0.06577808,-0.00355285
1.38000000,0.24477267,0.34308268,-0.11274933,0.68012522,0.10260511,0.06594796,0.00843474,0.25361869,-0.33644599,0.11881646,0.64440730,-0.10409563,0.06640301,-0.00363312
1.40000000,0.24483516,0.34391364,-0.11297283,0.67791531,0.10402941,0.06658707,0.00850726,0.25366568,-0.33729120,0.11902686,0.64226886,-0.10551917,0.06704212,-0.00371521
1.42000000,0.24489904,0.34476310,-0.11320130,0.67565621,0.10548541,0.06724040,0.00858139,0.25371372,-0.33815523,0.11924195,0.64008282,-0.10697439,0.06769545,-0.00379913
1.44000000,0.24496431,0.34563109,-0.11343476,0.67334780,0.10697320,0.06790799,0.00865714,0.25376280,-0.33903811,0.11946174,0.63784907,-0.10846137,0.06836305,-0.00388488
1.46000000,0.24503098,0.34651766,-0.11367322,0.67098999,0.10849282,0.06858987,0.00873451,0.25381294,-0.33993988,0.11968623,0.63556751,-0.10998018,0.06904493,-0.00397246
1.48000000,0.24509904,0.34742285,-0.11391668,0.66858268,0.11004435,0.06928607,0.00881351,0.25386413,-0.34086059,0.11991543,0.63323805,-0.11153088,0.06974113,-0.00406189
1.50000000,0.24516851,0.34834667,-0.11416515,0.66612580,0.11162782,0.06999660,0.00889413,0.25391637,-0.34180026,0.12014935,0.63086063,-0.11311350,0.07045166,-0.00415315
1.52000000,0.24523939,0.34928915,-0.11441865,0.66361929,0.11324329,0.07072149,0.00897638,0.25396966,-0.34275890,0.12038799,0.62843518,-0.11472809,0.07117655,-0.00424626
1.54000000,0.24531166,0.35025032,-0.11467717,0.66106310,0.11489077,0.07146074,0.00906026,0.25402402,-0.34373655,0.12063137,0.62596166,-0.11637469,0.07191580,-0.00434122
1.56000000,0.24538535,0.35123018,-0.11494072,0.65845719,0.11657030,0.07221437,0.00914578,0.25407943,-0.34473322,0.12087948,0.62344002,-0.11805331,0.07266943,-0.00443802
1.58000000,0.24546044,0.35222874,-0.11520929,0.65580154,0.11828188,0.07298238,0.00923292,0.25413589,-0.34574891,0.12113232,0.62087026,-0.11976398,0.07343745,-0.00453667
1.60000000,0.24553693,0.35324601,-0.11548290,0.65309614,0.12002553,0.07376479,0.00932170,0.25419342,-0.34678362,0.12138990,0.61825235,-0.12150669,0.07421986,-0.00463716
1.62000000,0.24561483,0.35428199,-0.11576154,0.65034100,0.12180124,0.07456158,0.00941211,0.25425200,-0.34783736,0.12165222,0.61558631,-0.12328144,0.07501665,-0.00473951
1.64000000,0.24569414,0.35533666,-0.11604521,0.64753613,0.12360900,0.07537275,0.00950415,0.25431164,-0.34891012,0.12191927,0.61287215,-0.12508823,0.07582782,-0.00484370
1.66000000,0.24577486,0.35641002,-0.11633391,0.64468155,0.12544879,0.07619829,0.00959783,0.25437234,-0.35000189,0.12219106,0.61010990,-0.12692703,0.07665337,-0.00494974
1.68000000,0.24585698,0.35750206,-0.11662763,0.64177732,0.12732058,0.07703820,0.00969313,0.25443410,-0.35111266,0.12246757,0.60729959,-0.12879782,0.07749327,-0.00505762
1.70000000,0.24594050,0.35861275,-0.11692636,0.63882348,0.12922436,0.07789245,0.00979006,0.25449690,-0.35224239,0.12274881,0.60444128,-0.13070057,0.07834753,-0.00516735
1.72000000,0.24602542,0.35974206,-0.11723011,0.63582009,0.13116006,0.07876103,0.00988861,0.25456077,-0.35339107,0.12303476,0.60153502,-0.13263523,0.07921611,-0.00527891
1.74000000,0.24611174,0.36088998,-0.11753886,0.63276724,0.13312764,0.07964392,0.00998879,0.25462568,-0.35455868,0.12332542,0.59858091,-0.13460175,0.08009900,-0.00539232
1.76000000,0.24619946,0.36205646,-0.11785260,0.62966502,0.13512704,0.08054108,0.01009059,0.25469164,-0.35574516,0.12362078,0.59557901,-0.13660008,0.08099617,-0.00550755
1.78000000,0.24628857,0.36324147,-0.11817133,0.62651352,0.13715820,0.08145250,0.01019401,0.25475865,-0.35695050,0.12392084,0.59252943,-0.13863015,0.08190759,-0.00562462
1.80000000,0.24637906,0.36444497,-0.11849502,0.62331286,0.13922105,0.08237813,0.01029904,0.25482671,-0.35817463,0.12422557,0.58943228,-0.14069188,0.08283322,-0.00574352
1.82000000,0.24647095,0.36566690,-0.11882368,0.62006317,0.14131550,0.08331794,0.01040568,0.25489581,-0.35941752,0.12453498,0.58628768,-0.14278521,0.08377304,-0.00586423
1.84000000,0.24656422,0.36690722,-0.11915728,0.61676457,0.14344147,0.08427190,0.01051392,0.25496595,-0.36067911,0.12484904,0.58309576,-0.14491003,0.08472700,-0.00598676
1.86000000,0.24665887,0.36816587,-0.11949582,0.61341722,0.14559886,0.08523995,0.01062377,0.25503712,-0.36195935,0.12516774,0.57985667,-0.14706626,0.08569506,-0.00611111
1.88000000,0.24675489,0.36944280,-0.11983927,0.61002127,0.14778757,0.08622207,0.01073520,0.25510933,-0.36325818,0.12549107,0.57657055,-0.14925380,0.08667717,-0.00623725
1.90000000,0.24685228,0.37073794,-0.12018761,0.60657690,0.15000749,0.08721818,0.01084823,0.25518257,-0.36457552,0.12581901,0.57323757,-0.15147252,0.08767329,-0.00636520
1.92000000,0.24695104,0.37205121,-0.12054084,0.60308428,0.15225851,0.08822825,0.01096284,0.25525684,-0.36591132,0.12615154,0.56985790,-0.15372233,0.08868336,-0.00649494
1.94000000,0.24705115,0.37338256,-0.12089892,0.59954360,0.15454049,0.08925221,0.01107903,0.25533212,-0.36726550,0.12648865,0.56643173,-0.15600309,0.08970733,-0.00662647
1.96000000,0.24715262,0.37473190,-0.12126184,0.59595508,0.15685332,0.09029002,0.01119679,0.25540843,-0.36863798,0.12683031,0.56295926,-0.15831468,0.09074513,-0.00675977
1.98000000,0.24725543,0.37609915,-0.12162959,0.59231891,0.15919686,0.09134160,0.01131611,0.25548574,-0.37002868,0.12717651,0.55944069,-0.16065695,0.09179672,-0.00689484
2.00000000,0.24735959,0.37748423,-0.12200212,0.58863533,0.16157095,0.09240689,0.01143698,0.25556407,-0.37143751,0.12752723,0.55587624,-0.16302976,0.09286201,-0.00703167
2.02000000,0.24746507,0.37888705,-0.12237943,0.58490457,0.16397545,0.09348583,0.01155941,0.25564340,-0.37286439,0.12788244,0.55226614,-0.16543297,0.09394095,-0.00717026
2.04000000,0.24757189,0.38030752,-0.12276149,0.58112687,0.16641020,0.09457834,0.01168338,0.25572372,-0.37430922,0.12824211,0.54861061,-0.16786641,0.09503347,-0.00731059
2.06000000,0.24768003,0.38174554,-0.12314827,0.57730249,0.16887504,0.09568436,0.01180887,0.25580504,-0.37577191,0.12860623,0.54490991,-0.17032993,0.09613949,-0.00745265
2.08000000,0.24778947,0.38320102,-0.12353974,0.57343169,0.17136980,0.09680379,0.01193589,0.25588735,-0.37725235,0.12897477,0.54116429,-0.17282334,0.09725893,-0.00759644
2.10000000,0.24790023,0.38467385,-0.12393588,0.56951474,0.17389430,0.09793658,0.01206443,0.25597063,-0.37875043,0.12934770,0.53737402,-0.17534648,0.09839172,-0.00774194
2.12000000,0.24801228,0.38616393,-0.12433666,0.56555193,0.17644835,0.09908262,0.01219447,0.25605490,-0.38026606,0.12972500,0.53353937,-0.17789917,0.09953776,-0.00788915
2.14000000,0.24812562,0.38767114,-0.12474204,0.56154356,0.17903178,0.10024185,0.01232600,0.25614013,-0.38179912,0.13010664,0.52966063,-0.18048120,0.10069699,-0.00803804
2.16000000,0.24824023,0.38919536,-0.12515200,0.55748992,0.18164437,0.10141416,0.01245902,0.25622632,-0.38334948,0.13049259,0.52573809,-0.18309239,0.10186931,-0.00818862
2.18000000,0.24835612,0.39073649,-0.12556651,0.55339133,0.18428594,0.10259948,0.01259352,0.25631347,-0.38491704,0.13088282,0.52177205,-0.18573254,0.10305463,-0.00834087
2.20000000,0.24847327,0.39229440,-0.12598554,0.54924811,0.18695627,0.10379770,0.01272948,0.25640157,-0.38650167,0.13127729,0.51776283,-0.18840144,0.10425285,-0.00849478
2.22000000,0.24859168,0.39386897,-0.12640904,0.54506060,0.18965515,0.10500873,0.01286689,0.25649061,-0.38810324,0.13167599,0.51371074,-0.19109886,0.10546389,-0.00865033
2.24000000,0.24871132,0.39546007,-0.12683699,0.54082913,0.19238236,0.10623247,0.01300575,0.25658058,-0.38972162,0.13207887,0.50961611,-0.19382461,0.10668764,-0.00880752
2.26000000,0.24883220,0.39706756,-0.12726935,0.53655405,0.19513768,0.10746883,0.01314603,0.25667149,-0.39135668,0.13248590,0.50547930,-0.19657844,0.10792399,-0.00896632
2.28000000,0.24895431,0.39869131,-0.12770608,0.53223572,0.19792087,0.10871769,0.01328774,0.25676331,-0.39300829,0.13289705,0.50130063,-0.19936014,0.10917286,-0.00912674
2.30000000,0.24907762,0.40033119,-0.12814715,0.52787451,0.20073170,0.10997896,0.01343085,0.25685604,-0.39467629,0.13331228,0.49708046,-0.20216945,0.11043413,-0.00928874
2.32000000,0.24920214,0.40198705,-0.12859251,0.52347080,0.20356992,0.11125251,0.01357536,0.25694968,-0.39636055,0.13373156,0.49281917,-0.20500615,0.11170769,-0.00945232
2.34000000,0.24932784,0.40365875,-0.12904214,0.51902497,0.20643529,0.11253825,0.01372125,0.25704421,-0.39806091,0.13415485,0.48851711,-0.20786998,0.11299343,-0.00961747
2.36000000,0.24945473,0.40534614,-0.12949599,0.51453741,0.20932755,0.11383606,0.01386851,0.25713963,-0.39977724,0.13458211,0.48417468,-0.21076068,0.11429124,-0.00978417
2.38000000,0.24958279,0.40704907,-0.12995402,0.51000852,0.21224645,0.11514581,0.01401713,0.25723593,-0.40150937,0.13501330,0.47979226,-0.21367801,0.11560100,-0.00995240
2.40000000,0.24971200,0.40876738,-0.13041618,0.50543871,0.21519172,0.11646740,0.01416709,0.25733310,-0.40325716,0.13544840,0.47537024,-0.21662170,0.11692259,-0.01012216
2.42000000,0.24984236,0.41050093,-0.13088245,0.50082840,0.21816310,0.11780071,0.01431837,0.25743113,-0.40502043,0.13588734,0.47090904,-0.21959148,0.11825590,-0.01029342
2.44000000,0.24997385,0.41224954,-0.13135276,0.49617802,0.22116030,0.11914560,0.01447098,0.25753001,-0.40679903,0.13633011,0.46640905,-0.22258707,0.11960080,-0.01046616
2.46000000,0.25010646,0.41401306,-0.13182708,0.49148799,0.22418305,0.12050196,0.01462488,0.25762974,-0.40859279,0.13677665,0.46187070,-0.22560819,0.12095716,-0.01064038
2.48000000,0.25024018,0.41579132,-0.13230537,0.48675877,0.22723107,0.12186965,0.01478007,0.25773030,-0.41040155,0.13722692,0.45729442,-0.22865457,0.12232486,-0.01081606
2.50000000,0.25037500,0.41758415,-0.13278758,0.48199079,0.23030406,0.12324856,0.01493653,0.25783168,-0.41222512,0.13768088,0.45268064,-0.23172591,0.12370377,-0.01099317
2.52000000,0.25051090,0.41939138,-0.13327366,0.47718451,0.23340174,0.12463853,0.01509425,0.25793388,-0.41406335,0.13813848,0.44802980,-0.23482192,0.12509375,-0.01117171
2.54000000,0.25064787,0.42121284,-0.13376357,0.47234040,0.23652380,0.12603945,0.01525321,0.25803688,-0.41591604,0.13859969,0.44334236,-0.23794231,0.12649467,-0.01135165
2.56000000,0.25078589,0.42304834,-0.13425725,0.46745893,0.23966994,0.12745118,0.01541339,0.25814067,-0.41778302,0.13906446,0.43861875,-0.24108676,0.12790640,-0.01153298
2.58000000,0.25092496,0.42489772,-0.13475467,0.46254057,0.24283986,0.12887357,0.01557479,0.25824525,-0.41966412,0.13953274,0.43385946,-0.24425497,0.12932880,-0.01171569
2.60000000,0.25106506,0.42676078,-0.13525577,0.45758581,0.24603323,0.13030649,0.01573738,0.25835061,-0.42155913,0.14000448,0.42906493,-0.24744662,0.13076172,-0.01189974
2.62000000,0.25120617,0.42863734,-0.13576050,0.45259514,0.24924975,0.13174979,0.01590115,0.25845673,-0.42346788,0.14047964,0.42423567,-0.25066141,0.13220503,-0.01208513
2.64000000,0.25134829,0.43052723,-0.13626881,0.44756906,0.25248909,0.13320334,0.01606608,0.25856360,-0.42539017,0.14095818,0.41937213,-0.25389902,0.13365858,-0.01227183
2.66000000,0.25149139,0.43243023,-0.13678065,0.44250807,0.25575093,0.13466698,0.01623216,0.25867121,-0.42732581,0.14144003,0.41447482,-0.25715910,0.13512222,-0.01245983
2.68000000,0.25163546,0.43434617,-0.13729597,0.43741269,0.25903494,0.13614057,0.01639936,0.25877956,-0.42927461,0.14192517,0.40954422,-0.26044134,0.13659582,-0.01264910
2.70000000,0.25178049,0.43627485,-0.13781472,0.43228343,0.26234078,0.13762395,0.01656768,0.25888862,-0.43123636,0.14241352,0.40458084,-0.26374541,0.13807920,-0.01283964
2.72000000,0.25192647,0.43821607,-0.13833683,0.42712082,0.26566812,0.13911698,0.01673709,0.25899839,-0.43321087,0.14290506,0.39958519,-0.26707096,0.13957224,-0.01303141
2.74000000,0.25207337,0.44016963,-0.13886227,0.42192538,0.26901662,0.14061951,0.01690758,0.25910887,-0.43519793,0.14339972,0.39455778,-0.27041765,0.14107477,-0.01322441
2.76000000,0.25222119,0.44213533,-0.13939098,0.41669766,0.27238592,0.14213137,0.01707913,0.25922002,-0.43719735,0.14389745,0.38949912,-0.27378514,0.14258663,-0.01341860
2.78000000,0.25236990,0.44411297,-0.13992289,0.41143819,0.27577568,0.14365241,0.01725172,0.25933186,-0.43920890,0.14439820,0.38440975,-0.27717308,0.14410768,-0.01361397
2.80000000,0.25251950,0.44610233,-0.14045796,0.40614752,0.27918555,0.14518247,0.01742533,0.25944435,-0.44123238,0.14490193,0.37929019,-0.28058112,0.14563775,-0.01381050
2.82000000,0.25266996,0.44810322,-0.14099613,0.40082622,0.28261517,0.14672140,0.01759995,0.25955750,-0.44326759,0.14540857,0.37414097,-0.28400889,0.14717668,-0.01400817
2.84000000,0.25282127,0.45011543,-0.14153734,0.39547482,0.28606418,0.14826902,0.01777556,0.25967129,-0.44531430,0.14591808,0.36896265,-0.28745604,0.14872431,-0.01420696
2.86000000,0.25297342,0.45213873,-0.14208154,0.39009392,0.28953221,0.14982519,0.01795213,0.25978571,-0.44737230,0.14643040,0.36375576,-0.29092221,0.15028047,-0.01440684
2.88000000,0.25312638,0.45417291,-0.14262866,0.38468406,0.29301889,0.15138972,0.01812966,0.25990074,-0.44944137,0.14694547,0.35852086,-0.29440702,0.15184501,-0.01460780
2.90000000,0.25328015,0.45621777,-0.14317865,0.37924583,0.29652387,0.15296246,0.01830811,0.26001637,-0.45152129,0.14746324,0.35325851,-0.29791011,0.15341775,-0.01480982
2.92000000,0.25343471,0.45827307,-0.14373146,0.37377981,0.30004676,0.15454324,0.01848748,0.26013260,-0.45361184,0.14798367,0.34796926,-0.30143110,0.15499853,-0.01501286
2.94000000,0.25359003,0.46033861,-0.14428701,0.36828658,0.30358718,0.15613188,0.01866774,0.26024940,-0.45571280,0.14850668,0.34265369,-0.30496962,0.15658718,-0.01521692
2.96000000,0.25374611,0.46241415,-0.14484526,0.36276674,0.30714475,0.15772822,0.01884887,0.26036677,-0.45782394,0.14903222,0.33731236,-0.30852528,0.15818353,-0.01542196
2.98000000,0.25390292,0.46449948,-0.14540614,0.35722087,0.31071910,0.15933209,0.01903086,0.26048470,-0.45994503,0.14956024,0.33194585,-0.31209771,0.15978740,-0.01562797
3.00000000,0.25406045,0.46659436,-0.14596959,0.35164959,0.31430983,0.16094331,0.01921368,0.26060316,-0.46207584,0.15009069,0.32655474,-0.31568651,0.16139863,-0.01583493
3.02000000,0.25421868,0.46869858,-0.14653555,0.34605349,0.31791656,0.16256170,0.01939732,0.26072215,-0.46421614,0.15062349,0.32113962,-0.31929129,0.16301703,-0.01604280
3.04000000,0.25437759,0.47081190,-0.14710396,0.34043318,0.32153888,0.16418710,0.01958175,0.26084166,-0.46636570,0.15115860,0.31570108,-0.32291167,0.16464243,-0.01625158
3.06000000,0.25453718,0.47293409,-0.14767475,0.33478927,0.32517642,0.16581932,0.01976696,0.26096166,-0.46852429,0.15169596,0.31023970,-0.32654725,0.16627465,-0.01646123
3.08000000,0.25469741,0.47506492,-0.14824787,0.32912239,0.32882876,0.16745819,0.01995292,0.26108216,-0.47069166,0.15223551,0.30475609,-0.33019763,0.16791352,-0.01667174
3.10000000,0.25485828,0.47720416,-0.14882325,0.32343315,0.33249551,0.16910352,0.02013961,0.26120313,-0.47286759,0.15277718,0.29925084,-0.33386240,0.16955886,-0.01688308
3.12000000,0.25501976,0.47935157,-0.14940082,0.31772219,0.33617627,0.17075513,0.02032701,0.26132457,-0.47505182,0.15332092,0.29372457,-0.33754118,0.17121048,-0.01709522
3.14000000,0.25518183,0.48150691,-0.14998054,0.31199012,0.33987062,0.17241285,0.02051511,0.26144645,-0.47724413,0.15386667,0.28817788,-0.34123355,0.17286820,-0.01730815
3.16000000,0.25534449,0.48366995,-0.15056232,0.30623758,0.34357817,0.17407649,0.02070388,0.26156877,-0.47944426,0.15441437,0.28261138,-0.34493911,0.17453184,-0.01752184
3.18000000,0.25550770,0.48584044,-0.15114610,0.30046521,0.34729850,0.17574586,0.02089330,0.26169151,-0.48165198,0.15496396,0.27702569,-0.34865744,0.17620122,-0.01773626
3.20000000,0.25567146,0.48801816,-0.15173183,0.29467364,0.35103120,0.17742079,0.02108335,0.26181465,-0.48386704,0.15551538,0.27142143,-0.35238813,0.17787615,-0.01795140
3.22000000,0.25583575,0.49020284,-0.15231943,0.28886353,0.35477586,0.17910107,0.02127401,0.26193820,-0.48608919,0.15606856,0.26579922,-0.35613077,0.17955644,-0.01816723
3.24000000,0.25600054,0.49239426,-0.15290885,0.28303552,0.35853206,0.18078654,0.02146526,0.26206212,-0.48831820,0.15662345,0.26015969,-0.35988495,0.18124191,-0.01838372
3.26000000,0.25616581,0.49459217,-0.15350001,0.27719025,0.36229937,0.18247699,0.02165707,0.26218641,-0.49055380,0.15717998,0.25450346,-0.36365024,0.18293237,-0.01860085
3.28000000,0.25633156,0.49679632,-0.15409285,0.27132838,0.36607738,0.18417225,0.02184943,0.26231105,-0.49279575,0.15773809,0.24883117,-0.36742622,0.18462763,-0.01881860
3.30000000,0.25649776,0.49900647,-0.15468730,0.26545056,0.36986567,0.18587212,0.02204231,0.26243603,-0.49504379,0.15829771,0.24314344,-0.37121247,0.18632751,-0.01903694
3.32000000,0.25666439,0.50122236,-0.15528329,0.25955746,0.37366382,0.18757641,0.02223569,0.26256134,-0.49729769,0.15885880,0.23744093,-0.37500857,0.18803180,-0.01925585
3.34000000,0.25683143,0.50344375,-0.15588077,0.25364974,0.37747139,0.18928492,0.02242955,0.26268696,-0.49955718,0.15942127,0.23172426,-0.37881409,0.18974032,-0.01947530
3.36000000,0.25699887,0.50567039,-0.15647966,0.24772805,0.38128795,0.19099748,0.02262387,0.26281287,-0.50182200,0.15998508,0.22599408,-0.38262861,0.19145288,-0.01969528
3.38000000,0.25716668,0.50790204,-0.15707989,0.24179306,0.38511309,0.19271388,0.02281863,0.26293907,-0.50409192,0.16055015,0.22025103,-0.38645169,0.19316929,-0.01991574
3.40000000,0.25733485,0.51013843,-0.15768140,0.23584544,0.38894637,0.19443394,0.02301380,0.26306553,-0.50636666,0.16111642,0.21449577,-0.39028291,0.19488935,-0.02013668
3.42000000,0.25750336,0.51237932,-0.15828412,0.22988587,0.39278736,0.19615745,0.02320937,0.26319225,-0.50864598,0.16168384,0.20872893,-0.39412183,0.19661287,-0.02035805
3.44000000,0.25767219,0.51462445,-0.15888798,0.22391501,0.39663561,0.19788422,0.02340530,0.26331921,-0.51092962,0.16225232,0.20295117,-0.39796802,0.19833965,-0.02057985
3.46000000,0.25784132,0.51687357,-0.15949291,0.21793354,0.40049071,0.19961407,0.02360158,0.26344640,-0.51321731,0.16282182,0.19716314,-0.40182104,0.20006950,-0.02080205
3.48000000,0.25801073,0.51912643,-0.16009885,0.21194213,0.40435222,0.20134679,0.02379819,0.26357380,-0.51550880,0.16339226,0.19136550,-0.40568047,0.20180222,-0.02102461
3.50000000,0.25818040,0.52138277,-0.16070573,0.20594146,0.40821968,0.20308219,0.02399510,0.26370139,-0.51780384,0.16396359,0.18555890,-0.40954586,0.20353762,-0.02124751
3.52000000,0.25835031,0.52364233,-0.16131347,0.19993222,0.41209268,0.20482006,0.02419230,0.26382917,-0.52010215,0.16453573,0.17974399,-0.41341677,0.20527550,-0.02147074
3.54000000,0.25852045,0.52590486,-0.16192201,0.19391507,0.41597077,0.20656022,0.02438975,0.26395711,-0.52240349,0.16510862,0.17392145,-0.41729277,0.20701567,-0.02169425
3.56000000,0.25869079,0.52817011,-0.16253128,0.18789072,0.41985351,0.20830247,0.02458744,0.26408521,-0.52470758,0.16568220,0.16809192,-0.42117342,0.20875792,-0.02191804
3.58000000,0.25886132,0.53043781,-0.16314121,0.18185983,0.42374046,0.21004661,0.02478534,0.26421344,-0.52701417,0.16625640,0.16225608,-0.42505828,0.21050207,-0.02214207
3.60000000,0.25903201,0.53270772,-0.16375174,0.17582309,0.42763117,0.21179244,0.02498344,0.26434181,-0.52932300,0.16683116,0.15641457,-0.42894691,0.21224790,-0.02236631
3.62000000,0.25920284,0.53497956,-0.16436278,0.16978119,0.43152522,0.21353976,0.02518171,0.26447028,-0.53163381,0.16740641,0.15056807,-0.43283886,0.21399522,-0.02259075
3.64000000,0.25937381,0.53725309,-0.16497428,0.16373482,0.43542215,0.21528837,0.02538012,0.26459884,-0.53394632,0.16798209,0.14471724,-0.43673369,0.21574384,-0.02281535
3.66000000,0.25954488,0.53952804,-0.16558616,0.15768465,0.43932152,0.21703808,0.02557865,0.26472749,-0.53626029,0.16855813,0.13886274,-0.44063096,0.21749356,-0.02304010
3.68000000,0.25971604,0.54180415,-0.16619836,0.15163139,0.44322288,0.21878869,0.02577729,0.26485620,-0.53857544,0.16913446,0.13300524,-0.44453023,0.21924417,-0.02326496
3.70000000,0.25988726,0.54408117,-0.16681079,0.14557572,0.44712581,0.22053999,0.02597601,0.26498496,-0.54089151,0.16971102,0.12714541,-0.44843106,0.22099548,-0.02348990
3.72000000,0.26005854,0.54635885,-0.16742341,0.13951832,0.45102984,0.22229180,0.02617478,0.26511376,-0.54320824,0.17028775,0.12128391,-0.45233299,0.22274729,-0.02371492
3.74000000,0.26022984,0.54863691,-0.16803612,0.13345989,0.45493454,0.22404390,0.02637359,0.26524259,-0.54552537,0.17086457,0.11542142,-0.45623559,0.22449940,-0.02393997
3.76000000,0.26040116,0.55091509,-0.16864888,0.12740111,0.45883946,0.22579610,0.02657241,0.26537141,-0.54784263,0.17144143,0.10955858,-0.46013841,0.22625160,-0.02416503
3.78000000,0.26057246,0.55319315,-0.16926159,0.12134268,0.46274416,0.22754820,0.02677122,0.26550024,-0.55015976,0.17201825,0.10369609,-0.46404101,0.22800371,-0.02439008
3.80000000,0.26074374,0.55547083,-0.16987421,0.11528528,0.46664819,0.22930001,0.02696999,0.26562904,-0.55247649,0.17259498,0.09783459,-0.46794294,0.22975552,-0.02461510
3.82000000,0.26091496,0.55774785,-0.17048664,0.10922961,0.47055112,0.23105131,0.02716871,0.26575780,-0.55479256,0.17317154,0.09197476,-0.47184377,0.23150683,-0.02484004
3.84000000,0.26108612,0.56002396,-0.17109884,0.10317635,0.47445248,0.23280192,0.02736735,0.26588651,-0.55710771,0.17374787,0.08611726,-0.47574304,0.23325744,-0.02506490
3.86000000,0.26125719,0.56229891,-0.17171072,0.09712618,0.47835185,0.23455163,0.02756588,0.26601516,-0.55942168,0.17432391,0.08026276,-0.47964031,0.23500716,-0.02528965
3.88000000,0.26142816,0.56457244,-0.17232222,0.09107981,0.48224878,0.23630024,0.02776429,0.26614372,-0.56173419,0.17489959,0.07441193,-0.48353514,0.23675578,-0.02551425
3.90000000,0.26159899,0.56684428,-0.17293326,0.08503791,0.48614283,0.23804756,0.02796256,0.26627219,-0.56404500,0.17547484,0.06856543,-0.48742709,0.23850310,-0.02573869
3.92000000,0.26176968,0.56911419,-0.17354379,0.07900117,0.49003354,0.23979339,0.02816066,0.26640056,-0.56635383,0.17604960,0.06272392,-0.49131572,0.24024893,-0.02596293
3.94000000,0.26194021,0.57138189,-0.17415372,0.07297028,0.49392049,0.24153753,0.02835856,0.26652879,-0.56866042,0.17662380,0.05688808,-0.49520058,0.24199308,-0.02618696
3.96000000,0.26211055,0.57364714,-0.17476299,0.06694593,0.49780323,0.24327978,0.02855625,0.26665689,-0.57096451,0.17719738,0.05105855,-0.49908123,0.24373533,-0.02641075
3.98000000,0.26228069,0.57590967,-0.17537153,0.06092878,0.50168132,0.24501994,0.02875370,0.26678483,-0.57326585,0.17777027,0.04523601,-0.50295723,0.24547550,-0.02663426
4.00000000,0.26245060,0.57816923,-0.17597927,0.05491954,0.50555432,0.24675781,0.02895090,0.26691261,-0.57556416,0.17834241,0.03942110,-0.50682814,0.24721338,-0.02685749
4.02000000,0.26262027,0.58042557,-0.17658615,0.04891887,0.50942178,0.24849321,0.02914781,0.26704020,-0.57785920,0.17891374,0.03361450,-0.51069353,0.24894878,-0.02708039
4.04000000,0.26278968,0.58267843,-0.17719209,0.04292746,0.51328329,0.25022593,0.02934442,0.26716760,-0.58015069,0.17948418,0.02781686,-0.51455296,0.25068150,-0.02730295
4.06000000,0.26295881,0.58492755,-0.17779702,0.03694599,0.51713839,0.25195578,0.02954070,0.26729479,-0.58243838,0.18005368,0.02202883,-0.51840598,0.25241135,-0.02752515
4.08000000,0.26312764,0.58717268,-0.17840088,0.03097513,0.52098664,0.25368255,0.02973663,0.26742175,-0.58472202,0.18062216,0.01625107,-0.52225217,0.25413813,-0.02774695
4.10000000,0.26329615,0.58941357,-0.17900360,0.02501556,0.52482763,0.25540606,0.02993220,0.26754847,-0.58700134,0.18118958,0.01048423,-0.52609109,0.25586165,-0.02796832
4.12000000,0.26346432,0.59164996,-0.17960511,0.01906794,0.52866091,0.25712612,0.03012737,0.26767493,-0.58927608,0.18175585,0.00472897,-0.52992231,0.25758171,-0.02818926
4.14000000,0.26363213,0.59388161,-0.18020534,0.01313295,0.53248605,0.25884252,0.03032213,0.26780113,-0.59154600,0.18232092,-0.00101408,-0.53374539,0.25929812,-0.02840972
4.16000000,0.26379957,0.59610825,-0.18080423,0.00721126,0.53630261,0.26055508,0.03051645,0.26792704,-0.59381082,0.18288473,-0.00674426,-0.53755991,0.26101068,-0.02862970
4.18000000,0.26396661,0.59832964,-0.18140171,0.00130354,0.54011018,0.26226359,0.03071031,0.26805266,-0.59607031,0.18344720,-0.01246093,-0.54136543,0.26271920,-0.02884915
4.20000000,0.26413324,0.60054553,-0.18199770,-0.00458956,0.54390833,0.26396788,0.03090369,0.26817797,-0.59832421,0.18400829,-0.01816344,-0.54516153,0.26442349,-0.02906806
4.22000000,0.26429944,0.60275568,-0.18259215,-0.01046738,0.54769662,0.26566775,0.03109657,0.26830295,-0.60057225,0.18456791,-0.02385117,-0.54894778,0.26612337,-0.02928640
4.24000000,0.26446519,0.60495983,-0.18318499,-0.01632925,0.55147463,0.26736301,0.03128893,0.26842759,-0.60281420,0.18512602,-0.02952346,-0.55272376,0.26781863,-0.02950415
4.26000000,0.26463046,0.60715774,-0.18377615,-0.02217452,0.55524194,0.26905346,0.03148074,0.26855188,-0.60504980,0.18568255,-0.03517969,-0.55648905,0.26950909,-0.02972128
4.28000000,0.26479525,0.60934916,-0.18436557,-0.02800253,0.55899814,0.27073893,0.03167199,0.26867580,-0.60727881,0.18623744,-0.04081922,-0.56024323,0.27119456,-0.02993777
4.30000000,0.26495954,0.61153384,-0.18495317,-0.03381264,0.56274280,0.27241921,0.03186265,0.26879935,-0.60950096,0.18679062,-0.04644143,-0.56398587,0.27287485,-0.03015360
4.32000000,0.26512330,0.61371156,-0.18553890,-0.03960421,0.56647550,0.27409414,0.03205270,0.26892249,-0.61171602,0.18734204,-0.05204569,-0.56771656,0.27454978,-0.03036874
4.34000000,0.26528651,0.61588205,-0.18612268,-0.04537658,0.57019583,0.27576351,0.03224212,0.26904523,-0.61392374,0.18789163,-0.05763138,-0.57143489,0.27621916,-0.03058316
4.36000000,0.26544917,0.61804509,-0.18670446,-0.05112912,0.57390338,0.27742715,0.03243089,0.26916755,-0.61612387,0.18843933,-0.06319788,-0.57514045,0.27788280,-0.03079685
4.38000000,0.26561124,0.62020043,-0.18728418,-0.05686119,0.57759773,0.27908487,0.03261899,0.26928943,-0.61831618,0.18898508,-0.06874457,-0.57883282,0.27954052,-0.03100978
4.40000000,0.26577272,0.62234784,-0.18786175,-0.06257215,0.58127849,0.28073648,0.03280639,0.26941087,-0.62050041,0.18952882,-0.07427084,-0.58251160,0.28119214,-0.03122192
4.42000000,0.26593359,0.62448708,-0.18843713,-0.06826139,0.58494524,0.28238181,0.03299308,0.26953184,-0.62267634,0.19007049,-0.07977609,-0.58617637,0.28283748,-0.03143326
4.44000000,0.26609382,0.62661791,-0.18901025,-0.07392827,0.58859758,0.28402068,0.03317904,0.26965234,-0.62484371,0.19061004,-0.08525970,-0.58982675,0.28447635,-0.03164377
4.46000000,0.26625341,0.62874010,-0.18958104,-0.07957218,0.59223512,0.28565290,0.03336425,0.26977234,-0.62700230,0.19114740,-0.09072108,-0.59346233,0.28610857,-0.03185342
4.48000000,0.26641232,0.63085342,-0.19014945,-0.08519249,0.59585744,0.28727830,0.03354868,0.26989185,-0.62915186,0.19168251,-0.09615962,-0.59708271,0.28773397,-0.03206220
4.50000000,0.26657055,0.63295764,-0.19071541,-0.09078859,0.59946417,0.28889669,0.03373232,0.27001084,-0.63129216,0.19221531,-0.10157474,-0.60068749,0.28935237,-0.03227007
4.52000000,0.26672808,0.63505252,-0.19127886,-0.09635987,0.60305490,0.29050791,0.03391514,0.27012930,-0.63342297,0.19274576,-0.10696585,-0.60427629,0.29096360,-0.03247703
4.54000000,0.26688489,0.63713785,-0.19183974,-0.10190574,0.60662925,0.29211178,0.03409713,0.27024723,-0.63554406,0.19327378,-0.11233236,-0.60784872,0.29256747,-0.03268304
4.56000000,0.26704097,0.63921339,-0.19239799,-0.10742558,0.61018682,0.29370812,0.03427826,0.27036460,-0.63765520,0.19379932,-0.11767369,-0.61140438,0.29416382,-0.03288808
4.58000000,0.26719629,0.64127893,-0.19295354,-0.11291881,0.61372724,0.29529676,0.03445852,0.27048140,-0.63975616,0.19432233,-0.12298926,-0.61494290,0.29575247,-0.03309214
4.60000000,0.26735085,0.64333423,-0.19350635,-0.11838483,0.61725013,0.29687754,0.03463789,0.27059763,-0.64184671,0.19484276,-0.12827851,-0.61846389,0.29733325,-0.03329518
4.62000000,0.26750462,0.64537909,-0.19405634,-0.12382306,0.62075511,0.29845028,0.03481634,0.27071326,-0.64392663,0.19536053,-0.13354086,-0.62196698,0.29890599,-0.03349720
4.64000000,0.26765758,0.64741327,-0.19460346,-0.12923292,0.62424179,0.30001481,0.03499387,0.27082829,-0.64599570,0.19587560,-0.13877576,-0.62545179,0.30047053,-0.03369816
4.66000000,0.26780973,0.64943657,-0.19514766,-0.13461382,0.62770982,0.30157098,0.03517044,0.27094271,-0.64805370,0.19638792,-0.14398265,-0.62891796,0.30202669,-0.03389804
4.68000000,0.26796104,0.65144878,-0.19568887,-0.13996522,0.63115883,0.30311860,0.03534605,0.27105650,-0.65010041,0.19689743,-0.14916097,-0.63236511,0.30357432,-0.03409683
4.70000000,0.26811150,0.65344967,-0.19622704,-0.14528652,0.63458845,0.30465753,0.03552067,0.27116965,-0.65213562,0.19740407,-0.15431019,-0.63579288,0.30511325,-0.03429450
4.72000000,0.26826110,0.65543903,-0.19676211,-0.15057719,0.63799832,0.30618759,0.03569428,0.27128214,-0.65415910,0.19790780,-0.15942975,-0.63920092,0.30664332,-0.03449103
4.74000000,0.26840981,0.65741667,-0.19729402,-0.15583666,0.64138808,0.30770863,0.03586687,0.27139398,-0.65617065,0.19840855,-0.16451912,-0.64258886,0.30816437,-0.03468640
4.76000000,0.26855763,0.65938237,-0.19782273,-0.16106438,0.64475738,0.30922049,0.03603842,0.27150513,-0.65817007,0.19890628,-0.16957778,-0.64595635,0.30967623,-0.03488059
4.78000000,0.26870453,0.66133593,-0.19834817,-0.16625982,0.64810588,0.31072302,0.03620891,0.27161561,-0.66015713,0.19940094,-0.17460519,-0.64930304,0.31117876,-0.03507359
4.80000000,0.26885051,0.66327715,-0.19887028,-0.17142243,0.65143322,0.31221605,0.03637832,0.27172538,-0.66213164,0.19989248,-0.17960084,-0.65262859,0.31267180,-0.03526536
4.82000000,0.26899554,0.66520583,-0.19938903,-0.17655169,0.65473906,0.31369943,0.03654664,0.27183444,-0.66409339,0.20038083,-0.18456422,-0.65593266,0.31415518,-0.03545590
4.84000000,0.26913961,0.66712177,-0.19990435,-0.18164707,0.65802307,0.31517302,0.03671384,0.27194279,-0.66604219,0.20086597,-0.18949482,-0.65921490,0.31562878,-0.03564517
4.86000000,0.26928271,0.66902477,-0.20041619,-0.18670806,0.66128491,0.31663666,0.03687992,0.27205040,-0.66797783,0.20134782,-0.19439213,-0.66247498,0.31709242,-0.03583317
4.88000000,0.26942483,0.67091466,-0.20092450,-0.19173414,0.66452425,0.31809021,0.03704485,0.27215727,-0.66990012,0.20182636,-0.19925567,-0.66571259,0.31854597,-0.03601987
4.90000000,0.26956594,0.67279122,-0.20142923,-0.19672481,0.66774077,0.31953351,0.03720862,0.27226339,-0.67180887,0.20230152,-0.20408493,-0.66892738,0.31998928,-0.03620526
4.92000000,0.26970604,0.67465428,-0.20193033,-0.20167957,0.67093414,0.32096643,0.03737121,0.27236875,-0.67370388,0.20277326,-0.20887946,-0.67211903,0.32142220,-0.03638931
4.94000000,0.26984511,0.67650366,-0.20242775,-0.20659793,0.67410406,0.32238882,0.03753261,0.27247333,-0.67558498,0.20324154,-0.21363875,-0.67528724,0.32284460,-0.03657202
4.96000000,0.26998313,0.67833916,-0.20292143,-0.21147940,0.67725020,0.32380055,0.03769279,0.27257712,-0.67745196,0.20370631,-0.21836236,-0.67843169,0.32425633,-0.03675335
4.98000000,0.27012010,0.68016062,-0.20341134,-0.21632351,0.68037226,0.32520147,0.03785175,0.27268012,-0.67930465,0.20416752,-0.22304980,-0.68155208,0.32565725,-0.03693329
5.00000000,0.27025600,0.68196785,-0.20389742,-0.22112979,0.68346994,0.32659144,0.03800947,0.27278232,-0.68114288,0.20462512,-0.22770064,-0.68464809,0.32704723,-0.03711183
5.02000000,0.27039082,0.68376068,-0.20437963,-0.22589777,0.68654293,0.32797035,0.03816593,0.27288370,-0.68296645,0.20507908,-0.23231442,-0.68771943,0.32842614,-0.03728894
5.04000000,0.27052454,0.68553894,-0.20485792,-0.23062699,0.68959095,0.32933804,0.03832112,0.27298426,-0.68477521,0.20552935,-0.23689070,-0.69076581,0.32979384,-0.03746462
5.06000000,0.27065715,0.68730246,-0.20533224,-0.23531702,0.69261370,0.33069440,0.03847502,0.27308399,-0.68656897,0.20597589,-0.24142905,-0.69378693,0.33115020,-0.03763884
5.08000000,0.27078864,0.68905107,-0.20580255,-0.23996740,0.69561090,0.33203929,0.03862763,0.27318287,-0.68834757,0.20641866,-0.24592904,-0.69678252,0.33249510,-0.03781158
5.10000000,0.27091900,0.69078462,-0.20626882,-0.24457771,0.69858228,0.33337260,0.03877891,0.27328090,-0.69011084,0.20685760,-0.25039024,-0.69975230,0.33382841,-0.03798284
5.12000000,0.27104821,0.69250293,-0.20673098,-0.24914752,0.70152755,0.33469419,0.03892887,0.27337807,-0.69185863,0.20729270,-0.25481226,-0.70269599,0.33515000,-0.03815260
5.14000000,0.27117627,0.69420586,-0.20718901,-0.25367641,0.70444645,0.33600394,0.03907749,0.27347437,-0.69359076,0.20772389,-0.25919468,-0.70561332,0.33645976,-0.03832083
5.16000000,0.27130316,0.69589325,-0.20764286,-0.25816397,0.70733871,0.33730175,0.03922475,0.27356979,-0.69530709,0.20815115,-0.26353711,-0.70850402,0.33775757,-0.03848753
5.18000000,0.27142886,0.69756495,-0.20809249,-0.26260980,0.71020408,0.33858749,0.03937064,0.27366432,-0.69700745,0.20857444,-0.26783917,-0.71136785,0.33904331,-0.03865268
5.20000000,0.27155338,0.69922081,-0.20853785,-0.26701351,0.71304230,0.33986104,0.03951515,0.27375796,-0.69869171,0.20899372,-0.27210046,-0.71420455,0.34031687,-0.03881626
5.22000000,0.27167669,0.70086069,-0.20897892,-0.27137472,0.71585313,0.34112231,0.03965826,0.27385069,-0.70035971,0.20940895,-0.27632063,-0.71701386,0.34157814,-0.03897826
5.24000000,0.27179880,0.70248444,-0.20941565,-0.27569305,0.71863632,0.34237117,0.03979997,0.27394251,-0.70201132,0.20982010,-0.28049930,-0.71979556,0.34282701,-0.03913868
5.26000000,0.27191968,0.70409193,-0.20984801,-0.27996813,0.72139164,0.34360753,0.03994025,0.27403342,-0.70364638,0.21022713,-0.28463611,-0.72254939,0.34406336,-0.03929748
5.28000000,0.27203932,0.70568303,-0.21027596,-0.28419960,0.72411885,0.34483127,0.04007911,0.27412339,-0.70526476,0.21063001,-0.28873074,-0.72527514,0.34528711,-0.03945467
5.30000000,0.27215773,0.70725760,-0.21069946,-0.28838711,0.72681773,0.34604230,0.04021652,0.27421243,-0.70686633,0.21102871,-0.29278283,-0.72797256,0.34649815,-0.03961022
5.32000000,0.27227488,0.70881551,-0.21111849,-0.29253033,0.72948806,0.34724052,0.04035248,0.27430053,-0.70845096,0.21142318,-0.29679205,-0.73064146,0.34769637,-0.03976413
5.34000000,0.27239077,0.71035664,-0.21153300,-0.29662892,0.73212963,0.34842584,0.04048698,0.27438768,-0.71001852,0.21181341,-0.30075809,-0.73328161,0.34888169,-0.03991638
5.36000000,0.27250538,0.71188086,-0.21194296,-0.30068256,0.73474222,0.34959815,0.04062000,0.27447387,-0.71156888,0.21219936,-0.30468063,-0.73589280,0.35005401,-0.04006696
5.38000000,0.27261872,0.71338807,-0.21234834,-0.30469093,0.73732565,0.35075738,0.04075153,0.27455910,-0.71310194,0.21258100,-0.30855937,-0.73847483,0.35121324,-0.04021585
5.40000000,0.27273077,0.71487815,-0.21274912,-0.30865374,0.73987970,0.35190342,0.04088157,0.27464337,-0.71461757,0.21295830,-0.31239402,-0.74102752,0.35235928,-0.04036306
5.42000000,0.27284153,0.71635098,-0.21314526,-0.31257069,0.74240420,0.35303621,0.04101011,0.27472665,-0.71611565,0.21333123,-0.31618429,-0.74355066,0.35349207,-0.04050856
5.44000000,0.27295097,0.71780646,-0.21353673,-0.31644149,0.74489896,0.35415564,0.04113713,0.27480896,-0.71759609,0.21369977,-0.31992991,-0.74604407,0.35461151,-0.04065235
5.46000000,0.27305911,0.71924448,-0.21392351,-0.32026587,0.74736380,0.35526166,0.04126262,0.27489028,-0.71905878,0.21406389,-0.32363061,-0.74850759,0.35571753,-0.04079441
5.48000000,0.27316593,0.72066495,-0.21430557,-0.32404357,0.74979855,0.35635417,0.04138659,0.27497060,-0.72050361,0.21442356,-0.32728614,-0.75094103,0.35681005,-0.04093474
5.50000000,0.27327141,0.72206777,-0.21468288,-0.32777433,0.75220305,0.35743311,0.04150902,0.27504993,-0.72193049,0.21477877,-0.33089624,-0.75334424,0.35788899,-0.04107333
5.52000000,0.27337557,0.72345285,-0.21505541,-0.33145791,0.75457714,0.35849840,0.04162989,0.27512826,-0.72333932,0.21512949,-0.33446069,-0.75571705,0.35895428,-0.04121016
5.54000000,0.27347838,0.72482010,-0.21542316,-0.33509408,0.75692068,0.35954998,0.04174921,0.27520557,-0.72473002,0.21547569,-0.33797926,-0.75805932,0.36000587,-0.04134523
5.56000000,0.27357985,0.72616944,-0.21578608,-0.33868260,0.75923351,0.36058779,0.04186697,0.27528188,-0.72610250,0.21581735,-0.34145173,-0.76037091,0.36104367,-0.04147853
5.58000000,0.27367996,0.72750079,-0.21614416,-0.34222328,0.76151549,0.36161175,0.04198316,0.27535716,-0.72745668,0.21615446,-0.34487790,-0.76265167,0.36206764,-0.04161006
5.60000000,0.27377872,0.72881406,-0.21649739,-0.34571590,0.76376651,0.36262182,0.04209777,0.27543143,-0.72879248,0.21648699,-0.34825757,-0.76490148,0.36307771,-0.04173980
5.62000000,0.27387611,0.73010920,-0.21684573,-0.34916027,0.76598643,0.36361793,0.04221080,0.27550467,-0.73010982,0.21681493,-0.35159055,-0.76712020,0.36407383,-0.04186775
5.64000000,0.27397213,0.73138613,-0.21718918,-0.35255622,0.76817514,0.36460005,0.04232223,0.27557688,-0.73140865,0.21713826,-0.35487667,-0.76930774,0.36505594,-0.04199389
5.66000000,0.27406678,0.73264478,-0.21752772,-0.35590357,0.77033253,0.36556810,0.04243208,0.27564805,-0.73268889,0.21745696,-0.35811576,-0.77146397,0.36602400,-0.04211824
5.68000000,0.27416005,0.73388510,-0.21786132,-0.35920217,0.77245850,0.36652206,0.04254032,0.27571819,-0.73395048,0.21777102,-0.36130768,-0.77358879,0.36697796,-0.04224077
5.70000000,0.27425194,0.73510703,-0.21818998,-0.36245186,0.77455295,0.36746187,0.04264696,0.27578729,-0.73519337,0.21808043,-0.36445228,-0.77568212,0.36791778,-0.04236148
5.72000000,0.27434243,0.73631053,-0.21851367,-0.36565252,0.77661580,0.36838750,0.04275199,0.27585535,-0.73641750,0.21838516,-0.36754943,-0.77774385,0.36884341,-0.04248038
5.74000000,0.27443154,0.73749554,-0.21883240,-0.36880402,0.77864696,0.36929892,0.04285541,0.27592236,-0.73762284,0.21868522,-0.37059901,-0.77977392,0.36975483,-0.04259745
5.76000000,0.27451926,0.73866202,-0.21914614,-0.37190624,0.78064636,0.37019608,0.04295721,0.27598832,-0.73880932,0.21898058,-0.37360091,-0.78177225,0.37065200,-0.04271268
5.78000000,0.27460558,0.73980994,-0.21945489,-0.37495909,0.78261394,0.37107897,0.04305739,0.27605323,-0.73997693,0.21927124,-0.37655502,-0.78373877,0.37153489,-0.04282609
5.80000000,0.27469050,0.74093925,-0.21975864,-0.37796248,0.78454964,0.37194755,0.04315594,0.27611710,-0.74112561,0.21955719,-0.37946128,-0.78567343,0.37240347,-0.04293765
5.82000000,0.27477402,0.74204994,-0.22005737,-0.38091632,0.78645342,0.37280180,0.04325287,0.27617990,-0.74225534,0.21983843,-0.38231959,-0.78757618,0.37325773,-0.04304738
5.84000000,0.27485614,0.74314198,-0.22035109,-0.38382055,0.78832521,0.37364171,0.04334817,0.27624166,-0.74336611,0.22011494,-0.38512990,-0.78944697,0.37409763,-0.04315526
5.86000000,0.27493686,0.74421534,-0.22063979,-0.38667513,0.79016500,0.37446725,0.04344185,0.27630236,-0.74445788,0.22038673,-0.38789215,-0.79128577,0.37492318,-0.04326130
5.88000000,0.27501617,0.74527001,-0.22092346,-0.38948000,0.79197276,0.37527842,0.04353389,0.27636200,-0.74553064,0.22065378,-0.39060631,-0.79309256,0.37573435,-0.04336549
5.90000000,0.27509407,0.74630599,-0.22120210,-0.39223514,0.79374847,0.37607521,0.04362430,0.27642058,-0.74658438,0.22091610,-0.39327235,-0.79486731,0.37653114,-0.04346784
5.92000000,0.27517056,0.74732326,-0.22147571,-0.39494054,0.79549212,0.37685762,0.04371308,0.27647811,-0.74761909,0.22117368,-0.39589026,-0.79661002,0.37731355,-0.04356833
5.94000000,0.27524565,0.74832182,-0.22174428,-0.39759619,0.79720370,0.37762563,0.04380022,0.27653457,-0.74863478,0.22142652,-0.39846002,-0.79832069,0.37808157,-0.04366698
5.96000000,0.27531934,0.74930168,-0.22200783,-0.40020210,0.79888323,0.37837926,0.04388574,0.27658998,-0.74963145,0.22167463,-0.40098166,-0.79999931,0.37883520,-0.04376378
5.98000000,0.27539161,0.75026285,-0.22226635,-0.40275829,0.80053071,0.37911851,0.04396962,0.27664434,-0.75060910,0.22191801,-0.40345518,-0.80164591,0.37957445,-0.04385874
6.00000000,0.27546249,0.75120533,-0.22251985,-0.40526480,0.80214618,0.37984340,0.04405187,0.27669763,-0.75156774,0.22215665,-0.40588063,-0.80326050,0.38029934,-0.04395185
6.02000000,0.27553196,0.75212915,-0.22276832,-0.40772168,0.80372965,0.38055393,0.04413249,0.27674987,-0.75250741,0.22239057,-0.40825805,-0.80484312,0.38100987,-0.04404311
6.04000000,0.27560002,0.75303434,-0.22301178,-0.41012899,0.80528118,0.38125013,0.04421149,0.27680106,-0.75342812,0.22261977,-0.41058751,-0.80639382,0.38170607,-0.04413254
6.06000000,0.27566669,0.75392091,-0.22325024,-0.41248680,0.80680080,0.38193201,0.04428886,0.27685120,-0.75432989,0.22284426,-0.41286907,-0.80791263,0.38238795,-0.04422012
6.08000000,0.27573196,0.75478890,-0.22348370,-0.41479521,0.80828859,0.38259960,0.04436461,0.27690028,-0.75521277,0.22306405,-0.41510282,-0.80939961,0.38305555,-0.04430587
6.10000000,0.27579584,0.75563836,-0.22371217,-0.41705431,0.80974459,0.38325293,0.04443874,0.27694832,-0.75607680,0.22327914,-0.41728886,-0.81085483,0.38370888,-0.04438979
6.12000000,0.27585833,0.75646932,-0.22393567,-0.41926422,0.81116889,0.38389204,0.04451126,0.27699531,-0.75692201,0.22348954,-0.41942730,-0.81227837,0.38434799,-0.04447188
6.14000000,0.27591942,0.75728183,-0.22415421,-0.42142508,0.81256158,0.38451696,0.04458217,0.27704125,-0.75774845,0.22369528,-0.42151827,-0.81367030,0.38497292,-0.04455215
6.16000000,0.27597914,0.75807595,-0.22436780,-0.42353701,0.81392274,0.38512773,0.04465147,0.27708616,-0.75855619,0.22389635,-0.42356191,-0.81503073,0.38558369,-0.04463060
6.18000000,0.27603748,0.75885174,-0.22457646,-0.42560019,0.81525247,0.38572441,0.04471918,0.27713003,-0.75934528,0.22409279,-0.42555836,-0.81635975,0.38618036,-0.04470724
6.20000000,0.27609444,0.75960925,-0.22478020,-0.42761479,0.81655089,0.38630703,0.04478528,0.27717287,-0.76011579,0.22428460,-0.42750780,-0.81765747,0.38676299,-0.04478208
6.22000000,0.27615004,0.76034857,-0.22497905,-0.42958098,0.81781811,0.38687565,0.04484981,0.27721467,-0.76086779,0.22447180,-0.42941041,-0.81892401,0.38733161,-0.04485511
6.24000000,0.27620427,0.76106977,-0.22517303,-0.43149897,0.81905427,0.38743034,0.04491274,0.27725546,-0.76160135,0.22465441,-0.43126637,-0.82015951,0.38788630,-0.04492636
6.26000000,0.27625714,0.76177292,-0.22536215,-0.43336899,0.82025951,0.38797115,0.04497411,0.27729522,-0.76231656,0.22483246,-0.43307591,-0.82136409,0.38842711,-0.04499583
6.28000000,0.27630867,0.76245811,-0.22554645,-0.43519124,0.82143396,0.38849814,0.04503391,0.27733397,-0.76301351,0.22500596,-0.43483923,-0.82253792,0.38895411,-0.04506352
6.30000000,0.27635885,0.76312545,-0.22572593,-0.43696599,0.82257780,0.38901140,0.04509215,0.27737170,-0.76369228,0.22517493,-0.43655658,-0.82368114,0.38946737,-0.04512944
6.32000000,0.27640770,0.76377501,-0.22590064,-0.43869349,0.82369118,0.38951099,0.04514883,0.27740844,-0.76435299,0.22533941,-0.43822821,-0.82479392,0.38996696,-0.04519361
6.34000000,0.27645521,0.76440691,-0.22607060,-0.44037401,0.82477429,0.38999700,0.04520398,0.27744417,-0.76499572,0.22549941,-0.43985439,-0.82587645,0.39045297,-0.04525604
6.36000000,0.27650141,0.76502126,-0.22623584,-0.44200785,0.82582731,0.39046951,0.04525759,0.27747891,-0.76562061,0.22565497,-0.44143538,-0.82692890,0.39092548,-0.04531673
6.38000000,0.27654630,0.76561816,-0.22639639,-0.44359530,0.82685043,0.39092860,0.04530969,0.27751266,-0.76622775,0.22580611,-0.44297150,-0.82795148,0.39138458,-0.04537570
6.40000000,0.27658988,0.76619775,-0.22655228,-0.44513669,0.82784387,0.39137437,0.04536027,0.27754544,-0.76681728,0.22595286,-0.44446304,-0.82894438,0.39183035,-0.04543296
6.42000000,0.27663217,0.76676014,-0.22670354,-0.44663236,0.82880784,0.39180692,0.04540935,0.27757724,-0.76738931,0.22609527,-0.44591034,-0.82990783,0.39226290,-0.04548852
6.44000000,0.27667318,0.76730548,-0.22685021,-0.44808266,0.82974257,0.39222635,0.04545694,0.27760808,-0.76794400,0.22623335,-0.44731373,-0.83084205,0.39268233,-0.04554239
6.46000000,0.27671291,0.76783388,-0.22699234,-0.44948794,0.83064828,0.39263276,0.04550305,0.27763796,-0.76848147,0.22636715,-0.44867357,-0.83174728,0.39308874,-0.04559459
6.48000000,0.27675139,0.76834551,-0.22712995,-0.45084860,0.83152524,0.39302626,0.04554770,0.27766689,-0.76900187,0.22649670,-0.44999023,-0.83262376,0.39348224,-0.04564514
6.50000000,0.27678861,0.76884051,-0.22726308,-0.45216504,0.83237369,0.39340698,0.04559090,0.27769489,-0.76950536,0.22662203,-0.45126409,-0.83347176,0.39386296,-0.04569404
6.52000000,0.27682459,0.76931904,-0.22739179,-0.45343766,0.83319390,0.39377502,0.04563266,0.27772195,-0.76999209,0.22674320,-0.45249556,-0.83429153,0.39423100,-0.04574131
6.54000000,0.27685935,0.76978125,-0.22751611,-0.45466691,0.83398616,0.39413052,0.04567300,0.27774808,-0.77046223,0.22686024,-0.45368505,-0.83508336,0.39458650,-0.04578698
6.56000000,0.27689289,0.77022732,-0.22763609,-0.45585322,0.83475075,0.39447360,0.04571193,0.27777331,-0.77091595,0.22697319,-0.45483299,-0.83584754,0.39492958,-0.04583104
6.58000000,0.27692524,0.77065742,-0.22775177,-0.45699706,0.83548796,0.39480440,0.04574947,0.27779763,-0.77135343,0.22708209,-0.45593984,-0.83658436,0.39526038,-0.04587353
6.60000000,0.27695639,0.77107174,-0.22786320,-0.45809892,0.83619811,0.39512306,0.04578562,0.27782106,-0.77177485,0.22718700,-0.45700606,-0.83729413,0.39557904,-0.04591446
6.62000000,0.27698637,0.77147045,-0.22797044,-0.45915928,0.83688152,0.39542971,0.04582042,0.27784361,-0.77218040,0.22728796,-0.45803213,-0.83797717,0.39588570,-0.04595385
6.64000000,0.27701520,0.77185375,-0.22807354,-0.46017866,0.83753852,0.39572452,0.04585387,0.27786528,-0.77257027,0.22738501,-0.45901854,-0.83863381,0.39618051,-0.04599172
6.66000000,0.27704288,0.77222184,-0.22817254,-0.46115759,0.83816945,0.39600763,0.04588599,0.27788610,-0.77294468,0.22747822,-0.45996582,-0.83926440,0.39646362,-0.04602808
6.68000000,0.27706943,0.77257493,-0.22826751,-0.46209662,0.83877466,0.39627920,0.04591681,0.27790606,-0.77330383,0.22756762,-0.46087448,-0.83986929,0.39673518,-0.04606297
6.70000000,0.27709487,0.77291323,-0.22835850,-0.46299632,0.83935452,0.39653939,0.04594633,0.27792519,-0.77364793,0.22765328,-0.46174508,-0.84044884,0.39699538,-0.04609639
6.72000000,0.27711921,0.77323696,-0.22844557,-0.46385726,0.83990940,0.39678837,0.04597458,0.27794350,-0.77397720,0.22773525,-0.46257818,-0.84100342,0.39724436,-0.04612837
6.74000000,0.27714248,0.77354634,-0.22852878,-0.46468005,0.84043970,0.39702632,0.04600158,0.27796100,-0.77429189,0.22781359,-0.46337435,-0.84153343,0.39748231,-0.04615893
6.76000000,0.27716468,0.77384160,-0.22860820,-0.46546530,0.84094579,0.39725342,0.04602735,0.27797769,-0.77459222,0.22788835,-0.46413421,-0.84203925,0.39770941,-0.04618810
6.78000000,0.27718584,0.77412299,-0.22868388,-0.46621364,0.84142810,0.39746984,0.04605191,0.27799360,-0.77487843,0.22795960,-0.46485835,-0.84252131,0.39792583,-0.04621590
6.80000000,0.27720597,0.77439075,-0.22875590,-0.46692573,0.84188705,0.39767578,0.04607528,0.27800875,-0.77515078,0.22802740,-0.46554741,-0.84298001,0.39813177,-0.04624235
6.82000000,0.27722510,0.77464513,-0.22882432,-0.46760224,0.84232307,0.39787142,0.04609748,0.27802313,-0.77540952,0.22809181,-0.46620204,-0.84341579,0.39832742,-0.04626748
6.84000000,0.27724324,0.77488638,-0.22888921,-0.46824385,0.84273659,0.39805698,0.04611853,0.27803677,-0.77565491,0.22815290,-0.46682290,-0.84382909,0.39851297,-0.04629131
6.86000000,0.27726042,0.77511478,-0.22895064,-0.46885127,0.84312808,0.39823264,0.04613846,0.27804969,-0.77588723,0.22821073,-0.46741068,-0.84422036,0.39868864,-0.04631388
6.88000000,0.27727665,0.77533060,-0.22900869,-0.46942523,0.84349800,0.39839863,0.04615730,0.27806189,-0.77610675,0.22826538,-0.46796608,-0.84459008,0.39885463,-0.04633520
6.90000000,0.27729195,0.77553411,-0.22906342,-0.46996647,0.84384683,0.39855516,0.04617506,0.27807340,-0.77631375,0.22831691,-0.46848981,-0.84493873,0.39901115,-0.04635530
6.92000000,0.27730635,0.77572560,-0.22911493,-0.47047574,0.84417505,0.39870244,0.04619177,0.27808423,-0.77650853,0.22836540,-0.46898261,-0.84526678,0.39915844,-0.04637422
6.94000000,0.27731987,0.77590537,-0.22916328,-0.47095383,0.84448319,0.39884070,0.04620746,0.27809440,-0.77669138,0.22841092,-0.46944523,-0.84557474,0.39929670,-0.04639198
6.96000000,0.27733253,0.77607372,-0.22920856,-0.47140153,0.84477173,0.39897018,0.04622215,0.27810392,-0.77686261,0.22845354,-0.46987846,-0.84586314,0.39942618,-0.04640861
6.98000000,0.27734435,0.77623094,-0.22925085,-0.47181966,0.84504122,0.39909110,0.04623587,0.27811281,-0.77702253,0.22849335,-0.47028307,-0.84613248,0.39954710,-0.04642414
7.00000000,0.27735536,0.77637736,-0.22929023,-0.47220906,0.84529219,0.39920372,0.04624865,0.27812109,-0.77717146,0.22853043,-0.47065988,-0.84638332,0.39965972,-0.04643861
7.02000000,0.27736558,0.77651330,-0.22932679,-0.47257058,0.84552520,0.39930827,0.04626051,0.27812877,-0.77730973,0.22856485,-0.47100971,-0.84661620,0.39976427,-0.04645204
7.04000000,0.27737504,0.77663908,-0.22936062,-0.47290510,0.84574080,0.39940501,0.04627149,0.27813589,-0.77743767,0.22859670,-0.47133340,-0.84683168,0.39986101,-0.04646447
7.06000000,0.27738376,0.77675504,-0.22939181,-0.47321350,0.84593956,0.39949420,0.04628161,0.27814244,-0.77755562,0.22862606,-0.47163183,-0.84703034,0.39995020,-0.04647592
7.08000000,0.27739177,0.77686153,-0.22942045,-0.47349671,0.84612209,0.39957611,0.04629090,0.27814847,-0.77766394,0.22865303,-0.47190588,-0.84721277,0.40003210,-0.04648644
7.10000000,0.27739909,0.77695890,-0.22944664,-0.47375564,0.84628897,0.39965099,0.04629940,0.27815397,-0.77776297,0.22867768,-0.47215644,-0.84737956,0.40010699,-0.04649606
7.12000000,0.27740575,0.77704749,-0.22947047,-0.47399126,0.84644083,0.39971913,0.04630713,0.27815898,-0.77785308,0.22870011,-0.47238443,-0.84753133,0.40017513,-0.04650481
7.14000000,0.27741178,0.77712768,-0.22949204,-0.47420452,0.84657828,0.39978081,0.04631413,0.27816352,-0.77793465,0.22872042,-0.47259080,-0.84766871,0.40023681,-0.04651273
7.16000000,0.27741721,0.77719985,-0.22951145,-0.47439644,0.84670197,0.39983631,0.04632043,0.27816760,-0.77800805,0.22873869,-0.47277651,-0.84779234,0.40029231,-0.04651986
7.18000000,0.27742206,0.77726436,-0.22952880,-0.47456801,0.84681255,0.39988593,0.04632606,0.27817125,-0.77807367,0.22875503,-0.47294253,-0.84790285,0.40034193,-0.04652624
7.20000000,0.27742637,0.77732161,-0.22954420,-0.47472026,0.84691068,0.39992996,0.04633105,0.27817448,-0.77813190,0.22876952,-0.47308986,-0.84800093,0.40038596,-0.04653189
7.22000000,0.27743015,0.77737199,-0.22955775,-0.47485425,0.84699704,0.39996871,0.04633545,0.27817733,-0.77818315,0.22878228,-0.47321952,-0.84808724,0.40042471,-0.04653687
7.24000000,0.27743346,0.77741591,-0.22956956,-0.47497105,0.84707231,0.40000249,0.04633928,0.27817982,-0.77822782,0.22879340,-0.47333254,-0.84816248,0.40045849,-0.04654121
7.26000000,0.27743630,0.77745377,-0.22957975,-0.47507175,0.84713721,0.40003161,0.04634259,0.27818196,-0.77826633,0.22880299,-0.47342998,-0.84822734,0.40048761,-0.04654495
7.28000000,0.27743873,0.77748600,-0.22958841,-0.47515745,0.84719245,0.40005640,0.04634540,0.27818378,-0.77829911,0.22881115,-0.47351292,-0.84828255,0.40051240,-0.04654813
7.30000000,0.27744076,0.77751302,-0.22959568,-0.47522931,0.84723876,0.40007718,0.04634776,0.27818531,-0.77832659,0.22881799,-0.47358244,-0.84832884,0.40053318,-0.04655080
7.32000000,0.27744243,0.77753526,-0.22960166,-0.47528846,0.84727689,0.40009428,0.04634970,0.27818657,-0.77834922,0.22882362,-0.47363968,-0.84836694,0.40055028,-0.04655300
7.34000000,0.27744378,0.77755317,-0.22960648,-0.47533608,0.84730758,0.40010805,0.04635126,0.27818758,-0.77836743,0.22882815,-0.47368577,-0.84839762,0.40056405,-0.04655477
7.36000000,0.27744483,0.77756719,-0.22961025,-0.47537337,0.84733161,0.40011884,0.04635249,0.27818837,-0.77838169,0.22883170,-0.47372185,-0.84842164,0.40057484,-0.04655615
7.38000000,0.27744563,0.77757778,-0.22961310,-0.47540155,0.84734977,0.40012699,0.04635341,0.27818897,-0.77839247,0.22883439,-0.47374912,-0.84843979,0.40058299,-0.04655720
7.40000000,0.27744620,0.77758541,-0.22961515,-0.47542185,0.84736286,0.40013286,0.04635408,0.27818940,-0.77840023,0.22883632,-0.47376876,-0.84845287,0.40058886,-0.04655795
7.42000000,0.27744659,0.77759056,-0.22961654,-0.47543553,0.84737167,0.40013681,0.04635453,0.27818969,-0.77840546,0.22883762,-0.47378200,-0.84846168,0.40059281,-0.04655846
7.44000000,0.27744683,0.77759370,-0.22961738,-0.47544387,0.84737705,0.40013923,0.04635480,0.27818987,-0.77840866,0.22883842,-0.47379007,-0.84846705,0.40059523,-0.04655877
7.46000000,0.27744695,0.77759531,-0.22961782,-0.47544818,0.84737982,0.40014047,0.04635494,0.27818996,-0.77841030,0.22883883,-0.47379424,-0.84846983,0.40059647,-0.04655893
7.48000000,0.27744699,0.77759591,-0.22961798,-0.47544977,0.84738085,0.40014093,0.04635499,0.27819000,-0.77841091,0.22883898,-0.47379578,-0.84847085,0.40059693,-0.04655899
7.50000000,0.27744700,0.77759600,-0.22961800,-0.47545000,0.84738100,0.40014100,0.04635500,0.27819000,-0.77841100,0.22883900,-0.47379600,-0.84847100,0.40059700,-0.04655900
7.52000000,0.27744700,0.77759600,-0.22961800,-0.47545000,0.84738100,0.40014100,0.04635500,0.27819000,-0.77841100,0.22883900,-0.47379600,-0.84847100,0.40059700,-0.04655900
7.54000000,0.27744700,0.77759600,-0.22961800,-0.47545000,0.84738100,0.40014100,0.04635500,0.27819000,-0.77841100,0.22883900,-0.47379600,-0.84847100,0.40059700,-0.04655900
7.56000000,0.27744700,0.77759600,-0.22961800,-0.47545000,0.84738100,0.40014100,0.04635500,0.27819000,-0.77841100,0.22883900,-0.47379600,-0.84847100,0.40059700,-0.04655900
7.58000000,0.27744700,0.77759600,-0.22961800,-0.47545000,0.84738100,0.40014100,0.04635500,0.27819000,-0.77841100,0.22883900,-0.47379600,-0.84847100,0.40059700,-0.04655900
7.60000000,0.27744700,0.77759600,-0.22961800,-0.47545000,0.84738100,0.40014100,0.04635500,0.27819000,-0.77841100,0.22883900,-0.47379600,-0.84847100,0.40059700,-0.04655900
7.62000000,0.27744700,0.77759600,-0.22961800,-0.47545000,0.84738100,0.40014100,0.04635500,0.27819000,-0.77841100,0.22883900,-0.47379600,-0.84847100,0.40059700,-0.04655900
7.64000000,0.27744700,0.77759600,-0.22961800,-0.47545000,0.84738100,0.40014100,0.04635500,0.27819000,-0.77841100,0.22883900,-0.47379600,-0.84847100,0.40059700,-0.04655900
7.66000000,0.27744700,0.77759600,-0.22961800,-0.47545000,0.84738100,0.40014100,0.04635500,0.27819000,-0.77841100,0.22883900,-0.47379600,-0.84847100,0.40059700,-0.04655900
7.68000000,0.27744700,0.77759600,-0.22961800,-0.47545000,0.84738100,0.40014100,0.04635500,0.27819000,-0.77841100,0.22883900,-0.47379600,-0.84847100,0.40059700,-0.04655900
7.70000000,0.27744700,0.77759600,-0.22961800,-0.47545000,0.84738100,0.40014100,0.04635500,0.27819000,-0.77841100,0.22883900,-0.47379600,-0.84847100,0.40059700,-0.04655900
7.72000000,0.27744700,0.77759600,-0.22961800,-0.47545000,0.84738100,0.40014100,0.04635500,0.27819000,-0.77841100,0.22883900,-0.47379600,-0.84847100,0.40059700,-0.04655900
7.74000000,0.27744700,0.77759600,-0.22961800,-0.47545000,0.84738100,0.40014100,0.04635500,0.27819000,-0.77841100,0.22883900,-0.47379600,-0.84847100,0.40059700,-0.04655900
7.76000000,0.27744700,0.77759600,-0.22961800,-0.47545000,0.84738100,0.40014100,0.04635500,0.27819000,-0.77841100,0.22883900,-0.47379600,-0.84847100,0.40059700,-0.04655900
7.78000000,0.27744700,0.77759600,-0.22961800,-0.47545000,0.84738100,0.40014100,0.04635500,0.27819000,-0.77841100,0.22883900,-0.47379600,-0.84847100,0.40059700,-0.04655900
7.80000000,0.27744700,0.77759600,-0.22961800,-0.47545000,0.84738100,0.40014100,0.04635500,0.27819000,-0.77841100,0.22883900,-0.47379600,-0.84847100,0.40059700,-0.04655900
7.82000000,0.27744700,0.77759600,-0.22961800,-0.47545000,0.84738100,0.40014100,0.04635500,0.27819000,-0.77841100,0.22883900,-0.47379600,-0.84847100,0.40059700,-0.04655900
7.84000000,0.27744700,0.77759600,-0.22961800,-0.47545000,0.84738100,0.40014100,0.04635500,0.27819000,-0.77841100,0.22883900,-0.47379600,-0.84847100,0.40059700,-0.04655900
7.86000000,0.27744700,0.77759600,-0.22961800,-0.47545000,0.84738100,0.40014100,0.04635500,0.27819000,-0.77841100,0.22883900,-0.47379600,-0.84847100,0.40059700,-0.04655900
7.88000000,0.27744700,0.77759600,-0.22961800,-0.47545000,0.84738100,0.40014100,0.04635500,0.27819000,-0.77841100,0.22883900,-0.47379600,-0.84847100,0.40059700,-0.04655900
7.90000000,0.27744700,0.77759600,-0.22961800,-0.47545000,0.84738100,0.40014100,0.04635500,0.27819000,-0.77841100,0.22883900,-0.47379600,-0.84847100,0.40059700,-0.04655900
7.92000000,0.27744700,0.77759600,-0.22961800,-0.47545000,0.84738100,0.40014100,0.04635500,0.27819000,-0.77841100,0.22883900,-0.47379600,-0.84847100,0.40059700,-0.04655900
7.94000000,0.27744700,0.77759600,-0.22961800,-0.47545000,0.84738100,0.40014100,0.04635500,0.27819000,-0.77841100,0.22883900,-0.47379600,-0.84847100,0.40059700,-0.04655900
7.96000000,0.27744700,0.77759600,-0.22961800,-0.47545000,0.84738100,0.40014100,0.04635500,0.27819000,-0.77841100,0.22883900,-0.47379600,-0.84847100,0.40059700,-0.04655900
7.98000000,0.27744700,0.77759600,-0.22961800,-0.47545000,0.84738100,0.40014100,0.04635500,0.27819000,-0.77841100,0.22883900,-0.47379600,-0.84847100,0.40059700,-0.04655900
8.00000000,0.27744700,0.77759600,-0.22961800,-0.47545000,0.84738100,0.40014100,0.04635500,0.27819000,-0.77841100,0.22883900,-0.47379600,-0.84847100,0.40059700,-0.04655900
8.02000000,0.27744700,0.77759600,-0.22961800,-0.47545000,0.84738100,0.40014100,0.04635500,0.27819000,-0.77841100,0.22883900,-0.47379600,-0.84847100,0.40059700,-0.04655900
8.04000000,0.27744700,0.77759600,-0.22961800,-0.47545000,0.84738100,0.40014100,0.04635500,0.27819000,-0.77841100,0.22883900,-0.47379600,-0.84847100,0.40059700,-0.04655900
8.06000000,0.27744700,0.77759600,-0.22961800,-0.47545000,0.84738100,0.40014100,0.04635500,0.27819000,-0.77841100,0.22883900,-0.47379600,-0.84847100,0.40059700,-0.04655900
8.08000000,0.27744700,0.77759600,-0.22961800,-0.47545000,0.84738100,0.40014100,0.04635500,0.27819000,-0.77841100,0.22883900,-0.47379600,-0.84847100,0.40059700,-0.04655900
8.10000000,0.27744700,0.77759600,-0.22961800,-0.47545000,0.84738100,0.40014100,0.04635500,0.27819000,-0.77841100,0.22883900,-0.47379600,-0.84847100,0.40059700,-0.04655900
8.12000000,0.27744700,0.77759600,-0.22961800,-0.47545000,0.84738100,0.40014100,0.04635500,0.27819000,-0.77841100,0.22883900,-0.47379600,-0.84847100,0.40059700,-0.04655900
8.14000000,0.27744700,0.77759600,-0.22961800,-0.47545000,0.84738100,0.40014100,0.04635500,0.27819000,-0.77841100,0.22883900,-0.47379600,-0.84847100,0.40059700,-0.04655900
8.16000000,0.27744700,0.77759600,-0.22961800,-0.47545000,0.84738100,0.40014100,0.04635500,0.27819000,-0.77841100,0.22883900,-0.47379600,-0.84847100,0.40059700,-0.04655900
8.18000000,0.27744700,0.77759600,-0.22961800,-0.47545000,0.84738100,0.40014100,0.04635500,0.27819000,-0.77841100,0.22883900,-0.47379600,-0.84847100,0.40059700,-0.04655900
8.20000000,0.27744700,0.77759600,-0.22961800,-0.47545000,0.84738100,0.40014100,0.04635500,0.27819000,-0.77841100,0.22883900,-0.47379600,-0.84847100,0.40059700,-0.04655900
8.22000000,0.27744700,0.77759600,-0.22961800,-0.47545000,0.84738100,0.40014100,0.04635500,0.27819000,-0.77841100,0.22883900,-0.47379600,-0.84847100,0.40059700,-0.04655900
8.24000000,0.27744700,0.77759600,-0.22961800,-0.47545000,0.84738100,0.40014100,0.04635500,0.27819000,-0.77841100,0.22883900,-0.47379600,-0.84847100,0.40059700,-0.04655900
8.26000000,0.27744700,0.77759600,-0.22961800,-0.47545000,0.84738100,0.40014100,0.04635500,0.27819000,-0.77841100,0.22883900,-0.47379600,-0.84847100,0.40059700,-0.04655900
8.28000000,0.27744700,0.77759600,-0.22961800,-0.47545000,0.84738100,0.40014100,0.04635500,0.27819000,-0.77841100,0.22883900,-0.47379600,-0.84847100,0.40059700,-0.04655900
8.30000000,0.27744700,0.77759600,-0.22961800,-0.47545000,0.84738100,0.40014100,0.04635500,0.27819000,-0.77841100,0.22883900,-0.47379600,-0.84847100,0.40059700,-0.04655900
8.32000000,0.27744700,0.77759600,-0.22961800,-0.47545000,0.84738100,0.40014100,0.04635500,0.27819000,-0.77841100,0.22883900,-0.47379600,-0.84847100,0.40059700,-0.04655900
8.34000000,0.27744700,0.77759600,-0.22961800,-0.47545000,0.84738100,0.40014100,0.04635500,0.27819000,-0.77841100,0.22883900,-0.47379600,-0.84847100,0.40059700,-0.04655900
8.36000000,0.27744700,0.77759600,-0.22961800,-0.47545000,0.84738100,0.40014100,0.04635500,0.27819000,-0.77841100,0.22883900,-0.47379600,-0.84847100,0.40059700,-0.04655900
8.38000000,0.27744700,0.77759600,-0.22961800,-0.47545000,0.84738100,0.40014100,0.04635500,0.27819000,-0.77841100,0.22883900,-0.47379600,-0.84847100,0.40059700,-0.04655900
8.40000000,0.27744700,0.77759600,-0.22961800,-0.47545000,0.84738100,0.40014100,0.04635500,0.27819000,-0.77841100,0.22883900,-0.47379600,-0.84847100,0.40059700,-0.04655900
8.42000000,0.27744700,0.77759600,-0.22961800,-0.47545000,0.84738100,0.40014100,0.04635500,0.27819000,-0.77841100,0.22883900,-0.47379600,-0.84847100,0.40059700,-0.04655900
8.44000000,0.27744700,0.77759600,-0.22961800,-0.47545000,0.84738100,0.40014100,0.04635500,0.27819000,-0.77841100,0.22883900,-0.47379600,-0.84847100,0.40059700,-0.04655900
8.46000000,0.27744700,0.77759600,-0.22961800,-0.47545000,0.84738100,0.40014100,0.04635500,0.27819000,-0.77841100,0.22883900,-0.47379600,-0.84847100,0.40059700,-0.04655900
8.48000000,0.27744700,0.77759600,-0.22961800,-0.47545000,0.84738100,0.40014100,0.04635500,0.27819000,-0.77841100,0.22883900,-0.47379600,-0.84847100,0.40059700,-0.04655900
8.50000000,0.27744700,0.77759600,-0.22961800,-0.47545000,0.84738100,0.40014100,0.04635500,0.27819000,-0.77841100,0.22883900,-0.47379600,-0.84847100,0.40059700,-0.04655900
8.52000000,0.27744684,0.77759602,-0.22961802,-0.47544998,0.84738097,0.40014103,0.04635482,0.27818984,-0.77841103,0.22883901,-0.47379599,-0.84847097,0.40059704,-0.04655882
8.54000000,0.27744571,0.77759620,-0.22961815,-0.47544982,0.84738078,0.40014127,0.04635356,0.27818874,-0.77841125,0.22883911,-0.47379591,-0.84847074,0.40059728,-0.04655756
8.56000000,0.27744265,0.77759666,-0.22961850,-0.47544940,0.84738025,0.40014189,0.04635016,0.27818576,-0.77841184,0.22883938,-0.47379568,-0.84847014,0.40059794,-0.04655417
8.58000000,0.27743672,0.77759756,-0.22961918,-0.47544857,0.84737924,0.40014311,0.04634357,0.27817999,-0.77841299,0.22883991,-0.47379525,-0.84846897,0.40059923,-0.04654760
8.60000000,0.27742701,0.77759904,-0.22962030,-0.47544722,0.84737757,0.40014510,0.04633278,0.27817053,-0.77841487,0.22884076,-0.47379455,-0.84846705,0.40060134,-0.04653683
8.62000000,0.27741260,0.77760123,-0.22962196,-0.47544522,0.84737510,0.40014806,0.04631675,0.27815648,-0.77841766,0.22884203,-0.47379350,-0.84846420,0.40060447,-0.04652084
8.64000000,0.27739259,0.77760427,-0.22962427,-0.47544244,0.84737167,0.40015217,0.04629451,0.27813699,-0.77842153,0.22884379,-0.47379205,-0.84846025,0.40060881,-0.04649865
8.66000000,0.27736611,0.77760829,-0.22962732,-0.47543876,0.84736713,0.40015761,0.04626507,0.27811120,-0.77842666,0.22884612,-0.47379013,-0.84845502,0.40061456,-0.04646927
8.68000000,0.27733229,0.77761343,-0.22963121,-0.47543407,0.84736133,0.40016455,0.04622747,0.27807825,-0.77843321,0.22884910,-0.47378767,-0.84844834,0.40062190,-0.04643176
8.70000000,0.27729029,0.77761981,-0.22963605,-0.47542823,0.84735413,0.40017317,0.04618077,0.27803733,-0.77844134,0.22885280,-0.47378463,-0.84844005,0.40063102,-0.04638518
8.72000000,0.27723927,0.77762757,-0.22964193,-0.47542115,0.84734538,0.40018364,0.04612405,0.27798763,-0.77845122,0.22885730,-0.47378092,-0.84842997,0.40064210,-0.04632858
8.74000000,0.27717841,0.77763681,-0.22964894,-0.47541269,0.84733494,0.40019614,0.04605638,0.27792834,-0.77846300,0.22886266,-0.47377651,-0.84841795,0.40065531,-0.04626107
8.76000000,0.27710690,0.77764768,-0.22965717,-0.47540276,0.84732268,0.40021082,0.04597689,0.27785868,-0.77847684,0.22886896,-0.47377132,-0.84840383,0.40067083,-0.04618176
8.78000000,0.27702397,0.77766028,-0.22966673,-0.47539124,0.84730846,0.40022784,0.04588468,0.27777788,-0.77849290,0.22887626,-0.47376530,-0.84838745,0.40068884,-0.04608977
8.80000000,0.27692882,0.77767474,-0.22967768,-0.47537802,0.84729214,0.40024737,0.04577890,0.27768519,-0.77851132,0.22888464,-0.47375839,-0.84836865,0.40070949,-0.04598423
8.82000000,0.27682071,0.77769117,-0.22969014,-0.47536301,0.84727360,0.40026957,0.04565870,0.27757987,-0.77853225,0.22889416,-0.47375055,-0.84834730,0.40073296,-0.04586431
8.84000000,0.27669888,0.77770968,-0.22970417,-0.47534608,0.84725271,0.40029458,0.04552325,0.27746119,-0.77855583,0.22890489,-0.47374170,-0.84832324,0.40075941,-0.04572918
8.86000000,0.27656260,0.77773039,-0.22971987,-0.47532716,0.84722934,0.40032255,0.04537174,0.27732843,-0.77858222,0.22891690,-0.47373181,-0.84829632,0.40078900,-0.04557802
8.88000000,0.27641116,0.77775340,-0.22973731,-0.47530612,0.84720338,0.40035364,0.04520337,0.27718090,-0.77861153,0.22893024,-0.47372082,-0.84826641,0.40082187,-0.04541004
8.90000000,0.27624386,0.77777882,-0.22975658,-0.47528288,0.84717469,0.40038798,0.04501736,0.27701791,-0.77864392,0.22894497,-0.47370868,-0.84823337,0.40085819,-0.04522446
8.92000000,0.27605999,0.77780676,-0.22977776,-0.47525734,0.84714316,0.40042573,0.04481295,0.27683879,-0.77867952,0.22896117,-0.47369534,-0.84819705,0.40089811,-0.04502052
8.94000000,0.27585889,0.77783732,-0.22980092,-0.47522941,0.84710867,0.40046701,0.04458937,0.27664288,-0.77871845,0.22897888,-0.47368074,-0.84815733,0.40094177,-0.04479746
8.96000000,0.27563990,0.77787059,-0.22982615,-0.47519899,0.84707112,0.40051197,0.04434589,0.27642954,-0.77876085,0.22899817,-0.47366485,-0.84811408,0.40098931,-0.04455455
8.98000000,0.27540236,0.77790669,-0.22985351,-0.47516600,0.84703039,0.40056073,0.04408181,0.27619813,-0.77880683,0.22901909,-0.47364761,-0.84806717,0.40104087,-0.04429107
9.00000000,0.27514565,0.77794569,-0.22988307,-0.47513034,0.84698637,0.40061342,0.04379640,0.27594805,-0.77885653,0.22904170,-0.47362898,-0.84801646,0.40109660,-0.04400633
9.02000000,0.27486914,0.77798771,-0.22991492,-0.47509193,0.84693895,0.40067019,0.04348898,0.27567867,-0.77891006,0.22906605,-0.47360891,-0.84796185,0.40115663,-0.04369962
9.04000000,0.27457223,0.77803283,-0.22994912,-0.47505069,0.84688804,0.40073114,0.04315888,0.27538943,-0.77896754,0.22909221,-0.47358736,-0.84790321,0.40122109,-0.04337029
9.06000000,0.27425432,0.77808113,-0.22998574,-0.47500653,0.84683352,0.40079640,0.04280543,0.27507972,-0.77902909,0.22912021,-0.47356429,-0.84784042,0.40129010,-0.04301766
9.08000000,0.27391484,0.77813272,-0.23002484,-0.47495938,0.84677531,0.40086609,0.04242800,0.27474900,-0.77909481,0.22915011,-0.47353965,-0.84777337,0.40136380,-0.04264110
9.10000000,0.27355321,0.77818767,-0.23006649,-0.47490915,0.84671330,0.40094032,0.04202595,0.27439670,-0.77916482,0.22918196,-0.47351340,-0.84770194,0.40144231,-0.04223998
9.12000000,0.27316889,0.77824607,-0.23011076,-0.47485576,0.84664739,0.40101922,0.04159867,0.27402230,-0.77923923,0.22921581,-0.47348551,-0.84762603,0.40152574,-0.04181369
9.14000000,0.27276133,0.77830800,-0.23015770,-0.47479915,0.84657751,0.40110288,0.04114555,0.27362526,-0.77931813,0.22925171,-0.47345593,-0.84754554,0.40161422,-0.04136162
9.16000000,0.27233001,0.77837354,-0.23020739,-0.47473924,0.84650354,0.40119143,0.04066601,0.27320507,-0.77940163,0.22928970,-0.47342463,-0.84746035,0.40170786,-0.04088319
9.18000000,0.27187440,0.77844277,-0.23025986,-0.47467596,0.84642542,0.40128495,0.04015948,0.27276122,-0.77948983,0.22932983,-0.47339156,-0.84737036,0.40180677,-0.04037784
9.20000000,0.27139402,0.77851576,-0.23031519,-0.47460923,0.84634304,0.40138357,0.03962540,0.27229324,-0.77958283,0.22937214,-0.47335670,-0.84727548,0.40191105,-0.03984500
9.22000000,0.27088838,0.77859260,-0.23037343,-0.47453899,0.84625634,0.40148737,0.03906323,0.27180065,-0.77968072,0.22941668,-0.47332000,-0.84717561,0.40202082,-0.03928413
9.24000000,0.27035699,0.77867334,-0.23043464,-0.47446518,0.84616521,0.40159645,0.03847244,0.27128297,-0.77978360,0.22946348,-0.47328143,-0.84707066,0.40213618,-0.03869471
9.26000000,0.26979940,0.77875807,-0.23049887,-0.47438773,0.84606960,0.40171091,0.03785252,0.27073977,-0.77989155,0.22951259,-0.47324096,-0.84696053,0.40225723,-0.03807622
9.28000000,0.26921515,0.77884685,-0.23056616,-0.47430658,0.84596941,0.40183085,0.03720296,0.27017060,-0.78000466,0.22956405,-0.47319856,-0.84684513,0.40238407,-0.03742817
9.30000000,0.26860380,0.77893974,-0.23063658,-0.47422166,0.84586458,0.40195635,0.03652328,0.26957503,-0.78012301,0.22961790,-0.47315419,-0.84672439,0.40251679,-0.03675006
9.32000000,0.26796494,0.77903682,-0.23071016,-0.47413292,0.84575503,0.40208750,0.03581300,0.26895266,-0.78024669,0.22967417,-0.47310782,-0.84659821,0.40265548,-0.03604143
9.34000000,0.26729814,0.77913814,-0.23078697,-0.47404030,0.84564069,0.40222438,0.03507167,0.26830307,-0.78037578,0.22973290,-0.47305943,-0.84646651,0.40280023,-0.03530182
9.36000000,0.26660302,0.77924376,-0.23086703,-0.47394375,0.84552149,0.40236707,0.03429883,0.26762588,-0.78051035,0.22979413,-0.47300898,-0.84632921,0.40295114,-0.03453077
9.38000000,0.26587917,0.77935376,-0.23095041,-0.47384321,0.84539736,0.40251567,0.03349407,0.26692071,-0.78065049,0.22985788,-0.47295645,-0.84618625,0.40310828,-0.03372787
9.40000000,0.26512622,0.77946817,-0.23103713,-0.47373862,0.84526825,0.40267023,0.03265695,0.26618720,-0.78079626,0.22992420,-0.47290180,-0.84603753,0.40327174,-0.03289270
9.42000000,0.26434381,0.77958706,-0.23112725,-0.47362994,0.84513408,0.40283085,0.03178708,0.26542498,-0.78094773,0.22999311,-0.47284501,-0.84588300,0.40344160,-0.03202484
9.44000000,0.26353158,0.77971048,-0.23122081,-0.47351712,0.84499480,0.40299758,0.03088406,0.26463371,-0.78110497,0.23006465,-0.47278607,-0.84572258,0.40361793,-0.03112391
9.46000000,0.26268919,0.77983848,-0.23131783,-0.47340011,0.84485035,0.40317051,0.02994751,0.26381307,-0.78126806,0.23013885,-0.47272493,-0.84555620,0.40380080,-0.03018953
9.48000000,0.26181632,0.77997111,-0.23141837,-0.47327887,0.84470067,0.40334969,0.02897707,0.26296273,-0.78143704,0.23021573,-0.47266158,-0.84538380,0.40399029,-0.02922134
9.50000000,0.26091265,0.78010843,-0.23152246,-0.47315335,0.84454571,0.40353520,0.02797238,0.26208237,-0.78161199,0.23029533,-0.47259599,-0.84520531,0.40418647,-0.02821898
9.52000000,0.25997786,0.78025047,-0.23163013,-0.47302350,0.84438541,0.40372710,0.02693310,0.26117171,-0.78179296,0.23037766,-0.47252815,-0.84502068,0.40438941,-0.02718211
9.54000000,0.25901167,0.78039728,-0.23174142,-0.47288930,0.84421973,0.40392544,0.02585890,0.26023046,-0.78198001,0.23046276,-0.47245803,-0.84482985,0.40459916,-0.02611040
9.56000000,0.25801380,0.78054891,-0.23185635,-0.47275069,0.84404862,0.40413028,0.02474948,0.25925834,-0.78217319,0.23055065,-0.47238560,-0.84463276,0.40481579,-0.02500355
9.58000000,0.25698396,0.78070540,-0.23197497,-0.47260764,0.84387202,0.40434169,0.02360453,0.25825508,-0.78237257,0.23064136,-0.47231086,-0.84442936,0.40503936,-0.02386125
9.60000000,0.25592191,0.78086678,-0.23209730,-0.47246012,0.84368990,0.40455971,0.02242375,0.25722044,-0.78257818,0.23073491,-0.47223378,-0.84421960,0.40526992,-0.02268321
9.62000000,0.25482738,0.78103310,-0.23222337,-0.47230809,0.84350221,0.40478440,0.02120688,0.25615416,-0.78279007,0.23083131,-0.47215434,-0.84400342,0.40550753,-0.02146916
9.64000000,0.25370015,0.78120438,-0.23235321,-0.47215152,0.84330892,0.40501580,0.01995364,0.25505602,-0.78300830,0.23093060,-0.47207253,-0.84378078,0.40575225,-0.02021883
9.66000000,0.25253999,0.78138067,-0.23248684,-0.47199037,0.84310997,0.40525396,0.01866379,0.25392580,-0.78323290,0.23103278,-0.47198833,-0.84355164,0.40600411,-0.01893196
9.68000000,0.25134667,0.78156200,-0.23262429,-0.47182461,0.84290535,0.40549892,0.01733708,0.25276328,-0.78346392,0.23113789,-0.47190173,-0.84331594,0.40626317,-0.01760833
9.70000000,0.25012000,0.78174839,-0.23276558,-0.47165423,0.84269500,0.40575074,0.01597328,0.25156826,-0.78370140,0.23124593,-0.47181270,-0.84307366,0.40652947,-0.01624769
9.72000000,0.24885977,0.78193989,-0.23291073,-0.47147918,0.84247890,0.40600944,0.01457218,0.25034056,-0.78394538,0.23135693,-0.47172124,-0.84282476,0.40680305,-0.01484984
9.74000000,0.24756581,0.78213651,-0.23305977,-0.47129944,0.84225701,0.40627507,0.01313358,0.24908000,-0.78419588,0.23147090,-0.47162732,-0.84256919,0.40708396,-0.01341457
9.76000000,0.24623794,0.78233828,-0.23321272,-0.47111500,0.84202931,0.40654765,0.01165727,0.24778640,-0.78445296,0.23158786,-0.47153095,-0.84230692,0.40737223,-0.01194168
9.78000000,0.24487600,0.78254523,-0.23336959,-0.47092582,0.84179576,0.40682724,0.01014309,0.24645960,-0.78471662,0.23170782,-0.47143211,-0.84203793,0.40766790,-0.01043101
9.80000000,0.24347983,0.78275738,-0.23353041,-0.47073189,0.84155635,0.40711384,0.00859085,0.24509946,-0.78498692,0.23183079,-0.47133078,-0.84176217,0.40797100,-0.00888237
9.82000000,0.24204929,0.78297475,-0.23369518,-0.47053319,0.84131104,0.40740751,0.00700040,0.24370585,-0.78526386,0.23195679,-0.47122695,-0.84147963,0.40828156,-0.00729560
9.84000000,0.24058425,0.78319737,-0.23386392,-0.47032969,0.84105982,0.40770825,0.00537159,0.24227862,-0.78554749,0.23208583,-0.47112063,-0.84119027,0.40859960,-0.00567057
9.86000000,0.23908459,0.78342524,-0.23403666,-0.47012139,0.84080266,0.40801611,0.00370430,0.24081766,-0.78583782,0.23221792,-0.47101179,-0.84089407,0.40892517,-0.00400714
9.88000000,0.23755020,0.78365840,-0.23421339,-0.46990826,0.84053954,0.40833109,0.00199838,0.23932287,-0.78613487,0.23235307,-0.47090042,-0.84059101,0.40925827,-0.00230518
9.90000000,0.23598097,0.78389685,-0.23439414,-0.46969029,0.84027045,0.40865322,0.00025374,0.23779414,-0.78643867,0.23249128,-0.47078653,-0.84028108,0.40959894,-0.00056458
9.92000000,0.23437681,0.78414060,-0.23457891,-0.46946747,0.83999537,0.40898253,-0.00152974,0.23623138,-0.78674922,0.23263257,-0.47067011,-0.83996424,0.40994719,0.00121477
9.94000000,0.23273764,0.78438968,-0.23476771,-0.46923978,0.83971429,0.40931902,-0.00335214,0.23463452,-0.78706656,0.23277695,-0.47055115,-0.83964049,0.41030304,0.00303295
9.96000000,0.23106339,0.78464408,-0.23496056,-0.46900723,0.83942719,0.40966271,-0.00521355,0.23300347,-0.78739069,0.23292442,-0.47042963,-0.83930981,0.41066651,0.00489004
9.98000000,0.22935399,0.78490383,-0.23515745,-0.46876979,0.83913407,0.41001362,-0.00711403,0.23133819,-0.78772162,0.23307498,-0.47030557,-0.83897219,0.41103760,0.00678612
10.00000000,0.22760939,0.78516892,-0.23535839,-0.46852746,0.83883490,0.41037176,-0.00905365,0.22963862,-0.78805937,0.23322864,-0.47017895,-0.83862761,0.41141634,0.00872124
10.02000000,0.22582955,0.78543937,-0.23556340,-0.46828024,0.83852970,0.41073713,-0.01103245,0.22790471,-0.78840394,0.23338541,-0.47004978,-0.83827608,0.41180273,0.01069545
10.04000000,0.22401443,0.78571519,-0.23577247,-0.46802811,0.83821844,0.41110974,-0.01305047,0.22613644,-0.78875534,0.23354528,-0.46991804,-0.83791757,0.41219678,0.01270880
10.06000000,0.22216400,0.78599636,-0.23598560,-0.46777108,0.83790114,0.41148960,-0.01510774,0.22433377,-0.78911358,0.23370826,-0.46978375,-0.83755210,0.41259849,0.01476130
10.08000000,0.22027826,0.78628290,-0.23620281,-0.46750915,0.83757777,0.41187670,-0.01720428,0.22249669,-0.78947865,0.23387436,-0.46964689,-0.83717965,0.41300787,0.01685298
10.10000000,0.21835719,0.78657481,-0.23642408,-0.46724231,0.83724835,0.41227107,-0.01934009,0.22062521,-0.78985056,0.23404356,-0.46950746,-0.83680022,0.41342492,0.01898384
10.12000000,0.21640080,0.78687209,-0.23664942,-0.46697057,0.83691287,0.41267268,-0.02151517,0.21871931,-0.79022931,0.23421588,-0.46936547,-0.83641381,0.41384963,0.02115388
10.14000000,0.21440910,0.78717473,-0.23687883,-0.46669391,0.83657133,0.41308154,-0.02372952,0.21677900,-0.79061490,0.23439131,-0.46922092,-0.83602043,0.41428202,0.02336310
10.16000000,0.21238210,0.78748274,-0.23711230,-0.46641236,0.83622375,0.41349764,-0.02598310,0.21480432,-0.79100732,0.23456984,-0.46907381,-0.83562008,0.41472206,0.02561146
10.18000000,0.21031984,0.78779611,-0.23734984,-0.46612591,0.83587011,0.41392099,-0.02827589,0.21279529,-0.79140656,0.23475148,-0.46892414,-0.83521277,0.41516976,0.02789893
10.20000000,0.20822236,0.78811482,-0.23759143,-0.46583456,0.83551044,0.41435156,-0.03060784,0.21075193,-0.79181263,0.23493623,-0.46877191,-0.83479849,0.41562511,0.03022547
10.22000000,0.20608969,0.78843888,-0.23783707,-0.46553833,0.83514473,0.41478936,-0.03297890,0.20867431,-0.79222550,0.23512407,-0.46861713,-0.83437727,0.41608809,0.03259104
10.24000000,0.20392190,0.78876828,-0.23808676,-0.46523722,0.83477300,0.41523437,-0.03538901,0.20656247,-0.79264518,0.23531501,-0.46845980,-0.83394911,0.41655870,0.03499557
10.26000000,0.20171905,0.78910301,-0.23834049,-0.46493124,0.83439526,0.41568657,-0.03783810,0.20441647,-0.79307164,0.23550903,-0.46829992,-0.83351403,0.41703692,0.03743898
10.28000000,0.19948121,0.78944306,-0.23859825,-0.46462040,0.83401152,0.41614596,-0.04032609,0.20223639,-0.79350488,0.23570614,-0.46813751,-0.83307204,0.41752274,0.03992121
10.30000000,0.19720847,0.78978840,-0.23886003,-0.46430471,0.83362179,0.41661251,-0.04285290,0.20002230,-0.79394487,0.23590632,-0.46797256,-0.83262315,0.41801613,0.04244216
10.32000000,0.19490090,0.79013904,-0.23912582,-0.46398419,0.83322609,0.41708622,-0.04541841,0.19777428,-0.79439161,0.23610957,-0.46780508,-0.83216738,0.41851709,0.04500173
10.34000000,0.19255861,0.79049496,-0.23939561,-0.46365884,0.83282444,0.41756705,-0.04802254,0.19549244,-0.79484507,0.23631587,-0.46763509,-0.83170476,0.41902558,0.04759982
10.36000000,0.19018170,0.79085614,-0.23966939,-0.46332868,0.83241685,0.41805498,-0.05066515,0.19317687,-0.79530523,0.23652523,-0.46746258,-0.83123530,0.41954159,0.05023631
10.38000000,0.18777028,0.79122256,-0.23994714,-0.46299373,0.83200334,0.41855000,-0.05334612,0.19082769,-0.79577207,0.23673763,-0.46728757,-0.83075902,0.42006509,0.05291107
10.40000000,0.18532447,0.79159420,-0.24022885,-0.46265400,0.83158394,0.41905208,-0.05606533,0.18844501,-0.79624557,0.23695305,-0.46711006,-0.83027595,0.42059605,0.05562397
10.42000000,0.18284441,0.79197105,-0.24051451,-0.46230952,0.83115866,0.41956120,-0.05882263,0.18602895,-0.79672570,0.23717149,-0.46693006,-0.82978611,0.42113445,0.05837488
10.44000000,0.18033022,0.79235309,-0.24080410,-0.46196029,0.83072753,0.42007731,-0.06161786,0.18357965,-0.79721244,0.23739294,-0.46674759,-0.82928954,0.42168026,0.06116363
10.46000000,0.17778205,0.79274029,-0.24109760,-0.46160635,0.83029057,0.42060040,-0.06445087,0.18109725,-0.79770575,0.23761738,-0.46656265,-0.82878625,0.42223345,0.06399008
10.48000000,0.17520006,0.79313263,-0.24139500,-0.46124770,0.82984781,0.42113044,-0.06732149,0.17858189,-0.79820562,0.23784480,-0.46637526,-0.82827629,0.42279398,0.06685404
10.50000000,0.17258440,0.79353008,-0.24169628,-0.46088438,0.82939928,0.42166739,-0.07022954,0.17603373,-0.79871200,0.23807518,-0.46618543,-0.82775967,0.42336182,0.06975536
10.52000000,0.16993523,0.79393263,-0.24200142,-0.46051641,0.82894501,0.42221122,-0.07317484,0.17345294,-0.79922487,0.23830852,-0.46599316,-0.82723643,0.42393693,0.07269383
10.54000000,0.16725273,0.79434024,-0.24231039,-0.46014380,0.82848501,0.42276188,-0.07615720,0.17083967,-0.79974419,0.23854479,-0.46579847,-0.82670662,0.42451928,0.07566928
10.56000000,0.16453709,0.79475289,-0.24262318,-0.45976660,0.82801934,0.42331936,-0.07917641,0.16819411,-0.80026993,0.23878398,-0.46560138,-0.82617025,0.42510882,0.07868149
10.58000000,0.16178848,0.79517054,-0.24293977,-0.45938481,0.82754801,0.42388359,-0.08223226,0.16551644,-0.80080205,0.23902607,-0.46540189,-0.82562738,0.42570552,0.08173026
10.60000000,0.15900711,0.79559318,-0.24326014,-0.45899847,0.82707106,0.42445456,-0.08532455,0.16280685,-0.80134051,0.23927105,-0.46520003,-0.82507803,0.42630934,0.08481538
10.62000000,0.15619317,0.79602076,-0.24358425,-0.45860761,0.82658853,0.42503221,-0.08845304,0.16006554,-0.80188528,0.23951890,-0.46499581,-0.82452225,0.42692022,0.08793663
10.64000000,0.15334687,0.79645326,-0.24391209,-0.45821225,0.82610045,0.42561650,-0.09161751,0.15729270,-0.80243631,0.23976960,-0.46478923,-0.82396008,0.42753813,0.09109376
10.66000000,0.15046844,0.79689065,-0.24424364,-0.45781243,0.82560686,0.42620739,-0.09481771,0.15448855,-0.80299357,0.24002313,-0.46458032,-0.82339156,0.42816301,0.09428654
10.68000000,0.14755808,0.79733288,-0.24457886,-0.45740818,0.82510780,0.42680484,-0.09805339,0.15165331,-0.80355700,0.24027947,-0.46436910,-0.82281674,0.42879483,0.09751473
10.70000000,0.14461603,0.79777993,-0.24491773,-0.45699952,0.82460330,0.42740879,-0.10132431,0.14878719,-0.80412657,0.24053860,-0.46415558,-0.82223566,0.42943352,0.10077807
10.72000000,0.14164253,0.79823176,-0.24526022,-0.45658650,0.82409341,0.42801919,-0.10463020,0.14589043,-0.80470223,0.24080051,-0.46393977,-0.82164836,0.43007905,0.10407629
10.74000000,0.13863782,0.79868833,-0.24560631,-0.45616914,0.82357816,0.42863601,-0.10797079,0.14296326,-0.80528393,0.24106516,-0.46372170,-0.82105491,0.43073134,0.10740914
10.76000000,0.13560214,0.79914961,-0.24595597,-0.45574748,0.82305761,0.42925918,-0.11134581,0.14000593,-0.80587162,0.24133254,-0.46350138,-0.82045533,0.43139037,0.11077634
10.78000000,0.13253575,0.79961555,-0.24630916,-0.45532155,0.82253179,0.42988865,-0.11475497,0.13701868,-0.80646526,0.24160262,-0.46327883,-0.81984969,0.43205605,0.11417760
10.80000000,0.12943892,0.80008612,-0.24666586,-0.45489139,0.82200074,0.43052437,-0.11819798,0.13400177,-0.80706480,0.24187539,-0.46305407,-0.81923804,0.43272835,0.11761263
10.82000000,0.12631190,0.80056128,-0.24702604,-0.45445704,0.82146453,0.43116629,-0.12167455,0.13095545,-0.80767018,0.24215081,-0.46282712,-0.81862042,0.43340720,0.12108115
10.84000000,0.12315497,0.80104098,-0.24738966,-0.45401854,0.82092318,0.43181435,-0.12518438,0.12788000,-0.80828135,0.24242887,-0.46259800,-0.81799690,0.43409255,0.12458284
10.86000000,0.11996840,0.80152519,-0.24775669,-0.45357592,0.82037675,0.43246850,-0.12872714,0.12477568,-0.80889826,0.24270954,-0.46236673,-0.81736752,0.43478432,0.12811739
10.88000000,0.11675250,0.80201385,-0.24812711,-0.45312922,0.81982529,0.43312866,-0.13230254,0.12164277,-0.80952084,0.24299279,-0.46213333,-0.81673235,0.43548247,0.13168450
10.90000000,0.11350754,0.80250693,-0.24850087,-0.45267849,0.81926885,0.43379480,-0.13591023,0.11848155,-0.81014905,0.24327860,-0.46189783,-0.81609144,0.43618692,0.13528383
10.92000000,0.11023382,0.80300438,-0.24887794,-0.45222377,0.81870748,0.43446683,-0.13954990,0.11529232,-0.81078283,0.24356695,-0.46166023,-0.81544485,0.43689762,0.13891507
10.94000000,0.10693164,0.80350615,-0.24925829,-0.45176509,0.81814122,0.43514471,-0.14322121,0.11207537,-0.81142212,0.24385780,-0.46142057,-0.81479264,0.43761450,0.14257787
10.96000000,0.10360131,0.80401220,-0.24964189,-0.45130250,0.81757014,0.43582836,-0.14692381,0.10883099,-0.81206686,0.24415113,-0.46117887,-0.81413487,0.43833748,0.14627189
10.98000000,0.10024315,0.80452248,-0.25002868,-0.45083604,0.81699429,0.43651773,-0.15065736,0.10555950,-0.81271699,0.24444692,-0.46093514,-0.81347160,0.43906651,0.14999679
11.00000000,0.09685747,0.80503694,-0.25041865,-0.45036577,0.81641372,0.43721275,-0.15442151,0.10226120,-0.81337244,0.24474512,-0.46068942,-0.81280290,0.43980152,0.15375221
11.02000000,0.09344459,0.80555553,-0.25081176,-0.44989171,0.81582848,0.43791335,-0.15821589,0.09893640,-0.81403316,0.24504573,-0.46044172,-0.81212883,0.44054243,0.15753780
11.04000000,0.09000485,0.80607821,-0.25120795,-0.44941392,0.81523864,0.43861947,-0.16204013,0.09558544,-0.81469908,0.24534869,-0.46019208,-0.81144945,0.44128917,0.16135318
11.06000000,0.08653858,0.80660491,-0.25160720,-0.44893245,0.81464425,0.43933103,-0.16589388,0.09220862,-0.81537014,0.24565400,-0.45994051,-0.81076483,0.44204166,0.16519799
11.08000000,0.08304612,0.80713560,-0.25200947,-0.44844734,0.81404536,0.44004797,-0.16977674,0.08880630,-0.81604627,0.24596161,-0.45968704,-0.81007503,0.44279985,0.16907186
11.10000000,0.07952781,0.80767021,-0.25241472,-0.44795864,0.81344205,0.44077022,-0.17368834,0.08537879,-0.81672740,0.24627150,-0.45943169,-0.80938013,0.44356365,0.17297440
11.12000000,0.07598400,0.80820870,-0.25282290,-0.44746640,0.81283436,0.44149770,-0.17762829,0.08192644,-0.81741347,0.24658364,-0.45917449,-0.80868020,0.44433298,0.17690522
11.14000000,0.07241504,0.80875101,-0.25323398,-0.44697066,0.81222236,0.44223034,-0.18159620,0.07844959,-0.81810441,0.24689799,-0.45891547,-0.80797530,0.44510777,0.18086393
11.16000000,0.06882130,0.80929709,-0.25364792,-0.44647149,0.81160611,0.44296807,-0.18559167,0.07494859,-0.81880014,0.24721452,-0.45865465,-0.80726550,0.44588794,0.18485013
11.18000000,0.06520313,0.80984688,-0.25406466,-0.44596892,0.81098567,0.44371081,-0.18961429,0.07142381,-0.81950060,0.24753320,-0.45839205,-0.80655088,0.44667342,0.18886343
11.20000000,0.06156091,0.81040032,-0.25448418,-0.44546300,0.81036110,0.44445850,-0.19366365,0.06787558,-0.82020572,0.24785400,-0.45812771,-0.80583150,0.44746411,0.19290341
11.22000000,0.05789500,0.81095736,-0.25490643,-0.44495380,0.80973248,0.44521104,-0.19773934,0.06430429,-0.82091543,0.24817689,-0.45786166,-0.80510745,0.44825995,0.19696966
11.24000000,0.05420579,0.81151795,-0.25533136,-0.44444136,0.80909986,0.44596837,-0.20184095,0.06071029,-0.82162965,0.24850184,-0.45759390,-0.80437880,0.44906085,0.20106176
11.26000000,0.05049365,0.81208201,-0.25575893,-0.44392574,0.80846330,0.44673040,-0.20596805,0.05709395,-0.82234830,0.24882880,-0.45732449,-0.80364562,0.44986673,0.20517929
11.28000000,0.04675897,0.81264951,-0.25618910,-0.44340699,0.80782288,0.44749707,-0.21012021,0.05345566,-0.82307132,0.24915774,-0.45705344,-0.80290798,0.45067750,0.20932183
11.30000000,0.04300213,0.81322036,-0.25662182,-0.44288516,0.80717867,0.44826828,-0.21429699,0.04979578,-0.82379863,0.24948864,-0.45678078,-0.80216598,0.45149307,0.21348894
11.32000000,0.03922354,0.81379453,-0.25705704,-0.44236030,0.80653072,0.44904395,-0.21849797,0.04611471,-0.82453015,0.24982146,-0.45650654,-0.80141967,0.45231338,0.21768018
11.34000000,0.03542359,0.81437194,-0.25749473,-0.44183248,0.80587911,0.44982401,-0.22272270,0.04241283,-0.82526581,0.25015615,-0.45623076,-0.80066914,0.45313831,0.22189511
11.36000000,0.03160267,0.81495253,-0.25793483,-0.44130175,0.80522390,0.45060838,-0.22697073,0.03869052,-0.82600552,0.25049269,-0.45595345,-0.79991448,0.45396780,0.22613330
11.38000000,0.02776120,0.81553625,-0.25837730,-0.44076816,0.80456517,0.45139696,-0.23124161,0.03494820,-0.82674922,0.25083105,-0.45567465,-0.79915575,0.45480176,0.23039429
11.40000000,0.02389959,0.81612303,-0.25882209,-0.44023177,0.80390298,0.45218968,-0.23553489,0.03118624,-0.82749681,0.25117117,-0.45539438,-0.79839305,0.45564008,0.23467762
11.42000000,0.02001823,0.81671281,-0.25926915,-0.43969265,0.80323741,0.45298645,-0.23985012,0.02740506,-0.82824823,0.25151304,-0.45511269,-0.79762644,0.45648269,0.23898284
11.44000000,0.01611756,0.81730553,-0.25971843,-0.43915084,0.80256853,0.45378719,-0.24418682,0.02360506,-0.82900338,0.25185660,-0.45482959,-0.79685602,0.45732950,0.24330950
11.46000000,0.01219799,0.81790111,-0.26016990,-0.43860640,0.80189641,0.45459181,-0.24854454,0.01978665,-0.82976220,0.25220184,-0.45454512,-0.79608187,0.45818040,0.24765711
11.48000000,0.00825995,0.81849951,-0.26062349,-0.43805940,0.80122112,0.45540022,-0.25292279,0.01595024,-0.83052459,0.25254869,-0.45425931,-0.79530407,0.45903532,0.25202522
11.50000000,0.00430385,0.81910065,-0.26107916,-0.43750989,0.80054273,0.45621233,-0.25732112,0.01209624,-0.83129047,0.25289714,-0.45397219,-0.79452271,0.45989416,0.25641335
11.52000000,0.00033013,0.81970446,-0.26153686,-0.43695793,0.79986132,0.45702806,-0.26173904,0.00822507,-0.83205977,0.25324714,-0.45368379,-0.79373786,0.46075682,0.26082103
11.54000000,-0.00366078,0.82031089,-0.26199654,-0.43640359,0.79917696,0.45784733,-0.26617607,0.00433716,-0.83283239,0.25359866,-0.45339414,-0.79294962,0.46162321,0.26524778
11.56000000,-0.00766845,0.82091986,-0.26245815,-0.43584691,0.79848973,0.45867003,-0.27063172,0.00043293,-0.83360826,0.25395165,-0.45310328,-0.79215807,0.46249324,0.26969311
11.58000000,-0.01169243,0.82153131,-0.26292164,-0.43528798,0.79779971,0.45949608,-0.27510552,-0.00348720,-0.83438729,0.25430608,-0.45281123,-0.79136330,0.46336682,0.27415654
11.60000000,-0.01573228,0.82214517,-0.26338696,-0.43472683,0.79710696,0.46032539,-0.27959696,-0.00742279,-0.83516939,0.25466190,-0.45251803,-0.79056539,0.46424384,0.27863757
11.62000000,-0.01978757,0.82276138,-0.26385406,-0.43416354,0.79641156,0.46115786,-0.28410556,-0.01137342,-0.83595448,0.25501909,-0.45222372,-0.78976443,0.46512421,0.28313573
11.64000000,-0.02385784,0.82337987,-0.26432288,-0.43359818,0.79571359,0.46199341,-0.28863082,-0.01533864,-0.83674247,0.25537759,-0.45192831,-0.78896051,0.46600783,0.28765050
11.66000000,-0.02794264,0.82400056,-0.26479337,-0.43303079,0.79501314,0.46283195,-0.29317224,-0.01931802,-0.83753327,0.25573738,-0.45163185,-0.78815373,0.46689461,0.29218139
