gracetata/LocomotionHEC/legged_lab/Reference Data/ArmHack/StandPerturb/TestData/ArmOnly/trajectories/generated/generated_random_arm_trajectory_seed20260720_wp8_hold0p5s_transition2p0s_50hz.csv
time_s,left_shoulder_pitch_joint,left_shoulder_roll_joint,left_shoulder_yaw_joint,left_elbow_joint,left_wrist_roll_joint,left_wrist_pitch_joint,left_wrist_yaw_joint,right_shoulder_pitch_joint,right_shoulder_roll_joint,right_shoulder_yaw_joint,right_elbow_joint,right_wrist_roll_joint,right_wrist_pitch_joint,right_wrist_yaw_joint
0.00000000,0.20037600,0.85581700,-0.16392000,-0.61084800,0.80242800,0.49099400,-0.21926300,0.27902900,-0.77806400,0.22981000,-0.47601300,-0.84800400,0.40054900,-0.04660700
0.02000000,0.20037600,0.85581700,-0.16392000,-0.61084800,0.80242800,0.49099400,-0.21926300,0.27902900,-0.77806400,0.22981000,-0.47601300,-0.84800400,0.40054900,-0.04660700
0.04000000,0.20037600,0.85581700,-0.16392000,-0.61084800,0.80242800,0.49099400,-0.21926300,0.27902900,-0.77806400,0.22981000,-0.47601300,-0.84800400,0.40054900,-0.04660700
0.06000000,0.20037600,0.85581700,-0.16392000,-0.61084800,0.80242800,0.49099400,-0.21926300,0.27902900,-0.77806400,0.22981000,-0.47601300,-0.84800400,0.40054900,-0.04660700
0.08000000,0.20037600,0.85581700,-0.16392000,-0.61084800,0.80242800,0.49099400,-0.21926300,0.27902900,-0.77806400,0.22981000,-0.47601300,-0.84800400,0.40054900,-0.04660700
0.10000000,0.20037600,0.85581700,-0.16392000,-0.61084800,0.80242800,0.49099400,-0.21926300,0.27902900,-0.77806400,0.22981000,-0.47601300,-0.84800400,0.40054900,-0.04660700
0.12000000,0.20037600,0.85581700,-0.16392000,-0.61084800,0.80242800,0.49099400,-0.21926300,0.27902900,-0.77806400,0.22981000,-0.47601300,-0.84800400,0.40054900,-0.04660700
0.14000000,0.20037600,0.85581700,-0.16392000,-0.61084800,0.80242800,0.49099400,-0.21926300,0.27902900,-0.77806400,0.22981000,-0.47601300,-0.84800400,0.40054900,-0.04660700
0.16000000,0.20037600,0.85581700,-0.16392000,-0.61084800,0.80242800,0.49099400,-0.21926300,0.27902900,-0.77806400,0.22981000,-0.47601300,-0.84800400,0.40054900,-0.04660700
0.18000000,0.20037600,0.85581700,-0.16392000,-0.61084800,0.80242800,0.49099400,-0.21926300,0.27902900,-0.77806400,0.22981000,-0.47601300,-0.84800400,0.40054900,-0.04660700
0.20000000,0.20037600,0.85581700,-0.16392000,-0.61084800,0.80242800,0.49099400,-0.21926300,0.27902900,-0.77806400,0.22981000,-0.47601300,-0.84800400,0.40054900,-0.04660700
0.22000000,0.20037600,0.85581700,-0.16392000,-0.61084800,0.80242800,0.49099400,-0.21926300,0.27902900,-0.77806400,0.22981000,-0.47601300,-0.84800400,0.40054900,-0.04660700
0.24000000,0.20037600,0.85581700,-0.16392000,-0.61084800,0.80242800,0.49099400,-0.21926300,0.27902900,-0.77806400,0.22981000,-0.47601300,-0.84800400,0.40054900,-0.04660700
0.26000000,0.20037600,0.85581700,-0.16392000,-0.61084800,0.80242800,0.49099400,-0.21926300,0.27902900,-0.77806400,0.22981000,-0.47601300,-0.84800400,0.40054900,-0.04660700
0.28000000,0.20037600,0.85581700,-0.16392000,-0.61084800,0.80242800,0.49099400,-0.21926300,0.27902900,-0.77806400,0.22981000,-0.47601300,-0.84800400,0.40054900,-0.04660700
0.30000000,0.20037600,0.85581700,-0.16392000,-0.61084800,0.80242800,0.49099400,-0.21926300,0.27902900,-0.77806400,0.22981000,-0.47601300,-0.84800400,0.40054900,-0.04660700
0.32000000,0.20037600,0.85581700,-0.16392000,-0.61084800,0.80242800,0.49099400,-0.21926300,0.27902900,-0.77806400,0.22981000,-0.47601300,-0.84800400,0.40054900,-0.04660700
0.34000000,0.20037600,0.85581700,-0.16392000,-0.61084800,0.80242800,0.49099400,-0.21926300,0.27902900,-0.77806400,0.22981000,-0.47601300,-0.84800400,0.40054900,-0.04660700
0.36000000,0.20037600,0.85581700,-0.16392000,-0.61084800,0.80242800,0.49099400,-0.21926300,0.27902900,-0.77806400,0.22981000,-0.47601300,-0.84800400,0.40054900,-0.04660700
0.38000000,0.20037600,0.85581700,-0.16392000,-0.61084800,0.80242800,0.49099400,-0.21926300,0.27902900,-0.77806400,0.22981000,-0.47601300,-0.84800400,0.40054900,-0.04660700
0.40000000,0.20037600,0.85581700,-0.16392000,-0.61084800,0.80242800,0.49099400,-0.21926300,0.27902900,-0.77806400,0.22981000,-0.47601300,-0.84800400,0.40054900,-0.04660700
0.42000000,0.20037600,0.85581700,-0.16392000,-0.61084800,0.80242800,0.49099400,-0.21926300,0.27902900,-0.77806400,0.22981000,-0.47601300,-0.84800400,0.40054900,-0.04660700
0.44000000,0.20037600,0.85581700,-0.16392000,-0.61084800,0.80242800,0.49099400,-0.21926300,0.27902900,-0.77806400,0.22981000,-0.47601300,-0.84800400,0.40054900,-0.04660700
0.46000000,0.20037600,0.85581700,-0.16392000,-0.61084800,0.80242800,0.49099400,-0.21926300,0.27902900,-0.77806400,0.22981000,-0.47601300,-0.84800400,0.40054900,-0.04660700
0.48000000,0.20037600,0.85581700,-0.16392000,-0.61084800,0.80242800,0.49099400,-0.21926300,0.27902900,-0.77806400,0.22981000,-0.47601300,-0.84800400,0.40054900,-0.04660700
0.50000000,0.20037676,0.85581622,-0.16392065,-0.61084666,0.80242844,0.49099310,-0.21926038,0.27902900,-0.77806400,0.22981000,-0.47601299,-0.84800400,0.40054900,-0.04660700
0.52000000,0.20038198,0.85581089,-0.16392509,-0.61083745,0.80243149,0.49098693,-0.21924238,0.27902900,-0.77806398,0.22980997,-0.47601294,-0.84800401,0.40054900,-0.04660699
0.54000000,0.20039589,0.85579669,-0.16393693,-0.61081294,0.80243961,0.49097051,-0.21919447,0.27902899,-0.77806395,0.22980990,-0.47601280,-0.84800405,0.40054899,-0.04660697
0.56000000,0.20042243,0.85576959,-0.16395952,-0.61076617,0.80245509,0.49093918,-0.21910303,0.27902897,-0.77806388,0.22980976,-0.47601253,-0.84800411,0.40054897,-0.04660693
0.58000000,0.20046529,0.85572582,-0.16399600,-0.61069064,0.80248010,0.49088857,-0.21895536,0.27902894,-0.77806377,0.22980953,-0.47601209,-0.84800421,0.40054894,-0.04660687
0.60000000,0.20052790,0.85566188,-0.16404929,-0.61058029,0.80251664,0.49081463,-0.21873963,0.27902890,-0.77806361,0.22980920,-0.47601146,-0.84800435,0.40054890,-0.04660678
0.62000000,0.20061346,0.85557451,-0.16412211,-0.61042951,0.80256656,0.49071361,-0.21844486,0.27902884,-0.77806338,0.22980875,-0.47601059,-0.84800455,0.40054885,-0.04660666
0.64000000,0.20072489,0.85546072,-0.16421696,-0.61023312,0.80263158,0.49058203,-0.21806093,0.27902877,-0.77806309,0.22980817,-0.47600946,-0.84800481,0.40054877,-0.04660650
0.66000000,0.20086490,0.85531774,-0.16433613,-0.60998637,0.80271328,0.49041670,-0.21757854,0.27902868,-0.77806273,0.22980743,-0.47600804,-0.84800513,0.40054868,-0.04660630
0.68000000,0.20103596,0.85514306,-0.16448172,-0.60968489,0.80281309,0.49021472,-0.21698917,0.27902856,-0.77806229,0.22980654,-0.47600630,-0.84800553,0.40054857,-0.04660606
0.70000000,0.20124031,0.85493438,-0.16465565,-0.60932476,0.80293233,0.48997342,-0.21628511,0.27902843,-0.77806175,0.22980546,-0.47600423,-0.84800600,0.40054844,-0.04660576
0.72000000,0.20147996,0.85468965,-0.16485964,-0.60890239,0.80307217,0.48969044,-0.21545940,0.27902827,-0.77806113,0.22980421,-0.47600180,-0.84800655,0.40054828,-0.04660542
0.74000000,0.20175672,0.85440703,-0.16509520,-0.60841463,0.80323366,0.48936364,-0.21450585,0.27902809,-0.77806041,0.22980275,-0.47599899,-0.84800719,0.40054810,-0.04660503
0.76000000,0.20207218,0.85408488,-0.16536370,-0.60785867,0.80341774,0.48899115,-0.21341896,0.27902788,-0.77805959,0.22980110,-0.47599579,-0.84800792,0.40054790,-0.04660457
0.78000000,0.20242772,0.85372181,-0.16566633,-0.60723206,0.80362520,0.48857132,-0.21219397,0.27902765,-0.77805867,0.22979923,-0.47599218,-0.84800874,0.40054767,-0.04660407
0.80000000,0.20282454,0.85331659,-0.16600407,-0.60653272,0.80385674,0.48810276,-0.21082678,0.27902738,-0.77805764,0.22979715,-0.47598816,-0.84800966,0.40054741,-0.04660350
0.82000000,0.20326361,0.85286821,-0.16637779,-0.60575890,0.80411295,0.48758430,-0.20931398,0.27902709,-0.77805650,0.22979484,-0.47598370,-0.84801067,0.40054713,-0.04660287
0.84000000,0.20374575,0.85237585,-0.16678816,-0.60490919,0.80439428,0.48701499,-0.20765282,0.27902678,-0.77805524,0.22979231,-0.47597881,-0.84801179,0.40054681,-0.04660218
0.86000000,0.20427157,0.85183889,-0.16723572,-0.60398248,0.80470110,0.48639409,-0.20584115,0.27902643,-0.77805388,0.22978955,-0.47597348,-0.84801300,0.40054647,-0.04660143
0.88000000,0.20484152,0.85125687,-0.16772083,-0.60297802,0.80503367,0.48572110,-0.20387744,0.27902605,-0.77805240,0.22978656,-0.47596770,-0.84801432,0.40054610,-0.04660061
0.90000000,0.20545586,0.85062951,-0.16824373,-0.60189531,0.80539215,0.48499568,-0.20176079,0.27902565,-0.77805080,0.22978333,-0.47596146,-0.84801574,0.40054570,-0.04659974
0.92000000,0.20611470,0.84995672,-0.16880450,-0.60073418,0.80577659,0.48421772,-0.19949081,0.27902521,-0.77804909,0.22977988,-0.47595478,-0.84801726,0.40054528,-0.04659879
0.94000000,0.20681798,0.84923854,-0.16940309,-0.59949473,0.80618696,0.48338729,-0.19706773,0.27902475,-0.77804726,0.22977618,-0.47594764,-0.84801889,0.40054482,-0.04659779
0.96000000,0.20756548,0.84847519,-0.17003933,-0.59817733,0.80662313,0.48250463,-0.19449226,0.27902425,-0.77804532,0.22977226,-0.47594006,-0.84802061,0.40054434,-0.04659672
0.98000000,0.20835685,0.84766706,-0.17071291,-0.59678263,0.80708490,0.48157018,-0.19176567,0.27902373,-0.77804326,0.22976811,-0.47593203,-0.84802244,0.40054382,-0.04659559
1.00000000,0.20919158,0.84681465,-0.17142338,-0.59531152,0.80757197,0.48058454,-0.18888970,0.27902318,-0.77804110,0.22976373,-0.47592356,-0.84802437,0.40054328,-0.04659439
1.02000000,0.21006901,0.84591862,-0.17217021,-0.59376514,0.80808397,0.47954846,-0.18586657,0.27902260,-0.77803882,0.22975912,-0.47591466,-0.84802640,0.40054271,-0.04659314
1.04000000,0.21098838,0.84497978,-0.17295273,-0.59214486,0.80862042,0.47846287,-0.18269898,0.27902199,-0.77803643,0.22975429,-0.47590533,-0.84802852,0.40054211,-0.04659182
1.06000000,0.21194877,0.84399904,-0.17377017,-0.59045228,0.80918082,0.47732884,-0.17939004,0.27902136,-0.77803393,0.22974925,-0.47589559,-0.84803074,0.40054149,-0.04659045
1.08000000,0.21294915,0.84297746,-0.17462164,-0.58868921,0.80976455,0.47614758,-0.17594331,0.27902070,-0.77803133,0.22974400,-0.47588544,-0.84803305,0.40054084,-0.04658902
1.10000000,0.21398838,0.84191621,-0.17550618,-0.58685768,0.81037095,0.47492045,-0.17236273,0.27902001,-0.77802863,0.22973855,-0.47587490,-0.84803546,0.40054017,-0.04658753
1.12000000,0.21506520,0.84081658,-0.17642272,-0.58495990,0.81099929,0.47364894,-0.16865263,0.27901930,-0.77802583,0.22973289,-0.47586397,-0.84803794,0.40053947,-0.04658599
1.14000000,0.21617825,0.83967994,-0.17737010,-0.58299827,0.81164877,0.47233464,-0.16481771,0.27901857,-0.77802294,0.22972705,-0.47585268,-0.84804052,0.40053875,-0.04658440
1.16000000,0.21732607,0.83850781,-0.17834706,-0.58097537,0.81231853,0.47097930,-0.16086301,0.27901781,-0.77801996,0.22972103,-0.47584103,-0.84804317,0.40053800,-0.04658276
1.18000000,0.21850710,0.83730176,-0.17935229,-0.57889394,0.81300767,0.46958473,-0.15679388,0.27901703,-0.77801689,0.22971483,-0.47582905,-0.84804590,0.40053724,-0.04658107
1.20000000,0.21971969,0.83606347,-0.18038439,-0.57675688,0.81371523,0.46815290,-0.15261600,0.27901623,-0.77801374,0.22970846,-0.47581675,-0.84804870,0.40053645,-0.04657934
1.22000000,0.22096212,0.83479472,-0.18144189,-0.57456723,0.81444020,0.46668584,-0.14833532,0.27901541,-0.77801051,0.22970194,-0.47580415,-0.84805157,0.40053564,-0.04657756
1.24000000,0.22223258,0.83349735,-0.18252324,-0.57232819,0.81518152,0.46518568,-0.14395806,0.27901457,-0.77800721,0.22969527,-0.47579126,-0.84805451,0.40053482,-0.04657574
1.26000000,0.22352919,0.83217327,-0.18362685,-0.57004306,0.81593811,0.46365463,-0.13949071,0.27901371,-0.77800384,0.22968846,-0.47577810,-0.84805750,0.40053398,-0.04657389
1.28000000,0.22485000,0.83082447,-0.18475106,-0.56771527,0.81670882,0.46209501,-0.13493995,0.27901284,-0.77800041,0.22968153,-0.47576470,-0.84806056,0.40053312,-0.04657200
1.30000000,0.22619302,0.82945300,-0.18589417,-0.56534835,0.81749248,0.46050917,-0.13031271,0.27901196,-0.77799692,0.22967448,-0.47575108,-0.84806366,0.40053225,-0.04657008
1.32000000,0.22755617,0.82806096,-0.18705442,-0.56294595,0.81828789,0.45889956,-0.12561609,0.27901106,-0.77799338,0.22966733,-0.47573725,-0.84806681,0.40053136,-0.04656813
1.34000000,0.22893735,0.82665052,-0.18823001,-0.56051177,0.81909382,0.45726866,-0.12085736,0.27901014,-0.77798979,0.22966008,-0.47572323,-0.84807000,0.40053047,-0.04656615
1.36000000,0.23033440,0.82522387,-0.18941911,-0.55804963,0.81990901,0.45561902,-0.11604395,0.27900922,-0.77798616,0.22965274,-0.47570906,-0.84807323,0.40052956,-0.04656416
1.38000000,0.23174512,0.82378326,-0.19061984,-0.55556338,0.82073218,0.45395323,-0.11118342,0.27900829,-0.77798250,0.22964534,-0.47569475,-0.84807649,0.40052865,-0.04656214
1.40000000,0.23316729,0.82233096,-0.19183033,-0.55305697,0.82156203,0.45227393,-0.10628346,0.27900735,-0.77797880,0.22963787,-0.47568032,-0.84807978,0.40052772,-0.04656010
1.42000000,0.23459865,0.82086927,-0.19304863,-0.55053435,0.82239725,0.45058377,-0.10135183,0.27900641,-0.77797508,0.22963036,-0.47566580,-0.84808308,0.40052679,-0.04655806
1.44000000,0.23603693,0.81940052,-0.19427282,-0.54799955,0.82323649,0.44888545,-0.09639638,0.27900546,-0.77797135,0.22962281,-0.47565120,-0.84808641,0.40052586,-0.04655600
1.46000000,0.23747982,0.81792706,-0.19550094,-0.54545661,0.82407843,0.44718168,-0.09142502,0.27900450,-0.77796760,0.22961523,-0.47563657,-0.84808974,0.40052493,-0.04655394
1.48000000,0.23892502,0.81645124,-0.19673102,-0.54290960,0.82492172,0.44547518,-0.08644570,0.27900355,-0.77796384,0.22960765,-0.47562190,-0.84809308,0.40052399,-0.04655187
1.50000000,0.24037022,0.81497542,-0.19796111,-0.54036259,0.82576501,0.44376868,-0.08146638,0.27900260,-0.77796009,0.22960006,-0.47560724,-0.84809642,0.40052305,-0.04654980
1.52000000,0.24181311,0.81350196,-0.19918922,-0.53781966,0.82660696,0.44206491,-0.07649502,0.27900164,-0.77795634,0.22959249,-0.47559260,-0.84809975,0.40052211,-0.04654774
1.54000000,0.24325139,0.81203321,-0.20041341,-0.53528486,0.82744620,0.44036659,-0.07153958,0.27900069,-0.77795260,0.22958494,-0.47557801,-0.84810308,0.40052118,-0.04654568
1.56000000,0.24468275,0.81057152,-0.20163171,-0.53276224,0.82828141,0.43867643,-0.06660795,0.27899975,-0.77794888,0.22957743,-0.47556349,-0.84810639,0.40052025,-0.04654364
1.58000000,0.24610492,0.80911922,-0.20284220,-0.53025582,0.82911126,0.43699713,-0.06170798,0.27899881,-0.77794519,0.22956996,-0.47554906,-0.84810967,0.40051933,-0.04654160
1.60000000,0.24751564,0.80767861,-0.20404293,-0.52776958,0.82993444,0.43533134,-0.05684746,0.27899788,-0.77794152,0.22956255,-0.47553475,-0.84811293,0.40051841,-0.04653958
1.62000000,0.24891269,0.80625196,-0.20523203,-0.52530743,0.83074963,0.43368170,-0.05203405,0.27899696,-0.77793789,0.22955522,-0.47552057,-0.84811616,0.40051751,-0.04653759
1.64000000,0.25029387,0.80484152,-0.20640762,-0.52287326,0.83155556,0.43205080,-0.04727531,0.27899604,-0.77793430,0.22954797,-0.47550656,-0.84811935,0.40051661,-0.04653561
1.66000000,0.25165702,0.80344948,-0.20756787,-0.52047085,0.83235097,0.43044118,-0.04257869,0.27899514,-0.77793076,0.22954082,-0.47549273,-0.84812250,0.40051573,-0.04653366
1.68000000,0.25300004,0.80207801,-0.20871098,-0.51810394,0.83313463,0.42885535,-0.03795145,0.27899426,-0.77792727,0.22953377,-0.47547911,-0.84812561,0.40051486,-0.04653174
1.70000000,0.25432085,0.80072921,-0.20983519,-0.51577614,0.83390534,0.42729572,-0.03340070,0.27899339,-0.77792384,0.22952683,-0.47546571,-0.84812866,0.40051400,-0.04652985
1.72000000,0.25561746,0.79940513,-0.21093880,-0.51349101,0.83466193,0.42576468,-0.02893334,0.27899253,-0.77792047,0.22952003,-0.47545255,-0.84813165,0.40051316,-0.04652800
1.74000000,0.25688792,0.79810776,-0.21202015,-0.51125197,0.83540325,0.42426452,-0.02455609,0.27899169,-0.77791717,0.22951336,-0.47543966,-0.84813459,0.40051233,-0.04652618
1.76000000,0.25813035,0.79683901,-0.21307765,-0.50906233,0.83612822,0.42279746,-0.02027541,0.27899087,-0.77791394,0.22950684,-0.47542706,-0.84813746,0.40051153,-0.04652440
1.78000000,0.25934294,0.79560072,-0.21410975,-0.50692527,0.83683578,0.42136562,-0.01609753,0.27899007,-0.77791079,0.22950047,-0.47541476,-0.84814026,0.40051074,-0.04652267
1.80000000,0.26052397,0.79439467,-0.21511498,-0.50484383,0.83752492,0.41997106,-0.01202840,0.27898929,-0.77790773,0.22949427,-0.47540277,-0.84814299,0.40050997,-0.04652098
1.82000000,0.26167179,0.79322253,-0.21609194,-0.50282093,0.83819468,0.41861571,-0.00807369,0.27898853,-0.77790474,0.22948825,-0.47539113,-0.84814565,0.40050923,-0.04651934
1.84000000,0.26278484,0.79208590,-0.21703932,-0.50085930,0.83884416,0.41730142,-0.00423877,0.27898780,-0.77790185,0.22948240,-0.47537984,-0.84814822,0.40050851,-0.04651775
1.86000000,0.26386166,0.79098626,-0.21795586,-0.49896152,0.83947249,0.41602990,-0.00052867,0.27898709,-0.77789905,0.22947675,-0.47536891,-0.84815071,0.40050781,-0.04651621
1.88000000,0.26490089,0.78992502,-0.21884040,-0.49712999,0.84007890,0.41480278,0.00305191,0.27898640,-0.77789635,0.22947130,-0.47535837,-0.84815311,0.40050713,-0.04651472
1.90000000,0.26590127,0.78890344,-0.21969187,-0.49536693,0.84066263,0.41362152,0.00649864,0.27898574,-0.77789375,0.22946605,-0.47534822,-0.84815542,0.40050648,-0.04651329
1.92000000,0.26686166,0.78792270,-0.22050931,-0.49367435,0.84122302,0.41248749,0.00980757,0.27898511,-0.77789126,0.22946100,-0.47533847,-0.84815764,0.40050586,-0.04651192
1.94000000,0.26778103,0.78698386,-0.22129183,-0.49205407,0.84175948,0.41140190,0.01297517,0.27898450,-0.77788887,0.22945618,-0.47532915,-0.84815976,0.40050526,-0.04651060
1.96000000,0.26865846,0.78608783,-0.22203866,-0.49050769,0.84227147,0.41036582,0.01599829,0.27898392,-0.77788659,0.22945157,-0.47532025,-0.84816179,0.40050470,-0.04650935
1.98000000,0.26949319,0.78523542,-0.22274913,-0.48903658,0.84275854,0.40938018,0.01887427,0.27898337,-0.77788442,0.22944719,-0.47531178,-0.84816372,0.40050415,-0.04650815
2.00000000,0.27028456,0.78442729,-0.22342271,-0.48764188,0.84322032,0.40844573,0.02160086,0.27898285,-0.77788237,0.22944304,-0.47530375,-0.84816555,0.40050364,-0.04650702
2.02000000,0.27103206,0.78366394,-0.22405895,-0.48632448,0.84365649,0.40756307,0.02417632,0.27898235,-0.77788042,0.22943911,-0.47529616,-0.84816728,0.40050316,-0.04650595
2.04000000,0.27173534,0.78294576,-0.22465754,-0.48508503,0.84406686,0.40673263,0.02659941,0.27898189,-0.77787860,0.22943542,-0.47528903,-0.84816890,0.40050270,-0.04650495
2.06000000,0.27239418,0.78227297,-0.22521832,-0.48392390,0.84445130,0.40595468,0.02886938,0.27898145,-0.77787688,0.22943196,-0.47528235,-0.84817042,0.40050227,-0.04650400
2.08000000,0.27300852,0.78164561,-0.22574121,-0.48284119,0.84480978,0.40522926,0.03098604,0.27898105,-0.77787529,0.22942874,-0.47527611,-0.84817184,0.40050187,-0.04650313
2.10000000,0.27357847,0.78106359,-0.22622632,-0.48183672,0.84514234,0.40455626,0.03294974,0.27898067,-0.77787381,0.22942575,-0.47527033,-0.84817316,0.40050150,-0.04650231
2.12000000,0.27410429,0.78052662,-0.22667388,-0.48091002,0.84544917,0.40393537,0.03476142,0.27898032,-0.77787244,0.22942299,-0.47526500,-0.84817437,0.40050116,-0.04650156
2.14000000,0.27458643,0.78003427,-0.22708425,-0.48006030,0.84573050,0.40336606,0.03642258,0.27898001,-0.77787119,0.22942045,-0.47526010,-0.84817549,0.40050085,-0.04650087
2.16000000,0.27502550,0.77958589,-0.22745797,-0.47928648,0.84598670,0.40284760,0.03793538,0.27897972,-0.77787005,0.22941815,-0.47525565,-0.84817650,0.40050056,-0.04650024
2.18000000,0.27542232,0.77918067,-0.22779572,-0.47858714,0.84621825,0.40237904,0.03930256,0.27897945,-0.77786902,0.22941607,-0.47525162,-0.84817742,0.40050031,-0.04649967
2.20000000,0.27577786,0.77881760,-0.22809834,-0.47796053,0.84642571,0.40195921,0.04052756,0.27897922,-0.77786809,0.22941420,-0.47524802,-0.84817824,0.40050008,-0.04649917
2.22000000,0.27609332,0.77849545,-0.22836684,-0.47740457,0.84660979,0.40158672,0.04161445,0.27897901,-0.77786727,0.22941254,-0.47524482,-0.84817897,0.40049987,-0.04649871
2.24000000,0.27637008,0.77821283,-0.22860241,-0.47691681,0.84677128,0.40125992,0.04256800,0.27897883,-0.77786655,0.22941109,-0.47524201,-0.84817961,0.40049969,-0.04649832
2.26000000,0.27660973,0.77796810,-0.22880639,-0.47649445,0.84691112,0.40097693,0.04339371,0.27897867,-0.77786593,0.22940983,-0.47523958,-0.84818016,0.40049954,-0.04649798
2.28000000,0.27681408,0.77775942,-0.22898032,-0.47613431,0.84703036,0.40073564,0.04409777,0.27897854,-0.77786540,0.22940876,-0.47523750,-0.84818064,0.40049940,-0.04649768
2.30000000,0.27698514,0.77758474,-0.22912591,-0.47583284,0.84713017,0.40053365,0.04468713,0.27897842,-0.77786496,0.22940786,-0.47523577,-0.84818103,0.40049929,-0.04649744
2.32000000,0.27712515,0.77744176,-0.22924508,-0.47558608,0.84721187,0.40036833,0.04516953,0.27897833,-0.77786459,0.22940713,-0.47523435,-0.84818136,0.40049920,-0.04649724
2.34000000,0.27723658,0.77732797,-0.22933993,-0.47538970,0.84727689,0.40023675,0.04555346,0.27897826,-0.77786430,0.22940654,-0.47523322,-0.84818161,0.40049913,-0.04649708
2.36000000,0.27732214,0.77724060,-0.22941275,-0.47523892,0.84732681,0.40013573,0.04584823,0.27897820,-0.77786408,0.22940609,-0.47523235,-0.84818181,0.40049907,-0.04649696
2.38000000,0.27738475,0.77717666,-0.22946604,-0.47512857,0.84736335,0.40006179,0.04606396,0.27897816,-0.77786392,0.22940577,-0.47523171,-0.84818196,0.40049903,-0.04649687
2.40000000,0.27742761,0.77713289,-0.22950252,-0.47505303,0.84738836,0.40001118,0.04621163,0.27897813,-0.77786381,0.22940554,-0.47523128,-0.84818205,0.40049901,-0.04649681
2.42000000,0.27745415,0.77710579,-0.22952511,-0.47500626,0.84740384,0.39997985,0.04630306,0.27897811,-0.77786374,0.22940540,-0.47523101,-0.84818212,0.40049899,-0.04649677
2.44000000,0.27746806,0.77709159,-0.22953695,-0.47498175,0.84741196,0.39996343,0.04635098,0.27897810,-0.77786370,0.22940533,-0.47523087,-0.84818215,0.40049898,-0.04649675
2.46000000,0.27747328,0.77708625,-0.22954139,-0.47497254,0.84741501,0.39995726,0.04636898,0.27897810,-0.77786369,0.22940530,-0.47523082,-0.84818216,0.40049898,-0.04649674
2.48000000,0.27747404,0.77708548,-0.22954204,-0.47497121,0.84741545,0.39995636,0.04637160,0.27897810,-0.77786369,0.22940530,-0.47523081,-0.84818216,0.40049898,-0.04649674
2.50000000,0.27747404,0.77708548,-0.22954204,-0.47497121,0.84741545,0.39995636,0.04637160,0.27897810,-0.77786369,0.22940530,-0.47523081,-0.84818216,0.40049898,-0.04649674
2.52000000,0.27747404,0.77708548,-0.22954204,-0.47497121,0.84741545,0.39995636,0.04637160,0.27897810,-0.77786369,0.22940530,-0.47523081,-0.84818216,0.40049898,-0.04649674
2.54000000,0.27747404,0.77708548,-0.22954204,-0.47497121,0.84741545,0.39995636,0.04637160,0.27897810,-0.77786369,0.22940530,-0.47523081,-0.84818216,0.40049898,-0.04649674
2.56000000,0.27747404,0.77708548,-0.22954204,-0.47497121,0.84741545,0.39995636,0.04637160,0.27897810,-0.77786369,0.22940530,-0.47523081,-0.84818216,0.40049898,-0.04649674
2.58000000,0.27747404,0.77708548,-0.22954204,-0.47497121,0.84741545,0.39995636,0.04637160,0.27897810,-0.77786369,0.22940530,-0.47523081,-0.84818216,0.40049898,-0.04649674
2.60000000,0.27747404,0.77708548,-0.22954204,-0.47497121,0.84741545,0.39995636,0.04637160,0.27897810,-0.77786369,0.22940530,-0.47523081,-0.84818216,0.40049898,-0.04649674
2.62000000,0.27747404,0.77708548,-0.22954204,-0.47497121,0.84741545,0.39995636,0.04637160,0.27897810,-0.77786369,0.22940530,-0.47523081,-0.84818216,0.40049898,-0.04649674
2.64000000,0.27747404,0.77708548,-0.22954204,-0.47497121,0.84741545,0.39995636,0.04637160,0.27897810,-0.77786369,0.22940530,-0.47523081,-0.84818216,0.40049898,-0.04649674
2.66000000,0.27747404,0.77708548,-0.22954204,-0.47497121,0.84741545,0.39995636,0.04637160,0.27897810,-0.77786369,0.22940530,-0.47523081,-0.84818216,0.40049898,-0.04649674
2.68000000,0.27747404,0.77708548,-0.22954204,-0.47497121,0.84741545,0.39995636,0.04637160,0.27897810,-0.77786369,0.22940530,-0.47523081,-0.84818216,0.40049898,-0.04649674
2.70000000,0.27747404,0.77708548,-0.22954204,-0.47497121,0.84741545,0.39995636,0.04637160,0.27897810,-0.77786369,0.22940530,-0.47523081,-0.84818216,0.40049898,-0.04649674
2.72000000,0.27747404,0.77708548,-0.22954204,-0.47497121,0.84741545,0.39995636,0.04637160,0.27897810,-0.77786369,0.22940530,-0.47523081,-0.84818216,0.40049898,-0.04649674
2.74000000,0.27747404,0.77708548,-0.22954204,-0.47497121,0.84741545,0.39995636,0.04637160,0.27897810,-0.77786369,0.22940530,-0.47523081,-0.84818216,0.40049898,-0.04649674
2.76000000,0.27747404,0.77708548,-0.22954204,-0.47497121,0.84741545,0.39995636,0.04637160,0.27897810,-0.77786369,0.22940530,-0.47523081,-0.84818216,0.40049898,-0.04649674
2.78000000,0.27747404,0.77708548,-0.22954204,-0.47497121,0.84741545,0.39995636,0.04637160,0.27897810,-0.77786369,0.22940530,-0.47523081,-0.84818216,0.40049898,-0.04649674
2.80000000,0.27747404,0.77708548,-0.22954204,-0.47497121,0.84741545,0.39995636,0.04637160,0.27897810,-0.77786369,0.22940530,-0.47523081,-0.84818216,0.40049898,-0.04649674
2.82000000,0.27747404,0.77708548,-0.22954204,-0.47497121,0.84741545,0.39995636,0.04637160,0.27897810,-0.77786369,0.22940530,-0.47523081,-0.84818216,0.40049898,-0.04649674
2.84000000,0.27747404,0.77708548,-0.22954204,-0.47497121,0.84741545,0.39995636,0.04637160,0.27897810,-0.77786369,0.22940530,-0.47523081,-0.84818216,0.40049898,-0.04649674
2.86000000,0.27747404,0.77708548,-0.22954204,-0.47497121,0.84741545,0.39995636,0.04637160,0.27897810,-0.77786369,0.22940530,-0.47523081,-0.84818216,0.40049898,-0.04649674
2.88000000,0.27747404,0.77708548,-0.22954204,-0.47497121,0.84741545,0.39995636,0.04637160,0.27897810,-0.77786369,0.22940530,-0.47523081,-0.84818216,0.40049898,-0.04649674
2.90000000,0.27747404,0.77708548,-0.22954204,-0.47497121,0.84741545,0.39995636,0.04637160,0.27897810,-0.77786369,0.22940530,-0.47523081,-0.84818216,0.40049898,-0.04649674
2.92000000,0.27747404,0.77708548,-0.22954204,-0.47497121,0.84741545,0.39995636,0.04637160,0.27897810,-0.77786369,0.22940530,-0.47523081,-0.84818216,0.40049898,-0.04649674
2.94000000,0.27747404,0.77708548,-0.22954204,-0.47497121,0.84741545,0.39995636,0.04637160,0.27897810,-0.77786369,0.22940530,-0.47523081,-0.84818216,0.40049898,-0.04649674
2.96000000,0.27747404,0.77708548,-0.22954204,-0.47497121,0.84741545,0.39995636,0.04637160,0.27897810,-0.77786369,0.22940530,-0.47523081,-0.84818216,0.40049898,-0.04649674
2.98000000,0.27747404,0.77708548,-0.22954204,-0.47497121,0.84741545,0.39995636,0.04637160,0.27897810,-0.77786369,0.22940530,-0.47523081,-0.84818216,0.40049898,-0.04649674
3.00000000,0.27747404,0.77708548,-0.22954204,-0.47497121,0.84741545,0.39995636,0.04637160,0.27897809,-0.77786368,0.22940529,-0.47523080,-0.84818216,0.40049897,-0.04649674
3.02000000,0.27747400,0.77708550,-0.22954204,-0.47497120,0.84741545,0.39995636,0.04637158,0.27897803,-0.77786366,0.22940526,-0.47523075,-0.84818218,0.40049897,-0.04649672
3.04000000,0.27747390,0.77708553,-0.22954203,-0.47497120,0.84741546,0.39995638,0.04637155,0.27897788,-0.77786360,0.22940517,-0.47523061,-0.84818221,0.40049895,-0.04649669
3.06000000,0.27747372,0.77708561,-0.22954200,-0.47497120,0.84741547,0.39995640,0.04637148,0.27897758,-0.77786349,0.22940500,-0.47523033,-0.84818228,0.40049893,-0.04649662
3.08000000,0.27747343,0.77708573,-0.22954197,-0.47497120,0.84741550,0.39995644,0.04637138,0.27897709,-0.77786331,0.22940473,-0.47522990,-0.84818239,0.40049888,-0.04649651
3.10000000,0.27747299,0.77708591,-0.22954192,-0.47497119,0.84741553,0.39995649,0.04637122,0.27897639,-0.77786304,0.22940433,-0.47522926,-0.84818255,0.40049881,-0.04649634
3.12000000,0.27747241,0.77708615,-0.22954186,-0.47497118,0.84741557,0.39995657,0.04637101,0.27897542,-0.77786268,0.22940379,-0.47522839,-0.84818277,0.40049872,-0.04649612
3.14000000,0.27747164,0.77708646,-0.22954177,-0.47497117,0.84741563,0.39995666,0.04637073,0.27897417,-0.77786220,0.22940308,-0.47522725,-0.84818306,0.40049860,-0.04649583
3.16000000,0.27747067,0.77708685,-0.22954166,-0.47497116,0.84741571,0.39995679,0.04637038,0.27897259,-0.77786160,0.22940219,-0.47522582,-0.84818342,0.40049845,-0.04649546
3.18000000,0.27746950,0.77708734,-0.22954153,-0.47497114,0.84741580,0.39995694,0.04636996,0.27897066,-0.77786088,0.22940110,-0.47522408,-0.84818386,0.40049826,-0.04649501
3.20000000,0.27746809,0.77708791,-0.22954137,-0.47497112,0.84741591,0.39995711,0.04636945,0.27896836,-0.77786001,0.22939980,-0.47522199,-0.84818438,0.40049804,-0.04649448
3.22000000,0.27746644,0.77708859,-0.22954119,-0.47497109,0.84741603,0.39995732,0.04636885,0.27896566,-0.77785898,0.22939828,-0.47521955,-0.84818500,0.40049779,-0.04649385
3.24000000,0.27746453,0.77708936,-0.22954097,-0.47497107,0.84741618,0.39995756,0.04636817,0.27896254,-0.77785781,0.22939652,-0.47521673,-0.84818571,0.40049749,-0.04649313
3.26000000,0.27746236,0.77709025,-0.22954073,-0.47497104,0.84741635,0.39995784,0.04636738,0.27895899,-0.77785646,0.22939452,-0.47521351,-0.84818652,0.40049715,-0.04649230
3.28000000,0.27745991,0.77709125,-0.22954045,-0.47497100,0.84741654,0.39995815,0.04636650,0.27895498,-0.77785495,0.22939226,-0.47520988,-0.84818743,0.40049676,-0.04649137
3.30000000,0.27745718,0.77709237,-0.22954014,-0.47497096,0.84741675,0.39995850,0.04636551,0.27895051,-0.77785326,0.22938974,-0.47520584,-0.84818845,0.40049633,-0.04649033
3.32000000,0.27745416,0.77709361,-0.22953980,-0.47497092,0.84741698,0.39995888,0.04636442,0.27894557,-0.77785139,0.22938695,-0.47520136,-0.84818957,0.40049586,-0.04648919
3.34000000,0.27745084,0.77709496,-0.22953943,-0.47497087,0.84741724,0.39995930,0.04636322,0.27894013,-0.77784934,0.22938388,-0.47519644,-0.84819081,0.40049534,-0.04648792
3.36000000,0.27744722,0.77709644,-0.22953902,-0.47497082,0.84741751,0.39995976,0.04636192,0.27893421,-0.77784710,0.22938054,-0.47519108,-0.84819216,0.40049477,-0.04648655
3.38000000,0.27744330,0.77709805,-0.22953858,-0.47497076,0.84741782,0.39996026,0.04636050,0.27892779,-0.77784467,0.22937692,-0.47518527,-0.84819362,0.40049416,-0.04648506
3.40000000,0.27743907,0.77709978,-0.22953811,-0.47497070,0.84741814,0.39996079,0.04635898,0.27892087,-0.77784205,0.22937302,-0.47517900,-0.84819520,0.40049350,-0.04648345
3.42000000,0.27743453,0.77710163,-0.22953760,-0.47497063,0.84741849,0.39996137,0.04635734,0.27891344,-0.77783925,0.22936883,-0.47517228,-0.84819689,0.40049279,-0.04648173
3.44000000,0.27742969,0.77710361,-0.22953705,-0.47497056,0.84741886,0.39996198,0.04635559,0.27890552,-0.77783625,0.22936436,-0.47516511,-0.84819870,0.40049203,-0.04647989
3.46000000,0.27742454,0.77710571,-0.22953647,-0.47497049,0.84741926,0.39996264,0.04635373,0.27889710,-0.77783307,0.22935961,-0.47515749,-0.84820061,0.40049122,-0.04647793
3.48000000,0.27741909,0.77710794,-0.22953586,-0.47497041,0.84741968,0.39996333,0.04635177,0.27888818,-0.77782970,0.22935458,-0.47514942,-0.84820265,0.40049037,-0.04647586
3.50000000,0.27741334,0.77711029,-0.22953521,-0.47497032,0.84742012,0.39996405,0.04634969,0.27887878,-0.77782614,0.22934928,-0.47514091,-0.84820479,0.40048947,-0.04647368
3.52000000,0.27740730,0.77711276,-0.22953454,-0.47497023,0.84742059,0.39996482,0.04634751,0.27886889,-0.77782241,0.22934370,-0.47513196,-0.84820704,0.40048852,-0.04647138
3.54000000,0.27740097,0.77711535,-0.22953382,-0.47497014,0.84742108,0.39996562,0.04634523,0.27885853,-0.77781849,0.22933786,-0.47512258,-0.84820940,0.40048753,-0.04646898
3.56000000,0.27739436,0.77711805,-0.22953308,-0.47497005,0.84742158,0.39996646,0.04634284,0.27884771,-0.77781440,0.22933175,-0.47511279,-0.84821186,0.40048649,-0.04646647
3.58000000,0.27738747,0.77712086,-0.22953231,-0.47496995,0.84742212,0.39996734,0.04634036,0.27883644,-0.77781014,0.22932540,-0.47510259,-0.84821443,0.40048541,-0.04646385
3.60000000,0.27738032,0.77712379,-0.22953150,-0.47496984,0.84742267,0.39996824,0.04633777,0.27882473,-0.77780571,0.22931879,-0.47509199,-0.84821710,0.40048429,-0.04646113
3.62000000,0.27737290,0.77712682,-0.22953067,-0.47496973,0.84742324,0.39996918,0.04633510,0.27881260,-0.77780113,0.22931195,-0.47508101,-0.84821986,0.40048313,-0.04645831
3.64000000,0.27736524,0.77712995,-0.22952981,-0.47496962,0.84742383,0.39997015,0.04633233,0.27880006,-0.77779639,0.22930488,-0.47506965,-0.84822272,0.40048193,-0.04645540
3.66000000,0.27735734,0.77713318,-0.22952892,-0.47496951,0.84742444,0.39997116,0.04632948,0.27878713,-0.77779150,0.22929758,-0.47505795,-0.84822567,0.40048069,-0.04645240
3.68000000,0.27734921,0.77713651,-0.22952800,-0.47496939,0.84742506,0.39997219,0.04632655,0.27877382,-0.77778647,0.22929008,-0.47504590,-0.84822870,0.40047942,-0.04644931
3.70000000,0.27734086,0.77713992,-0.22952706,-0.47496927,0.84742571,0.39997325,0.04632353,0.27876016,-0.77778130,0.22928237,-0.47503354,-0.84823181,0.40047811,-0.04644614
3.72000000,0.27733230,0.77714342,-0.22952610,-0.47496914,0.84742636,0.39997433,0.04632045,0.27874616,-0.77777601,0.22927447,-0.47502087,-0.84823500,0.40047677,-0.04644289
3.74000000,0.27732356,0.77714699,-0.22952512,-0.47496902,0.84742704,0.39997544,0.04631729,0.27873185,-0.77777060,0.22926640,-0.47500791,-0.84823826,0.40047540,-0.04643956
3.76000000,0.27731463,0.77715064,-0.22952411,-0.47496889,0.84742773,0.39997657,0.04631407,0.27871724,-0.77776508,0.22925816,-0.47499469,-0.84824159,0.40047400,-0.04643617
3.78000000,0.27730554,0.77715436,-0.22952309,-0.47496875,0.84742843,0.39997772,0.04631079,0.27870236,-0.77775946,0.22924977,-0.47498122,-0.84824498,0.40047258,-0.04643272
3.80000000,0.27729629,0.77715814,-0.22952205,-0.47496862,0.84742914,0.39997890,0.04630745,0.27868722,-0.77775374,0.22924123,-0.47496752,-0.84824842,0.40047113,-0.04642920
3.82000000,0.27728690,0.77716197,-0.22952100,-0.47496848,0.84742986,0.39998009,0.04630406,0.27867187,-0.77774793,0.22923257,-0.47495362,-0.84825192,0.40046966,-0.04642564
3.84000000,0.27727739,0.77716586,-0.22951993,-0.47496834,0.84743059,0.39998129,0.04630063,0.27865630,-0.77774205,0.22922379,-0.47493954,-0.84825547,0.40046817,-0.04642202
3.86000000,0.27726778,0.77716979,-0.22951884,-0.47496820,0.84743133,0.39998251,0.04629716,0.27864056,-0.77773610,0.22921491,-0.47492529,-0.84825905,0.40046666,-0.04641837
3.88000000,0.27725806,0.77717376,-0.22951775,-0.47496806,0.84743208,0.39998374,0.04629365,0.27862467,-0.77773009,0.22920595,-0.47491090,-0.84826267,0.40046514,-0.04641468
3.90000000,0.27724827,0.77717776,-0.22951665,-0.47496792,0.84743284,0.39998499,0.04629012,0.27860865,-0.77772403,0.22919691,-0.47489640,-0.84826632,0.40046361,-0.04641096
3.92000000,0.27723842,0.77718179,-0.22951554,-0.47496778,0.84743359,0.39998624,0.04628656,0.27859252,-0.77771794,0.22918782,-0.47488180,-0.84827000,0.40046206,-0.04640721
3.94000000,0.27722851,0.77718584,-0.22951443,-0.47496763,0.84743436,0.39998749,0.04628299,0.27857631,-0.77771181,0.22917868,-0.47486713,-0.84827369,0.40046051,-0.04640345
3.96000000,0.27721858,0.77718990,-0.22951331,-0.47496749,0.84743512,0.39998875,0.04627940,0.27856006,-0.77770567,0.22916951,-0.47485242,-0.84827739,0.40045896,-0.04639968
3.98000000,0.27720863,0.77719397,-0.22951219,-0.47496734,0.84743589,0.39999001,0.04627581,0.27854377,-0.77769951,0.22916032,-0.47483768,-0.84828110,0.40045740,-0.04639590
4.00000000,0.27719868,0.77719804,-0.22951107,-0.47496720,0.84743665,0.39999127,0.04627222,0.27852749,-0.77769336,0.22915114,-0.47482294,-0.84828481,0.40045584,-0.04639212
4.02000000,0.27718875,0.77720210,-0.22950996,-0.47496705,0.84743742,0.39999253,0.04626864,0.27851124,-0.77768721,0.22914197,-0.47480823,-0.84828852,0.40045428,-0.04638834
4.04000000,0.27717884,0.77720614,-0.22950884,-0.47496691,0.84743818,0.39999379,0.04626506,0.27849503,-0.77768109,0.22913283,-0.47479356,-0.84829221,0.40045273,-0.04638458
4.06000000,0.27716899,0.77721017,-0.22950773,-0.47496677,0.84743894,0.39999504,0.04626151,0.27847890,-0.77767499,0.22912373,-0.47477896,-0.84829588,0.40045119,-0.04638083
4.08000000,0.27715920,0.77721418,-0.22950663,-0.47496662,0.84743970,0.39999628,0.04625797,0.27846288,-0.77766893,0.22911469,-0.47476446,-0.84829953,0.40044965,-0.04637711
4.10000000,0.27714948,0.77721815,-0.22950554,-0.47496648,0.84744044,0.39999751,0.04625447,0.27844699,-0.77766293,0.22910573,-0.47475007,-0.84830315,0.40044813,-0.04637342
4.12000000,0.27713986,0.77722208,-0.22950446,-0.47496634,0.84744118,0.39999873,0.04625100,0.27843125,-0.77765698,0.22909685,-0.47473582,-0.84830674,0.40044662,-0.04636977
4.14000000,0.27713035,0.77722596,-0.22950339,-0.47496620,0.84744192,0.39999994,0.04624756,0.27841568,-0.77765109,0.22908807,-0.47472174,-0.84831028,0.40044513,-0.04636616
4.16000000,0.27712097,0.77722980,-0.22950233,-0.47496607,0.84744264,0.40000113,0.04624418,0.27840033,-0.77764529,0.22907941,-0.47470784,-0.84831378,0.40044366,-0.04636259
4.18000000,0.27711172,0.77723358,-0.22950129,-0.47496593,0.84744335,0.40000230,0.04624084,0.27838519,-0.77763957,0.22907088,-0.47469414,-0.84831723,0.40044222,-0.04635908
4.20000000,0.27710263,0.77723730,-0.22950027,-0.47496580,0.84744405,0.40000345,0.04623756,0.27837031,-0.77763394,0.22906248,-0.47468067,-0.84832062,0.40044079,-0.04635562
4.22000000,0.27709370,0.77724095,-0.22949927,-0.47496567,0.84744474,0.40000458,0.04623434,0.27835570,-0.77762842,0.22905424,-0.47466745,-0.84832395,0.40043939,-0.04635223
4.24000000,0.27708495,0.77724452,-0.22949828,-0.47496554,0.84744541,0.40000569,0.04623118,0.27834139,-0.77762301,0.22904617,-0.47465449,-0.84832721,0.40043802,-0.04634891
4.26000000,0.27707640,0.77724802,-0.22949732,-0.47496542,0.84744607,0.40000678,0.04622809,0.27832739,-0.77761772,0.22903827,-0.47464182,-0.84833040,0.40043668,-0.04634566
4.28000000,0.27706805,0.77725143,-0.22949638,-0.47496530,0.84744671,0.40000784,0.04622508,0.27831373,-0.77761256,0.22903057,-0.47462946,-0.84833351,0.40043537,-0.04634248
4.30000000,0.27705992,0.77725476,-0.22949547,-0.47496518,0.84744734,0.40000887,0.04622215,0.27830042,-0.77760753,0.22902306,-0.47461741,-0.84833654,0.40043410,-0.04633939
4.32000000,0.27705202,0.77725799,-0.22949458,-0.47496506,0.84744795,0.40000987,0.04621929,0.27828749,-0.77760264,0.22901577,-0.47460571,-0.84833948,0.40043286,-0.04633639
4.34000000,0.27704435,0.77726112,-0.22949372,-0.47496495,0.84744854,0.40001084,0.04621653,0.27827495,-0.77759790,0.22900869,-0.47459436,-0.84834234,0.40043166,-0.04633348
4.36000000,0.27703694,0.77726415,-0.22949288,-0.47496484,0.84744911,0.40001178,0.04621385,0.27826282,-0.77759331,0.22900185,-0.47458337,-0.84834511,0.40043050,-0.04633066
4.38000000,0.27702979,0.77726707,-0.22949208,-0.47496474,0.84744966,0.40001269,0.04621127,0.27825111,-0.77758889,0.22899525,-0.47457278,-0.84834777,0.40042938,-0.04632795
4.40000000,0.27702290,0.77726989,-0.22949131,-0.47496464,0.84745019,0.40001356,0.04620878,0.27823984,-0.77758463,0.22898889,-0.47456257,-0.84835034,0.40042830,-0.04632533
4.42000000,0.27701629,0.77727259,-0.22949056,-0.47496454,0.84745070,0.40001440,0.04620640,0.27822902,-0.77758054,0.22898279,-0.47455278,-0.84835281,0.40042726,-0.04632282
4.44000000,0.27700996,0.77727518,-0.22948985,-0.47496445,0.84745119,0.40001520,0.04620411,0.27821866,-0.77757662,0.22897694,-0.47454340,-0.84835516,0.40042627,-0.04632041
4.46000000,0.27700391,0.77727765,-0.22948917,-0.47496436,0.84745165,0.40001597,0.04620193,0.27820877,-0.77757288,0.22897137,-0.47453446,-0.84835742,0.40042533,-0.04631812
4.48000000,0.27699817,0.77728000,-0.22948852,-0.47496428,0.84745210,0.40001670,0.04619986,0.27819937,-0.77756933,0.22896606,-0.47452594,-0.84835956,0.40042443,-0.04631593
4.50000000,0.27699272,0.77728222,-0.22948791,-0.47496420,0.84745252,0.40001739,0.04619789,0.27819045,-0.77756596,0.22896103,-0.47451787,-0.84836159,0.40042357,-0.04631386
4.52000000,0.27698757,0.77728433,-0.22948733,-0.47496413,0.84745291,0.40001804,0.04619604,0.27818203,-0.77756277,0.22895628,-0.47451025,-0.84836351,0.40042277,-0.04631191
4.54000000,0.27698273,0.77728631,-0.22948679,-0.47496406,0.84745329,0.40001866,0.04619429,0.27817411,-0.77755978,0.22895181,-0.47450308,-0.84836531,0.40042201,-0.04631007
4.56000000,0.27697819,0.77728816,-0.22948628,-0.47496399,0.84745363,0.40001923,0.04619265,0.27816668,-0.77755697,0.22894763,-0.47449636,-0.84836701,0.40042130,-0.04630834
4.58000000,0.27697396,0.77728989,-0.22948580,-0.47496393,0.84745396,0.40001977,0.04619113,0.27815976,-0.77755436,0.22894372,-0.47449009,-0.84836858,0.40042063,-0.04630674
4.60000000,0.27697004,0.77729149,-0.22948536,-0.47496387,0.84745426,0.40002026,0.04618971,0.27815334,-0.77755193,0.22894010,-0.47448428,-0.84837004,0.40042002,-0.04630524
4.62000000,0.27696642,0.77729297,-0.22948495,-0.47496382,0.84745454,0.40002072,0.04618840,0.27814742,-0.77754969,0.22893676,-0.47447892,-0.84837139,0.40041945,-0.04630387
4.64000000,0.27696310,0.77729433,-0.22948458,-0.47496377,0.84745480,0.40002114,0.04618720,0.27814198,-0.77754764,0.22893370,-0.47447400,-0.84837263,0.40041893,-0.04630261
4.66000000,0.27696008,0.77729557,-0.22948424,-0.47496373,0.84745503,0.40002153,0.04618611,0.27813704,-0.77754577,0.22893091,-0.47446952,-0.84837376,0.40041846,-0.04630146
4.68000000,0.27695735,0.77729668,-0.22948393,-0.47496369,0.84745524,0.40002187,0.04618513,0.27813257,-0.77754408,0.22892838,-0.47446548,-0.84837478,0.40041803,-0.04630042
4.70000000,0.27695490,0.77729768,-0.22948366,-0.47496365,0.84745543,0.40002218,0.04618424,0.27812856,-0.77754256,0.22892613,-0.47446185,-0.84837569,0.40041765,-0.04629949
4.72000000,0.27695273,0.77729857,-0.22948341,-0.47496362,0.84745560,0.40002246,0.04618346,0.27812501,-0.77754122,0.22892412,-0.47445863,-0.84837650,0.40041731,-0.04629867
4.74000000,0.27695082,0.77729935,-0.22948320,-0.47496359,0.84745574,0.40002270,0.04618277,0.27812189,-0.77754004,0.22892236,-0.47445581,-0.84837721,0.40041701,-0.04629794
4.76000000,0.27694917,0.77730003,-0.22948301,-0.47496357,0.84745587,0.40002291,0.04618218,0.27811919,-0.77753902,0.22892084,-0.47445337,-0.84837782,0.40041675,-0.04629732
4.78000000,0.27694776,0.77730060,-0.22948286,-0.47496355,0.84745598,0.40002309,0.04618167,0.27811689,-0.77753815,0.22891954,-0.47445128,-0.84837835,0.40041653,-0.04629678
4.80000000,0.27694658,0.77730108,-0.22948272,-0.47496353,0.84745607,0.40002324,0.04618124,0.27811496,-0.77753742,0.22891845,-0.47444954,-0.84837879,0.40041634,-0.04629633
4.82000000,0.27694562,0.77730148,-0.22948261,-0.47496352,0.84745614,0.40002336,0.04618090,0.27811338,-0.77753683,0.22891756,-0.47444811,-0.84837915,0.40041619,-0.04629597
4.84000000,0.27694485,0.77730179,-0.22948253,-0.47496350,0.84745620,0.40002346,0.04618062,0.27811213,-0.77753635,0.22891686,-0.47444697,-0.84837943,0.40041607,-0.04629568
4.86000000,0.27694426,0.77730203,-0.22948246,-0.47496350,0.84745625,0.40002353,0.04618041,0.27811116,-0.77753599,0.22891631,-0.47444610,-0.84837965,0.40041598,-0.04629545
4.88000000,0.27694383,0.77730221,-0.22948241,-0.47496349,0.84745628,0.40002359,0.04618025,0.27811046,-0.77753572,0.22891591,-0.47444546,-0.84837981,0.40041591,-0.04629529
4.90000000,0.27694354,0.77730233,-0.22948238,-0.47496349,0.84745630,0.40002362,0.04618015,0.27810997,-0.77753554,0.22891564,-0.47444503,-0.84837992,0.40041587,-0.04629518
4.92000000,0.27694336,0.77730240,-0.22948236,-0.47496348,0.84745632,0.40002365,0.04618008,0.27810967,-0.77753542,0.22891547,-0.47444476,-0.84837999,0.40041584,-0.04629511
4.94000000,0.27694326,0.77730244,-0.22948235,-0.47496348,0.84745633,0.40002366,0.04618004,0.27810952,-0.77753536,0.22891538,-0.47444461,-0.84838003,0.40041582,-0.04629507
4.96000000,0.27694322,0.77730246,-0.22948235,-0.47496348,0.84745633,0.40002366,0.04618003,0.27810946,-0.77753534,0.22891535,-0.47444456,-0.84838004,0.40041582,-0.04629506
4.98000000,0.27694322,0.77730246,-0.22948234,-0.47496348,0.84745633,0.40002366,0.04618003,0.27810945,-0.77753534,0.22891535,-0.47444455,-0.84838004,0.40041582,-0.04629505
5.00000000,0.27694322,0.77730246,-0.22948234,-0.47496348,0.84745633,0.40002366,0.04618003,0.27810945,-0.77753534,0.22891535,-0.47444455,-0.84838004,0.40041582,-0.04629505
5.02000000,0.27694322,0.77730246,-0.22948234,-0.47496348,0.84745633,0.40002366,0.04618003,0.27810945,-0.77753534,0.22891535,-0.47444455,-0.84838004,0.40041582,-0.04629505
5.04000000,0.27694322,0.77730246,-0.22948234,-0.47496348,0.84745633,0.40002366,0.04618003,0.27810945,-0.77753534,0.22891535,-0.47444455,-0.84838004,0.40041582,-0.04629505
5.06000000,0.27694322,0.77730246,-0.22948234,-0.47496348,0.84745633,0.40002366,0.04618003,0.27810945,-0.77753534,0.22891535,-0.47444455,-0.84838004,0.40041582,-0.04629505
5.08000000,0.27694322,0.77730246,-0.22948234,-0.47496348,0.84745633,0.40002366,0.04618003,0.27810945,-0.77753534,0.22891535,-0.47444455,-0.84838004,0.40041582,-0.04629505
5.10000000,0.27694322,0.77730246,-0.22948234,-0.47496348,0.84745633,0.40002366,0.04618003,0.27810945,-0.77753534,0.22891535,-0.47444455,-0.84838004,0.40041582,-0.04629505
5.12000000,0.27694322,0.77730246,-0.22948234,-0.47496348,0.84745633,0.40002366,0.04618003,0.27810945,-0.77753534,0.22891535,-0.47444455,-0.84838004,0.40041582,-0.04629505
5.14000000,0.27694322,0.77730246,-0.22948234,-0.47496348,0.84745633,0.40002366,0.04618003,0.27810945,-0.77753534,0.22891535,-0.47444455,-0.84838004,0.40041582,-0.04629505
5.16000000,0.27694322,0.77730246,-0.22948234,-0.47496348,0.84745633,0.40002366,0.04618003,0.27810945,-0.77753534,0.22891535,-0.47444455,-0.84838004,0.40041582,-0.04629505
5.18000000,0.27694322,0.77730246,-0.22948234,-0.47496348,0.84745633,0.40002366,0.04618003,0.27810945,-0.77753534,0.22891535,-0.47444455,-0.84838004,0.40041582,-0.04629505
5.20000000,0.27694322,0.77730246,-0.22948234,-0.47496348,0.84745633,0.40002366,0.04618003,0.27810945,-0.77753534,0.22891535,-0.47444455,-0.84838004,0.40041582,-0.04629505
5.22000000,0.27694322,0.77730246,-0.22948234,-0.47496348,0.84745633,0.40002366,0.04618003,0.27810945,-0.77753534,0.22891535,-0.47444455,-0.84838004,0.40041582,-0.04629505
5.24000000,0.27694322,0.77730246,-0.22948234,-0.47496348,0.84745633,0.40002366,0.04618003,0.27810945,-0.77753534,0.22891535,-0.47444455,-0.84838004,0.40041582,-0.04629505
5.26000000,0.27694322,0.77730246,-0.22948234,-0.47496348,0.84745633,0.40002366,0.04618003,0.27810945,-0.77753534,0.22891535,-0.47444455,-0.84838004,0.40041582,-0.04629505
5.28000000,0.27694322,0.77730246,-0.22948234,-0.47496348,0.84745633,0.40002366,0.04618003,0.27810945,-0.77753534,0.22891535,-0.47444455,-0.84838004,0.40041582,-0.04629505
5.30000000,0.27694322,0.77730246,-0.22948234,-0.47496348,0.84745633,0.40002366,0.04618003,0.27810945,-0.77753534,0.22891535,-0.47444455,-0.84838004,0.40041582,-0.04629505
5.32000000,0.27694322,0.77730246,-0.22948234,-0.47496348,0.84745633,0.40002366,0.04618003,0.27810945,-0.77753534,0.22891535,-0.47444455,-0.84838004,0.40041582,-0.04629505
5.34000000,0.27694322,0.77730246,-0.22948234,-0.47496348,0.84745633,0.40002366,0.04618003,0.27810945,-0.77753534,0.22891535,-0.47444455,-0.84838004,0.40041582,-0.04629505
5.36000000,0.27694322,0.77730246,-0.22948234,-0.47496348,0.84745633,0.40002366,0.04618003,0.27810945,-0.77753534,0.22891535,-0.47444455,-0.84838004,0.40041582,-0.04629505
5.38000000,0.27694322,0.77730246,-0.22948234,-0.47496348,0.84745633,0.40002366,0.04618003,0.27810945,-0.77753534,0.22891535,-0.47444455,-0.84838004,0.40041582,-0.04629505
5.40000000,0.27694322,0.77730246,-0.22948234,-0.47496348,0.84745633,0.40002366,0.04618003,0.27810945,-0.77753534,0.22891535,-0.47444455,-0.84838004,0.40041582,-0.04629505
5.42000000,0.27694322,0.77730246,-0.22948234,-0.47496348,0.84745633,0.40002366,0.04618003,0.27810945,-0.77753534,0.22891535,-0.47444455,-0.84838004,0.40041582,-0.04629505
5.44000000,0.27694322,0.77730246,-0.22948234,-0.47496348,0.84745633,0.40002366,0.04618003,0.27810945,-0.77753534,0.22891535,-0.47444455,-0.84838004,0.40041582,-0.04629505
5.46000000,0.27694322,0.77730246,-0.22948234,-0.47496348,0.84745633,0.40002366,0.04618003,0.27810945,-0.77753534,0.22891535,-0.47444455,-0.84838004,0.40041582,-0.04629505
5.48000000,0.27694322,0.77730246,-0.22948234,-0.47496348,0.84745633,0.40002366,0.04618003,0.27810945,-0.77753534,0.22891535,-0.47444455,-0.84838004,0.40041582,-0.04629505
5.50000000,0.27694322,0.77730245,-0.22948234,-0.47496347,0.84745633,0.40002366,0.04618003,0.27810946,-0.77753535,0.22891535,-0.47444456,-0.84838004,0.40041582,-0.04629506
5.52000000,0.27694320,0.77730242,-0.22948233,-0.47496342,0.84745634,0.40002365,0.04618001,0.27810950,-0.77753539,0.22891540,-0.47444463,-0.84838003,0.40041582,-0.04629507
5.54000000,0.27694314,0.77730232,-0.22948229,-0.47496327,0.84745635,0.40002363,0.04617996,0.27810960,-0.77753550,0.22891552,-0.47444482,-0.84837999,0.40041584,-0.04629511
5.56000000,0.27694304,0.77730214,-0.22948221,-0.47496299,0.84745639,0.40002358,0.04617987,0.27810981,-0.77753570,0.22891575,-0.47444517,-0.84837991,0.40041587,-0.04629519
5.58000000,0.27694288,0.77730185,-0.22948209,-0.47496254,0.84745645,0.40002351,0.04617972,0.27811014,-0.77753604,0.22891612,-0.47444574,-0.84837979,0.40041592,-0.04629531
5.60000000,0.27694264,0.77730143,-0.22948191,-0.47496188,0.84745653,0.40002340,0.04617950,0.27811063,-0.77753653,0.22891666,-0.47444658,-0.84837960,0.40041599,-0.04629549
5.62000000,0.27694231,0.77730085,-0.22948166,-0.47496099,0.84745664,0.40002325,0.04617919,0.27811129,-0.77753720,0.22891741,-0.47444771,-0.84837936,0.40041609,-0.04629574
5.64000000,0.27694189,0.77730010,-0.22948134,-0.47495981,0.84745679,0.40002306,0.04617880,0.27811216,-0.77753808,0.22891837,-0.47444920,-0.84837903,0.40041622,-0.04629606
5.66000000,0.27694136,0.77729915,-0.22948094,-0.47495834,0.84745697,0.40002281,0.04617831,0.27811324,-0.77753918,0.22891959,-0.47445106,-0.84837863,0.40041638,-0.04629646
5.68000000,0.27694070,0.77729799,-0.22948045,-0.47495654,0.84745719,0.40002251,0.04617771,0.27811457,-0.77754052,0.22892107,-0.47445334,-0.84837814,0.40041657,-0.04629696
5.70000000,0.27693992,0.77729661,-0.22947986,-0.47495440,0.84745746,0.40002216,0.04617699,0.27811615,-0.77754213,0.22892285,-0.47445606,-0.84837754,0.40041681,-0.04629755
5.72000000,0.27693901,0.77729499,-0.22947918,-0.47495188,0.84745778,0.40002174,0.04617615,0.27811801,-0.77754401,0.22892493,-0.47445925,-0.84837685,0.40041708,-0.04629824
5.74000000,0.27693796,0.77729311,-0.22947838,-0.47494897,0.84745814,0.40002125,0.04617517,0.27812016,-0.77754618,0.22892733,-0.47446294,-0.84837605,0.40041740,-0.04629903
5.76000000,0.27693675,0.77729098,-0.22947748,-0.47494565,0.84745855,0.40002070,0.04617406,0.27812260,-0.77754866,0.22893007,-0.47446714,-0.84837514,0.40041776,-0.04629994
5.78000000,0.27693540,0.77728857,-0.22947646,-0.47494192,0.84745902,0.40002008,0.04617281,0.27812536,-0.77755145,0.22893316,-0.47447187,-0.84837411,0.40041816,-0.04630097
5.80000000,0.27693388,0.77728589,-0.22947532,-0.47493775,0.84745954,0.40001939,0.04617142,0.27812843,-0.77755457,0.22893660,-0.47447715,-0.84837297,0.40041862,-0.04630211
5.82000000,0.27693221,0.77728292,-0.22947406,-0.47493313,0.84746011,0.40001862,0.04616987,0.27813184,-0.77755802,0.22894041,-0.47448300,-0.84837170,0.40041912,-0.04630338
5.84000000,0.27693037,0.77727965,-0.22947267,-0.47492807,0.84746074,0.40001778,0.04616817,0.27813558,-0.77756181,0.22894460,-0.47448942,-0.84837030,0.40041967,-0.04630477
5.86000000,0.27692837,0.77727610,-0.22947116,-0.47492254,0.84746143,0.40001686,0.04616632,0.27813965,-0.77756594,0.22894916,-0.47449642,-0.84836878,0.40042027,-0.04630628
5.88000000,0.27692619,0.77727224,-0.22946953,-0.47491655,0.84746218,0.40001587,0.04616432,0.27814407,-0.77757041,0.22895411,-0.47450401,-0.84836713,0.40042092,-0.04630793
5.90000000,0.27692385,0.77726808,-0.22946776,-0.47491009,0.84746299,0.40001480,0.04616216,0.27814884,-0.77757524,0.22895944,-0.47451219,-0.84836536,0.40042162,-0.04630970
5.92000000,0.27692134,0.77726362,-0.22946587,-0.47490317,0.84746385,0.40001365,0.04615984,0.27815394,-0.77758041,0.22896516,-0.47452096,-0.84836345,0.40042237,-0.04631160
5.94000000,0.27691866,0.77725886,-0.22946386,-0.47489578,0.84746477,0.40001242,0.04615737,0.27815940,-0.77758594,0.22897126,-0.47453032,-0.84836142,0.40042318,-0.04631362
5.96000000,0.27691581,0.77725380,-0.22946171,-0.47488792,0.84746575,0.40001111,0.04615474,0.27816519,-0.77759181,0.22897775,-0.47454027,-0.84835926,0.40042403,-0.04631578
5.98000000,0.27691279,0.77724845,-0.22945944,-0.47487960,0.84746679,0.40000973,0.04615195,0.27817133,-0.77759802,0.22898462,-0.47455081,-0.84835697,0.40042494,-0.04631806
6.00000000,0.27690961,0.77724280,-0.22945704,-0.47487083,0.84746788,0.40000827,0.04614902,0.27817780,-0.77760458,0.22899187,-0.47456192,-0.84835456,0.40042589,-0.04632047
6.02000000,0.27690627,0.77723686,-0.22945452,-0.47486161,0.84746903,0.40000674,0.04614593,0.27818460,-0.77761147,0.22899948,-0.47457361,-0.84835202,0.40042689,-0.04632299
6.04000000,0.27690276,0.77723064,-0.22945189,-0.47485195,0.84747024,0.40000514,0.04614269,0.27819173,-0.77761869,0.22900746,-0.47458585,-0.84834937,0.40042794,-0.04632564
6.06000000,0.27689910,0.77722414,-0.22944913,-0.47484185,0.84747149,0.40000346,0.04613932,0.27819918,-0.77762623,0.22901580,-0.47459863,-0.84834659,0.40042904,-0.04632841
6.08000000,0.27689529,0.77721737,-0.22944626,-0.47483134,0.84747281,0.40000171,0.04613580,0.27820693,-0.77763409,0.22902448,-0.47461195,-0.84834370,0.40043018,-0.04633130
6.10000000,0.27689132,0.77721034,-0.22944328,-0.47482042,0.84747417,0.39999990,0.04613214,0.27821499,-0.77764225,0.22903351,-0.47462579,-0.84834069,0.40043137,-0.04633429
6.12000000,0.27688722,0.77720305,-0.22944019,-0.47480910,0.84747558,0.39999802,0.04612835,0.27822334,-0.77765071,0.22904285,-0.47464013,-0.84833758,0.40043260,-0.04633740
6.14000000,0.27688298,0.77719552,-0.22943699,-0.47479740,0.84747704,0.39999608,0.04612444,0.27823197,-0.77765945,0.22905251,-0.47465494,-0.84833436,0.40043387,-0.04634061
6.16000000,0.27687860,0.77718775,-0.22943370,-0.47478534,0.84747854,0.39999407,0.04612040,0.27824087,-0.77766847,0.22906248,-0.47467023,-0.84833105,0.40043518,-0.04634391
6.18000000,0.27687410,0.77717976,-0.22943031,-0.47477293,0.84748009,0.39999201,0.04611624,0.27825003,-0.77767774,0.22907273,-0.47468595,-0.84832763,0.40043653,-0.04634732
6.20000000,0.27686947,0.77717155,-0.22942683,-0.47476018,0.84748168,0.39998989,0.04611198,0.27825943,-0.77768727,0.22908325,-0.47470210,-0.84832413,0.40043792,-0.04635081
6.22000000,0.27686474,0.77716315,-0.22942326,-0.47474713,0.84748331,0.39998773,0.04610761,0.27826906,-0.77769702,0.22909404,-0.47471864,-0.84832054,0.40043934,-0.04635439
6.24000000,0.27685989,0.77715455,-0.22941961,-0.47473377,0.84748497,0.39998551,0.04610314,0.27827891,-0.77770700,0.22910507,-0.47473555,-0.84831686,0.40044079,-0.04635806
6.26000000,0.27685495,0.77714577,-0.22941589,-0.47472015,0.84748667,0.39998324,0.04609858,0.27828897,-0.77771719,0.22911632,-0.47475282,-0.84831312,0.40044227,-0.04636179
6.28000000,0.27684992,0.77713684,-0.22941210,-0.47470627,0.84748840,0.39998094,0.04609393,0.27829921,-0.77772756,0.22912779,-0.47477040,-0.84830930,0.40044378,-0.04636560
6.30000000,0.27684480,0.77712775,-0.22940825,-0.47469215,0.84749016,0.39997859,0.04608920,0.27830962,-0.77773811,0.22913945,-0.47478828,-0.84830542,0.40044531,-0.04636947
6.32000000,0.27683960,0.77711852,-0.22940434,-0.47467783,0.84749195,0.39997621,0.04608441,0.27832019,-0.77774881,0.22915128,-0.47480643,-0.84830147,0.40044687,-0.04637340
6.34000000,0.27683433,0.77710917,-0.22940037,-0.47466331,0.84749376,0.39997380,0.04607955,0.27833090,-0.77775966,0.22916327,-0.47482482,-0.84829748,0.40044845,-0.04637738
6.36000000,0.27682901,0.77709972,-0.22939636,-0.47464863,0.84749559,0.39997136,0.04607463,0.27834173,-0.77777063,0.22917539,-0.47484342,-0.84829344,0.40045005,-0.04638141
6.38000000,0.27682363,0.77709017,-0.22939231,-0.47463380,0.84749744,0.39996890,0.04606967,0.27835267,-0.77778171,0.22918764,-0.47486220,-0.84828937,0.40045166,-0.04638548
6.40000000,0.27681821,0.77708055,-0.22938823,-0.47461885,0.84749930,0.39996642,0.04606467,0.27836369,-0.77779288,0.22919998,-0.47488114,-0.84828525,0.40045328,-0.04638958
6.42000000,0.27681275,0.77707086,-0.22938412,-0.47460381,0.84750118,0.39996392,0.04605963,0.27837479,-0.77780413,0.22921241,-0.47490019,-0.84828112,0.40045492,-0.04639370
6.44000000,0.27680727,0.77706113,-0.22937999,-0.47458870,0.84750306,0.39996141,0.04605457,0.27838594,-0.77781542,0.22922489,-0.47491934,-0.84827696,0.40045656,-0.04639785
6.46000000,0.27680177,0.77705137,-0.22937585,-0.47457353,0.84750495,0.39995889,0.04604950,0.27839713,-0.77782676,0.22923742,-0.47493855,-0.84827279,0.40045821,-0.04640201
6.48000000,0.27679626,0.77704159,-0.22937171,-0.47455834,0.84750685,0.39995637,0.04604441,0.27840834,-0.77783811,0.22924996,-0.47495780,-0.84826861,0.40045986,-0.04640617
6.50000000,0.27679075,0.77703181,-0.22936756,-0.47454315,0.84750874,0.39995384,0.04603933,0.27841954,-0.77784946,0.22926251,-0.47497704,-0.84826443,0.40046151,-0.04641034
6.52000000,0.27678525,0.77702204,-0.22936342,-0.47452799,0.84751063,0.39995132,0.04603425,0.27843073,-0.77786079,0.22927503,-0.47499625,-0.84826026,0.40046316,-0.04641450
6.54000000,0.27677976,0.77701231,-0.22935929,-0.47451287,0.84751252,0.39994881,0.04602919,0.27844188,-0.77787209,0.22928752,-0.47501540,-0.84825611,0.40046480,-0.04641864
6.56000000,0.27677431,0.77700262,-0.22935518,-0.47449783,0.84751439,0.39994631,0.04602416,0.27845298,-0.77788333,0.22929994,-0.47503445,-0.84825197,0.40046644,-0.04642277
6.58000000,0.27676889,0.77699300,-0.22935110,-0.47448288,0.84751626,0.39994383,0.04601915,0.27846400,-0.77789450,0.22931229,-0.47505339,-0.84824786,0.40046806,-0.04642687
6.60000000,0.27676351,0.77698345,-0.22934705,-0.47446806,0.84751811,0.39994137,0.04601419,0.27847494,-0.77790558,0.22932453,-0.47507217,-0.84824378,0.40046968,-0.04643094
6.62000000,0.27675818,0.77697400,-0.22934304,-0.47445337,0.84751994,0.39993893,0.04600928,0.27848577,-0.77791655,0.22933666,-0.47509077,-0.84823974,0.40047127,-0.04643496
6.64000000,0.27675292,0.77696465,-0.22933908,-0.47443886,0.84752175,0.39993652,0.04600442,0.27849648,-0.77792740,0.22934865,-0.47510916,-0.84823575,0.40047285,-0.04643895
6.66000000,0.27674772,0.77695542,-0.22933516,-0.47442453,0.84752353,0.39993414,0.04599962,0.27850705,-0.77793810,0.22936048,-0.47512731,-0.84823181,0.40047441,-0.04644287
6.68000000,0.27674260,0.77694634,-0.22933131,-0.47441042,0.84752529,0.39993179,0.04599490,0.27851747,-0.77794865,0.22937214,-0.47514519,-0.84822793,0.40047594,-0.04644675
6.70000000,0.27673756,0.77693740,-0.22932752,-0.47439654,0.84752702,0.39992949,0.04599025,0.27852771,-0.77795903,0.22938360,-0.47516278,-0.84822411,0.40047745,-0.04645055
6.72000000,0.27673262,0.77692862,-0.22932380,-0.47438291,0.84752872,0.39992722,0.04598569,0.27853776,-0.77796921,0.22939486,-0.47518004,-0.84822036,0.40047893,-0.04645429
6.74000000,0.27672778,0.77692002,-0.22932015,-0.47436956,0.84753039,0.39992501,0.04598122,0.27854761,-0.77797919,0.22940589,-0.47519695,-0.84821669,0.40048038,-0.04645795
6.76000000,0.27672304,0.77691162,-0.22931659,-0.47435650,0.84753202,0.39992284,0.04597685,0.27855724,-0.77798895,0.22941667,-0.47521350,-0.84821310,0.40048180,-0.04646153
6.78000000,0.27671842,0.77690341,-0.22931310,-0.47434376,0.84753360,0.39992072,0.04597258,0.27856664,-0.77799847,0.22942720,-0.47522964,-0.84820959,0.40048319,-0.04646503
6.80000000,0.27671392,0.77689542,-0.22930972,-0.47433134,0.84753515,0.39991866,0.04596843,0.27857580,-0.77800775,0.22943745,-0.47524536,-0.84820618,0.40048454,-0.04646843
6.82000000,0.27670954,0.77688765,-0.22930642,-0.47431928,0.84753666,0.39991665,0.04596439,0.27858470,-0.77801676,0.22944741,-0.47526065,-0.84820286,0.40048585,-0.04647174
6.84000000,0.27670530,0.77688012,-0.22930323,-0.47430758,0.84753812,0.39991471,0.04596047,0.27859333,-0.77802550,0.22945707,-0.47527547,-0.84819964,0.40048712,-0.04647495
6.86000000,0.27670119,0.77687283,-0.22930014,-0.47429627,0.84753953,0.39991283,0.04595668,0.27860168,-0.77803396,0.22946642,-0.47528980,-0.84819653,0.40048835,-0.04647806
6.88000000,0.27669723,0.77686580,-0.22929715,-0.47428534,0.84754089,0.39991102,0.04595303,0.27860974,-0.77804212,0.22947544,-0.47530364,-0.84819352,0.40048954,-0.04648105
6.90000000,0.27669342,0.77685903,-0.22929428,-0.47427483,0.84754220,0.39990927,0.04594951,0.27861749,-0.77804998,0.22948412,-0.47531696,-0.84819063,0.40049068,-0.04648393
6.92000000,0.27668976,0.77685253,-0.22929153,-0.47426474,0.84754346,0.39990759,0.04594613,0.27862494,-0.77805752,0.22949246,-0.47532975,-0.84818786,0.40049178,-0.04648670
6.94000000,0.27668625,0.77684631,-0.22928889,-0.47425507,0.84754466,0.39990599,0.04594290,0.27863207,-0.77806474,0.22950044,-0.47534199,-0.84818520,0.40049283,-0.04648935
6.96000000,0.27668291,0.77684037,-0.22928637,-0.47424585,0.84754581,0.39990446,0.04593981,0.27863887,-0.77807163,0.22950806,-0.47535367,-0.84818266,0.40049383,-0.04649188
6.98000000,0.27667972,0.77683472,-0.22928397,-0.47423708,0.84754691,0.39990300,0.04593687,0.27864534,-0.77807819,0.22951530,-0.47536478,-0.84818025,0.40049478,-0.04649429
7.00000000,0.27667671,0.77682937,-0.22928170,-0.47422876,0.84754794,0.39990162,0.04593409,0.27865148,-0.77808441,0.22952217,-0.47537532,-0.84817796,0.40049569,-0.04649657
7.02000000,0.27667386,0.77682431,-0.22927956,-0.47422091,0.84754892,0.39990031,0.04593146,0.27865727,-0.77809028,0.22952866,-0.47538527,-0.84817580,0.40049654,-0.04649872
7.04000000,0.27667118,0.77681955,-0.22927754,-0.47421352,0.84754985,0.39989909,0.04592898,0.27866273,-0.77809580,0.22953477,-0.47539463,-0.84817377,0.40049735,-0.04650075
7.06000000,0.27666866,0.77681509,-0.22927565,-0.47420659,0.84755071,0.39989793,0.04592667,0.27866784,-0.77810098,0.22954048,-0.47540341,-0.84817186,0.40049810,-0.04650265
7.08000000,0.27666632,0.77681093,-0.22927388,-0.47420013,0.84755151,0.39989686,0.04592450,0.27867260,-0.77810580,0.22954582,-0.47541158,-0.84817009,0.40049880,-0.04650442
7.10000000,0.27666415,0.77680707,-0.22927225,-0.47419414,0.84755226,0.39989587,0.04592250,0.27867702,-0.77811028,0.22955076,-0.47541917,-0.84816844,0.40049945,-0.04650606
7.12000000,0.27666214,0.77680352,-0.22927074,-0.47418862,0.84755295,0.39989495,0.04592065,0.27868109,-0.77811441,0.22955533,-0.47542617,-0.84816692,0.40050005,-0.04650758
7.14000000,0.27666031,0.77680025,-0.22926936,-0.47418355,0.84755358,0.39989411,0.04591895,0.27868483,-0.77811819,0.22955951,-0.47543259,-0.84816553,0.40050060,-0.04650897
7.16000000,0.27665863,0.77679728,-0.22926809,-0.47417894,0.84755416,0.39989334,0.04591741,0.27868824,-0.77812164,0.22956333,-0.47543844,-0.84816426,0.40050111,-0.04651024
7.18000000,0.27665712,0.77679460,-0.22926696,-0.47417477,0.84755468,0.39989265,0.04591601,0.27869131,-0.77812476,0.22956677,-0.47544372,-0.84816311,0.40050156,-0.04651138
7.20000000,0.27665576,0.77679219,-0.22926594,-0.47417103,0.84755514,0.39989203,0.04591476,0.27869407,-0.77812755,0.22956986,-0.47544846,-0.84816208,0.40050197,-0.04651240
7.22000000,0.27665456,0.77679006,-0.22926503,-0.47416771,0.84755556,0.39989148,0.04591365,0.27869652,-0.77813003,0.22957259,-0.47545266,-0.84816117,0.40050233,-0.04651331
7.24000000,0.27665351,0.77678818,-0.22926424,-0.47416481,0.84755592,0.39989099,0.04591268,0.27869866,-0.77813220,0.22957500,-0.47545634,-0.84816037,0.40050264,-0.04651411
7.26000000,0.27665259,0.77678656,-0.22926355,-0.47416229,0.84755623,0.39989058,0.04591184,0.27870052,-0.77813408,0.22957708,-0.47545953,-0.84815968,0.40050292,-0.04651480
7.28000000,0.27665181,0.77678518,-0.22926296,-0.47416014,0.84755650,0.39989022,0.04591112,0.27870210,-0.77813569,0.22957885,-0.47546225,-0.84815909,0.40050315,-0.04651539
7.30000000,0.27665116,0.77678402,-0.22926247,-0.47415834,0.84755673,0.39988992,0.04591052,0.27870343,-0.77813703,0.22958034,-0.47546453,-0.84815859,0.40050334,-0.04651588
7.32000000,0.27665063,0.77678307,-0.22926207,-0.47415687,0.84755691,0.39988968,0.04591002,0.27870452,-0.77813813,0.22958155,-0.47546639,-0.84815819,0.40050350,-0.04651629
7.34000000,0.27665020,0.77678232,-0.22926175,-0.47415570,0.84755705,0.39988948,0.04590963,0.27870538,-0.77813901,0.22958252,-0.47546788,-0.84815787,0.40050363,-0.04651661
7.36000000,0.27664988,0.77678174,-0.22926150,-0.47415480,0.84755717,0.39988933,0.04590933,0.27870604,-0.77813968,0.22958326,-0.47546902,-0.84815762,0.40050373,-0.04651686
7.38000000,0.27664964,0.77678132,-0.22926132,-0.47415414,0.84755725,0.39988922,0.04590911,0.27870653,-0.77814017,0.22958380,-0.47546985,-0.84815744,0.40050380,-0.04651704
7.40000000,0.27664947,0.77678103,-0.22926120,-0.47415369,0.84755730,0.39988915,0.04590896,0.27870686,-0.77814051,0.22958418,-0.47547042,-0.84815731,0.40050385,-0.04651716
7.42000000,0.27664937,0.77678085,-0.22926112,-0.47415341,0.84755734,0.39988910,0.04590887,0.27870707,-0.77814072,0.22958441,-0.47547077,-0.84815724,0.40050388,-0.04651724
7.44000000,0.27664932,0.77678075,-0.22926108,-0.47415327,0.84755736,0.39988908,0.04590882,0.27870718,-0.77814083,0.22958453,-0.47547096,-0.84815720,0.40050390,-0.04651728
7.46000000,0.27664930,0.77678072,-0.22926107,-0.47415321,0.84755736,0.39988907,0.04590880,0.27870722,-0.77814087,0.22958457,-0.47547103,-0.84815718,0.40050390,-0.04651729
7.48000000,0.27664930,0.77678071,-0.22926107,-0.47415320,0.84755737,0.39988907,0.04590880,0.27870722,-0.77814087,0.22958458,-0.47547104,-0.84815718,0.40050390,-0.04651729
7.50000000,0.27664930,0.77678071,-0.22926107,-0.47415320,0.84755737,0.39988907,0.04590880,0.27870722,-0.77814087,0.22958458,-0.47547104,-0.84815718,0.40050390,-0.04651729
7.52000000,0.27664930,0.77678071,-0.22926107,-0.47415320,0.84755737,0.39988907,0.04590880,0.27870722,-0.77814087,0.22958458,-0.47547104,-0.84815718,0.40050390,-0.04651729
7.54000000,0.27664930,0.77678071,-0.22926107,-0.47415320,0.84755737,0.39988907,0.04590880,0.27870722,-0.77814087,0.22958458,-0.47547104,-0.84815718,0.40050390,-0.04651729
7.56000000,0.27664930,0.77678071,-0.22926107,-0.47415320,0.84755737,0.39988907,0.04590880,0.27870722,-0.77814087,0.22958458,-0.47547104,-0.84815718,0.40050390,-0.04651729
7.58000000,0.27664930,0.77678071,-0.22926107,-0.47415320,0.84755737,0.39988907,0.04590880,0.27870722,-0.77814087,0.22958458,-0.47547104,-0.84815718,0.40050390,-0.04651729
7.60000000,0.27664930,0.77678071,-0.22926107,-0.47415320,0.84755737,0.39988907,0.04590880,0.27870722,-0.77814087,0.22958458,-0.47547104,-0.84815718,0.40050390,-0.04651729
7.62000000,0.27664930,0.77678071,-0.22926107,-0.47415320,0.84755737,0.39988907,0.04590880,0.27870722,-0.77814087,0.22958458,-0.47547104,-0.84815718,0.40050390,-0.04651729
7.64000000,0.27664930,0.77678071,-0.22926107,-0.47415320,0.84755737,0.39988907,0.04590880,0.27870722,-0.77814087,0.22958458,-0.47547104,-0.84815718,0.40050390,-0.04651729
7.66000000,0.27664930,0.77678071,-0.22926107,-0.47415320,0.84755737,0.39988907,0.04590880,0.27870722,-0.77814087,0.22958458,-0.47547104,-0.84815718,0.40050390,-0.04651729
7.68000000,0.27664930,0.77678071,-0.22926107,-0.47415320,0.84755737,0.39988907,0.04590880,0.27870722,-0.77814087,0.22958458,-0.47547104,-0.84815718,0.40050390,-0.04651729
7.70000000,0.27664930,0.77678071,-0.22926107,-0.47415320,0.84755737,0.39988907,0.04590880,0.27870722,-0.77814087,0.22958458,-0.47547104,-0.84815718,0.40050390,-0.04651729
7.72000000,0.27664930,0.77678071,-0.22926107,-0.47415320,0.84755737,0.39988907,0.04590880,0.27870722,-0.77814087,0.22958458,-0.47547104,-0.84815718,0.40050390,-0.04651729
7.74000000,0.27664930,0.77678071,-0.22926107,-0.47415320,0.84755737,0.39988907,0.04590880,0.27870722,-0.77814087,0.22958458,-0.47547104,-0.84815718,0.40050390,-0.04651729
7.76000000,0.27664930,0.77678071,-0.22926107,-0.47415320,0.84755737,0.39988907,0.04590880,0.27870722,-0.77814087,0.22958458,-0.47547104,-0.84815718,0.40050390,-0.04651729
7.78000000,0.27664930,0.77678071,-0.22926107,-0.47415320,0.84755737,0.39988907,0.04590880,0.27870722,-0.77814087,0.22958458,-0.47547104,-0.84815718,0.40050390,-0.04651729
7.80000000,0.27664930,0.77678071,-0.22926107,-0.47415320,0.84755737,0.39988907,0.04590880,0.27870722,-0.77814087,0.22958458,-0.47547104,-0.84815718,0.40050390,-0.04651729
7.82000000,0.27664930,0.77678071,-0.22926107,-0.47415320,0.84755737,0.39988907,0.04590880,0.27870722,-0.77814087,0.22958458,-0.47547104,-0.84815718,0.40050390,-0.04651729
7.84000000,0.27664930,0.77678071,-0.22926107,-0.47415320,0.84755737,0.39988907,0.04590880,0.27870722,-0.77814087,0.22958458,-0.47547104,-0.84815718,0.40050390,-0.04651729
7.86000000,0.27664930,0.77678071,-0.22926107,-0.47415320,0.84755737,0.39988907,0.04590880,0.27870722,-0.77814087,0.22958458,-0.47547104,-0.84815718,0.40050390,-0.04651729
7.88000000,0.27664930,0.77678071,-0.22926107,-0.47415320,0.84755737,0.39988907,0.04590880,0.27870722,-0.77814087,0.22958458,-0.47547104,-0.84815718,0.40050390,-0.04651729
7.90000000,0.27664930,0.77678071,-0.22926107,-0.47415320,0.84755737,0.39988907,0.04590880,0.27870722,-0.77814087,0.22958458,-0.47547104,-0.84815718,0.40050390,-0.04651729
7.92000000,0.27664930,0.77678071,-0.22926107,-0.47415320,0.84755737,0.39988907,0.04590880,0.27870722,-0.77814087,0.22958458,-0.47547104,-0.84815718,0.40050390,-0.04651729
7.94000000,0.27664930,0.77678071,-0.22926107,-0.47415320,0.84755737,0.39988907,0.04590880,0.27870722,-0.77814087,0.22958458,-0.47547104,-0.84815718,0.40050390,-0.04651729
7.96000000,0.27664930,0.77678071,-0.22926107,-0.47415320,0.84755737,0.39988907,0.04590880,0.27870722,-0.77814087,0.22958458,-0.47547104,-0.84815718,0.40050390,-0.04651729
7.98000000,0.27664930,0.77678071,-0.22926107,-0.47415320,0.84755737,0.39988907,0.04590880,0.27870722,-0.77814087,0.22958458,-0.47547104,-0.84815718,0.40050390,-0.04651729
8.00000000,0.27664930,0.77678072,-0.22926107,-0.47415322,0.84755736,0.39988907,0.04590880,0.27870494,-0.77814134,0.22958411,-0.47547017,-0.84815642,0.40050290,-0.04651494
8.02000000,0.27664933,0.77678078,-0.22926109,-0.47415330,0.84755735,0.39988908,0.04590883,0.27868927,-0.77814453,0.22958086,-0.47546420,-0.84815119,0.40049598,-0.04649877
8.04000000,0.27664940,0.77678093,-0.22926116,-0.47415354,0.84755732,0.39988913,0.04590891,0.27864755,-0.77815304,0.22957221,-0.47544832,-0.84813727,0.40047756,-0.04645572
8.06000000,0.27664954,0.77678123,-0.22926128,-0.47415399,0.84755725,0.39988921,0.04590906,0.27856794,-0.77816928,0.22955572,-0.47541800,-0.84811071,0.40044241,-0.04637357
8.08000000,0.27664976,0.77678171,-0.22926148,-0.47415471,0.84755714,0.39988934,0.04590931,0.27843937,-0.77819550,0.22952907,-0.47536905,-0.84806782,0.40038565,-0.04624090
8.10000000,0.27665009,0.77678241,-0.22926177,-0.47415577,0.84755698,0.39988954,0.04590968,0.27825154,-0.77823381,0.22949015,-0.47529752,-0.84800516,0.40030273,-0.04604708
8.12000000,0.27665054,0.77678336,-0.22926216,-0.47415721,0.84755676,0.39988980,0.04591018,0.27799489,-0.77828615,0.22943697,-0.47519980,-0.84791955,0.40018942,-0.04578225
8.14000000,0.27665112,0.77678461,-0.22926267,-0.47415909,0.84755648,0.39989015,0.04591082,0.27766062,-0.77835432,0.22936770,-0.47507251,-0.84780803,0.40004184,-0.04543731
8.16000000,0.27665185,0.77678617,-0.22926331,-0.47416146,0.84755612,0.39989058,0.04591164,0.27724061,-0.77843998,0.22928066,-0.47491258,-0.84766791,0.39985641,-0.04500390
8.18000000,0.27665274,0.77678808,-0.22926410,-0.47416435,0.84755568,0.39989111,0.04591263,0.27672746,-0.77854464,0.22917433,-0.47471719,-0.84749673,0.39962987,-0.04447439
8.20000000,0.27665381,0.77679037,-0.22926504,-0.47416780,0.84755516,0.39989174,0.04591382,0.27611446,-0.77866966,0.22904730,-0.47448377,-0.84729223,0.39935923,-0.04384183
8.22000000,0.27665506,0.77679304,-0.22926614,-0.47417184,0.84755455,0.39989249,0.04591521,0.27539554,-0.77881628,0.22889833,-0.47421002,-0.84705240,0.39904184,-0.04309999
8.24000000,0.27665651,0.77679614,-0.22926741,-0.47417652,0.84755384,0.39989335,0.04591682,0.27456530,-0.77898560,0.22872628,-0.47389388,-0.84677543,0.39867531,-0.04224327
8.26000000,0.27665816,0.77679966,-0.22926886,-0.47418184,0.84755304,0.39989432,0.04591866,0.27361898,-0.77917860,0.22853019,-0.47353354,-0.84645974,0.39825752,-0.04126677
8.28000000,0.27666001,0.77680363,-0.22927049,-0.47418785,0.84755213,0.39989542,0.04592072,0.27255241,-0.77939612,0.22830917,-0.47312741,-0.84610393,0.39778665,-0.04016618
8.30000000,0.27666209,0.77680806,-0.22927232,-0.47419455,0.84755112,0.39989665,0.04592303,0.27136204,-0.77963889,0.22806250,-0.47267414,-0.84570682,0.39726111,-0.03893784
8.32000000,0.27666438,0.77681297,-0.22927434,-0.47420196,0.84755000,0.39989802,0.04592558,0.27004489,-0.77990752,0.22778956,-0.47217260,-0.84526742,0.39667961,-0.03757869
8.34000000,0.27666690,0.77681835,-0.22927655,-0.47421010,0.84754877,0.39989951,0.04592838,0.26859856,-0.78020249,0.22748985,-0.47162187,-0.84478492,0.39604108,-0.03608623
8.36000000,0.27666964,0.77682423,-0.22927897,-0.47421898,0.84754743,0.39990114,0.04593144,0.26702119,-0.78052419,0.22716298,-0.47102124,-0.84425870,0.39534469,-0.03445854
8.38000000,0.27667262,0.77683059,-0.22928159,-0.47422860,0.84754597,0.39990291,0.04593475,0.26531145,-0.78087288,0.22680868,-0.47037020,-0.84368833,0.39458987,-0.03269427
8.40000000,0.27667583,0.77683746,-0.22928441,-0.47423897,0.84754441,0.39990481,0.04593833,0.26346854,-0.78124874,0.22642679,-0.46966846,-0.84307353,0.39377625,-0.03079258
8.42000000,0.27667927,0.77684482,-0.22928744,-0.47425010,0.84754272,0.39990685,0.04594216,0.26149214,-0.78165182,0.22601724,-0.46891589,-0.84241420,0.39290370,-0.02875314
8.44000000,0.27668295,0.77685267,-0.22929067,-0.47426197,0.84754093,0.39990903,0.04594624,0.25938242,-0.78208208,0.22558006,-0.46811255,-0.84171040,0.39197229,-0.02657614
8.46000000,0.27668685,0.77686102,-0.22929410,-0.47427459,0.84753902,0.39991135,0.04595059,0.25714004,-0.78253941,0.22511539,-0.46725870,-0.84096234,0.39098231,-0.02426224
8.48000000,0.27669098,0.77686986,-0.22929774,-0.47428796,0.84753700,0.39991380,0.04595519,0.25476607,-0.78302357,0.22462345,-0.46635474,-0.84017038,0.38993424,-0.02181255
8.50000000,0.27669534,0.77687919,-0.22930157,-0.47430205,0.84753487,0.39991639,0.04596004,0.25226204,-0.78353425,0.22410456,-0.46540126,-0.83933503,0.38882874,-0.01922866
8.52000000,0.27669993,0.77688899,-0.22930561,-0.47431687,0.84753264,0.39991911,0.04596514,0.24962989,-0.78407107,0.22355912,-0.46439899,-0.83845694,0.38766669,-0.01651256
8.54000000,0.27670473,0.77689926,-0.22930983,-0.47433239,0.84753029,0.39992196,0.04597049,0.24687196,-0.78463354,0.22298762,-0.46334882,-0.83753689,0.38644910,-0.01366666
8.56000000,0.27670974,0.77690999,-0.22931424,-0.47434861,0.84752784,0.39992493,0.04597607,0.24399096,-0.78522111,0.22239062,-0.46225180,-0.83657579,0.38517718,-0.01069378
8.58000000,0.27671497,0.77692116,-0.22931884,-0.47436550,0.84752529,0.39992803,0.04598189,0.24098999,-0.78583314,0.22176875,-0.46110909,-0.83557466,0.38385230,-0.00759709
8.60000000,0.27672040,0.77693277,-0.22932362,-0.47438304,0.84752264,0.39993125,0.04598793,0.23787248,-0.78646894,0.22112273,-0.45992201,-0.83453466,0.38247596,-0.00438015
8.62000000,0.27672602,0.77694480,-0.22932856,-0.47440123,0.84751989,0.39993459,0.04599419,0.23464220,-0.78712774,0.22045335,-0.45869198,-0.83345703,0.38104984,-0.00104685
8.64000000,0.27673184,0.77695723,-0.22933368,-0.47442002,0.84751705,0.39993804,0.04600066,0.23130325,-0.78780871,0.21976145,-0.45742058,-0.83234315,0.37957574,0.00239860
8.66000000,0.27673783,0.77697005,-0.22933895,-0.47443940,0.84751412,0.39994160,0.04600733,0.22786000,-0.78851095,0.21904793,-0.45610946,-0.83119448,0.37805560,0.00595168
8.68000000,0.27674400,0.77698325,-0.22934438,-0.47445934,0.84751111,0.39994526,0.04601420,0.22431712,-0.78923350,0.21831377,-0.45476040,-0.83001257,0.37649147,0.00960755
8.70000000,0.27675033,0.77699679,-0.22934995,-0.47447981,0.84750801,0.39994902,0.04602125,0.22067956,-0.78997537,0.21755999,-0.45337529,-0.82879907,0.37488554,0.01336113
8.72000000,0.27675682,0.77701067,-0.22935566,-0.47450079,0.84750485,0.39995287,0.04602847,0.21695249,-0.79073549,0.21678766,-0.45195610,-0.82755572,0.37324009,0.01720707
8.74000000,0.27676346,0.77702486,-0.22936150,-0.47452224,0.84750160,0.39995680,0.04603585,0.21314134,-0.79151275,0.21599790,-0.45050489,-0.82628431,0.37155753,0.02113978
8.76000000,0.27677023,0.77703935,-0.22936745,-0.47454414,0.84749830,0.39996082,0.04604339,0.20925174,-0.79230602,0.21519189,-0.44902381,-0.82498674,0.36984033,0.02515343
8.78000000,0.27677713,0.77705410,-0.22937352,-0.47456644,0.84749493,0.39996492,0.04605107,0.20528953,-0.79311410,0.21437084,-0.44751508,-0.82366494,0.36809107,0.02924202
8.80000000,0.27678414,0.77706910,-0.22937969,-0.47458911,0.84749150,0.39996908,0.04605888,0.20126072,-0.79393576,0.21353598,-0.44598099,-0.82232092,0.36631241,0.03339932
8.82000000,0.27679126,0.77708433,-0.22938596,-0.47461213,0.84748802,0.39997330,0.04606680,0.19717150,-0.79476973,0.21268861,-0.44442390,-0.82095676,0.36450708,0.03761897
8.84000000,0.27679848,0.77709976,-0.22939230,-0.47463545,0.84748450,0.39997758,0.04607483,0.19302821,-0.79561474,0.21183003,-0.44284622,-0.81957455,0.36267787,0.04189441
8.86000000,0.27680578,0.77711537,-0.22939872,-0.47465904,0.84748093,0.39998191,0.04608295,0.18883731,-0.79646946,0.21096158,-0.44125041,-0.81817646,0.36082765,0.04621897
8.88000000,0.27681314,0.77713112,-0.22940521,-0.47468286,0.84747733,0.39998628,0.04609115,0.18460538,-0.79733254,0.21008463,-0.43963898,-0.81676468,0.35895932,0.05058587
8.90000000,0.27682057,0.77714701,-0.22941174,-0.47470687,0.84747371,0.39999069,0.04609942,0.18033912,-0.79820262,0.20920057,-0.43801448,-0.81534145,0.35707583,0.05498820
8.92000000,0.27682805,0.77716300,-0.22941832,-0.47473104,0.84747005,0.39999513,0.04610774,0.17604529,-0.79907833,0.20831080,-0.43637948,-0.81390902,0.35518017,0.05941898
8.94000000,0.27683556,0.77717907,-0.22942493,-0.47475532,0.84746639,0.39999958,0.04611610,0.17173072,-0.79995827,0.20741672,-0.43473658,-0.81246968,0.35327535,0.06387116
8.96000000,0.27684310,0.77719518,-0.22943156,-0.47477969,0.84746270,0.40000406,0.04612449,0.16740230,-0.80084103,0.20651978,-0.43308840,-0.81102571,0.35136441,0.06833763
8.98000000,0.27685065,0.77721133,-0.22943820,-0.47480409,0.84745902,0.40000854,0.04613289,0.16306695,-0.80172521,0.20562140,-0.43143759,-0.80957943,0.34945042,0.07281126
9.00000000,0.27685819,0.77722747,-0.22944484,-0.47482849,0.84745533,0.40001301,0.04614129,0.15873160,-0.80260939,0.20472302,-0.42978678,-0.80813315,0.34753642,0.07728489
9.02000000,0.27686573,0.77724359,-0.22945147,-0.47485285,0.84745165,0.40001749,0.04614968,0.15440318,-0.80349215,0.20382608,-0.42813860,-0.80668919,0.34562549,0.08175136
9.04000000,0.27687324,0.77725966,-0.22945808,-0.47487714,0.84744798,0.40002194,0.04615804,0.15008861,-0.80437209,0.20293201,-0.42649570,-0.80524984,0.34372067,0.08620354
9.06000000,0.27688072,0.77727565,-0.22946465,-0.47490131,0.84744433,0.40002638,0.04616636,0.14579478,-0.80524780,0.20204223,-0.42486070,-0.80381741,0.34182501,0.09063432
9.08000000,0.27688815,0.77729153,-0.22947119,-0.47492532,0.84744070,0.40003079,0.04617463,0.14152852,-0.80611788,0.20115817,-0.42323619,-0.80239418,0.33994152,0.09503665
9.10000000,0.27689552,0.77730729,-0.22947767,-0.47494914,0.84743710,0.40003516,0.04618283,0.13729659,-0.80698096,0.20028122,-0.42162476,-0.80098241,0.33807318,0.09940355
9.12000000,0.27690281,0.77732290,-0.22948409,-0.47497273,0.84743354,0.40003949,0.04619095,0.13310569,-0.80783568,0.19941278,-0.42002896,-0.79958432,0.33622296,0.10372812
9.14000000,0.27691003,0.77733833,-0.22949044,-0.47499605,0.84743001,0.40004377,0.04619898,0.12896240,-0.80868069,0.19855420,-0.41845127,-0.79820211,0.33439376,0.10800356
9.16000000,0.27691715,0.77735355,-0.22949670,-0.47501906,0.84742653,0.40004799,0.04620691,0.12487318,-0.80951467,0.19770682,-0.41689418,-0.79683794,0.33258843,0.11222320
9.18000000,0.27692416,0.77736856,-0.22950287,-0.47504174,0.84742311,0.40005216,0.04621472,0.12084437,-0.81033632,0.19687197,-0.41536010,-0.79549393,0.33080977,0.11638050
9.20000000,0.27693106,0.77738331,-0.22950894,-0.47506404,0.84741974,0.40005625,0.04622239,0.11688216,-0.81114440,0.19605091,-0.41385137,-0.79417213,0.32906051,0.12046909
9.22000000,0.27693783,0.77739779,-0.22951490,-0.47508594,0.84741643,0.40006027,0.04622993,0.11299256,-0.81193767,0.19524490,-0.41237029,-0.79287455,0.32734331,0.12448275
9.24000000,0.27694447,0.77741199,-0.22952074,-0.47510739,0.84741319,0.40006421,0.04623732,0.10918141,-0.81271494,0.19445515,-0.41091908,-0.79160315,0.32566074,0.12841545
9.26000000,0.27695096,0.77742586,-0.22952644,-0.47512836,0.84741002,0.40006806,0.04624454,0.10545434,-0.81347505,0.19368282,-0.40949989,-0.79035979,0.32401530,0.13226139
9.28000000,0.27695729,0.77743941,-0.22953202,-0.47514884,0.84740693,0.40007181,0.04625159,0.10181678,-0.81421692,0.19292904,-0.40811478,-0.78914630,0.32240937,0.13601497
9.30000000,0.27696346,0.77745260,-0.22953744,-0.47516878,0.84740391,0.40007547,0.04625845,0.09827390,-0.81493947,0.19219487,-0.40676572,-0.78796439,0.32084524,0.13967085
9.32000000,0.27696946,0.77746542,-0.22954272,-0.47518816,0.84740098,0.40007903,0.04626513,0.09483065,-0.81564171,0.19148136,-0.40545460,-0.78681571,0.31932509,0.14322392
9.34000000,0.27697527,0.77747786,-0.22954783,-0.47520695,0.84739814,0.40008248,0.04627160,0.09149169,-0.81632268,0.19078945,-0.40418320,-0.78570183,0.31785099,0.14666937
9.36000000,0.27698090,0.77748989,-0.22955278,-0.47522514,0.84739540,0.40008582,0.04627786,0.08826142,-0.81698148,0.19012007,-0.40295317,-0.78462421,0.31642487,0.15000268
9.38000000,0.27698632,0.77750149,-0.22955755,-0.47524268,0.84739275,0.40008904,0.04628390,0.08514391,-0.81761728,0.18947405,-0.40176609,-0.78358420,0.31504854,0.15321962
9.40000000,0.27699155,0.77751267,-0.22956215,-0.47525957,0.84739019,0.40009214,0.04628971,0.08214294,-0.81822932,0.18885219,-0.40062338,-0.78258308,0.31372365,0.15631630
9.42000000,0.27699656,0.77752340,-0.22956656,-0.47527579,0.84738774,0.40009512,0.04629530,0.07926194,-0.81881688,0.18825518,-0.39952636,-0.78162197,0.31245174,0.15928919
9.44000000,0.27700137,0.77753367,-0.22957079,-0.47529131,0.84738540,0.40009796,0.04630064,0.07650401,-0.81937935,0.18768368,-0.39847619,-0.78070192,0.31123415,0.16213508
9.46000000,0.27700595,0.77754347,-0.22957482,-0.47530613,0.84738316,0.40010068,0.04630574,0.07387186,-0.81991617,0.18713824,-0.39747392,-0.77982383,0.31007209,0.16485118
9.48000000,0.27701031,0.77755279,-0.22957866,-0.47532022,0.84738103,0.40010327,0.04631060,0.07136783,-0.82042685,0.18661935,-0.39652044,-0.77898849,0.30896660,0.16743508
9.50000000,0.27701444,0.77756163,-0.22958229,-0.47533358,0.84737901,0.40010572,0.04631520,0.06899386,-0.82091101,0.18612741,-0.39561648,-0.77819653,0.30791853,0.16988476
9.52000000,0.27701835,0.77756998,-0.22958573,-0.47534621,0.84737710,0.40010804,0.04631954,0.06675148,-0.82136834,0.18566274,-0.39476263,-0.77744846,0.30692855,0.17219867
9.54000000,0.27702202,0.77757784,-0.22958896,-0.47535808,0.84737531,0.40011022,0.04632363,0.06464176,-0.82179861,0.18522556,-0.39395929,-0.77674466,0.30599714,0.17437567
9.56000000,0.27702546,0.77758520,-0.22959199,-0.47536920,0.84737363,0.40011226,0.04632746,0.06266536,-0.82220168,0.18481601,-0.39320672,-0.77608533,0.30512459,0.17641510
9.58000000,0.27702867,0.77759206,-0.22959481,-0.47537958,0.84737206,0.40011417,0.04633103,0.06082245,-0.82257754,0.18443412,-0.39250498,-0.77547053,0.30431097,0.17831680
9.60000000,0.27703165,0.77759843,-0.22959743,-0.47538920,0.84737061,0.40011593,0.04633434,0.05911271,-0.82292623,0.18407982,-0.39185394,-0.77490016,0.30355614,0.18008107
9.62000000,0.27703439,0.77760430,-0.22959984,-0.47539808,0.84736927,0.40011756,0.04633740,0.05753534,-0.82324793,0.18375296,-0.39125331,-0.77437395,0.30285976,0.18170875
9.64000000,0.27703691,0.77760969,-0.22960206,-0.47540622,0.84736804,0.40011906,0.04634020,0.05608900,-0.82354290,0.18345325,-0.39070258,-0.77389145,0.30222122,0.18320121
9.66000000,0.27703921,0.77761459,-0.22960408,-0.47541363,0.84736692,0.40012042,0.04634276,0.05477186,-0.82381153,0.18318031,-0.39020103,-0.77345205,0.30163972,0.18456037
9.68000000,0.27704128,0.77761903,-0.22960590,-0.47542033,0.84736590,0.40012165,0.04634506,0.05358149,-0.82405430,0.18293363,-0.38974777,-0.77305494,0.30111419,0.18578870
9.70000000,0.27704314,0.77762300,-0.22960753,-0.47542634,0.84736500,0.40012275,0.04634713,0.05251492,-0.82427182,0.18271262,-0.38934164,-0.77269913,0.30064332,0.18688929
9.72000000,0.27704478,0.77762652,-0.22960898,-0.47543166,0.84736419,0.40012373,0.04634896,0.05156859,-0.82446482,0.18251652,-0.38898130,-0.77238343,0.30022553,0.18786580
9.74000000,0.27704623,0.77762961,-0.22961025,-0.47543634,0.84736348,0.40012458,0.04635057,0.05073836,-0.82463414,0.18234448,-0.38866516,-0.77210647,0.29985899,0.18872251
9.76000000,0.27704748,0.77763229,-0.22961136,-0.47544038,0.84736287,0.40012533,0.04635197,0.05001944,-0.82478076,0.18219550,-0.38839141,-0.77186664,0.29954160,0.18946436
9.78000000,0.27704855,0.77763457,-0.22961229,-0.47544383,0.84736235,0.40012596,0.04635315,0.04940644,-0.82490578,0.18206847,-0.38815799,-0.77166214,0.29927097,0.19009691
9.80000000,0.27704944,0.77763648,-0.22961308,-0.47544672,0.84736192,0.40012649,0.04635415,0.04889329,-0.82501044,0.18196214,-0.38796260,-0.77149095,0.29904442,0.19062643
9.82000000,0.27705017,0.77763805,-0.22961372,-0.47544908,0.84736156,0.40012692,0.04635496,0.04847328,-0.82509610,0.18187510,-0.38780267,-0.77135083,0.29885899,0.19105983
9.84000000,0.27705075,0.77763929,-0.22961424,-0.47545097,0.84736127,0.40012727,0.04635561,0.04813901,-0.82516427,0.18180583,-0.38767538,-0.77123932,0.29871142,0.19140477
9.86000000,0.27705120,0.77764025,-0.22961463,-0.47545241,0.84736106,0.40012753,0.04635611,0.04788236,-0.82521661,0.18175265,-0.38757766,-0.77115370,0.29859811,0.19166960
9.88000000,0.27705153,0.77764095,-0.22961492,-0.47545347,0.84736090,0.40012773,0.04635647,0.04769453,-0.82525492,0.18171373,-0.38750613,-0.77109104,0.29851519,0.19186342
9.90000000,0.27705175,0.77764143,-0.22961511,-0.47545419,0.84736079,0.40012786,0.04635672,0.04756596,-0.82528114,0.18168709,-0.38745718,-0.77104815,0.29845842,0.19199610
9.92000000,0.27705189,0.77764172,-0.22961524,-0.47545464,0.84736072,0.40012794,0.04635687,0.04748635,-0.82529738,0.18167059,-0.38742686,-0.77102159,0.29842328,0.19207825
9.94000000,0.27705196,0.77764188,-0.22961530,-0.47545487,0.84736068,0.40012799,0.04635696,0.04744463,-0.82530589,0.18166194,-0.38741098,-0.77100767,0.29840486,0.19212129
9.96000000,0.27705199,0.77764194,-0.22961532,-0.47545496,0.84736067,0.40012800,0.04635699,0.04742896,-0.82530908,0.18165870,-0.38740501,-0.77100245,0.29839794,0.19213747
9.98000000,0.27705200,0.77764194,-0.22961533,-0.47545498,0.84736067,0.40012800,0.04635699,0.04742668,-0.82530955,0.18165822,-0.38740414,-0.77100169,0.29839693,0.19213982
10.00000000,0.27705200,0.77764194,-0.22961533,-0.47545498,0.84736067,0.40012800,0.04635699,0.04742668,-0.82530955,0.18165822,-0.38740414,-0.77100169,0.29839693,0.19213982
10.02000000,0.27705200,0.77764194,-0.22961533,-0.47545498,0.84736067,0.40012800,0.04635699,0.04742668,-0.82530955,0.18165822,-0.38740414,-0.77100169,0.29839693,0.19213982
10.04000000,0.27705200,0.77764194,-0.22961533,-0.47545498,0.84736067,0.40012800,0.04635699,0.04742668,-0.82530955,0.18165822,-0.38740414,-0.77100169,0.29839693,0.19213982
10.06000000,0.27705200,0.77764194,-0.22961533,-0.47545498,0.84736067,0.40012800,0.04635699,0.04742668,-0.82530955,0.18165822,-0.38740414,-0.77100169,0.29839693,0.19213982
10.08000000,0.27705200,0.77764194,-0.22961533,-0.47545498,0.84736067,0.40012800,0.04635699,0.04742668,-0.82530955,0.18165822,-0.38740414,-0.77100169,0.29839693,0.19213982
10.10000000,0.27705200,0.77764194,-0.22961533,-0.47545498,0.84736067,0.40012800,0.04635699,0.04742668,-0.82530955,0.18165822,-0.38740414,-0.77100169,0.29839693,0.19213982
10.12000000,0.27705200,0.77764194,-0.22961533,-0.47545498,0.84736067,0.40012800,0.04635699,0.04742668,-0.82530955,0.18165822,-0.38740414,-0.77100169,0.29839693,0.19213982
10.14000000,0.27705200,0.77764194,-0.22961533,-0.47545498,0.84736067,0.40012800,0.04635699,0.04742668,-0.82530955,0.18165822,-0.38740414,-0.77100169,0.29839693,0.19213982
10.16000000,0.27705200,0.77764194,-0.22961533,-0.47545498,0.84736067,0.40012800,0.04635699,0.04742668,-0.82530955,0.18165822,-0.38740414,-0.77100169,0.29839693,0.19213982
10.18000000,0.27705200,0.77764194,-0.22961533,-0.47545498,0.84736067,0.40012800,0.04635699,0.04742668,-0.82530955,0.18165822,-0.38740414,-0.77100169,0.29839693,0.19213982
10.20000000,0.27705200,0.77764194,-0.22961533,-0.47545498,0.84736067,0.40012800,0.04635699,0.04742668,-0.82530955,0.18165822,-0.38740414,-0.77100169,0.29839693,0.19213982
10.22000000,0.27705200,0.77764194,-0.22961533,-0.47545498,0.84736067,0.40012800,0.04635699,0.04742668,-0.82530955,0.18165822,-0.38740414,-0.77100169,0.29839693,0.19213982
10.24000000,0.27705200,0.77764194,-0.22961533,-0.47545498,0.84736067,0.40012800,0.04635699,0.04742668,-0.82530955,0.18165822,-0.38740414,-0.77100169,0.29839693,0.19213982
10.26000000,0.27705200,0.77764194,-0.22961533,-0.47545498,0.84736067,0.40012800,0.04635699,0.04742668,-0.82530955,0.18165822,-0.38740414,-0.77100169,0.29839693,0.19213982
10.28000000,0.27705200,0.77764194,-0.22961533,-0.47545498,0.84736067,0.40012800,0.04635699,0.04742668,-0.82530955,0.18165822,-0.38740414,-0.77100169,0.29839693,0.19213982
10.30000000,0.27705200,0.77764194,-0.22961533,-0.47545498,0.84736067,0.40012800,0.04635699,0.04742668,-0.82530955,0.18165822,-0.38740414,-0.77100169,0.29839693,0.19213982
10.32000000,0.27705200,0.77764194,-0.22961533,-0.47545498,0.84736067,0.40012800,0.04635699,0.04742668,-0.82530955,0.18165822,-0.38740414,-0.77100169,0.29839693,0.19213982
10.34000000,0.27705200,0.77764194,-0.22961533,-0.47545498,0.84736067,0.40012800,0.04635699,0.04742668,-0.82530955,0.18165822,-0.38740414,-0.77100169,0.29839693,0.19213982
10.36000000,0.27705200,0.77764194,-0.22961533,-0.47545498,0.84736067,0.40012800,0.04635699,0.04742668,-0.82530955,0.18165822,-0.38740414,-0.77100169,0.29839693,0.19213982
10.38000000,0.27705200,0.77764194,-0.22961533,-0.47545498,0.84736067,0.40012800,0.04635699,0.04742668,-0.82530955,0.18165822,-0.38740414,-0.77100169,0.29839693,0.19213982
10.40000000,0.27705200,0.77764194,-0.22961533,-0.47545498,0.84736067,0.40012800,0.04635699,0.04742668,-0.82530955,0.18165822,-0.38740414,-0.77100169,0.29839693,0.19213982
10.42000000,0.27705200,0.77764194,-0.22961533,-0.47545498,0.84736067,0.40012800,0.04635699,0.04742668,-0.82530955,0.18165822,-0.38740414,-0.77100169,0.29839693,0.19213982
10.44000000,0.27705200,0.77764194,-0.22961533,-0.47545498,0.84736067,0.40012800,0.04635699,0.04742668,-0.82530955,0.18165822,-0.38740414,-0.77100169,0.29839693,0.19213982
10.46000000,0.27705200,0.77764194,-0.22961533,-0.47545498,0.84736067,0.40012800,0.04635699,0.04742668,-0.82530955,0.18165822,-0.38740414,-0.77100169,0.29839693,0.19213982
10.48000000,0.27705200,0.77764194,-0.22961533,-0.47545498,0.84736067,0.40012800,0.04635699,0.04742668,-0.82530955,0.18165822,-0.38740414,-0.77100169,0.29839693,0.19213982
10.50000000,0.27705200,0.77764194,-0.22961533,-0.47545498,0.84736067,0.40012800,0.04635699,0.04742517,-0.82530915,0.18165779,-0.38740170,-0.77100189,0.29839535,0.19213991
10.52000000,0.27705201,0.77764194,-0.22961533,-0.47545498,0.84736067,0.40012800,0.04635699,0.04741474,-0.82530643,0.18165479,-0.38738481,-0.77100332,0.29838443,0.19214056
10.54000000,0.27705203,0.77764194,-0.22961533,-0.47545498,0.84736067,0.40012800,0.04635699,0.04738682,-0.82529914,0.18164675,-0.38733958,-0.77100714,0.29835518,0.19214229
10.56000000,0.27705209,0.77764193,-0.22961533,-0.47545498,0.84736068,0.40012800,0.04635699,0.04733317,-0.82528512,0.18163131,-0.38725270,-0.77101448,0.29829899,0.19214561
10.58000000,0.27705217,0.77764192,-0.22961533,-0.47545499,0.84736068,0.40012800,0.04635699,0.04724593,-0.82526234,0.18160621,-0.38711142,-0.77102642,0.29820762,0.19215101
10.60000000,0.27705230,0.77764191,-0.22961533,-0.47545499,0.84736069,0.40012800,0.04635700,0.04711760,-0.82522882,0.18156928,-0.38690359,-0.77104398,0.29807320,0.19215895
10.62000000,0.27705248,0.77764189,-0.22961533,-0.47545500,0.84736071,0.40012799,0.04635700,0.04694102,-0.82518269,0.18151846,-0.38661760,-0.77106814,0.29788825,0.19216988
10.64000000,0.27705271,0.77764186,-0.22961533,-0.47545501,0.84736072,0.40012799,0.04635701,0.04670936,-0.82512218,0.18145179,-0.38624243,-0.77109984,0.29764561,0.19218422
10.66000000,0.27705300,0.77764183,-0.22961533,-0.47545503,0.84736075,0.40012798,0.04635701,0.04641615,-0.82504560,0.18136741,-0.38576755,-0.77113997,0.29733849,0.19220237
10.68000000,0.27705336,0.77764179,-0.22961533,-0.47545505,0.84736077,0.40012797,0.04635702,0.04605522,-0.82495132,0.18126355,-0.38518303,-0.77118935,0.29696045,0.19222472
10.70000000,0.27705379,0.77764174,-0.22961533,-0.47545507,0.84736081,0.40012796,0.04635703,0.04562077,-0.82483784,0.18113852,-0.38447942,-0.77124881,0.29650540,0.19225161
10.72000000,0.27705430,0.77764168,-0.22961533,-0.47545510,0.84736085,0.40012795,0.04635704,0.04510729,-0.82470372,0.18099075,-0.38364781,-0.77131907,0.29596757,0.19228340
10.74000000,0.27705489,0.77764161,-0.22961533,-0.47545513,0.84736089,0.40012794,0.04635705,0.04450959,-0.82454760,0.18081874,-0.38267982,-0.77140086,0.29534153,0.19232040
10.76000000,0.27705557,0.77764153,-0.22961533,-0.47545517,0.84736094,0.40012792,0.04635706,0.04382280,-0.82436821,0.18062110,-0.38156755,-0.77149484,0.29462218,0.19236292
10.78000000,0.27705634,0.77764144,-0.22961533,-0.47545521,0.84736100,0.40012791,0.04635708,0.04304237,-0.82416436,0.18039650,-0.38030361,-0.77160163,0.29380474,0.19241123
10.80000000,0.27705721,0.77764134,-0.22961533,-0.47545526,0.84736107,0.40012789,0.04635710,0.04216402,-0.82393494,0.18014373,-0.37888109,-0.77172182,0.29288474,0.19246560
10.82000000,0.27705819,0.77764122,-0.22961533,-0.47545532,0.84736115,0.40012786,0.04635712,0.04118379,-0.82367890,0.17986164,-0.37729358,-0.77185596,0.29185803,0.19252628
10.84000000,0.27705926,0.77764110,-0.22961533,-0.47545538,0.84736123,0.40012784,0.04635714,0.04009801,-0.82339529,0.17954917,-0.37553513,-0.77200454,0.29072077,0.19259350
10.86000000,0.27706045,0.77764096,-0.22961533,-0.47545544,0.84736132,0.40012781,0.04635717,0.03890328,-0.82308323,0.17920535,-0.37360023,-0.77216802,0.28946940,0.19266746
10.88000000,0.27706174,0.77764081,-0.22961533,-0.47545551,0.84736142,0.40012778,0.04635719,0.03759651,-0.82274190,0.17882929,-0.37148388,-0.77234684,0.28810067,0.19274835
10.90000000,0.27706315,0.77764065,-0.22961533,-0.47545559,0.84736153,0.40012775,0.04635722,0.03617487,-0.82237056,0.17842017,-0.36918148,-0.77254138,0.28661161,0.19283636
10.92000000,0.27706468,0.77764047,-0.22961533,-0.47545567,0.84736165,0.40012771,0.04635725,0.03463579,-0.82196855,0.17797725,-0.36668888,-0.77275198,0.28499955,0.19293164
10.94000000,0.27706632,0.77764028,-0.22961533,-0.47545576,0.84736177,0.40012768,0.04635729,0.03297698,-0.82153527,0.17749987,-0.36400239,-0.77297897,0.28326209,0.19303433
10.96000000,0.27706809,0.77764007,-0.22961533,-0.47545586,0.84736191,0.40012764,0.04635733,0.03119641,-0.82107019,0.17698746,-0.36111871,-0.77322262,0.28139710,0.19314455
10.98000000,0.27706998,0.77763985,-0.22961533,-0.47545597,0.84736205,0.40012759,0.04635737,0.02929231,-0.82057283,0.17643950,-0.35803496,-0.77348318,0.27940272,0.19326242
11.00000000,0.27707199,0.77763962,-0.22961534,-0.47545608,0.84736221,0.40012755,0.04635741,0.02726316,-0.82004282,0.17585554,-0.35474868,-0.77376085,0.27727735,0.19338804
11.02000000,0.27707413,0.77763937,-0.22961534,-0.47545619,0.84736237,0.40012750,0.04635745,0.02510768,-0.81947980,0.17523524,-0.35125781,-0.77405580,0.27501966,0.19352147
11.04000000,0.27707639,0.77763911,-0.22961534,-0.47545632,0.84736255,0.40012745,0.04635750,0.02282482,-0.81888352,0.17457827,-0.34756065,-0.77436819,0.27262856,0.19366279
11.06000000,0.27707878,0.77763883,-0.22961534,-0.47545645,0.84736273,0.40012739,0.04635755,0.02041380,-0.81825376,0.17388443,-0.34365593,-0.77469811,0.27010322,0.19381205
11.08000000,0.27708130,0.77763854,-0.22961534,-0.47545659,0.84736293,0.40012733,0.04635760,0.01787404,-0.81759037,0.17315353,-0.33954271,-0.77504565,0.26744304,0.19396927
11.10000000,0.27708395,0.77763823,-0.22961534,-0.47545673,0.84736313,0.40012727,0.04635766,0.01520520,-0.81689327,0.17238549,-0.33522043,-0.77541085,0.26464765,0.19413448
11.12000000,0.27708672,0.77763791,-0.22961534,-0.47545689,0.84736334,0.40012721,0.04635771,0.01240715,-0.81616242,0.17158027,-0.33068891,-0.77579373,0.26171694,0.19430770
11.14000000,0.27708962,0.77763757,-0.22961534,-0.47545705,0.84736357,0.40012714,0.04635778,0.00948000,-0.81539784,0.17073788,-0.32594828,-0.77619428,0.25865098,0.19448890
11.16000000,0.27709265,0.77763722,-0.22961534,-0.47545721,0.84736380,0.40012707,0.04635784,0.00642403,-0.81459962,0.16985843,-0.32099904,-0.77661246,0.25545012,0.19467808
11.18000000,0.27709581,0.77763685,-0.22961535,-0.47545739,0.84736404,0.40012700,0.04635790,0.00323976,-0.81376788,0.16894206,-0.31584202,-0.77704819,0.25211486,0.19487520
11.20000000,0.27709910,0.77763647,-0.22961535,-0.47545757,0.84736430,0.40012692,0.04635797,-0.00007210,-0.81290282,0.16798897,-0.31047836,-0.77750138,0.24864597,0.19508022
11.22000000,0.27710251,0.77763607,-0.22961535,-0.47545776,0.84736456,0.40012685,0.04635804,-0.00351065,-0.81200467,0.16699942,-0.30490952,-0.77797191,0.24504438,0.19529309
11.24000000,0.27710604,0.77763566,-0.22961535,-0.47545795,0.84736483,0.40012676,0.04635812,-0.00707478,-0.81107371,0.16597373,-0.29913728,-0.77845963,0.24131125,0.19551373
11.26000000,0.27710970,0.77763523,-0.22961535,-0.47545815,0.84736511,0.40012668,0.04635819,-0.01076324,-0.81011029,0.16491226,-0.29316372,-0.77896435,0.23744790,0.19574206
11.28000000,0.27711348,0.77763479,-0.22961535,-0.47545836,0.84736541,0.40012659,0.04635827,-0.01457454,-0.80911477,0.16381544,-0.28699119,-0.77948589,0.23345588,0.19597800
11.30000000,0.27711738,0.77763434,-0.22961536,-0.47545858,0.84736571,0.40012650,0.04635835,-0.01850707,-0.80808759,0.16268374,-0.28062234,-0.78002401,0.22933689,0.19622144
11.32000000,0.27712140,0.77763387,-0.22961536,-0.47545880,0.84736602,0.40012641,0.04635844,-0.02255900,-0.80702922,0.16151766,-0.27406010,-0.78057848,0.22509283,0.19647227
11.34000000,0.27712553,0.77763339,-0.22961536,-0.47545902,0.84736633,0.40012632,0.04635852,-0.02672838,-0.80594017,0.16031779,-0.26730765,-0.78114901,0.22072576,0.19673038
11.36000000,0.27712978,0.77763290,-0.22961536,-0.47545926,0.84736666,0.40012622,0.04635861,-0.03101308,-0.80482101,0.15908474,-0.26036845,-0.78173533,0.21623790,0.19699562
11.38000000,0.27713414,0.77763239,-0.22961536,-0.47545950,0.84736700,0.40012612,0.04635870,-0.03541081,-0.80367232,0.15781916,-0.25324619,-0.78233711,0.21163165,0.19726786
11.40000000,0.27713861,0.77763187,-0.22961537,-0.47545974,0.84736734,0.40012602,0.04635880,-0.03991913,-0.80249474,0.15652175,-0.24594482,-0.78295402,0.20690956,0.19754695
11.42000000,0.27714319,0.77763134,-0.22961537,-0.47546000,0.84736769,0.40012591,0.04635889,-0.04453547,-0.80128895,0.15519325,-0.23846851,-0.78358572,0.20207434,0.19783272
11.44000000,0.27714787,0.77763079,-0.22961537,-0.47546025,0.84736805,0.40012580,0.04635899,-0.04925711,-0.80005565,0.15383445,-0.23082167,-0.78423183,0.19712882,0.19812502
11.46000000,0.27715265,0.77763024,-0.22961537,-0.47546052,0.84736842,0.40012570,0.04635909,-0.05408120,-0.79879559,0.15244617,-0.22300890,-0.78489195,0.19207599,0.19842365
11.48000000,0.27715754,0.77762967,-0.22961537,-0.47546079,0.84736880,0.40012558,0.04635919,-0.05900475,-0.79750956,0.15102927,-0.21503505,-0.78556569,0.18691899,0.19872844
11.50000000,0.27716251,0.77762909,-0.22961538,-0.47546106,0.84736918,0.40012547,0.04635930,-0.06402466,-0.79619835,0.14958463,-0.20690514,-0.78625261,0.18166105,0.19903920
11.52000000,0.27716758,0.77762850,-0.22961538,-0.47546134,0.84736957,0.40012535,0.04635940,-0.06913771,-0.79486282,0.14811319,-0.19862440,-0.78695227,0.17630557,0.19935572
11.54000000,0.27717274,0.77762790,-0.22961538,-0.47546162,0.84736997,0.40012523,0.04635951,-0.07434055,-0.79350383,0.14661591,-0.19019823,-0.78766423,0.17085603,0.19967780
11.56000000,0.27717799,0.77762729,-0.22961538,-0.47546191,0.84737038,0.40012511,0.04635962,-0.07962974,-0.79212229,0.14509378,-0.18163222,-0.78838800,0.16531605,0.20000523
11.58000000,0.27718332,0.77762667,-0.22961539,-0.47546221,0.84737079,0.40012499,0.04635973,-0.08500172,-0.79071912,0.14354783,-0.17293213,-0.78912309,0.15968935,0.20033778
11.60000000,0.27718872,0.77762604,-0.22961539,-0.47546250,0.84737120,0.40012487,0.04635984,-0.09045285,-0.78929528,0.14197910,-0.16410386,-0.78986902,0.15397976,0.20067523
11.62000000,0.27719420,0.77762540,-0.22961539,-0.47546281,0.84737162,0.40012474,0.04635996,-0.09597937,-0.78785175,0.14038867,-0.15515348,-0.79062527,0.14819119,0.20101735
