gracetata/LocomotionHEC/legged_lab/Reference Data/ArmHack/StandPerturb/TestData/ArmOnly/trajectories/generated/generated_random_arm_trajectory_seed20260721_wp10_hold0p5s_transition2p0s_50hz.csv
time_s,left_shoulder_pitch_joint,left_shoulder_roll_joint,left_shoulder_yaw_joint,left_elbow_joint,left_wrist_roll_joint,left_wrist_pitch_joint,left_wrist_yaw_joint,right_shoulder_pitch_joint,right_shoulder_roll_joint,right_shoulder_yaw_joint,right_elbow_joint,right_wrist_roll_joint,right_wrist_pitch_joint,right_wrist_yaw_joint
0.00000000,-0.01725932,0.76614414,-0.06404039,-0.07777246,0.85680045,0.09448066,-0.06772016,0.27880411,-0.77908890,0.23107642,-0.47513377,-0.84783097,0.40044513,-0.04636697
0.02000000,-0.01725932,0.76614414,-0.06404039,-0.07777246,0.85680045,0.09448066,-0.06772016,0.27880411,-0.77908890,0.23107642,-0.47513377,-0.84783097,0.40044513,-0.04636697
0.04000000,-0.01725932,0.76614414,-0.06404039,-0.07777246,0.85680045,0.09448066,-0.06772016,0.27880411,-0.77908890,0.23107642,-0.47513377,-0.84783097,0.40044513,-0.04636697
0.06000000,-0.01725932,0.76614414,-0.06404039,-0.07777246,0.85680045,0.09448066,-0.06772016,0.27880411,-0.77908890,0.23107642,-0.47513377,-0.84783097,0.40044513,-0.04636697
0.08000000,-0.01725932,0.76614414,-0.06404039,-0.07777246,0.85680045,0.09448066,-0.06772016,0.27880411,-0.77908890,0.23107642,-0.47513377,-0.84783097,0.40044513,-0.04636697
0.10000000,-0.01725932,0.76614414,-0.06404039,-0.07777246,0.85680045,0.09448066,-0.06772016,0.27880411,-0.77908890,0.23107642,-0.47513377,-0.84783097,0.40044513,-0.04636697
0.12000000,-0.01725932,0.76614414,-0.06404039,-0.07777246,0.85680045,0.09448066,-0.06772016,0.27880411,-0.77908890,0.23107642,-0.47513377,-0.84783097,0.40044513,-0.04636697
0.14000000,-0.01725932,0.76614414,-0.06404039,-0.07777246,0.85680045,0.09448066,-0.06772016,0.27880411,-0.77908890,0.23107642,-0.47513377,-0.84783097,0.40044513,-0.04636697
0.16000000,-0.01725932,0.76614414,-0.06404039,-0.07777246,0.85680045,0.09448066,-0.06772016,0.27880411,-0.77908890,0.23107642,-0.47513377,-0.84783097,0.40044513,-0.04636697
0.18000000,-0.01725932,0.76614414,-0.06404039,-0.07777246,0.85680045,0.09448066,-0.06772016,0.27880411,-0.77908890,0.23107642,-0.47513377,-0.84783097,0.40044513,-0.04636697
0.20000000,-0.01725932,0.76614414,-0.06404039,-0.07777246,0.85680045,0.09448066,-0.06772016,0.27880411,-0.77908890,0.23107642,-0.47513377,-0.84783097,0.40044513,-0.04636697
0.22000000,-0.01725932,0.76614414,-0.06404039,-0.07777246,0.85680045,0.09448066,-0.06772016,0.27880411,-0.77908890,0.23107642,-0.47513377,-0.84783097,0.40044513,-0.04636697
0.24000000,-0.01725932,0.76614414,-0.06404039,-0.07777246,0.85680045,0.09448066,-0.06772016,0.27880411,-0.77908890,0.23107642,-0.47513377,-0.84783097,0.40044513,-0.04636697
0.26000000,-0.01725932,0.76614414,-0.06404039,-0.07777246,0.85680045,0.09448066,-0.06772016,0.27880411,-0.77908890,0.23107642,-0.47513377,-0.84783097,0.40044513,-0.04636697
0.28000000,-0.01725932,0.76614414,-0.06404039,-0.07777246,0.85680045,0.09448066,-0.06772016,0.27880411,-0.77908890,0.23107642,-0.47513377,-0.84783097,0.40044513,-0.04636697
0.30000000,-0.01725932,0.76614414,-0.06404039,-0.07777246,0.85680045,0.09448066,-0.06772016,0.27880411,-0.77908890,0.23107642,-0.47513377,-0.84783097,0.40044513,-0.04636697
0.32000000,-0.01725932,0.76614414,-0.06404039,-0.07777246,0.85680045,0.09448066,-0.06772016,0.27880411,-0.77908890,0.23107642,-0.47513377,-0.84783097,0.40044513,-0.04636697
0.34000000,-0.01725932,0.76614414,-0.06404039,-0.07777246,0.85680045,0.09448066,-0.06772016,0.27880411,-0.77908890,0.23107642,-0.47513377,-0.84783097,0.40044513,-0.04636697
0.36000000,-0.01725932,0.76614414,-0.06404039,-0.07777246,0.85680045,0.09448066,-0.06772016,0.27880411,-0.77908890,0.23107642,-0.47513377,-0.84783097,0.40044513,-0.04636697
0.38000000,-0.01725932,0.76614414,-0.06404039,-0.07777246,0.85680045,0.09448066,-0.06772016,0.27880411,-0.77908890,0.23107642,-0.47513377,-0.84783097,0.40044513,-0.04636697
0.40000000,-0.01725932,0.76614414,-0.06404039,-0.07777246,0.85680045,0.09448066,-0.06772016,0.27880411,-0.77908890,0.23107642,-0.47513377,-0.84783097,0.40044513,-0.04636697
0.42000000,-0.01725932,0.76614414,-0.06404039,-0.07777246,0.85680045,0.09448066,-0.06772016,0.27880411,-0.77908890,0.23107642,-0.47513377,-0.84783097,0.40044513,-0.04636697
0.44000000,-0.01725932,0.76614414,-0.06404039,-0.07777246,0.85680045,0.09448066,-0.06772016,0.27880411,-0.77908890,0.23107642,-0.47513377,-0.84783097,0.40044513,-0.04636697
0.46000000,-0.01725932,0.76614414,-0.06404039,-0.07777246,0.85680045,0.09448066,-0.06772016,0.27880411,-0.77908890,0.23107642,-0.47513377,-0.84783097,0.40044513,-0.04636697
0.48000000,-0.01725932,0.76614414,-0.06404039,-0.07777246,0.85680045,0.09448066,-0.06772016,0.27880411,-0.77908890,0.23107642,-0.47513377,-0.84783097,0.40044513,-0.04636697
0.50000000,-0.01725642,0.76614425,-0.06404202,-0.07777638,0.85680036,0.09448367,-0.06771904,0.27880068,-0.77908999,0.23107651,-0.47513430,-0.84782921,0.40044472,-0.04636231
0.52000000,-0.01723647,0.76614501,-0.06405323,-0.07780332,0.85679972,0.09450438,-0.06771132,0.27877706,-0.77909750,0.23107712,-0.47513790,-0.84781713,0.40044194,-0.04633023
0.54000000,-0.01718337,0.76614704,-0.06408308,-0.07787503,0.85679803,0.09455949,-0.06769076,0.27871420,-0.77911747,0.23107876,-0.47514750,-0.84778497,0.40043454,-0.04624485
0.56000000,-0.01708205,0.76615092,-0.06414005,-0.07801187,0.85679479,0.09466468,-0.06765152,0.27859424,-0.77915559,0.23108188,-0.47516582,-0.84772360,0.40042042,-0.04608192
0.58000000,-0.01691840,0.76615717,-0.06423204,-0.07823287,0.85678957,0.09483455,-0.06758815,0.27840050,-0.77921716,0.23108692,-0.47519540,-0.84762448,0.40039761,-0.04581878
0.60000000,-0.01667933,0.76616631,-0.06436644,-0.07855574,0.85678194,0.09508273,-0.06749558,0.27811746,-0.77930710,0.23109429,-0.47523861,-0.84747969,0.40036429,-0.04543436
0.62000000,-0.01635268,0.76617880,-0.06455008,-0.07899689,0.85677152,0.09542182,-0.06736909,0.27773072,-0.77942999,0.23110436,-0.47529766,-0.84728184,0.40031876,-0.04490911
0.64000000,-0.01592721,0.76619506,-0.06478927,-0.07957147,0.85675794,0.09586347,-0.06720435,0.27722701,-0.77959005,0.23111747,-0.47537456,-0.84702415,0.40025946,-0.04422497
0.66000000,-0.01539263,0.76621550,-0.06508980,-0.08029343,0.85674087,0.09641841,-0.06699735,0.27659411,-0.77979116,0.23113394,-0.47547119,-0.84670037,0.40018495,-0.04336537
0.68000000,-0.01473950,0.76624047,-0.06545697,-0.08117548,0.85672003,0.09709640,-0.06674444,0.27582086,-0.78003687,0.23115407,-0.47558925,-0.84630479,0.40009392,-0.04231516
0.70000000,-0.01395927,0.76627030,-0.06589560,-0.08222918,0.85669513,0.09790633,-0.06644233,0.27489714,-0.78033039,0.23117811,-0.47573028,-0.84583223,0.39998518,-0.04106057
0.72000000,-0.01304424,0.76630528,-0.06641001,-0.08346493,0.85666592,0.09885619,-0.06608801,0.27381383,-0.78067463,0.23120631,-0.47589569,-0.84527803,0.39985764,-0.03958922
0.74000000,-0.01198753,0.76634567,-0.06700407,-0.08489202,0.85663219,0.09995313,-0.06567883,0.27256277,-0.78107217,0.23123887,-0.47608670,-0.84463801,0.39971036,-0.03789005
0.76000000,-0.01078306,0.76639172,-0.06768120,-0.08651866,0.85659375,0.10120345,-0.06521244,0.27113678,-0.78152530,0.23127599,-0.47630441,-0.84390850,0.39954249,-0.03595328
0.78000000,-0.00942554,0.76644362,-0.06844437,-0.08835199,0.85655042,0.10261264,-0.06468679,0.26952959,-0.78203600,0.23131782,-0.47654980,-0.84308629,0.39935328,-0.03377042
0.80000000,-0.00791045,0.76650154,-0.06929612,-0.09039813,0.85650207,0.10418541,-0.06410012,0.26773585,-0.78260599,0.23136451,-0.47682367,-0.84216864,0.39914211,-0.03133419
0.82000000,-0.00623399,0.76656563,-0.07023859,-0.09266218,0.85644856,0.10592568,-0.06345096,0.26575108,-0.78323668,0.23141617,-0.47712670,-0.84115327,0.39890845,-0.02863849
0.84000000,-0.00439312,0.76663600,-0.07127349,-0.09514828,0.85638981,0.10783663,-0.06273814,0.26357164,-0.78392922,0.23147289,-0.47745945,-0.84003831,0.39865188,-0.02567840
0.86000000,-0.00238545,0.76671275,-0.07240215,-0.09785963,0.85632573,0.10992072,-0.06196074,0.26119474,-0.78468451,0.23153476,-0.47782236,-0.83882233,0.39837206,-0.02245012
0.88000000,-0.00020931,0.76679594,-0.07362553,-0.10079851,0.85625627,0.11217970,-0.06111810,0.25861838,-0.78550319,0.23160182,-0.47821572,-0.83750431,0.39806875,-0.01895094
0.90000000,0.00213633,0.76688562,-0.07494420,-0.10396631,0.85618141,0.11461463,-0.06020983,0.25584133,-0.78638563,0.23167410,-0.47863971,-0.83608362,0.39774183,-0.01517919
0.92000000,0.00465187,0.76698178,-0.07635839,-0.10736355,0.85610112,0.11722593,-0.05923576,0.25286315,-0.78733199,0.23175162,-0.47909442,-0.83456004,0.39739122,-0.01113425
0.94000000,0.00733710,0.76708444,-0.07786796,-0.11098995,0.85601542,0.12001337,-0.05819600,0.24968408,-0.78834218,0.23183436,-0.47957980,-0.83293368,0.39701696,-0.00681647
0.96000000,0.01019118,0.76719354,-0.07947247,-0.11484439,0.85592433,0.12297610,-0.05709085,0.24630508,-0.78941590,0.23192231,-0.48009570,-0.83120505,0.39661917,-0.00222717
0.98000000,0.01321275,0.76730906,-0.08117112,-0.11892502,0.85582789,0.12611268,-0.05592085,0.24272781,-0.79055262,0.23201542,-0.48064188,-0.82937498,0.39619803,0.00263144
1.00000000,0.01639985,0.76743090,-0.08296285,-0.12322920,0.85572617,0.12942111,-0.05468674,0.23895456,-0.79175162,0.23211363,-0.48121797,-0.82744465,0.39575382,0.00775623
1.02000000,0.01975003,0.76755897,-0.08484624,-0.12775362,0.85561924,0.13289881,-0.05338950,0.23498824,-0.79301197,0.23221687,-0.48182355,-0.82541556,0.39528689,0.01314324
1.04000000,0.02326030,0.76769316,-0.08681964,-0.13249424,0.85550720,0.13654271,-0.05203026,0.23083238,-0.79433255,0.23232504,-0.48245806,-0.82328949,0.39479764,0.01878768
1.06000000,0.02692720,0.76783335,-0.08888110,-0.13744640,0.85539017,0.14034920,-0.05061037,0.22649108,-0.79571206,0.23243804,-0.48312089,-0.82106856,0.39428656,0.02468398
1.08000000,0.03074681,0.76797937,-0.09102840,-0.14260479,0.85526826,0.14431421,-0.04913135,0.22196899,-0.79714901,0.23255574,-0.48381132,-0.81875514,0.39375419,0.03082583
1.10000000,0.03471475,0.76813106,-0.09325909,-0.14796349,0.85514162,0.14843319,-0.04759489,0.21727130,-0.79864176,0.23267801,-0.48452856,-0.81635189,0.39320116,0.03720618
1.12000000,0.03882621,0.76828823,-0.09557046,-0.15351603,0.85501039,0.15270116,-0.04600286,0.21240368,-0.80018851,0.23280471,-0.48527174,-0.81386170,0.39262811,0.04381733
1.14000000,0.04307601,0.76845070,-0.09795960,-0.15925538,0.85487475,0.15711273,-0.04435727,0.20737229,-0.80178730,0.23293567,-0.48603993,-0.81128773,0.39203579,0.05065090
1.16000000,0.04745854,0.76861824,-0.10042337,-0.16517400,0.85473488,0.16166209,-0.04266027,0.20218374,-0.80343603,0.23307072,-0.48683212,-0.80863337,0.39142497,0.05769793
1.18000000,0.05196788,0.76879063,-0.10295843,-0.17126386,0.85459095,0.16634308,-0.04091418,0.19684507,-0.80513246,0.23320967,-0.48764722,-0.80590220,0.39079647,0.06494884
1.20000000,0.05659774,0.76896762,-0.10556123,-0.17751649,0.85444319,0.17114918,-0.03912142,0.19136372,-0.80687423,0.23335234,-0.48848411,-0.80309804,0.39015118,0.07239355
1.22000000,0.06134151,0.76914897,-0.10822808,-0.18392296,0.85429178,0.17607354,-0.03728454,0.18574750,-0.80865886,0.23349852,-0.48934159,-0.80022488,0.38949001,0.08002144
1.24000000,0.06619231,0.76933441,-0.11095509,-0.19047397,0.85413696,0.18110898,-0.03540623,0.18000458,-0.81048375,0.23364800,-0.49021842,-0.79728691,0.38881392,0.08782141
1.26000000,0.07114296,0.76952367,-0.11373824,-0.19715982,0.85397895,0.18624808,-0.03348925,0.17414344,-0.81234621,0.23380056,-0.49111329,-0.79428845,0.38812392,0.09578194
1.28000000,0.07618602,0.76971646,-0.11657334,-0.20397049,0.85381799,0.19148312,-0.03153649,0.16817288,-0.81424343,0.23395596,-0.49202487,-0.79123402,0.38742103,0.10389108
1.30000000,0.08131385,0.76991249,-0.11945610,-0.21089562,0.85365433,0.19680615,-0.02955091,0.16210198,-0.81617254,0.23411398,-0.49295177,-0.78812826,0.38670633,0.11213651
1.32000000,0.08651857,0.77011146,-0.12238208,-0.21792460,0.85348821,0.20220899,-0.02753555,0.15594004,-0.81813057,0.23427436,-0.49389257,-0.78497592,0.38598092,0.12050558
1.34000000,0.09179211,0.77031307,-0.12534675,-0.22504652,0.85331990,0.20768328,-0.02549354,0.14969662,-0.82011450,0.23443687,-0.49484582,-0.78178190,0.38524591,0.12898533
1.36000000,0.09712625,0.77051699,-0.12834549,-0.23225028,0.85314965,0.21322046,-0.02342807,0.14338146,-0.82212123,0.23460124,-0.49581001,-0.77855118,0.38450245,0.13756250
1.38000000,0.10251260,0.77072290,-0.13137358,-0.23952455,0.85297774,0.21881185,-0.02134238,0.13700448,-0.82414760,0.23476722,-0.49678364,-0.77528883,0.38375172,0.14622364
1.40000000,0.10794266,0.77093049,-0.13442624,-0.24685785,0.85280443,0.22444861,-0.01923977,0.13057576,-0.82619041,0.23493455,-0.49776517,-0.77200002,0.38299490,0.15495505
1.42000000,0.11340781,0.77113941,-0.13749863,-0.25423854,0.85263000,0.23012180,-0.01712356,0.12410550,-0.82824642,0.23510296,-0.49875305,-0.76868995,0.38223319,0.16374289
1.44000000,0.11889935,0.77134935,-0.14058585,-0.26165487,0.85245473,0.23582238,-0.01499714,0.11760399,-0.83031236,0.23527219,-0.49974570,-0.76536389,0.38146779,0.17257316
1.46000000,0.12440852,0.77155996,-0.14368299,-0.26909501,0.85227889,0.24154127,-0.01286390,0.11108160,-0.83238493,0.23544195,-0.50074153,-0.76202716,0.38069994,0.18143179
1.48000000,0.12992652,0.77177091,-0.14678509,-0.27654707,0.85210278,0.24726931,-0.01072723,0.10454877,-0.83446082,0.23561199,-0.50173896,-0.75868508,0.37993086,0.19030461
1.50000000,0.13544451,0.77198185,-0.14988719,-0.28399913,0.85192666,0.25299736,-0.00859057,0.09801594,-0.83653672,0.23578203,-0.50273639,-0.75534300,0.37916178,0.19917742
1.52000000,0.14095369,0.77219247,-0.15298432,-0.29143927,0.85175083,0.25871625,-0.00645732,0.09149355,-0.83860929,0.23595180,-0.50373222,-0.75200626,0.37839393,0.20803605
1.54000000,0.14644523,0.77240240,-0.15607155,-0.29885560,0.85157556,0.26441683,-0.00433090,0.08499204,-0.84067523,0.23612102,-0.50472487,-0.74868021,0.37762854,0.21686633
1.56000000,0.15191037,0.77261133,-0.15914394,-0.30623629,0.85140113,0.27009002,-0.00221470,0.07852178,-0.84273124,0.23628943,-0.50571274,-0.74537014,0.37686683,0.22565416
1.58000000,0.15734043,0.77281891,-0.16219660,-0.31356959,0.85122782,0.27572677,-0.00011208,0.07209306,-0.84477405,0.23645676,-0.50669427,-0.74208132,0.37611001,0.23438558
1.60000000,0.16272678,0.77302483,-0.16522469,-0.32084386,0.85105590,0.28131816,0.00197361,0.06571608,-0.84680042,0.23662274,-0.50766791,-0.73881897,0.37535927,0.24304671
1.62000000,0.16806092,0.77322875,-0.16822343,-0.32804762,0.85088566,0.28685535,0.00403908,0.05940093,-0.84880714,0.23678711,-0.50863210,-0.73558825,0.37461582,0.25162389
1.64000000,0.17333446,0.77343035,-0.17118810,-0.33516954,0.85071734,0.29232964,0.00608109,0.05315750,-0.85079107,0.23694962,-0.50958534,-0.73239423,0.37388081,0.26010363
1.66000000,0.17853918,0.77362932,-0.17411408,-0.34219852,0.85055123,0.29773248,0.00809644,0.04699557,-0.85274911,0.23711000,-0.51052614,-0.72924189,0.37315540,0.26847270
1.68000000,0.18366701,0.77382535,-0.17699683,-0.34912366,0.85038756,0.30305551,0.01008203,0.04092466,-0.85467822,0.23726802,-0.51145304,-0.72613613,0.37244070,0.27671813
1.70000000,0.18871008,0.77401814,-0.17983194,-0.35593432,0.85022661,0.30829055,0.01203479,0.03495410,-0.85657544,0.23742342,-0.51236462,-0.72308170,0.37173781,0.28482727
1.72000000,0.19366072,0.77420740,-0.18261508,-0.36262017,0.85006860,0.31342964,0.01395177,0.02909297,-0.85843790,0.23757598,-0.51325950,-0.72008325,0.37104781,0.29278780
1.74000000,0.19851152,0.77439284,-0.18534210,-0.36917118,0.84991378,0.31846509,0.01583008,0.02335004,-0.86026279,0.23772546,-0.51413632,-0.71714527,0.37037172,0.30058778
1.76000000,0.20325529,0.77457419,-0.18800894,-0.37557765,0.84976237,0.32338945,0.01766695,0.01773382,-0.86204741,0.23787164,-0.51499380,-0.71427211,0.36971055,0.30821566
1.78000000,0.20788515,0.77475119,-0.19061175,-0.38183028,0.84961460,0.32819555,0.01945972,0.01225247,-0.86378918,0.23801431,-0.51583069,-0.71146795,0.36906526,0.31566037
1.80000000,0.21239449,0.77492358,-0.19314680,-0.38792015,0.84947068,0.33287654,0.02120581,0.00691380,-0.86548562,0.23815327,-0.51664580,-0.70873679,0.36843676,0.32291129
1.82000000,0.21677703,0.77509112,-0.19561057,-0.39383877,0.84933080,0.33742590,0.02290281,0.00172525,-0.86713434,0.23828831,-0.51743798,-0.70608242,0.36782594,0.32995831
1.84000000,0.22102682,0.77525358,-0.19799971,-0.39957812,0.84919516,0.34183747,0.02454840,-0.00330613,-0.86873313,0.23841927,-0.51820617,-0.70350845,0.36723361,0.33679188
1.86000000,0.22513829,0.77541076,-0.20031109,-0.40513065,0.84906394,0.34610544,0.02614043,-0.00817375,-0.87027988,0.23854597,-0.51894936,-0.70101826,0.36666057,0.34340303
1.88000000,0.22910622,0.77556245,-0.20254178,-0.41048936,0.84893730,0.35022442,0.02767689,-0.01287145,-0.87177264,0.23866824,-0.51966660,-0.69861501,0.36610753,0.34978338
1.90000000,0.23292583,0.77570847,-0.20468908,-0.41564774,0.84881539,0.35418943,0.02915591,-0.01739354,-0.87320959,0.23878594,-0.52035703,-0.69630159,0.36557517,0.35592523
1.92000000,0.23659274,0.77584865,-0.20675053,-0.42059990,0.84869835,0.35799592,0.03057579,-0.02173484,-0.87458910,0.23889894,-0.52101985,-0.69408066,0.36506409,0.36182153
1.94000000,0.24010301,0.77598284,-0.20872393,-0.42534052,0.84858632,0.36163982,0.03193503,-0.02589070,-0.87590967,0.23900711,-0.52165437,-0.69195460,0.36457484,0.36746597
1.96000000,0.24345318,0.77611092,-0.21060733,-0.42986494,0.84847939,0.36511752,0.03323228,-0.02985701,-0.87717003,0.23911035,-0.52225994,-0.68992550,0.36410790,0.37285298
1.98000000,0.24664029,0.77623276,-0.21239905,-0.43416913,0.84837767,0.36842594,0.03446638,-0.03363027,-0.87836903,0.23920856,-0.52283604,-0.68799517,0.36366370,0.37797777
2.00000000,0.24966185,0.77634827,-0.21409771,-0.43824975,0.84828123,0.37156253,0.03563638,-0.03720754,-0.87950575,0.23930167,-0.52338221,-0.68616510,0.36324256,0.38283638
2.02000000,0.25251594,0.77645738,-0.21570221,-0.44210420,0.84819014,0.37452526,0.03674154,-0.04058653,-0.88057947,0.23938962,-0.52389812,-0.68443647,0.36284477,0.38742569
2.04000000,0.25520116,0.77656003,-0.21721179,-0.44573059,0.84810444,0.37731270,0.03778130,-0.04376560,-0.88158966,0.23947236,-0.52438350,-0.68281012,0.36247051,0.39174347
2.06000000,0.25771670,0.77665620,-0.21862597,-0.44912784,0.84802415,0.37992400,0.03875536,-0.04674379,-0.88253602,0.23954988,-0.52483820,-0.68128653,0.36211990,0.39578840
2.08000000,0.26006235,0.77674587,-0.21994464,-0.45229563,0.84794928,0.38235893,0.03966364,-0.04952083,-0.88341846,0.23962216,-0.52526220,-0.67986584,0.36179298,0.39956015
2.10000000,0.26223849,0.77682906,-0.22116802,-0.45523451,0.84787983,0.38461791,0.04050628,-0.05209719,-0.88423713,0.23968922,-0.52565556,-0.67854782,0.36148967,0.40305933
2.12000000,0.26424615,0.77690581,-0.22229669,-0.45794586,0.84781575,0.38670200,0.04128368,-0.05447410,-0.88499243,0.23975109,-0.52601846,-0.67733184,0.36120985,0.40628761
2.14000000,0.26608703,0.77697619,-0.22333159,-0.46043197,0.84775700,0.38861295,0.04199650,-0.05665353,-0.88568497,0.23980782,-0.52635122,-0.67621688,0.36095328,0.40924770
2.16000000,0.26776348,0.77704028,-0.22427405,-0.46269602,0.84770349,0.39035322,0.04264565,-0.05863831,-0.88631566,0.23985948,-0.52665425,-0.67520151,0.36071962,0.41194340
2.18000000,0.26927857,0.77709820,-0.22512581,-0.46474215,0.84765513,0.39192599,0.04323232,-0.06043205,-0.88688564,0.23990616,-0.52692812,-0.67428386,0.36050845,0.41437964
2.20000000,0.27063609,0.77715009,-0.22588897,-0.46657548,0.84761180,0.39333518,0.04375798,-0.06203923,-0.88739635,0.23994800,-0.52717350,-0.67346166,0.36031924,0.41656250
2.22000000,0.27184056,0.77719614,-0.22656610,-0.46820212,0.84757336,0.39458550,0.04422437,-0.06346522,-0.88784947,0.23998511,-0.52739122,-0.67273215,0.36015137,0.41849926
2.24000000,0.27289728,0.77723654,-0.22716016,-0.46962922,0.84753964,0.39568244,0.04463355,-0.06471628,-0.88824701,0.24001768,-0.52758223,-0.67209213,0.36000409,0.42019843
2.26000000,0.27381231,0.77727152,-0.22767457,-0.47086496,0.84751043,0.39663230,0.04498786,-0.06579960,-0.88859125,0.24004587,-0.52774763,-0.67153792,0.35987655,0.42166978
2.28000000,0.27459253,0.77730135,-0.22811320,-0.47191866,0.84748553,0.39744223,0.04528998,-0.06672332,-0.88888478,0.24006992,-0.52788866,-0.67106536,0.35976781,0.42292437
2.30000000,0.27524566,0.77732631,-0.22848038,-0.47280071,0.84746468,0.39812022,0.04554288,-0.06749657,-0.88913049,0.24009004,-0.52800672,-0.67066978,0.35967678,0.42397458
2.32000000,0.27578025,0.77734675,-0.22878091,-0.47352267,0.84744762,0.39867515,0.04574988,-0.06812947,-0.88933160,0.24010652,-0.52810335,-0.67034600,0.35960227,0.42483418
2.34000000,0.27620571,0.77736302,-0.22902009,-0.47409726,0.84743404,0.39911681,0.04591463,-0.06863318,-0.88949166,0.24011963,-0.52818026,-0.67008831,0.35954297,0.42551832
2.36000000,0.27653236,0.77737550,-0.22920373,-0.47453840,0.84742362,0.39945590,0.04604112,-0.06901991,-0.88961455,0.24012969,-0.52823931,-0.66989047,0.35949744,0.42604357
2.38000000,0.27677144,0.77738464,-0.22933813,-0.47486127,0.84741599,0.39970407,0.04613369,-0.06930295,-0.88970449,0.24013706,-0.52828252,-0.66974567,0.35946412,0.42642799
2.40000000,0.27693508,0.77739090,-0.22943013,-0.47508227,0.84741076,0.39987395,0.04619706,-0.06949669,-0.88976605,0.24014210,-0.52831210,-0.66964655,0.35944131,0.42669113
2.42000000,0.27703641,0.77739477,-0.22948709,-0.47521912,0.84740753,0.39997913,0.04623629,-0.06961666,-0.88980417,0.24014522,-0.52833042,-0.66958518,0.35942719,0.42685406
2.44000000,0.27708951,0.77739680,-0.22951695,-0.47529082,0.84740583,0.40003425,0.04625685,-0.06967952,-0.88982415,0.24014686,-0.52834001,-0.66955302,0.35941979,0.42693944
2.46000000,0.27710946,0.77739756,-0.22952816,-0.47531777,0.84740520,0.40005496,0.04626458,-0.06970314,-0.88983165,0.24014748,-0.52834362,-0.66954094,0.35941701,0.42697152
2.48000000,0.27711236,0.77739768,-0.22952979,-0.47532168,0.84740510,0.40005797,0.04626570,-0.06970657,-0.88983274,0.24014756,-0.52834414,-0.66953918,0.35941660,0.42697619
2.50000000,0.27711236,0.77739768,-0.22952979,-0.47532168,0.84740510,0.40005797,0.04626570,-0.06970657,-0.88983274,0.24014756,-0.52834414,-0.66953918,0.35941660,0.42697619
2.52000000,0.27711236,0.77739768,-0.22952979,-0.47532168,0.84740510,0.40005797,0.04626570,-0.06970657,-0.88983274,0.24014756,-0.52834414,-0.66953918,0.35941660,0.42697619
2.54000000,0.27711236,0.77739768,-0.22952979,-0.47532168,0.84740510,0.40005797,0.04626570,-0.06970657,-0.88983274,0.24014756,-0.52834414,-0.66953918,0.35941660,0.42697619
2.56000000,0.27711236,0.77739768,-0.22952979,-0.47532168,0.84740510,0.40005797,0.04626570,-0.06970657,-0.88983274,0.24014756,-0.52834414,-0.66953918,0.35941660,0.42697619
2.58000000,0.27711236,0.77739768,-0.22952979,-0.47532168,0.84740510,0.40005797,0.04626570,-0.06970657,-0.88983274,0.24014756,-0.52834414,-0.66953918,0.35941660,0.42697619
2.60000000,0.27711236,0.77739768,-0.22952979,-0.47532168,0.84740510,0.40005797,0.04626570,-0.06970657,-0.88983274,0.24014756,-0.52834414,-0.66953918,0.35941660,0.42697619
2.62000000,0.27711236,0.77739768,-0.22952979,-0.47532168,0.84740510,0.40005797,0.04626570,-0.06970657,-0.88983274,0.24014756,-0.52834414,-0.66953918,0.35941660,0.42697619
2.64000000,0.27711236,0.77739768,-0.22952979,-0.47532168,0.84740510,0.40005797,0.04626570,-0.06970657,-0.88983274,0.24014756,-0.52834414,-0.66953918,0.35941660,0.42697619
2.66000000,0.27711236,0.77739768,-0.22952979,-0.47532168,0.84740510,0.40005797,0.04626570,-0.06970657,-0.88983274,0.24014756,-0.52834414,-0.66953918,0.35941660,0.42697619
2.68000000,0.27711236,0.77739768,-0.22952979,-0.47532168,0.84740510,0.40005797,0.04626570,-0.06970657,-0.88983274,0.24014756,-0.52834414,-0.66953918,0.35941660,0.42697619
2.70000000,0.27711236,0.77739768,-0.22952979,-0.47532168,0.84740510,0.40005797,0.04626570,-0.06970657,-0.88983274,0.24014756,-0.52834414,-0.66953918,0.35941660,0.42697619
2.72000000,0.27711236,0.77739768,-0.22952979,-0.47532168,0.84740510,0.40005797,0.04626570,-0.06970657,-0.88983274,0.24014756,-0.52834414,-0.66953918,0.35941660,0.42697619
2.74000000,0.27711236,0.77739768,-0.22952979,-0.47532168,0.84740510,0.40005797,0.04626570,-0.06970657,-0.88983274,0.24014756,-0.52834414,-0.66953918,0.35941660,0.42697619
2.76000000,0.27711236,0.77739768,-0.22952979,-0.47532168,0.84740510,0.40005797,0.04626570,-0.06970657,-0.88983274,0.24014756,-0.52834414,-0.66953918,0.35941660,0.42697619
2.78000000,0.27711236,0.77739768,-0.22952979,-0.47532168,0.84740510,0.40005797,0.04626570,-0.06970657,-0.88983274,0.24014756,-0.52834414,-0.66953918,0.35941660,0.42697619
2.80000000,0.27711236,0.77739768,-0.22952979,-0.47532168,0.84740510,0.40005797,0.04626570,-0.06970657,-0.88983274,0.24014756,-0.52834414,-0.66953918,0.35941660,0.42697619
2.82000000,0.27711236,0.77739768,-0.22952979,-0.47532168,0.84740510,0.40005797,0.04626570,-0.06970657,-0.88983274,0.24014756,-0.52834414,-0.66953918,0.35941660,0.42697619
2.84000000,0.27711236,0.77739768,-0.22952979,-0.47532168,0.84740510,0.40005797,0.04626570,-0.06970657,-0.88983274,0.24014756,-0.52834414,-0.66953918,0.35941660,0.42697619
2.86000000,0.27711236,0.77739768,-0.22952979,-0.47532168,0.84740510,0.40005797,0.04626570,-0.06970657,-0.88983274,0.24014756,-0.52834414,-0.66953918,0.35941660,0.42697619
2.88000000,0.27711236,0.77739768,-0.22952979,-0.47532168,0.84740510,0.40005797,0.04626570,-0.06970657,-0.88983274,0.24014756,-0.52834414,-0.66953918,0.35941660,0.42697619
2.90000000,0.27711236,0.77739768,-0.22952979,-0.47532168,0.84740510,0.40005797,0.04626570,-0.06970657,-0.88983274,0.24014756,-0.52834414,-0.66953918,0.35941660,0.42697619
2.92000000,0.27711236,0.77739768,-0.22952979,-0.47532168,0.84740510,0.40005797,0.04626570,-0.06970657,-0.88983274,0.24014756,-0.52834414,-0.66953918,0.35941660,0.42697619
2.94000000,0.27711236,0.77739768,-0.22952979,-0.47532168,0.84740510,0.40005797,0.04626570,-0.06970657,-0.88983274,0.24014756,-0.52834414,-0.66953918,0.35941660,0.42697619
2.96000000,0.27711236,0.77739768,-0.22952979,-0.47532168,0.84740510,0.40005797,0.04626570,-0.06970657,-0.88983274,0.24014756,-0.52834414,-0.66953918,0.35941660,0.42697619
2.98000000,0.27711236,0.77739768,-0.22952979,-0.47532168,0.84740510,0.40005797,0.04626570,-0.06970657,-0.88983274,0.24014756,-0.52834414,-0.66953918,0.35941660,0.42697619
3.00000000,0.27711235,0.77739767,-0.22952979,-0.47532167,0.84740511,0.40005797,0.04626570,-0.06970314,-0.88983165,0.24014746,-0.52834363,-0.66954094,0.35941701,0.42697152
3.02000000,0.27711231,0.77739760,-0.22952976,-0.47532155,0.84740512,0.40005795,0.04626566,-0.06967950,-0.88982410,0.24014676,-0.52834008,-0.66955304,0.35941979,0.42693942
3.04000000,0.27711219,0.77739743,-0.22952969,-0.47532124,0.84740516,0.40005791,0.04626557,-0.06961660,-0.88980400,0.24014489,-0.52833064,-0.66958524,0.35942721,0.42685400
3.06000000,0.27711197,0.77739710,-0.22952955,-0.47532065,0.84740524,0.40005782,0.04626539,-0.06949655,-0.88976564,0.24014133,-0.52831262,-0.66964668,0.35944136,0.42669098
3.08000000,0.27711162,0.77739656,-0.22952934,-0.47531969,0.84740537,0.40005768,0.04626511,-0.06930268,-0.88970370,0.24013558,-0.52828353,-0.66974590,0.35946421,0.42642770
3.10000000,0.27711110,0.77739578,-0.22952902,-0.47531830,0.84740555,0.40005747,0.04626469,-0.06901945,-0.88961321,0.24012717,-0.52824102,-0.66989086,0.35949759,0.42604307
3.12000000,0.27711040,0.77739471,-0.22952858,-0.47531639,0.84740580,0.40005720,0.04626412,-0.06863245,-0.88948956,0.24011569,-0.52818294,-0.67008893,0.35954320,0.42551753
3.14000000,0.27710948,0.77739332,-0.22952802,-0.47531391,0.84740613,0.40005683,0.04626338,-0.06812840,-0.88932851,0.24010073,-0.52810729,-0.67034691,0.35960261,0.42483303
3.16000000,0.27710832,0.77739157,-0.22952731,-0.47531080,0.84740654,0.40005637,0.04626244,-0.06749506,-0.88912616,0.24008194,-0.52801225,-0.67067106,0.35967726,0.42397296
3.18000000,0.27710691,0.77738943,-0.22952644,-0.47530699,0.84740705,0.40005581,0.04626131,-0.06672129,-0.88887894,0.24005897,-0.52789612,-0.67106708,0.35976846,0.42292218
3.20000000,0.27710523,0.77738688,-0.22952540,-0.47530244,0.84740765,0.40005515,0.04625994,-0.06579694,-0.88858361,0.24003154,-0.52775739,-0.67154017,0.35987741,0.42166691
3.22000000,0.27710325,0.77738389,-0.22952418,-0.47529710,0.84740835,0.40005436,0.04625835,-0.06471288,-0.88823725,0.23999937,-0.52759470,-0.67209500,0.36000518,0.42019477
3.24000000,0.27710097,0.77738043,-0.22952277,-0.47529094,0.84740917,0.40005346,0.04625650,-0.06346097,-0.88783727,0.23996222,-0.52740682,-0.67273574,0.36015273,0.41849468
3.26000000,0.27709837,0.77737649,-0.22952117,-0.47528391,0.84741010,0.40005243,0.04625440,-0.06203401,-0.88738135,0.23991987,-0.52719266,-0.67346607,0.36032092,0.41655687
3.28000000,0.27709544,0.77737205,-0.22951936,-0.47527600,0.84741114,0.40005127,0.04625204,-0.06042573,-0.88686750,0.23987214,-0.52695130,-0.67428921,0.36051047,0.41437283
3.30000000,0.27709217,0.77736709,-0.22951735,-0.47526716,0.84741231,0.40004997,0.04624939,-0.05863077,-0.88629401,0.23981888,-0.52668191,-0.67520789,0.36072203,0.41193528
3.32000000,0.27708855,0.77736161,-0.22951512,-0.47525739,0.84741360,0.40004853,0.04624647,-0.05664464,-0.88565944,0.23975993,-0.52638384,-0.67622440,0.36095613,0.40923812
3.34000000,0.27708457,0.77735558,-0.22951267,-0.47524665,0.84741502,0.40004696,0.04624326,-0.05446372,-0.88496263,0.23969521,-0.52605653,-0.67734062,0.36121318,0.40627643
3.36000000,0.27708023,0.77734902,-0.22950999,-0.47523494,0.84741657,0.40004524,0.04623976,-0.05208519,-0.88420269,0.23962463,-0.52569957,-0.67855797,0.36149352,0.40304641
3.38000000,0.27707553,0.77734190,-0.22950710,-0.47522225,0.84741825,0.40004338,0.04623596,-0.04950708,-0.88337898,0.23954812,-0.52531265,-0.67987748,0.36179738,0.39954533
3.40000000,0.27707047,0.77733422,-0.22950398,-0.47520857,0.84742005,0.40004137,0.04623187,-0.04672814,-0.88249110,0.23946565,-0.52489559,-0.68129976,0.36212492,0.39577155
3.42000000,0.27706504,0.77732599,-0.22950063,-0.47519390,0.84742199,0.40003922,0.04622748,-0.04374793,-0.88153892,0.23937721,-0.52444833,-0.68282506,0.36247617,0.39172442
3.44000000,0.27705924,0.77731721,-0.22949705,-0.47517824,0.84742406,0.40003692,0.04622280,-0.04056669,-0.88052251,0.23928280,-0.52397090,-0.68445325,0.36285113,0.38740431
3.46000000,0.27705307,0.77730787,-0.22949326,-0.47516160,0.84742626,0.40003447,0.04621782,-0.03718539,-0.87944218,0.23918246,-0.52346344,-0.68618383,0.36324966,0.38281252
3.48000000,0.27704655,0.77729799,-0.22948923,-0.47514398,0.84742859,0.40003189,0.04621255,-0.03360568,-0.87829846,0.23907622,-0.52292620,-0.68801596,0.36367157,0.37795129
3.50000000,0.27703967,0.77728756,-0.22948499,-0.47512539,0.84743105,0.40002916,0.04620699,-0.02982986,-0.87709208,0.23896417,-0.52235954,-0.68994846,0.36411660,0.37282373
3.52000000,0.27703243,0.77727660,-0.22948053,-0.47510586,0.84743363,0.40002629,0.04620114,-0.02586083,-0.87582397,0.23884638,-0.52176387,-0.69197985,0.36458441,0.36743381
3.54000000,0.27702485,0.77726511,-0.22947586,-0.47508538,0.84743634,0.40002329,0.04619502,-0.02170214,-0.87449526,0.23872297,-0.52113975,-0.69410830,0.36507456,0.36178632
3.56000000,0.27701693,0.77725312,-0.22947098,-0.47506400,0.84743916,0.40002015,0.04618862,-0.01735788,-0.87310727,0.23859405,-0.52048777,-0.69633173,0.36558659,0.35588683
3.58000000,0.27700868,0.77724062,-0.22946590,-0.47504173,0.84744211,0.40001688,0.04618196,-0.01283271,-0.87166147,0.23845976,-0.51980864,-0.69864776,0.36611994,0.34974166
3.60000000,0.27700011,0.77722764,-0.22946062,-0.47501859,0.84744516,0.40001348,0.04617504,-0.00813182,-0.87015953,0.23832025,-0.51910314,-0.70105372,0.36667401,0.34335786
3.62000000,0.27699123,0.77721419,-0.22945514,-0.47499461,0.84744833,0.40000996,0.04616787,-0.00326088,-0.86860325,0.23817570,-0.51837212,-0.70354671,0.36724811,0.33674314
3.64000000,0.27698206,0.77720029,-0.22944949,-0.47496983,0.84745161,0.40000633,0.04616045,0.00177394,-0.86699462,0.23802629,-0.51761651,-0.70612358,0.36784153,0.32990588
3.66000000,0.27697259,0.77718595,-0.22944365,-0.47494427,0.84745499,0.40000258,0.04615281,0.00696602,-0.86533575,0.23787220,-0.51683729,-0.70878094,0.36845349,0.32285505
3.68000000,0.27696285,0.77717120,-0.22943765,-0.47491797,0.84745846,0.39999872,0.04614494,0.01230833,-0.86362887,0.23771366,-0.51603553,-0.71151518,0.36908315,0.31560021
3.70000000,0.27695285,0.77715605,-0.22943149,-0.47489097,0.84746203,0.39999475,0.04613687,0.01779341,-0.86187638,0.23755089,-0.51521234,-0.71432250,0.36972964,0.30815148
3.72000000,0.27694261,0.77714053,-0.22942518,-0.47486331,0.84746569,0.39999069,0.04612859,0.02341346,-0.86008076,0.23738410,-0.51436890,-0.71719889,0.37039204,0.30051947
3.74000000,0.27693213,0.77712466,-0.22941872,-0.47483502,0.84746943,0.39998654,0.04612013,0.02916030,-0.85824464,0.23721356,-0.51350642,-0.72014018,0.37106938,0.29271528
3.76000000,0.27692144,0.77710847,-0.22941213,-0.47480615,0.84747324,0.39998230,0.04611150,0.03502543,-0.85637072,0.23703950,-0.51262620,-0.72314201,0.37176066,0.28475045
3.78000000,0.27691055,0.77709197,-0.22940542,-0.47477674,0.84747713,0.39997799,0.04610270,0.04100006,-0.85446182,0.23686220,-0.51172954,-0.72619988,0.37246485,0.27663693
3.80000000,0.27689948,0.77707519,-0.22939860,-0.47474683,0.84748108,0.39997360,0.04609375,0.04707510,-0.85252084,0.23668191,-0.51081781,-0.72930914,0.37318087,0.26838704
3.82000000,0.27688824,0.77705816,-0.22939167,-0.47471648,0.84748509,0.39996914,0.04608467,0.05324124,-0.85055075,0.23649893,-0.50989241,-0.73246503,0.37390764,0.26001344
3.84000000,0.27687685,0.77704091,-0.22938465,-0.47468573,0.84748916,0.39996463,0.04607548,0.05948891,-0.84855461,0.23631352,-0.50895477,-0.73566265,0.37464401,0.25152912
3.86000000,0.27686533,0.77702346,-0.22937755,-0.47465462,0.84749327,0.39996006,0.04606617,0.06580838,-0.84653553,0.23612598,-0.50800636,-0.73889701,0.37538884,0.24294731
3.88000000,0.27685370,0.77700584,-0.22937038,-0.47462321,0.84749742,0.39995545,0.04605678,0.07218970,-0.84449669,0.23593661,-0.50704867,-0.74216303,0.37614096,0.23428149
3.90000000,0.27684197,0.77698807,-0.22936315,-0.47459154,0.84750161,0.39995080,0.04604730,0.07862280,-0.84244130,0.23574569,-0.50608320,-0.74545555,0.37689919,0.22554536
3.92000000,0.27683017,0.77697019,-0.22935588,-0.47455967,0.84750582,0.39994613,0.04603777,0.08509747,-0.84037264,0.23555355,-0.50511150,-0.74876935,0.37766232,0.21675277
3.94000000,0.27681831,0.77695223,-0.22934857,-0.47452765,0.84751005,0.39994142,0.04602819,0.09160342,-0.83829398,0.23536048,-0.50413510,-0.75209915,0.37842913,0.20791772
3.96000000,0.27680641,0.77693421,-0.22934124,-0.47449552,0.84751430,0.39993671,0.04601858,0.09813024,-0.83620865,0.23516678,-0.50315557,-0.75543964,0.37919840,0.19905431
3.98000000,0.27679449,0.77691615,-0.22933390,-0.47446334,0.84751855,0.39993199,0.04600896,0.10466753,-0.83411998,0.23497278,-0.50217447,-0.75878549,0.37996891,0.19017670
4.00000000,0.27678258,0.77689810,-0.22932655,-0.47443116,0.84752281,0.39992726,0.04599933,0.11120481,-0.83203131,0.23477878,-0.50119337,-0.76213133,0.38073941,0.18129908
4.02000000,0.27677068,0.77688008,-0.22931922,-0.47439903,0.84752705,0.39992255,0.04598972,0.11773164,-0.82994597,0.23458509,-0.50021383,-0.76547182,0.38150869,0.17243567
4.04000000,0.27675882,0.77686211,-0.22931191,-0.47436701,0.84753128,0.39991785,0.04598014,0.12423759,-0.82786732,0.23439202,-0.49923744,-0.76880163,0.38227550,0.16360062
4.06000000,0.27674702,0.77684423,-0.22930464,-0.47433514,0.84753550,0.39991317,0.04597061,0.13071226,-0.82579865,0.23419987,-0.49826573,-0.77211542,0.38303862,0.15480804
4.08000000,0.27673529,0.77682647,-0.22929741,-0.47430347,0.84753968,0.39990852,0.04596114,0.13714536,-0.82374327,0.23400896,-0.49730027,-0.77540795,0.38379685,0.14607191
4.10000000,0.27672366,0.77680885,-0.22929024,-0.47427206,0.84754383,0.39990391,0.04595174,0.14352668,-0.82170442,0.23381959,-0.49634257,-0.77867397,0.38454897,0.13740609
4.12000000,0.27671214,0.77679140,-0.22928314,-0.47424095,0.84754795,0.39989934,0.04594244,0.14984614,-0.81968535,0.23363205,-0.49539416,-0.78190833,0.38529381,0.12882428
4.14000000,0.27670075,0.77677414,-0.22927612,-0.47421020,0.84755201,0.39989483,0.04593324,0.15609382,-0.81768921,0.23344664,-0.49445652,-0.78510595,0.38603018,0.12033995
4.16000000,0.27668951,0.77675712,-0.22926919,-0.47417985,0.84755602,0.39989037,0.04592416,0.16225996,-0.81571912,0.23326365,-0.49353112,-0.78826183,0.38675694,0.11196636
4.18000000,0.27667844,0.77674034,-0.22926237,-0.47414994,0.84755997,0.39988599,0.04591521,0.16833500,-0.81377813,0.23308337,-0.49261939,-0.79137110,0.38747296,0.10371647
4.20000000,0.27666754,0.77672384,-0.22925566,-0.47412053,0.84756386,0.39988167,0.04590642,0.17430963,-0.81186923,0.23290606,-0.49172274,-0.79442897,0.38817715,0.09560295
4.22000000,0.27665685,0.77670765,-0.22924907,-0.47409166,0.84756768,0.39987743,0.04589778,0.18017476,-0.80999531,0.23273201,-0.49084251,-0.79743080,0.38886844,0.08763812
4.24000000,0.27664638,0.77669178,-0.22924261,-0.47406338,0.84757142,0.39987328,0.04588932,0.18592160,-0.80815919,0.23256146,-0.48998004,-0.80037208,0.38954578,0.07983393
4.26000000,0.27663613,0.77667626,-0.22923630,-0.47403571,0.84757507,0.39986922,0.04588104,0.19154165,-0.80636358,0.23239468,-0.48913659,-0.80324848,0.39020818,0.07220192
4.28000000,0.27662613,0.77666111,-0.22923014,-0.47400871,0.84757864,0.39986526,0.04587297,0.19702673,-0.80461108,0.23223190,-0.48831340,-0.80605580,0.39085467,0.06475319
4.30000000,0.27661640,0.77664636,-0.22922414,-0.47398241,0.84758212,0.39986140,0.04586510,0.20236904,-0.80290421,0.23207336,-0.48751164,-0.80879004,0.39148433,0.05749835
4.32000000,0.27660693,0.77663202,-0.22921830,-0.47395686,0.84758549,0.39985764,0.04585746,0.20756112,-0.80124533,0.23191928,-0.48673243,-0.81144739,0.39209628,0.05044752
4.34000000,0.27659775,0.77661812,-0.22921265,-0.47393207,0.84758877,0.39985401,0.04585004,0.21259594,-0.79963670,0.23176986,-0.48597681,-0.81402426,0.39268970,0.04361025
4.36000000,0.27658887,0.77660467,-0.22920717,-0.47390810,0.84759194,0.39985049,0.04584287,0.21746688,-0.79808043,0.23162531,-0.48524579,-0.81651725,0.39326381,0.03699553
4.38000000,0.27658030,0.77659168,-0.22920189,-0.47388496,0.84759500,0.39984709,0.04583595,0.22216777,-0.79657849,0.23148581,-0.48454029,-0.81892322,0.39381787,0.03061173
4.40000000,0.27657206,0.77657919,-0.22919681,-0.47386268,0.84759794,0.39984382,0.04582929,0.22669294,-0.79513269,0.23135152,-0.48386116,-0.82123924,0.39435122,0.02446657
4.42000000,0.27656414,0.77656719,-0.22919193,-0.47384130,0.84760077,0.39984068,0.04582289,0.23103720,-0.79374469,0.23122260,-0.48320919,-0.82346267,0.39486325,0.01856708
4.44000000,0.27655656,0.77655571,-0.22918726,-0.47382083,0.84760347,0.39983768,0.04581677,0.23519589,-0.79241598,0.23109918,-0.48258506,-0.82559113,0.39535341,0.01291959
4.46000000,0.27654932,0.77654475,-0.22918280,-0.47380129,0.84760606,0.39983481,0.04581092,0.23916492,-0.79114788,0.23098139,-0.48198940,-0.82762251,0.39582121,0.00752967
4.48000000,0.27654244,0.77653432,-0.22917856,-0.47378270,0.84760851,0.39983208,0.04580536,0.24294074,-0.78994149,0.23086934,-0.48142273,-0.82955502,0.39626624,0.00240210
4.50000000,0.27653591,0.77652444,-0.22917453,-0.47376508,0.84761084,0.39982950,0.04580009,0.24652045,-0.78879777,0.23076311,-0.48088550,-0.83138714,0.39668816,-0.00245913
4.52000000,0.27652975,0.77651510,-0.22917074,-0.47374844,0.84761304,0.39982705,0.04579512,0.24990175,-0.78771744,0.23066276,-0.48037804,-0.83311772,0.39708669,-0.00705092
4.54000000,0.27652395,0.77650631,-0.22916716,-0.47373278,0.84761511,0.39982476,0.04579043,0.25308298,-0.78670103,0.23056836,-0.47990061,-0.83474591,0.39746164,-0.01137103
4.56000000,0.27651852,0.77649808,-0.22916381,-0.47371811,0.84761705,0.39982260,0.04578604,0.25606320,-0.78574885,0.23047992,-0.47945334,-0.83627121,0.39781290,-0.01541815
4.58000000,0.27651345,0.77649041,-0.22916069,-0.47370443,0.84761886,0.39982059,0.04578195,0.25884214,-0.78486098,0.23039745,-0.47903629,-0.83769350,0.39814043,-0.01919194
4.60000000,0.27650875,0.77648329,-0.22915780,-0.47369174,0.84762054,0.39981873,0.04577816,0.26142025,-0.78403727,0.23032094,-0.47864937,-0.83901300,0.39844430,-0.02269301
4.62000000,0.27650442,0.77647672,-0.22915512,-0.47368003,0.84762208,0.39981701,0.04577465,0.26379877,-0.78327732,0.23025035,-0.47829240,-0.84023035,0.39872464,-0.02592304
4.64000000,0.27650044,0.77647070,-0.22915267,-0.47366930,0.84762350,0.39981544,0.04577144,0.26597970,-0.78258052,0.23018563,-0.47796510,-0.84134657,0.39898169,-0.02888473
4.66000000,0.27649682,0.77646522,-0.22915044,-0.47365952,0.84762479,0.39981400,0.04576852,0.26796583,-0.78194595,0.23012669,-0.47766702,-0.84236309,0.39921578,-0.03158188
4.68000000,0.27649355,0.77646026,-0.22914843,-0.47365068,0.84762596,0.39981271,0.04576588,0.26976079,-0.78137245,0.23007342,-0.47739764,-0.84328177,0.39942734,-0.03401943
4.70000000,0.27649062,0.77645582,-0.22914662,-0.47364277,0.84762701,0.39981154,0.04576351,0.27136907,-0.78085860,0.23002569,-0.47715627,-0.84410490,0.39961690,-0.03620347
4.72000000,0.27648802,0.77645188,-0.22914502,-0.47363574,0.84762794,0.39981051,0.04576141,0.27279603,-0.78040269,0.22998335,-0.47694212,-0.84483523,0.39978508,-0.03814128
4.74000000,0.27648573,0.77644842,-0.22914361,-0.47362958,0.84762875,0.39980961,0.04575956,0.27404794,-0.78000270,0.22994619,-0.47675423,-0.84547597,0.39993264,-0.03984137
4.76000000,0.27648376,0.77644543,-0.22914239,-0.47362424,0.84762946,0.39980882,0.04575797,0.27513200,-0.77965634,0.22991402,-0.47659154,-0.84603080,0.40006041,-0.04131352
4.78000000,0.27648207,0.77644287,-0.22914135,-0.47361969,0.84763006,0.39980816,0.04575661,0.27605635,-0.77936101,0.22988659,-0.47645281,-0.84650389,0.40016935,-0.04256878
4.80000000,0.27648066,0.77644074,-0.22914048,-0.47361589,0.84763056,0.39980760,0.04575547,0.27683012,-0.77911379,0.22986363,-0.47633669,-0.84689992,0.40026055,-0.04361957
4.82000000,0.27647951,0.77643899,-0.22913977,-0.47361277,0.84763097,0.39980714,0.04575453,0.27746345,-0.77891144,0.22984483,-0.47624164,-0.84722406,0.40033520,-0.04447963
4.84000000,0.27647859,0.77643760,-0.22913921,-0.47361029,0.84763130,0.39980678,0.04575379,0.27796751,-0.77875039,0.22982988,-0.47616599,-0.84748204,0.40039461,-0.04516414
4.86000000,0.27647788,0.77643653,-0.22913877,-0.47360838,0.84763155,0.39980650,0.04575322,0.27835450,-0.77862675,0.22981839,-0.47610791,-0.84768011,0.40044022,-0.04568967
4.88000000,0.27647737,0.77643575,-0.22913845,-0.47360699,0.84763174,0.39980629,0.04575281,0.27863774,-0.77853626,0.22980999,-0.47606541,-0.84782507,0.40047361,-0.04607430
4.90000000,0.27647701,0.77643521,-0.22913824,-0.47360603,0.84763186,0.39980615,0.04575252,0.27883161,-0.77847431,0.22980423,-0.47603631,-0.84792430,0.40049646,-0.04633758
4.92000000,0.27647680,0.77643488,-0.22913810,-0.47360544,0.84763194,0.39980607,0.04575234,0.27895166,-0.77843596,0.22980067,-0.47601829,-0.84798574,0.40051061,-0.04650060
4.94000000,0.27647668,0.77643471,-0.22913803,-0.47360513,0.84763198,0.39980602,0.04575225,0.27901456,-0.77841586,0.22979880,-0.47600885,-0.84801794,0.40051802,-0.04658603
4.96000000,0.27647664,0.77643464,-0.22913800,-0.47360502,0.84763200,0.39980600,0.04575222,0.27903820,-0.77840831,0.22979810,-0.47600531,-0.84803003,0.40052081,-0.04661812
4.98000000,0.27647663,0.77643463,-0.22913800,-0.47360500,0.84763200,0.39980600,0.04575221,0.27904163,-0.77840721,0.22979800,-0.47600479,-0.84803179,0.40052121,-0.04662279
5.00000000,0.27647663,0.77643463,-0.22913800,-0.47360500,0.84763200,0.39980600,0.04575221,0.27904163,-0.77840721,0.22979800,-0.47600479,-0.84803179,0.40052121,-0.04662279
5.02000000,0.27647663,0.77643463,-0.22913800,-0.47360500,0.84763200,0.39980600,0.04575221,0.27904163,-0.77840721,0.22979800,-0.47600479,-0.84803179,0.40052121,-0.04662279
5.04000000,0.27647663,0.77643463,-0.22913800,-0.47360500,0.84763200,0.39980600,0.04575221,0.27904163,-0.77840721,0.22979800,-0.47600479,-0.84803179,0.40052121,-0.04662279
5.06000000,0.27647663,0.77643463,-0.22913800,-0.47360500,0.84763200,0.39980600,0.04575221,0.27904163,-0.77840721,0.22979800,-0.47600479,-0.84803179,0.40052121,-0.04662279
5.08000000,0.27647663,0.77643463,-0.22913800,-0.47360500,0.84763200,0.39980600,0.04575221,0.27904163,-0.77840721,0.22979800,-0.47600479,-0.84803179,0.40052121,-0.04662279
5.10000000,0.27647663,0.77643463,-0.22913800,-0.47360500,0.84763200,0.39980600,0.04575221,0.27904163,-0.77840721,0.22979800,-0.47600479,-0.84803179,0.40052121,-0.04662279
5.12000000,0.27647663,0.77643463,-0.22913800,-0.47360500,0.84763200,0.39980600,0.04575221,0.27904163,-0.77840721,0.22979800,-0.47600479,-0.84803179,0.40052121,-0.04662279
5.14000000,0.27647663,0.77643463,-0.22913800,-0.47360500,0.84763200,0.39980600,0.04575221,0.27904163,-0.77840721,0.22979800,-0.47600479,-0.84803179,0.40052121,-0.04662279
5.16000000,0.27647663,0.77643463,-0.22913800,-0.47360500,0.84763200,0.39980600,0.04575221,0.27904163,-0.77840721,0.22979800,-0.47600479,-0.84803179,0.40052121,-0.04662279
5.18000000,0.27647663,0.77643463,-0.22913800,-0.47360500,0.84763200,0.39980600,0.04575221,0.27904163,-0.77840721,0.22979800,-0.47600479,-0.84803179,0.40052121,-0.04662279
5.20000000,0.27647663,0.77643463,-0.22913800,-0.47360500,0.84763200,0.39980600,0.04575221,0.27904163,-0.77840721,0.22979800,-0.47600479,-0.84803179,0.40052121,-0.04662279
5.22000000,0.27647663,0.77643463,-0.22913800,-0.47360500,0.84763200,0.39980600,0.04575221,0.27904163,-0.77840721,0.22979800,-0.47600479,-0.84803179,0.40052121,-0.04662279
5.24000000,0.27647663,0.77643463,-0.22913800,-0.47360500,0.84763200,0.39980600,0.04575221,0.27904163,-0.77840721,0.22979800,-0.47600479,-0.84803179,0.40052121,-0.04662279
5.26000000,0.27647663,0.77643463,-0.22913800,-0.47360500,0.84763200,0.39980600,0.04575221,0.27904163,-0.77840721,0.22979800,-0.47600479,-0.84803179,0.40052121,-0.04662279
5.28000000,0.27647663,0.77643463,-0.22913800,-0.47360500,0.84763200,0.39980600,0.04575221,0.27904163,-0.77840721,0.22979800,-0.47600479,-0.84803179,0.40052121,-0.04662279
5.30000000,0.27647663,0.77643463,-0.22913800,-0.47360500,0.84763200,0.39980600,0.04575221,0.27904163,-0.77840721,0.22979800,-0.47600479,-0.84803179,0.40052121,-0.04662279
5.32000000,0.27647663,0.77643463,-0.22913800,-0.47360500,0.84763200,0.39980600,0.04575221,0.27904163,-0.77840721,0.22979800,-0.47600479,-0.84803179,0.40052121,-0.04662279
5.34000000,0.27647663,0.77643463,-0.22913800,-0.47360500,0.84763200,0.39980600,0.04575221,0.27904163,-0.77840721,0.22979800,-0.47600479,-0.84803179,0.40052121,-0.04662279
5.36000000,0.27647663,0.77643463,-0.22913800,-0.47360500,0.84763200,0.39980600,0.04575221,0.27904163,-0.77840721,0.22979800,-0.47600479,-0.84803179,0.40052121,-0.04662279
5.38000000,0.27647663,0.77643463,-0.22913800,-0.47360500,0.84763200,0.39980600,0.04575221,0.27904163,-0.77840721,0.22979800,-0.47600479,-0.84803179,0.40052121,-0.04662279
5.40000000,0.27647663,0.77643463,-0.22913800,-0.47360500,0.84763200,0.39980600,0.04575221,0.27904163,-0.77840721,0.22979800,-0.47600479,-0.84803179,0.40052121,-0.04662279
5.42000000,0.27647663,0.77643463,-0.22913800,-0.47360500,0.84763200,0.39980600,0.04575221,0.27904163,-0.77840721,0.22979800,-0.47600479,-0.84803179,0.40052121,-0.04662279
5.44000000,0.27647663,0.77643463,-0.22913800,-0.47360500,0.84763200,0.39980600,0.04575221,0.27904163,-0.77840721,0.22979800,-0.47600479,-0.84803179,0.40052121,-0.04662279
5.46000000,0.27647663,0.77643463,-0.22913800,-0.47360500,0.84763200,0.39980600,0.04575221,0.27904163,-0.77840721,0.22979800,-0.47600479,-0.84803179,0.40052121,-0.04662279
5.48000000,0.27647663,0.77643463,-0.22913800,-0.47360500,0.84763200,0.39980600,0.04575221,0.27904163,-0.77840721,0.22979800,-0.47600479,-0.84803179,0.40052121,-0.04662279
5.50000000,0.27647631,0.77643464,-0.22913814,-0.47360484,0.84763196,0.39980603,0.04575191,0.27904035,-0.77840752,0.22979821,-0.47600481,-0.84803131,0.40052121,-0.04662123
5.52000000,0.27647409,0.77643466,-0.22913912,-0.47360377,0.84763169,0.39980623,0.04574988,0.27903152,-0.77840969,0.22979968,-0.47600496,-0.84802805,0.40052119,-0.04661054
5.54000000,0.27646818,0.77643474,-0.22914174,-0.47360092,0.84763096,0.39980675,0.04574445,0.27900801,-0.77841545,0.22980358,-0.47600535,-0.84801935,0.40052114,-0.04658206
5.56000000,0.27645691,0.77643489,-0.22914673,-0.47359547,0.84762957,0.39980776,0.04573411,0.27896316,-0.77842644,0.22981102,-0.47600609,-0.84800274,0.40052104,-0.04652773
5.58000000,0.27643870,0.77643514,-0.22915478,-0.47358668,0.84762732,0.39980938,0.04571739,0.27889072,-0.77844420,0.22982305,-0.47600728,-0.84797593,0.40052088,-0.04643997
5.60000000,0.27641211,0.77643549,-0.22916655,-0.47357383,0.84762403,0.39981174,0.04569298,0.27878490,-0.77847014,0.22984061,-0.47600903,-0.84793675,0.40052065,-0.04631177
5.62000000,0.27637577,0.77643598,-0.22918264,-0.47355627,0.84761955,0.39981498,0.04565962,0.27864030,-0.77850558,0.22986461,-0.47601142,-0.84788323,0.40052033,-0.04613661
5.64000000,0.27632843,0.77643661,-0.22920358,-0.47353340,0.84761370,0.39981919,0.04561617,0.27845197,-0.77855174,0.22989587,-0.47601453,-0.84781351,0.40051992,-0.04590845
5.66000000,0.27626896,0.77643740,-0.22922990,-0.47350467,0.84760636,0.39982449,0.04556158,0.27821533,-0.77860974,0.22993515,-0.47601845,-0.84772592,0.40051940,-0.04562179
5.68000000,0.27619630,0.77643837,-0.22926205,-0.47346957,0.84759739,0.39983096,0.04549488,0.27792622,-0.77868060,0.22998314,-0.47602322,-0.84761890,0.40051877,-0.04527155
5.70000000,0.27610950,0.77643953,-0.22930047,-0.47342763,0.84758668,0.39983869,0.04541520,0.27758085,-0.77876525,0.23004046,-0.47602893,-0.84749105,0.40051802,-0.04485316
5.72000000,0.27600770,0.77644088,-0.22934551,-0.47337845,0.84757411,0.39984775,0.04532175,0.27717581,-0.77886453,0.23010769,-0.47603562,-0.84734112,0.40051713,-0.04436248
5.74000000,0.27589014,0.77644245,-0.22939754,-0.47332166,0.84755960,0.39985822,0.04521383,0.27670805,-0.77897918,0.23018533,-0.47604335,-0.84716797,0.40051611,-0.04379582
5.76000000,0.27575615,0.77644424,-0.22945683,-0.47325692,0.84754305,0.39987015,0.04509083,0.27617489,-0.77910986,0.23027383,-0.47605217,-0.84697061,0.40051495,-0.04314993
5.78000000,0.27560512,0.77644625,-0.22952367,-0.47318396,0.84752441,0.39988359,0.04495219,0.27557398,-0.77925714,0.23037357,-0.47606210,-0.84674817,0.40051363,-0.04242197
5.80000000,0.27543657,0.77644850,-0.22959826,-0.47310253,0.84750360,0.39989860,0.04479747,0.27490332,-0.77942152,0.23048489,-0.47607318,-0.84649991,0.40051217,-0.04160951
5.82000000,0.27525006,0.77645098,-0.22968079,-0.47301242,0.84748058,0.39991520,0.04462626,0.27416123,-0.77960341,0.23060806,-0.47608544,-0.84622521,0.40051055,-0.04071052
5.84000000,0.27504526,0.77645371,-0.22977142,-0.47291348,0.84745529,0.39993344,0.04443826,0.27334636,-0.77980314,0.23074331,-0.47609891,-0.84592357,0.40050877,-0.03972336
5.86000000,0.27482191,0.77645669,-0.22987026,-0.47280558,0.84742772,0.39995332,0.04423323,0.27245766,-0.78002096,0.23089082,-0.47611360,-0.84559460,0.40050682,-0.03864676
5.88000000,0.27457982,0.77645992,-0.22997739,-0.47268862,0.84739783,0.39997487,0.04401100,0.27149439,-0.78025707,0.23105071,-0.47612951,-0.84523803,0.40050472,-0.03747982
5.90000000,0.27431886,0.77646340,-0.23009287,-0.47256255,0.84736562,0.39999811,0.04377145,0.27045608,-0.78051156,0.23122305,-0.47614667,-0.84485368,0.40050245,-0.03622198
5.92000000,0.27403901,0.77646713,-0.23021672,-0.47242734,0.84733107,0.40002302,0.04351455,0.26934257,-0.78078448,0.23140787,-0.47616508,-0.84444149,0.40050002,-0.03487303
5.94000000,0.27374028,0.77647111,-0.23034891,-0.47228302,0.84729419,0.40004962,0.04324033,0.26815395,-0.78107582,0.23160516,-0.47618472,-0.84400150,0.40049742,-0.03343309
5.96000000,0.27342276,0.77647534,-0.23048942,-0.47212962,0.84725499,0.40007789,0.04294886,0.26689058,-0.78138548,0.23181486,-0.47620560,-0.84353383,0.40049466,-0.03190261
5.98000000,0.27308661,0.77647982,-0.23063818,-0.47196722,0.84721349,0.40010782,0.04264028,0.26555307,-0.78171330,0.23203686,-0.47622770,-0.84303873,0.40049174,-0.03028231
6.00000000,0.27273204,0.77648455,-0.23079509,-0.47179593,0.84716972,0.40013938,0.04231481,0.26414229,-0.78205909,0.23227102,-0.47625102,-0.84251650,0.40048866,-0.02857324
6.02000000,0.27235934,0.77648952,-0.23096002,-0.47161587,0.84712371,0.40017257,0.04197267,0.26265932,-0.78242257,0.23251717,-0.47627552,-0.84196755,0.40048542,-0.02677673
6.04000000,0.27196882,0.77649473,-0.23113283,-0.47142720,0.84707550,0.40020733,0.04161419,0.26110549,-0.78280342,0.23277508,-0.47630120,-0.84139237,0.40048202,-0.02489437
6.06000000,0.27156087,0.77650016,-0.23131336,-0.47123012,0.84702514,0.40024365,0.04123971,0.25948232,-0.78320126,0.23304450,-0.47632803,-0.84079152,0.40047847,-0.02292801
6.08000000,0.27113594,0.77650583,-0.23150140,-0.47102482,0.84697268,0.40028148,0.04084964,0.25779156,-0.78361568,0.23332513,-0.47635597,-0.84016565,0.40047478,-0.02087976
6.10000000,0.27069451,0.77651171,-0.23169675,-0.47081156,0.84691819,0.40032079,0.04044442,0.25603514,-0.78404618,0.23361667,-0.47638499,-0.83951548,0.40047094,-0.01875198
6.12000000,0.27023711,0.77651781,-0.23189916,-0.47059058,0.84686172,0.40036151,0.04002454,0.25421519,-0.78449226,0.23391875,-0.47641507,-0.83884179,0.40046697,-0.01654723
6.14000000,0.26976432,0.77652411,-0.23210839,-0.47036217,0.84680335,0.40040360,0.03959053,0.25233400,-0.78495334,0.23423099,-0.47644616,-0.83814543,0.40046285,-0.01426830
6.16000000,0.26927676,0.77653061,-0.23232415,-0.47012662,0.84674316,0.40044701,0.03914297,0.25039406,-0.78542883,0.23455298,-0.47647822,-0.83742732,0.40045862,-0.01191819
6.18000000,0.26877509,0.77653730,-0.23254615,-0.46988426,0.84668123,0.40049167,0.03868246,0.24839798,-0.78591807,0.23488430,-0.47651120,-0.83668843,0.40045425,-0.00950008
6.20000000,0.26826002,0.77654417,-0.23277408,-0.46963542,0.84661764,0.40053753,0.03820964,0.24634856,-0.78642039,0.23522446,-0.47654507,-0.83592980,0.40044978,-0.00701734
6.22000000,0.26773228,0.77655120,-0.23300762,-0.46938046,0.84655249,0.40058451,0.03772519,0.24424871,-0.78693507,0.23557300,-0.47657978,-0.83515250,0.40044519,-0.00447352
6.24000000,0.26719263,0.77655840,-0.23324643,-0.46911974,0.84648587,0.40063256,0.03722981,0.24210149,-0.78746137,0.23592940,-0.47661526,-0.83435766,0.40044050,-0.00187231
6.26000000,0.26664187,0.77656574,-0.23349016,-0.46885366,0.84641788,0.40068159,0.03672423,0.23991007,-0.78799849,0.23629314,-0.47665148,-0.83354647,0.40043571,0.00078245
6.28000000,0.26608082,0.77657322,-0.23373844,-0.46858261,0.84634862,0.40073154,0.03620921,0.23767774,-0.78854564,0.23666366,-0.47668837,-0.83272012,0.40043083,0.00348677
6.30000000,0.26551035,0.77658082,-0.23399089,-0.46830701,0.84627819,0.40078233,0.03568554,0.23540789,-0.78910199,0.23704042,-0.47672588,-0.83187989,0.40042587,0.00623654
6.32000000,0.26493133,0.77658854,-0.23424712,-0.46802727,0.84620671,0.40083388,0.03515401,0.23310401,-0.78966668,0.23742282,-0.47676395,-0.83102707,0.40042084,0.00902754
6.34000000,0.26434464,0.77659636,-0.23450675,-0.46774383,0.84613428,0.40088612,0.03461546,0.23076966,-0.79023884,0.23781028,-0.47680253,-0.83016296,0.40041574,0.01185545
6.36000000,0.26375122,0.77660428,-0.23476935,-0.46745714,0.84606102,0.40093895,0.03407071,0.22840848,-0.79081757,0.23820220,-0.47684155,-0.82928892,0.40041058,0.01471585
6.38000000,0.26315199,0.77661226,-0.23503453,-0.46716764,0.84598705,0.40099230,0.03352064,0.22602420,-0.79140197,0.23859794,-0.47688095,-0.82840633,0.40040537,0.01760425
6.40000000,0.26254789,0.77662032,-0.23530186,-0.46687579,0.84591247,0.40104608,0.03296610,0.22362056,-0.79199110,0.23899690,-0.47692068,-0.82751658,0.40040012,0.02051609
6.42000000,0.26193989,0.77662842,-0.23557091,-0.46658206,0.84583741,0.40110021,0.03240798,0.22120140,-0.79258405,0.23939844,-0.47696065,-0.82662108,0.40039483,0.02344674
6.44000000,0.26132896,0.77663657,-0.23584127,-0.46628691,0.84576199,0.40115461,0.03184716,0.21877055,-0.79317986,0.23980192,-0.47700083,-0.82572125,0.40038952,0.02639155
6.46000000,0.26071606,0.77664474,-0.23611249,-0.46599081,0.84568633,0.40120917,0.03128454,0.21633190,-0.79377758,0.24020669,-0.47704113,-0.82481854,0.40038419,0.02934582
6.48000000,0.26010219,0.77665292,-0.23638415,-0.46569423,0.84561054,0.40126383,0.03072102,0.21388934,-0.79437626,0.24061211,-0.47708149,-0.82391437,0.40037885,0.03230481
6.50000000,0.25948831,0.77666110,-0.23665581,-0.46539766,0.84553476,0.40131848,0.03015750,0.21144678,-0.79497494,0.24101754,-0.47712186,-0.82301021,0.40037352,0.03526381
6.52000000,0.25887541,0.77666928,-0.23692703,-0.46510156,0.84545909,0.40137305,0.02959489,0.20900813,-0.79557266,0.24142231,-0.47716216,-0.82210750,0.40036819,0.03821807
6.54000000,0.25826448,0.77667742,-0.23719739,-0.46480640,0.84538367,0.40142744,0.02903407,0.20657728,-0.79616847,0.24182579,-0.47720233,-0.82120767,0.40036288,0.04116288
6.56000000,0.25765648,0.77668552,-0.23746645,-0.46451267,0.84530861,0.40148157,0.02847595,0.20415811,-0.79676142,0.24222732,-0.47724231,-0.82031217,0.40035759,0.04409353
6.58000000,0.25705238,0.77669358,-0.23773378,-0.46422082,0.84523404,0.40153535,0.02792141,0.20175448,-0.79735056,0.24262628,-0.47728203,-0.81942241,0.40035234,0.04700537
6.60000000,0.25645315,0.77670157,-0.23799895,-0.46393132,0.84516006,0.40158870,0.02737133,0.19937019,-0.79793495,0.24302203,-0.47732144,-0.81853982,0.40034713,0.04989377
6.62000000,0.25585973,0.77670948,-0.23826156,-0.46364463,0.84508680,0.40164153,0.02682659,0.19700902,-0.79851369,0.24341394,-0.47736046,-0.81766579,0.40034197,0.05275418
6.64000000,0.25527305,0.77671730,-0.23852118,-0.46336119,0.84501437,0.40169377,0.02628804,0.19467467,-0.79908584,0.24380141,-0.47739903,-0.81680168,0.40033687,0.05558209
6.66000000,0.25469402,0.77672502,-0.23877742,-0.46308146,0.84494289,0.40174532,0.02575651,0.19237078,-0.79965053,0.24418381,-0.47743711,-0.81594885,0.40033184,0.05837309
6.68000000,0.25412355,0.77673262,-0.23902987,-0.46280585,0.84487247,0.40179611,0.02523284,0.19010093,-0.80020688,0.24456056,-0.47747462,-0.81510862,0.40032688,0.06112286
6.70000000,0.25356251,0.77674010,-0.23927814,-0.46253480,0.84480320,0.40184606,0.02471782,0.18786860,-0.80075403,0.24493109,-0.47751151,-0.81428228,0.40032200,0.06382717
6.72000000,0.25301175,0.77674744,-0.23952187,-0.46226872,0.84473521,0.40189509,0.02421224,0.18567718,-0.80129116,0.24529483,-0.47754773,-0.81347108,0.40031721,0.06648193
6.74000000,0.25247209,0.77675464,-0.23976068,-0.46200801,0.84466859,0.40194314,0.02371686,0.18352996,-0.80181745,0.24565123,-0.47758321,-0.81267625,0.40031252,0.06908314
6.76000000,0.25194435,0.77676167,-0.23999422,-0.46175305,0.84460344,0.40199012,0.02323240,0.18143011,-0.80233213,0.24599976,-0.47761791,-0.81189895,0.40030793,0.07162697
6.78000000,0.25142928,0.77676854,-0.24022216,-0.46150421,0.84453985,0.40203598,0.02275959,0.17938069,-0.80283445,0.24633993,-0.47765178,-0.81114031,0.40030345,0.07410970
6.80000000,0.25092761,0.77677523,-0.24044416,-0.46126184,0.84447792,0.40208064,0.02229907,0.17738462,-0.80332369,0.24667124,-0.47768477,-0.81040143,0.40029909,0.07652781
6.82000000,0.25044005,0.77678173,-0.24065992,-0.46102630,0.84441773,0.40212405,0.02185151,0.17544468,-0.80379918,0.24699324,-0.47771683,-0.80968332,0.40029485,0.07887792
6.84000000,0.24996726,0.77678803,-0.24086914,-0.46079788,0.84435936,0.40216614,0.02141751,0.17356349,-0.80426027,0.24730548,-0.47774792,-0.80898696,0.40029074,0.08115685
6.86000000,0.24950986,0.77679413,-0.24107155,-0.46057690,0.84430290,0.40220687,0.02099763,0.17174354,-0.80470634,0.24760756,-0.47777799,-0.80831327,0.40028677,0.08336160
6.88000000,0.24906843,0.77680001,-0.24126690,-0.46036364,0.84424840,0.40224617,0.02059241,0.16998712,-0.80513685,0.24789910,-0.47780702,-0.80766309,0.40028293,0.08548939
6.90000000,0.24864350,0.77680568,-0.24145494,-0.46015835,0.84419594,0.40228400,0.02020233,0.16829635,-0.80555126,0.24817973,-0.47783496,-0.80703723,0.40027924,0.08753763
6.92000000,0.24823555,0.77681112,-0.24163547,-0.45996126,0.84414558,0.40232032,0.01982786,0.16667319,-0.80594910,0.24844915,-0.47786178,-0.80643638,0.40027569,0.08950399
6.94000000,0.24784504,0.77681632,-0.24180829,-0.45977260,0.84409737,0.40235509,0.01946937,0.16511935,-0.80632995,0.24870706,-0.47788746,-0.80586120,0.40027229,0.09138635
6.96000000,0.24747233,0.77682129,-0.24197322,-0.45959254,0.84405136,0.40238827,0.01912724,0.16363639,-0.80669343,0.24895320,-0.47791197,-0.80531225,0.40026905,0.09318287
6.98000000,0.24711776,0.77682602,-0.24213012,-0.45942124,0.84400759,0.40241984,0.01880176,0.16222561,-0.80703922,0.24918737,-0.47793528,-0.80479002,0.40026597,0.09489193
7.00000000,0.24678161,0.77683050,-0.24227888,-0.45925884,0.84396609,0.40244976,0.01849319,0.16088810,-0.80736705,0.24940937,-0.47795739,-0.80429491,0.40026305,0.09651223
7.02000000,0.24646410,0.77683473,-0.24241939,-0.45910544,0.84392689,0.40247803,0.01820172,0.15962473,-0.80767670,0.24961907,-0.47797827,-0.80382725,0.40026029,0.09804272
7.04000000,0.24616536,0.77683871,-0.24255159,-0.45896112,0.84389001,0.40250463,0.01792749,0.15843611,-0.80796804,0.24981636,-0.47799791,-0.80338726,0.40025769,0.09948265
7.06000000,0.24588551,0.77684245,-0.24267543,-0.45882592,0.84385546,0.40252954,0.01767059,0.15732259,-0.80824097,0.25000118,-0.47801631,-0.80297507,0.40025526,0.10083160
7.08000000,0.24562456,0.77684592,-0.24279091,-0.45869985,0.84382325,0.40255278,0.01743105,0.15628429,-0.80849546,0.25017352,-0.47803347,-0.80259072,0.40025299,0.10208944
7.10000000,0.24538246,0.77684915,-0.24289804,-0.45858289,0.84379336,0.40257433,0.01720881,0.15532101,-0.80873156,0.25033341,-0.47804939,-0.80223414,0.40025088,0.10325638
7.12000000,0.24515911,0.77685213,-0.24299688,-0.45847498,0.84376579,0.40259422,0.01700378,0.15443231,-0.80894938,0.25048092,-0.47806408,-0.80190517,0.40024894,0.10433298
7.14000000,0.24495431,0.77685486,-0.24308751,-0.45837604,0.84374051,0.40261245,0.01681578,0.15361744,-0.80914911,0.25061617,-0.47807754,-0.80160353,0.40024716,0.10532014
7.16000000,0.24476780,0.77685735,-0.24317005,-0.45828594,0.84371748,0.40262905,0.01664458,0.15287536,-0.80933100,0.25073934,-0.47808981,-0.80132884,0.40024554,0.10621913
7.18000000,0.24459925,0.77685959,-0.24324464,-0.45820451,0.84369667,0.40264406,0.01648985,0.15220469,-0.80949538,0.25085066,-0.47810089,-0.80108058,0.40024408,0.10703159
7.20000000,0.24444823,0.77686161,-0.24331147,-0.45813154,0.84367803,0.40265751,0.01635122,0.15160378,-0.80964267,0.25095040,-0.47811082,-0.80085814,0.40024276,0.10775955
7.22000000,0.24431423,0.77686339,-0.24337077,-0.45806681,0.84366149,0.40266944,0.01622821,0.15107062,-0.80977335,0.25103890,-0.47811963,-0.80066078,0.40024160,0.10840544
7.24000000,0.24419667,0.77686496,-0.24342279,-0.45801001,0.84364697,0.40267990,0.01612030,0.15060286,-0.80988799,0.25111654,-0.47812736,-0.80048763,0.40024058,0.10897210
7.26000000,0.24409487,0.77686632,-0.24346784,-0.45796083,0.84363441,0.40268897,0.01602685,0.15019782,-0.80998727,0.25118377,-0.47813406,-0.80033769,0.40023969,0.10946278
7.28000000,0.24400807,0.77686747,-0.24350625,-0.45791890,0.84362369,0.40269669,0.01594717,0.14985245,-0.81007192,0.25124109,-0.47813976,-0.80020985,0.40023894,0.10988117
7.30000000,0.24393541,0.77686844,-0.24353840,-0.45788379,0.84361472,0.40270316,0.01588047,0.14956334,-0.81014278,0.25128908,-0.47814454,-0.80010283,0.40023830,0.11023141
7.32000000,0.24387594,0.77686924,-0.24356472,-0.45785506,0.84360738,0.40270846,0.01582588,0.14932671,-0.81020078,0.25132836,-0.47814845,-0.80001523,0.40023779,0.11051808
7.34000000,0.24382860,0.77686987,-0.24358567,-0.45783219,0.84360153,0.40271267,0.01578243,0.14913837,-0.81024695,0.25135961,-0.47815156,-0.79994552,0.40023738,0.11074623
7.36000000,0.24379226,0.77687035,-0.24360175,-0.45781464,0.84359705,0.40271591,0.01574907,0.14899378,-0.81028239,0.25138362,-0.47815395,-0.79989199,0.40023706,0.11092140
7.38000000,0.24376567,0.77687071,-0.24361352,-0.45780179,0.84359377,0.40271828,0.01572465,0.14888795,-0.81030832,0.25140118,-0.47815570,-0.79985282,0.40023683,0.11104960
7.40000000,0.24374746,0.77687095,-0.24362158,-0.45779299,0.84359152,0.40271990,0.01570794,0.14881552,-0.81032608,0.25141320,-0.47815690,-0.79982601,0.40023667,0.11113735
7.42000000,0.24373619,0.77687110,-0.24362657,-0.45778755,0.84359013,0.40272090,0.01569759,0.14877066,-0.81033707,0.25142065,-0.47815764,-0.79980940,0.40023657,0.11119169
7.44000000,0.24373028,0.77687118,-0.24362918,-0.45778469,0.84358940,0.40272143,0.01569217,0.14874716,-0.81034283,0.25142455,-0.47815803,-0.79980070,0.40023652,0.11122016
7.46000000,0.24372806,0.77687121,-0.24363016,-0.45778362,0.84358912,0.40272162,0.01569013,0.14873833,-0.81034500,0.25142602,-0.47815817,-0.79979743,0.40023650,0.11123086
7.48000000,0.24372774,0.77687121,-0.24363030,-0.45778346,0.84358908,0.40272165,0.01568984,0.14873705,-0.81034531,0.25142623,-0.47815820,-0.79979696,0.40023650,0.11123241
7.50000000,0.24372774,0.77687121,-0.24363030,-0.45778346,0.84358908,0.40272165,0.01568984,0.14873705,-0.81034531,0.25142623,-0.47815820,-0.79979696,0.40023650,0.11123241
7.52000000,0.24372774,0.77687121,-0.24363030,-0.45778346,0.84358908,0.40272165,0.01568984,0.14873705,-0.81034531,0.25142623,-0.47815820,-0.79979696,0.40023650,0.11123241
7.54000000,0.24372774,0.77687121,-0.24363030,-0.45778346,0.84358908,0.40272165,0.01568984,0.14873705,-0.81034531,0.25142623,-0.47815820,-0.79979696,0.40023650,0.11123241
7.56000000,0.24372774,0.77687121,-0.24363030,-0.45778346,0.84358908,0.40272165,0.01568984,0.14873705,-0.81034531,0.25142623,-0.47815820,-0.79979696,0.40023650,0.11123241
7.58000000,0.24372774,0.77687121,-0.24363030,-0.45778346,0.84358908,0.40272165,0.01568984,0.14873705,-0.81034531,0.25142623,-0.47815820,-0.79979696,0.40023650,0.11123241
7.60000000,0.24372774,0.77687121,-0.24363030,-0.45778346,0.84358908,0.40272165,0.01568984,0.14873705,-0.81034531,0.25142623,-0.47815820,-0.79979696,0.40023650,0.11123241
7.62000000,0.24372774,0.77687121,-0.24363030,-0.45778346,0.84358908,0.40272165,0.01568984,0.14873705,-0.81034531,0.25142623,-0.47815820,-0.79979696,0.40023650,0.11123241
7.64000000,0.24372774,0.77687121,-0.24363030,-0.45778346,0.84358908,0.40272165,0.01568984,0.14873705,-0.81034531,0.25142623,-0.47815820,-0.79979696,0.40023650,0.11123241
7.66000000,0.24372774,0.77687121,-0.24363030,-0.45778346,0.84358908,0.40272165,0.01568984,0.14873705,-0.81034531,0.25142623,-0.47815820,-0.79979696,0.40023650,0.11123241
7.68000000,0.24372774,0.77687121,-0.24363030,-0.45778346,0.84358908,0.40272165,0.01568984,0.14873705,-0.81034531,0.25142623,-0.47815820,-0.79979696,0.40023650,0.11123241
7.70000000,0.24372774,0.77687121,-0.24363030,-0.45778346,0.84358908,0.40272165,0.01568984,0.14873705,-0.81034531,0.25142623,-0.47815820,-0.79979696,0.40023650,0.11123241
7.72000000,0.24372774,0.77687121,-0.24363030,-0.45778346,0.84358908,0.40272165,0.01568984,0.14873705,-0.81034531,0.25142623,-0.47815820,-0.79979696,0.40023650,0.11123241
7.74000000,0.24372774,0.77687121,-0.24363030,-0.45778346,0.84358908,0.40272165,0.01568984,0.14873705,-0.81034531,0.25142623,-0.47815820,-0.79979696,0.40023650,0.11123241
7.76000000,0.24372774,0.77687121,-0.24363030,-0.45778346,0.84358908,0.40272165,0.01568984,0.14873705,-0.81034531,0.25142623,-0.47815820,-0.79979696,0.40023650,0.11123241
7.78000000,0.24372774,0.77687121,-0.24363030,-0.45778346,0.84358908,0.40272165,0.01568984,0.14873705,-0.81034531,0.25142623,-0.47815820,-0.79979696,0.40023650,0.11123241
7.80000000,0.24372774,0.77687121,-0.24363030,-0.45778346,0.84358908,0.40272165,0.01568984,0.14873705,-0.81034531,0.25142623,-0.47815820,-0.79979696,0.40023650,0.11123241
7.82000000,0.24372774,0.77687121,-0.24363030,-0.45778346,0.84358908,0.40272165,0.01568984,0.14873705,-0.81034531,0.25142623,-0.47815820,-0.79979696,0.40023650,0.11123241
7.84000000,0.24372774,0.77687121,-0.24363030,-0.45778346,0.84358908,0.40272165,0.01568984,0.14873705,-0.81034531,0.25142623,-0.47815820,-0.79979696,0.40023650,0.11123241
7.86000000,0.24372774,0.77687121,-0.24363030,-0.45778346,0.84358908,0.40272165,0.01568984,0.14873705,-0.81034531,0.25142623,-0.47815820,-0.79979696,0.40023650,0.11123241
7.88000000,0.24372774,0.77687121,-0.24363030,-0.45778346,0.84358908,0.40272165,0.01568984,0.14873705,-0.81034531,0.25142623,-0.47815820,-0.79979696,0.40023650,0.11123241
7.90000000,0.24372774,0.77687121,-0.24363030,-0.45778346,0.84358908,0.40272165,0.01568984,0.14873705,-0.81034531,0.25142623,-0.47815820,-0.79979696,0.40023650,0.11123241
7.92000000,0.24372774,0.77687121,-0.24363030,-0.45778346,0.84358908,0.40272165,0.01568984,0.14873705,-0.81034531,0.25142623,-0.47815820,-0.79979696,0.40023650,0.11123241
7.94000000,0.24372774,0.77687121,-0.24363030,-0.45778346,0.84358908,0.40272165,0.01568984,0.14873705,-0.81034531,0.25142623,-0.47815820,-0.79979696,0.40023650,0.11123241
7.96000000,0.24372774,0.77687121,-0.24363030,-0.45778346,0.84358908,0.40272165,0.01568984,0.14873705,-0.81034531,0.25142623,-0.47815820,-0.79979696,0.40023650,0.11123241
7.98000000,0.24372774,0.77687121,-0.24363030,-0.45778346,0.84358908,0.40272165,0.01568984,0.14873705,-0.81034531,0.25142623,-0.47815820,-0.79979696,0.40023650,0.11123241
8.00000000,0.24372807,0.77687121,-0.24363016,-0.45778364,0.84358912,0.40272162,0.01569014,0.14873324,-0.81034520,0.25142528,-0.47815354,-0.79979679,0.40023269,0.11123414
8.02000000,0.24373034,0.77687124,-0.24362920,-0.45778481,0.84358938,0.40272144,0.01569220,0.14870709,-0.81034443,0.25141873,-0.47812148,-0.79979566,0.40020649,0.11124601
8.04000000,0.24373638,0.77687131,-0.24362664,-0.45778794,0.84359007,0.40272094,0.01569771,0.14863749,-0.81034236,0.25140129,-0.47803617,-0.79979264,0.40013674,0.11127761
8.06000000,0.24374790,0.77687143,-0.24362176,-0.45779390,0.84359138,0.40271999,0.01570821,0.14850466,-0.81033843,0.25136802,-0.47787337,-0.79978688,0.40000364,0.11133792
8.08000000,0.24376651,0.77687164,-0.24361387,-0.45780354,0.84359351,0.40271845,0.01572518,0.14829015,-0.81033207,0.25131428,-0.47761044,-0.79977757,0.39978868,0.11143531
8.10000000,0.24379370,0.77687194,-0.24360235,-0.45781762,0.84359661,0.40271621,0.01574996,0.14797675,-0.81032279,0.25123578,-0.47722633,-0.79976398,0.39947465,0.11157760
8.12000000,0.24383085,0.77687236,-0.24358661,-0.45783686,0.84360085,0.40271315,0.01578382,0.14754855,-0.81031010,0.25112852,-0.47670150,-0.79974540,0.39904557,0.11177200
8.14000000,0.24387923,0.77687289,-0.24356610,-0.45786191,0.84360636,0.40270915,0.01582793,0.14699083,-0.81029358,0.25098881,-0.47601791,-0.79972121,0.39848670,0.11202522
8.16000000,0.24394003,0.77687357,-0.24354034,-0.45789340,0.84361330,0.40270414,0.01588334,0.14629006,-0.81027282,0.25081327,-0.47515900,-0.79969081,0.39778449,0.11234338
8.18000000,0.24401430,0.77687439,-0.24350886,-0.45793186,0.84362177,0.40269801,0.01595105,0.14543389,-0.81024746,0.25059880,-0.47410962,-0.79965367,0.39692657,0.11273209
8.20000000,0.24410303,0.77687538,-0.24347126,-0.45797781,0.84363190,0.40269069,0.01603193,0.14441112,-0.81021716,0.25034260,-0.47285604,-0.79960930,0.39590169,0.11319644
8.22000000,0.24420709,0.77687654,-0.24342716,-0.45803169,0.84364377,0.40268211,0.01612679,0.14321164,-0.81018162,0.25004214,-0.47138587,-0.79955727,0.39469975,0.11374103
8.24000000,0.24432726,0.77687787,-0.24337623,-0.45809392,0.84365748,0.40267219,0.01623633,0.14182642,-0.81014058,0.24969515,-0.46968805,-0.79949718,0.39331169,0.11436993
8.26000000,0.24446424,0.77687939,-0.24331818,-0.45816486,0.84367310,0.40266089,0.01636119,0.14024752,-0.81009381,0.24929964,-0.46775284,-0.79942869,0.39172955,0.11508678
8.28000000,0.24461862,0.77688111,-0.24325276,-0.45824480,0.84369071,0.40264815,0.01650192,0.13846800,-0.81004109,0.24885388,-0.46557172,-0.79935149,0.38994637,0.11589471
8.30000000,0.24479092,0.77688302,-0.24317974,-0.45833403,0.84371037,0.40263394,0.01665898,0.13648191,-0.80998225,0.24835637,-0.46313744,-0.79926533,0.38795621,0.11679642
8.32000000,0.24498157,0.77688514,-0.24309894,-0.45843275,0.84373212,0.40261821,0.01683277,0.13428430,-0.80991714,0.24780588,-0.46044390,-0.79917000,0.38575409,0.11779417
8.34000000,0.24519092,0.77688746,-0.24301022,-0.45854116,0.84375600,0.40260094,0.01702360,0.13187116,-0.80984565,0.24720140,-0.45748618,-0.79906532,0.38333599,0.11888977
8.36000000,0.24541923,0.77689000,-0.24291346,-0.45865940,0.84378205,0.40258210,0.01723172,0.12923938,-0.80976769,0.24654215,-0.45426048,-0.79895116,0.38069881,0.12008463
8.38000000,0.24566671,0.77689275,-0.24280858,-0.45878755,0.84381028,0.40256169,0.01745731,0.12638675,-0.80968318,0.24582757,-0.45076409,-0.79882741,0.37784032,0.12137977
8.40000000,0.24593346,0.77689571,-0.24269554,-0.45892569,0.84384071,0.40253968,0.01770047,0.12331192,-0.80959208,0.24505734,-0.44699537,-0.79869402,0.37475918,0.12277579
8.42000000,0.24621953,0.77689889,-0.24257430,-0.45907383,0.84387334,0.40251608,0.01796124,0.12001437,-0.80949439,0.24423132,-0.44295366,-0.79855098,0.37145487,0.12427292
8.44000000,0.24652490,0.77690228,-0.24244489,-0.45923196,0.84390818,0.40249089,0.01823960,0.11649440,-0.80939011,0.24334959,-0.43863934,-0.79839828,0.36792768,0.12587104
8.46000000,0.24684948,0.77690589,-0.24230734,-0.45940004,0.84394521,0.40246411,0.01853547,0.11275307,-0.80927927,0.24241240,-0.43405370,-0.79823599,0.36417867,0.12756965
8.48000000,0.24719310,0.77690970,-0.24216171,-0.45957798,0.84398441,0.40243576,0.01884870,0.10879221,-0.80916193,0.24142022,-0.42919898,-0.79806416,0.36020967,0.12936794
8.50000000,0.24755554,0.77691373,-0.24200811,-0.45976567,0.84402575,0.40240586,0.01917909,0.10461434,-0.80903816,0.24037368,-0.42407829,-0.79788293,0.35602322,0.13126476
8.52000000,0.24793653,0.77691796,-0.24184665,-0.45996297,0.84406922,0.40237443,0.01952638,0.10022270,-0.80890805,0.23927359,-0.41869559,-0.79769242,0.35162257,0.13325862
8.54000000,0.24833573,0.77692239,-0.24167747,-0.46016969,0.84411476,0.40234149,0.01989027,0.09562120,-0.80877173,0.23812094,-0.41305567,-0.79749281,0.34701163,0.13534777
8.56000000,0.24875274,0.77692703,-0.24150075,-0.46038564,0.84416233,0.40230709,0.02027040,0.09081437,-0.80862933,0.23691685,-0.40716408,-0.79728429,0.34219494,0.13753014
8.58000000,0.24918711,0.77693185,-0.24131666,-0.46061058,0.84421188,0.40227125,0.02066636,0.08580737,-0.80848099,0.23566262,-0.40102715,-0.79706709,0.33717766,0.13980339
8.60000000,0.24963835,0.77693686,-0.24112543,-0.46084425,0.84426336,0.40223403,0.02107769,0.08060593,-0.80832690,0.23435968,-0.39465190,-0.79684145,0.33196554,0.14216492
8.62000000,0.25010592,0.77694206,-0.24092728,-0.46108638,0.84431670,0.40219545,0.02150390,0.07521635,-0.80816723,0.23300961,-0.38804605,-0.79660765,0.32656490,0.14461187
8.64000000,0.25058921,0.77694742,-0.24072246,-0.46133665,0.84437183,0.40215558,0.02194445,0.06964543,-0.80800219,0.23161412,-0.38121794,-0.79636599,0.32098255,0.14714114
8.66000000,0.25108761,0.77695296,-0.24051125,-0.46159474,0.84442869,0.40211446,0.02239877,0.06390051,-0.80783199,0.23017504,-0.37417655,-0.79611678,0.31522583,0.14974942
8.68000000,0.25160042,0.77695866,-0.24029392,-0.46186030,0.84448719,0.40207216,0.02286622,0.05798936,-0.80765687,0.22869432,-0.36693144,-0.79586035,0.30930255,0.15243317
8.70000000,0.25212694,0.77696450,-0.24007079,-0.46213295,0.84454726,0.40202872,0.02334617,0.05192023,-0.80747707,0.22717403,-0.35949269,-0.79559708,0.30322097,0.15518864
8.72000000,0.25266641,0.77697050,-0.23984216,-0.46241232,0.84460880,0.40198421,0.02383793,0.04570177,-0.80729285,0.22561634,-0.35187090,-0.79532732,0.29698974,0.15801191
8.74000000,0.25321806,0.77697662,-0.23960838,-0.46269798,0.84467173,0.40193870,0.02434079,0.03934302,-0.80710447,0.22402350,-0.34407717,-0.79505148,0.29061794,0.16089887
8.76000000,0.25378105,0.77698288,-0.23936979,-0.46298953,0.84473596,0.40189225,0.02485399,0.03285338,-0.80691221,0.22239787,-0.33612301,-0.79476996,0.28411498,0.16384526
8.78000000,0.25435456,0.77698925,-0.23912674,-0.46328652,0.84480138,0.40184494,0.02537678,0.02624259,-0.80671636,0.22074189,-0.32802036,-0.79448319,0.27749062,0.16684666
8.80000000,0.25493771,0.77699573,-0.23887960,-0.46358850,0.84486791,0.40179683,0.02590835,0.01952069,-0.80651722,0.21905809,-0.31978152,-0.79419160,0.27075492,0.16989850
8.82000000,0.25552960,0.77700230,-0.23862876,-0.46389501,0.84493543,0.40174800,0.02644789,0.01269799,-0.80631510,0.21734903,-0.31141914,-0.79389563,0.26391822,0.17299610
8.84000000,0.25612932,0.77700896,-0.23837461,-0.46420557,0.84500384,0.40169852,0.02699457,0.00578508,-0.80611030,0.21561738,-0.30294619,-0.79359575,0.25699112,0.17613466
8.86000000,0.25673594,0.77701570,-0.23811753,-0.46451970,0.84507305,0.40164848,0.02754753,-0.00120727,-0.80590315,0.21386582,-0.29437587,-0.79329242,0.24998442,0.17930929
8.88000000,0.25734848,0.77702250,-0.23785794,-0.46483691,0.84514293,0.40159794,0.02810590,-0.00826806,-0.80569397,0.21209712,-0.28572167,-0.79298613,0.24290913,0.18251499
8.90000000,0.25796600,0.77702936,-0.23759624,-0.46515669,0.84521337,0.40154700,0.02866881,-0.01538615,-0.80548309,0.21031407,-0.27699724,-0.79267735,0.23577644,0.18574670
8.92000000,0.25858751,0.77703627,-0.23733285,-0.46547853,0.84528427,0.40149572,0.02923535,-0.02255023,-0.80527085,0.20851950,-0.26821643,-0.79236657,0.22859765,0.18899930
8.94000000,0.25921202,0.77704320,-0.23706818,-0.46580193,0.84535552,0.40144420,0.02980462,-0.02974891,-0.80505759,0.20671626,-0.25939322,-0.79205430,0.22138419,0.19226761
8.96000000,0.25983854,0.77705016,-0.23680267,-0.46612637,0.84542699,0.40139251,0.03037573,-0.03697070,-0.80484364,0.20490724,-0.25054168,-0.79174102,0.21414757,0.19554640
8.98000000,0.26046606,0.77705713,-0.23653673,-0.46645133,0.84549858,0.40134074,0.03094775,-0.04420407,-0.80462935,0.20309531,-0.24167596,-0.79142724,0.20689936,0.19883045
9.00000000,0.26109358,0.77706410,-0.23627079,-0.46677629,0.84557016,0.40128897,0.03151977,-0.05143743,-0.80441506,0.20128338,-0.23281025,-0.79111346,0.19965116,0.20211450
9.02000000,0.26172009,0.77707106,-0.23600528,-0.46710073,0.84564163,0.40123728,0.03209087,-0.05865922,-0.80420111,0.19947435,-0.22395871,-0.79080018,0.19241454,0.20539330
9.04000000,0.26234460,0.77707800,-0.23574062,-0.46742413,0.84571288,0.40118576,0.03266015,-0.06585790,-0.80398784,0.19767112,-0.21513550,-0.79048790,0.18520108,0.20866161
9.06000000,0.26296611,0.77708490,-0.23547723,-0.46774597,0.84578378,0.40113449,0.03322669,-0.07302199,-0.80377561,0.19587654,-0.20635469,-0.79017713,0.17802229,0.21191421
9.08000000,0.26358363,0.77709176,-0.23521553,-0.46806575,0.84585423,0.40108354,0.03378959,-0.08014007,-0.80356473,0.19409349,-0.19763026,-0.78986835,0.17088960,0.21514592
9.10000000,0.26419618,0.77709856,-0.23495593,-0.46838296,0.84592410,0.40103301,0.03434796,-0.08720087,-0.80335555,0.19232480,-0.18897606,-0.78956205,0.16381431,0.21835162
9.12000000,0.26480279,0.77710530,-0.23469886,-0.46869709,0.84599331,0.40098296,0.03490092,-0.09419321,-0.80314840,0.19057324,-0.18040574,-0.78925873,0.15680761,0.22152625
9.14000000,0.26540251,0.77711196,-0.23444470,-0.46900765,0.84606172,0.40093348,0.03544760,-0.10110613,-0.80294360,0.18884159,-0.17193279,-0.78895885,0.14988051,0.22466481
9.16000000,0.26599440,0.77711854,-0.23419386,-0.46931416,0.84612924,0.40088465,0.03598714,-0.10792882,-0.80274148,0.18713253,-0.16357041,-0.78866288,0.14304381,0.22776241
9.18000000,0.26657755,0.77712502,-0.23394673,-0.46961614,0.84619577,0.40083654,0.03651872,-0.11465073,-0.80254234,0.18544872,-0.15533157,-0.78837129,0.13630811,0.23081425
9.20000000,0.26715106,0.77713139,-0.23370368,-0.46991313,0.84626119,0.40078923,0.03704150,-0.12126152,-0.80234649,0.18379275,-0.14722892,-0.78808451,0.12968375,0.23381565
9.22000000,0.26771406,0.77713764,-0.23346508,-0.47020468,0.84632542,0.40074278,0.03755471,-0.12775116,-0.80215423,0.18216712,-0.13927476,-0.78780299,0.12318079,0.23676204
9.24000000,0.26826571,0.77714377,-0.23323130,-0.47049035,0.84638835,0.40069727,0.03805756,-0.13410991,-0.80196585,0.18057428,-0.13148103,-0.78752715,0.11680899,0.23964900
9.26000000,0.26880518,0.77714976,-0.23300268,-0.47076971,0.84644989,0.40065276,0.03854932,-0.14032837,-0.80178163,0.17901658,-0.12385924,-0.78725740,0.11057776,0.24247227
9.28000000,0.26933170,0.77715561,-0.23277954,-0.47104236,0.84650996,0.40060933,0.03902927,-0.14639750,-0.80160182,0.17749629,-0.11642049,-0.78699412,0.10449618,0.24522774
9.30000000,0.26984451,0.77716130,-0.23256222,-0.47130792,0.84656846,0.40056702,0.03949673,-0.15230864,-0.80142670,0.17601558,-0.10917538,-0.78673770,0.09857290,0.24791149
9.32000000,0.27034290,0.77716684,-0.23235100,-0.47156601,0.84662532,0.40052590,0.03995104,-0.15805357,-0.80125651,0.17457650,-0.10213399,-0.78648848,0.09281618,0.25051977
9.34000000,0.27082620,0.77717221,-0.23214618,-0.47181629,0.84668045,0.40048603,0.04039159,-0.16362448,-0.80109147,0.17318101,-0.09530588,-0.78624682,0.08723383,0.25304904
9.36000000,0.27129376,0.77717740,-0.23194803,-0.47205841,0.84673379,0.40044746,0.04081781,-0.16901407,-0.80093180,0.17183094,-0.08870003,-0.78601302,0.08183318,0.25549599
9.38000000,0.27174501,0.77718241,-0.23175680,-0.47229209,0.84678527,0.40041023,0.04122914,-0.17421551,-0.80077770,0.17052800,-0.08232478,-0.78578739,0.07662107,0.25785752
9.40000000,0.27217938,0.77718724,-0.23157272,-0.47251703,0.84683482,0.40037439,0.04162510,-0.17922251,-0.80062937,0.16927377,-0.07618785,-0.78557018,0.07160379,0.26013077
9.42000000,0.27259639,0.77719187,-0.23139599,-0.47273297,0.84688239,0.40033999,0.04200522,-0.18402933,-0.80048697,0.16806968,-0.07029626,-0.78536166,0.06678710,0.26231314
9.44000000,0.27299559,0.77719630,-0.23122681,-0.47293969,0.84692793,0.40030706,0.04236911,-0.18863083,-0.80035064,0.16691702,-0.06465634,-0.78516205,0.06217615,0.26440228
9.46000000,0.27337658,0.77720054,-0.23106535,-0.47313699,0.84697140,0.40027562,0.04271641,-0.19302247,-0.80022054,0.16581694,-0.05927364,-0.78497155,0.05777550,0.26639615
9.48000000,0.27373902,0.77720456,-0.23091175,-0.47332468,0.84701274,0.40024572,0.04304680,-0.19720034,-0.80009677,0.16477040,-0.05415295,-0.78479031,0.05358906,0.26829296
9.50000000,0.27408264,0.77720838,-0.23076613,-0.47350262,0.84705194,0.40021737,0.04336002,-0.20116121,-0.79997943,0.16377822,-0.04929823,-0.78461849,0.04962006,0.27009125
9.52000000,0.27440721,0.77721198,-0.23062858,-0.47367070,0.84708897,0.40019060,0.04365589,-0.20490254,-0.79986859,0.16284103,-0.04471259,-0.78445619,0.04587105,0.27178987
9.54000000,0.27471258,0.77721538,-0.23049916,-0.47382883,0.84712381,0.40016540,0.04393425,-0.20842251,-0.79976431,0.16195930,-0.04039827,-0.78430350,0.04234386,0.27338799
9.56000000,0.27499866,0.77721855,-0.23037793,-0.47397698,0.84715644,0.40014180,0.04419502,-0.21172005,-0.79966662,0.16113327,-0.03635656,-0.78416045,0.03903955,0.27488512
9.58000000,0.27526541,0.77722152,-0.23026488,-0.47411511,0.84718687,0.40011980,0.04443818,-0.21479488,-0.79957552,0.16036304,-0.03258784,-0.78402707,0.03595840,0.27628114
9.60000000,0.27551289,0.77722426,-0.23016000,-0.47424327,0.84721510,0.40009938,0.04466377,-0.21764751,-0.79949101,0.15964847,-0.02909145,-0.78390332,0.03309992,0.27757627
9.62000000,0.27574120,0.77722680,-0.23006324,-0.47436150,0.84724115,0.40008054,0.04487189,-0.22027929,-0.79941304,0.15898922,-0.02586575,-0.78378915,0.03046273,0.27877114
9.64000000,0.27595055,0.77722913,-0.22997452,-0.47446991,0.84726503,0.40006327,0.04506273,-0.22269244,-0.79934155,0.15838474,-0.02290803,-0.78368447,0.02804464,0.27986674
9.66000000,0.27614120,0.77723124,-0.22989373,-0.47456864,0.84728678,0.40004754,0.04523652,-0.22489004,-0.79927645,0.15783425,-0.02021449,-0.78358914,0.02584252,0.28086449
9.68000000,0.27631350,0.77723316,-0.22982071,-0.47465786,0.84730644,0.40003333,0.04539358,-0.22687613,-0.79921761,0.15733674,-0.01778021,-0.78350298,0.02385236,0.28176620
9.70000000,0.27646788,0.77723487,-0.22975528,-0.47473781,0.84732405,0.40002059,0.04553430,-0.22865566,-0.79916489,0.15689098,-0.01559909,-0.78342579,0.02206918,0.28257413
9.72000000,0.27660486,0.77723639,-0.22969723,-0.47480874,0.84733967,0.40000929,0.04565916,-0.23023456,-0.79911812,0.15649547,-0.01366388,-0.78335730,0.02048704,0.28329097
9.74000000,0.27672503,0.77723773,-0.22964630,-0.47487097,0.84735338,0.39999938,0.04576871,-0.23161977,-0.79907708,0.15614848,-0.01196606,-0.78329721,0.01909898,0.28391988
9.76000000,0.27682909,0.77723888,-0.22960221,-0.47492486,0.84736525,0.39999079,0.04586356,-0.23281925,-0.79904154,0.15584802,-0.01049589,-0.78324517,0.01789704,0.28446446
9.78000000,0.27691782,0.77723987,-0.22956460,-0.47497080,0.84737538,0.39998347,0.04594444,-0.23384203,-0.79901124,0.15559181,-0.00924231,-0.78320081,0.01687216,0.28492882
9.80000000,0.27699209,0.77724070,-0.22953312,-0.47500927,0.84738385,0.39997734,0.04601215,-0.23469819,-0.79898588,0.15537735,-0.00819293,-0.78316367,0.01601424,0.28531753
9.82000000,0.27705289,0.77724137,-0.22950736,-0.47504075,0.84739079,0.39997233,0.04606757,-0.23539896,-0.79896512,0.15520181,-0.00733402,-0.78313327,0.01531203,0.28563569
9.84000000,0.27710127,0.77724191,-0.22948686,-0.47506581,0.84739631,0.39996834,0.04611167,-0.23595669,-0.79894859,0.15506210,-0.00665043,-0.78310907,0.01475316,0.28588890
9.86000000,0.27713842,0.77724232,-0.22947111,-0.47508504,0.84740054,0.39996527,0.04614554,-0.23638489,-0.79893591,0.15495484,-0.00612560,-0.78309050,0.01432408,0.28608331
9.88000000,0.27716561,0.77724262,-0.22945959,-0.47509912,0.84740364,0.39996303,0.04617032,-0.23669828,-0.79892662,0.15487634,-0.00574149,-0.78307690,0.01401005,0.28622560
9.90000000,0.27718422,0.77724283,-0.22945170,-0.47510876,0.84740577,0.39996149,0.04618728,-0.23691280,-0.79892027,0.15482260,-0.00547856,-0.78306760,0.01379509,0.28632299
9.92000000,0.27719574,0.77724296,-0.22944682,-0.47511473,0.84740708,0.39996054,0.04619779,-0.23704562,-0.79891633,0.15478933,-0.00531576,-0.78306184,0.01366199,0.28638330
9.94000000,0.27720178,0.77724302,-0.22944426,-0.47511785,0.84740777,0.39996005,0.04620329,-0.23711523,-0.79891427,0.15477189,-0.00523045,-0.78305882,0.01359224,0.28641490
9.96000000,0.27720405,0.77724305,-0.22944330,-0.47511903,0.84740803,0.39995986,0.04620536,-0.23714138,-0.79891350,0.15476534,-0.00519839,-0.78305768,0.01356604,0.28642677
9.98000000,0.27720438,0.77724305,-0.22944316,-0.47511920,0.84740807,0.39995983,0.04620566,-0.23714518,-0.79891339,0.15476439,-0.00519373,-0.78305752,0.01356223,0.28642850
10.00000000,0.27720438,0.77724305,-0.22944316,-0.47511920,0.84740807,0.39995983,0.04620566,-0.23714518,-0.79891339,0.15476439,-0.00519373,-0.78305752,0.01356223,0.28642850
10.02000000,0.27720438,0.77724305,-0.22944316,-0.47511920,0.84740807,0.39995983,0.04620566,-0.23714518,-0.79891339,0.15476439,-0.00519373,-0.78305752,0.01356223,0.28642850
10.04000000,0.27720438,0.77724305,-0.22944316,-0.47511920,0.84740807,0.39995983,0.04620566,-0.23714518,-0.79891339,0.15476439,-0.00519373,-0.78305752,0.01356223,0.28642850
10.06000000,0.27720438,0.77724305,-0.22944316,-0.47511920,0.84740807,0.39995983,0.04620566,-0.23714518,-0.79891339,0.15476439,-0.00519373,-0.78305752,0.01356223,0.28642850
10.08000000,0.27720438,0.77724305,-0.22944316,-0.47511920,0.84740807,0.39995983,0.04620566,-0.23714518,-0.79891339,0.15476439,-0.00519373,-0.78305752,0.01356223,0.28642850
10.10000000,0.27720438,0.77724305,-0.22944316,-0.47511920,0.84740807,0.39995983,0.04620566,-0.23714518,-0.79891339,0.15476439,-0.00519373,-0.78305752,0.01356223,0.28642850
10.12000000,0.27720438,0.77724305,-0.22944316,-0.47511920,0.84740807,0.39995983,0.04620566,-0.23714518,-0.79891339,0.15476439,-0.00519373,-0.78305752,0.01356223,0.28642850
10.14000000,0.27720438,0.77724305,-0.22944316,-0.47511920,0.84740807,0.39995983,0.04620566,-0.23714518,-0.79891339,0.15476439,-0.00519373,-0.78305752,0.01356223,0.28642850
10.16000000,0.27720438,0.77724305,-0.22944316,-0.47511920,0.84740807,0.39995983,0.04620566,-0.23714518,-0.79891339,0.15476439,-0.00519373,-0.78305752,0.01356223,0.28642850
10.18000000,0.27720438,0.77724305,-0.22944316,-0.47511920,0.84740807,0.39995983,0.04620566,-0.23714518,-0.79891339,0.15476439,-0.00519373,-0.78305752,0.01356223,0.28642850
10.20000000,0.27720438,0.77724305,-0.22944316,-0.47511920,0.84740807,0.39995983,0.04620566,-0.23714518,-0.79891339,0.15476439,-0.00519373,-0.78305752,0.01356223,0.28642850
10.22000000,0.27720438,0.77724305,-0.22944316,-0.47511920,0.84740807,0.39995983,0.04620566,-0.23714518,-0.79891339,0.15476439,-0.00519373,-0.78305752,0.01356223,0.28642850
10.24000000,0.27720438,0.77724305,-0.22944316,-0.47511920,0.84740807,0.39995983,0.04620566,-0.23714518,-0.79891339,0.15476439,-0.00519373,-0.78305752,0.01356223,0.28642850
10.26000000,0.27720438,0.77724305,-0.22944316,-0.47511920,0.84740807,0.39995983,0.04620566,-0.23714518,-0.79891339,0.15476439,-0.00519373,-0.78305752,0.01356223,0.28642850
10.28000000,0.27720438,0.77724305,-0.22944316,-0.47511920,0.84740807,0.39995983,0.04620566,-0.23714518,-0.79891339,0.15476439,-0.00519373,-0.78305752,0.01356223,0.28642850
10.30000000,0.27720438,0.77724305,-0.22944316,-0.47511920,0.84740807,0.39995983,0.04620566,-0.23714518,-0.79891339,0.15476439,-0.00519373,-0.78305752,0.01356223,0.28642850
10.32000000,0.27720438,0.77724305,-0.22944316,-0.47511920,0.84740807,0.39995983,0.04620566,-0.23714518,-0.79891339,0.15476439,-0.00519373,-0.78305752,0.01356223,0.28642850
10.34000000,0.27720438,0.77724305,-0.22944316,-0.47511920,0.84740807,0.39995983,0.04620566,-0.23714518,-0.79891339,0.15476439,-0.00519373,-0.78305752,0.01356223,0.28642850
10.36000000,0.27720438,0.77724305,-0.22944316,-0.47511920,0.84740807,0.39995983,0.04620566,-0.23714518,-0.79891339,0.15476439,-0.00519373,-0.78305752,0.01356223,0.28642850
10.38000000,0.27720438,0.77724305,-0.22944316,-0.47511920,0.84740807,0.39995983,0.04620566,-0.23714518,-0.79891339,0.15476439,-0.00519373,-0.78305752,0.01356223,0.28642850
10.40000000,0.27720438,0.77724305,-0.22944316,-0.47511920,0.84740807,0.39995983,0.04620566,-0.23714518,-0.79891339,0.15476439,-0.00519373,-0.78305752,0.01356223,0.28642850
10.42000000,0.27720438,0.77724305,-0.22944316,-0.47511920,0.84740807,0.39995983,0.04620566,-0.23714518,-0.79891339,0.15476439,-0.00519373,-0.78305752,0.01356223,0.28642850
10.44000000,0.27720438,0.77724305,-0.22944316,-0.47511920,0.84740807,0.39995983,0.04620566,-0.23714518,-0.79891339,0.15476439,-0.00519373,-0.78305752,0.01356223,0.28642850
10.46000000,0.27720438,0.77724305,-0.22944316,-0.47511920,0.84740807,0.39995983,0.04620566,-0.23714518,-0.79891339,0.15476439,-0.00519373,-0.78305752,0.01356223,0.28642850
10.48000000,0.27720438,0.77724305,-0.22944316,-0.47511920,0.84740807,0.39995983,0.04620566,-0.23714518,-0.79891339,0.15476439,-0.00519373,-0.78305752,0.01356223,0.28642850
10.50000000,0.27720220,0.77724353,-0.22944334,-0.47511921,0.84740767,0.39996045,0.04620294,-0.23714368,-0.79891402,0.15476515,-0.00519854,-0.78305626,0.01356574,0.28642923
10.52000000,0.27718724,0.77724682,-0.22944462,-0.47511932,0.84740490,0.39996473,0.04618426,-0.23713333,-0.79891835,0.15477036,-0.00523156,-0.78304760,0.01358986,0.28643431
10.54000000,0.27714742,0.77725558,-0.22944800,-0.47511959,0.84739754,0.39997611,0.04613453,-0.23710581,-0.79892988,0.15478422,-0.00531948,-0.78302455,0.01365408,0.28644782
10.56000000,0.27707143,0.77727229,-0.22945445,-0.47512012,0.84738350,0.39999784,0.04603962,-0.23705328,-0.79895189,0.15481067,-0.00548725,-0.78298058,0.01377662,0.28647360
10.58000000,0.27694871,0.77729927,-0.22946487,-0.47512096,0.84736082,0.40003292,0.04588634,-0.23696844,-0.79898744,0.15485340,-0.00575819,-0.78290955,0.01397452,0.28651523
10.60000000,0.27676942,0.77733870,-0.22948010,-0.47512220,0.84732769,0.40008418,0.04566242,-0.23684450,-0.79903937,0.15491582,-0.00615402,-0.78280579,0.01426364,0.28657606
10.62000000,0.27652445,0.77739256,-0.22950090,-0.47512389,0.84728242,0.40015421,0.04535646,-0.23667516,-0.79911033,0.15500111,-0.00669486,-0.78266401,0.01465868,0.28665916
10.64000000,0.27620539,0.77746272,-0.22952799,-0.47512610,0.84722346,0.40024543,0.04495795,-0.23645459,-0.79920275,0.15511219,-0.00739929,-0.78247935,0.01517321,0.28676741
10.66000000,0.27580448,0.77755088,-0.22956204,-0.47512887,0.84714937,0.40036004,0.04445723,-0.23617746,-0.79931887,0.15525177,-0.00828440,-0.78224733,0.01581970,0.28690342
10.68000000,0.27531468,0.77765858,-0.22960363,-0.47513225,0.84705886,0.40050007,0.04384548,-0.23583886,-0.79946075,0.15542230,-0.00936577,-0.78196386,0.01660956,0.28706958
10.70000000,0.27472957,0.77778724,-0.22965331,-0.47513629,0.84695073,0.40066735,0.04311469,-0.23543438,-0.79963023,0.15562601,-0.01065758,-0.78162523,0.01755312,0.28726809
10.72000000,0.27404335,0.77793813,-0.22971159,-0.47514103,0.84682392,0.40086352,0.04225763,-0.23496001,-0.79982899,0.15586492,-0.01217259,-0.78122808,0.01865971,0.28750089
10.74000000,0.27325089,0.77811239,-0.22977888,-0.47514650,0.84667747,0.40109008,0.04126787,-0.23441220,-0.80005854,0.15614082,-0.01392218,-0.78076945,0.01993764,0.28776973
10.76000000,0.27234762,0.77831101,-0.22985558,-0.47515274,0.84651055,0.40134831,0.04013971,-0.23378778,-0.80032017,0.15645530,-0.01591641,-0.78024668,0.02139426,0.28807617
10.78000000,0.27132957,0.77853487,-0.22994203,-0.47515977,0.84632242,0.40163936,0.03886819,-0.23308402,-0.80061506,0.15680974,-0.01816404,-0.77965749,0.02303597,0.28842155
10.80000000,0.27019336,0.77878472,-0.23003852,-0.47516762,0.84611245,0.40196418,0.03744909,-0.23229857,-0.80094417,0.15720532,-0.02067256,-0.77899991,0.02486824,0.28880702
10.82000000,0.26893613,0.77906117,-0.23014528,-0.47517630,0.84588011,0.40232361,0.03587885,-0.23142947,-0.80130833,0.15764304,-0.02344824,-0.77827229,0.02689564,0.28923354
10.84000000,0.26755560,0.77936474,-0.23026251,-0.47518583,0.84562499,0.40271828,0.03415461,-0.23047513,-0.80170821,0.15812368,-0.02649616,-0.77747331,0.02912190,0.28970189
10.86000000,0.26604999,0.77969581,-0.23039036,-0.47519623,0.84534676,0.40314872,0.03227414,-0.22943432,-0.80214432,0.15864787,-0.02982022,-0.77660194,0.03154985,0.29021267
10.88000000,0.26441803,0.78005466,-0.23052894,-0.47520750,0.84504518,0.40361527,0.03023587,-0.22830618,-0.80261703,0.15921604,-0.03342323,-0.77565745,0.03418155,0.29076632
10.90000000,0.26265896,0.78044147,-0.23067832,-0.47521965,0.84472010,0.40411816,0.02803884,-0.22709016,-0.80312656,0.15982848,-0.03730689,-0.77463939,0.03701824,0.29136310
10.92000000,0.26077247,0.78085629,-0.23083851,-0.47523267,0.84437149,0.40465749,0.02568267,-0.22578606,-0.80367299,0.16048527,-0.04147184,-0.77354759,0.04006040,0.29200310
10.94000000,0.25875874,0.78129909,-0.23100952,-0.47524658,0.84399935,0.40523318,0.02316757,-0.22439399,-0.80425628,0.16118637,-0.04591774,-0.77238215,0.04330776,0.29268627
10.96000000,0.25661837,0.78176974,-0.23119127,-0.47526136,0.84360382,0.40584509,0.02049431,-0.22291439,-0.80487625,0.16193155,-0.05064321,-0.77114341,0.04675933,0.29341240
10.98000000,0.25435240,0.78226801,-0.23138369,-0.47527701,0.84318507,0.40649289,0.01766418,-0.22134796,-0.80553260,0.16272046,-0.05564598,-0.76983199,0.05041344,0.29418114
11.00000000,0.25196229,0.78279357,-0.23158665,-0.47529352,0.84274338,0.40717619,0.01467899,-0.21969571,-0.80622491,0.16355260,-0.06092283,-0.76844872,0.05426774,0.29499199
11.02000000,0.24944989,0.78334603,-0.23180000,-0.47531087,0.84227910,0.40789446,0.01154107,-0.21795893,-0.80695264,0.16442731,-0.06646968,-0.76699467,0.05831926,0.29584434
11.04000000,0.24681742,0.78392488,-0.23202354,-0.47532904,0.84179262,0.40864704,0.00825319,-0.21613915,-0.80771515,0.16534382,-0.07228159,-0.76547114,0.06256439,0.29673741
11.06000000,0.24406749,0.78452957,-0.23225706,-0.47534803,0.84128444,0.40943321,0.00481861,-0.21423816,-0.80851169,0.16630122,-0.07835285,-0.76387963,0.06699893,0.29767034
11.08000000,0.24120305,0.78515944,-0.23250030,-0.47536782,0.84075510,0.41025211,0.00124100,-0.21225802,-0.80934139,0.16729850,-0.08467693,-0.76222183,0.07161815,0.29864212
11.10000000,0.23822736,0.78581376,-0.23275298,-0.47538837,0.84020520,0.41110282,-0.00247555,-0.21020097,-0.81020332,0.16833450,-0.09124659,-0.76049967,0.07641675,0.29965163
11.12000000,0.23514405,0.78649176,-0.23301481,-0.47540966,0.83963541,0.41198430,-0.00632653,-0.20806952,-0.81109642,0.16940798,-0.09805390,-0.75871520,0.08138893,0.30069766
11.14000000,0.23195699,0.78719257,-0.23328545,-0.47543167,0.83904644,0.41289543,-0.01030707,-0.20586636,-0.81201957,0.17051758,-0.10509023,-0.75687070,0.08652839,0.30177889
11.16000000,0.22867039,0.78791526,-0.23356454,-0.47545436,0.83843909,0.41383503,-0.01441195,-0.20359438,-0.81297155,0.17166183,-0.11234634,-0.75496859,0.09182839,0.30289388
11.18000000,0.22528869,0.78865887,-0.23385170,-0.47547772,0.83781416,0.41480181,-0.01863560,-0.20125667,-0.81395108,0.17283919,-0.11981240,-0.75301144,0.09728173,0.30404114
11.20000000,0.22181661,0.78942235,-0.23414654,-0.47550169,0.83717252,0.41579443,-0.02297213,-0.19885647,-0.81495679,0.17404802,-0.12747800,-0.75100198,0.10288082,0.30521906
11.22000000,0.21825910,0.79020461,-0.23444864,-0.47552626,0.83651510,0.41681147,-0.02741535,-0.19639722,-0.81598725,0.17528659,-0.13533222,-0.74894308,0.10861767,0.30642596
11.24000000,0.21462134,0.79100453,-0.23475755,-0.47555138,0.83584285,0.41785146,-0.03195883,-0.19388249,-0.81704095,0.17655311,-0.14336362,-0.74683773,0.11448395,0.30766009
11.26000000,0.21090869,0.79182091,-0.23507281,-0.47557702,0.83515676,0.41891285,-0.03659582,-0.19131599,-0.81811634,0.17784569,-0.15156035,-0.74468905,0.12047099,0.30891962
11.28000000,0.20712673,0.79265253,-0.23539397,-0.47560314,0.83445786,0.41999406,-0.04131938,-0.18870159,-0.81921181,0.17916240,-0.15991010,-0.74250025,0.12656979,0.31020267
11.30000000,0.20328121,0.79349812,-0.23572052,-0.47562970,0.83374722,0.42109344,-0.04612233,-0.18604324,-0.82032568,0.18050125,-0.16840018,-0.74027466,0.13277110,0.31150728
11.32000000,0.19937803,0.79435640,-0.23605197,-0.47565665,0.83302592,0.42220931,-0.05099730,-0.18334502,-0.82145627,0.18186017,-0.17701757,-0.73801571,0.13906539,0.31283145
11.34000000,0.19542323,0.79522603,-0.23638780,-0.47568396,0.83229508,0.42333993,-0.05593673,-0.18061113,-0.82260180,0.18323706,-0.18574892,-0.73572688,0.14544292,0.31417314
11.36000000,0.19142299,0.79610565,-0.23672749,-0.47571159,0.83155584,0.42448354,-0.06093292,-0.17784583,-0.82376049,0.18462977,-0.19458059,-0.73341175,0.15189372,0.31553024
11.38000000,0.18738359,0.79699388,-0.23707050,-0.47573948,0.83080937,0.42563835,-0.06597801,-0.17505346,-0.82493053,0.18603611,-0.20349870,-0.73107396,0.15840768,0.31690062
11.40000000,0.18331142,0.79788931,-0.23741630,-0.47576760,0.83005684,0.42680253,-0.07106405,-0.17223843,-0.82611006,0.18745387,-0.21248919,-0.72871720,0.16497448,0.31828213
11.42000000,0.17921293,0.79879053,-0.23776433,-0.47579591,0.82929945,0.42797423,-0.07618294,-0.16940520,-0.82729721,0.18888079,-0.22153777,-0.72634520,0.17158372,0.31967256
11.44000000,0.17509465,0.79969611,-0.23811405,-0.47582435,0.82853840,0.42915159,-0.08132656,-0.16655830,-0.82849010,0.19031459,-0.23063005,-0.72396176,0.17822489,0.32106971
11.46000000,0.17096315,0.80060459,-0.23846488,-0.47585288,0.82777491,0.43033273,-0.08648670,-0.16370226,-0.82968681,0.19175301,-0.23975152,-0.72157066,0.18488737,0.32247134
11.48000000,0.16682502,0.80151453,-0.23881628,-0.47588146,0.82701019,0.43151576,-0.09165510,-0.16084164,-0.83088544,0.19319372,-0.24888760,-0.71917573,0.19156053,0.32387522
11.50000000,0.16268690,0.80242447,-0.23916768,-0.47591003,0.82624547,0.43269879,-0.09682350,-0.15798102,-0.83208408,0.19463444,-0.25802368,-0.71678081,0.19823368,0.32527909
11.52000000,0.15855540,0.80333295,-0.23951852,-0.47593856,0.82548198,0.43387993,-0.10198363,-0.15512497,-0.83328079,0.19607285,-0.26714515,-0.71438971,0.20489616,0.32668073
11.54000000,0.15443712,0.80423852,-0.23986823,-0.47596700,0.82472093,0.43505729,-0.10712725,-0.15227807,-0.83447368,0.19750666,-0.27623743,-0.71200626,0.21153733,0.32807787
11.56000000,0.15033863,0.80513975,-0.24021626,-0.47599531,0.82396354,0.43622899,-0.11224615,-0.14944484,-0.83566083,0.19893357,-0.28528602,-0.70963427,0.21814657,0.32946830
11.58000000,0.14626646,0.80603518,-0.24056206,-0.47602343,0.82321101,0.43739317,-0.11733218,-0.14662981,-0.83684036,0.20035133,-0.29427650,-0.70727751,0.22471338,0.33084981
11.60000000,0.14222706,0.80692341,-0.24090508,-0.47605132,0.82246454,0.43854798,-0.12237728,-0.14383744,-0.83801040,0.20175767,-0.30319462,-0.70493972,0.23122733,0.33222019
11.62000000,0.13822682,0.80780303,-0.24124477,-0.47607895,0.82172530,0.43969159,-0.12737346,-0.14107214,-0.83916909,0.20315038,-0.31202629,-0.70262459,0.23767813,0.33357729
