gracetata/LocomotionHEC/legged_lab/Reference Data/ArmHack/StandPerturb/g1_arm_trajectory_named_50hz.csv
time_s,left_shoulder_pitch_joint,left_shoulder_roll_joint,left_shoulder_yaw_joint,left_elbow_joint,left_wrist_roll_joint,left_wrist_pitch_joint,left_wrist_yaw_joint,right_shoulder_pitch_joint,right_shoulder_roll_joint,right_shoulder_yaw_joint,right_elbow_joint,right_wrist_roll_joint,right_wrist_pitch_joint,right_wrist_yaw_joint
675025.401335,0.277051,0.774696,-0.22782,-0.470429,0.841484,0.396774,0.046103,0.27831,-0.774337,0.227437,-0.468691,-0.841736,0.397205,-0.046762
675025.421422,0.27354,0.777045,-0.227808,-0.479453,0.845547,0.397421,0.047194,0.275134,-0.777776,0.227497,-0.477631,-0.846446,0.397325,-0.047721
675025.441505,0.271239,0.777009,-0.227904,-0.481886,0.846961,0.397613,0.047745,0.272222,-0.777884,0.227473,-0.479836,-0.848064,0.39784,-0.048093
675025.461604,0.270256,0.777045,-0.22764,-0.48149,0.847309,0.39838,0.047757,0.272198,-0.777896,0.227473,-0.479681,-0.848267,0.398775,-0.047985
675025.481706,0.272593,0.777453,-0.227209,-0.48046,0.847369,0.39953,0.047757,0.274786,-0.777908,0.227521,-0.479273,-0.848243,0.39959,-0.047757
675025.501783,0.276212,0.777513,-0.228216,-0.477943,0.847141,0.399974,0.047637,0.277531,-0.777836,0.228108,-0.478362,-0.848148,0.399997,-0.04741
675025.521869,0.278777,0.777489,-0.229498,-0.477128,0.846817,0.400069,0.047505,0.279532,-0.777788,0.228695,-0.476864,-0.848004,0.400693,-0.046978
675025.542132,0.280191,0.777429,-0.230181,-0.476732,0.846817,0.400093,0.04741,0.280742,-0.7778,0.229162,-0.475678,-0.847932,0.401052,-0.046583
675025.562473,0.280335,0.777393,-0.230397,-0.476493,0.846793,0.400081,0.047398,0.28079,-0.777776,0.229798,-0.47563,-0.847932,0.400824,-0.046511
675025.582603,0.280143,0.777405,-0.230385,-0.476553,0.846829,0.400045,0.047398,0.280719,-0.777812,0.229953,-0.475678,-0.847932,0.400417,-0.046511
675025.602686,0.279664,0.777429,-0.230277,-0.476601,0.846841,0.400045,0.047398,0.280479,-0.777824,0.229833,-0.475774,-0.84798,0.400429,-0.046559
675025.622775,0.279376,0.777453,-0.230085,-0.476637,0.846913,0.400045,0.04741,0.280299,-0.777824,0.229738,-0.475774,-0.848004,0.400621,-0.046583
675025.642872,0.279376,0.777441,-0.230073,-0.476613,0.846961,0.400045,0.04741,0.280323,-0.777824,0.229738,-0.475762,-0.84798,0.400597,-0.046607
675025.662975,0.279436,0.777405,-0.230121,-0.476601,0.846937,0.400045,0.04741,0.280407,-0.777812,0.229857,-0.47575,-0.847956,0.400549,-0.046571
675025.68308,0.279508,0.777417,-0.230157,-0.476577,0.846937,0.400045,0.047422,0.280431,-0.777812,0.229893,-0.47575,-0.847956,0.400513,-0.046583
675025.703172,0.279496,0.777429,-0.230121,-0.476577,0.846961,0.400033,0.047398,0.280395,-0.777812,0.229857,-0.47575,-0.847956,0.400525,-0.046583
675025.723258,0.27946,0.777429,-0.230097,-0.476589,0.846961,0.400033,0.047422,0.280371,-0.777824,0.229845,-0.47575,-0.847956,0.400537,-0.046583
675025.74336,0.279448,0.777429,-0.230097,-0.476577,0.846997,0.400045,0.047398,0.280395,-0.777788,0.229833,-0.47575,-0.847956,0.400525,-0.046595
675025.763458,0.279472,0.777429,-0.230145,-0.476589,0.846973,0.400033,0.04741,0.280395,-0.777812,0.229857,-0.47575,-0.847956,0.400537,-0.046583
675025.78355,0.279484,0.777429,-0.230121,-0.476577,0.847009,0.400033,0.04741,0.280407,-0.777824,0.229833,-0.475762,-0.848004,0.400525,-0.046583
675025.803639,0.279496,0.777417,-0.230121,-0.476565,0.847057,0.400033,0.047422,0.280383,-0.777812,0.229857,-0.47575,-0.847968,0.400525,-0.046571
675025.823719,0.27946,0.777429,-0.230121,-0.476577,0.847105,0.400033,0.04741,0.280383,-0.7778,0.229833,-0.475774,-0.847944,0.400513,-0.046607
675025.843811,0.279472,0.777429,-0.230109,-0.476589,0.847153,0.400033,0.04741,0.280371,-0.777824,0.229833,-0.475762,-0.847968,0.400537,-0.046595
675025.863898,0.279484,0.777429,-0.230109,-0.476565,0.847165,0.400033,0.047422,0.280407,-0.777788,0.229857,-0.475762,-0.847968,0.400501,-0.046583
675025.883978,0.279496,0.777405,-0.230121,-0.476565,0.847165,0.400045,0.047386,0.280371,-0.777812,0.229833,-0.475762,-0.847968,0.400525,-0.046583
675025.904081,0.279496,0.777441,-0.230133,-0.476553,0.847165,0.400033,0.04741,0.280383,-0.777812,0.229833,-0.47575,-0.847956,0.400525,-0.046583
675025.924175,0.279472,0.777429,-0.230097,-0.476565,0.847177,0.400045,0.04741,0.280371,-0.777824,0.229833,-0.47575,-0.847968,0.400525,-0.046595
675025.944251,0.279472,0.777429,-0.230109,-0.476553,0.847177,0.400045,0.04741,0.280383,-0.777812,0.229833,-0.47575,-0.847968,0.400537,-0.046583
675025.964414,0.279472,0.777429,-0.230133,-0.476553,0.847177,0.400033,0.047398,0.280395,-0.777836,0.229857,-0.475738,-0.847968,0.400537,-0.046595
675025.984496,0.279484,0.777405,-0.230121,-0.476553,0.847165,0.400045,0.047398,0.280407,-0.7778,0.229833,-0.475762,-0.847956,0.400573,-0.046583
675026.004579,0.279484,0.777429,-0.230109,-0.476541,0.847177,0.400009,0.04741,0.280395,-0.7778,0.229833,-0.47575,-0.84798,0.400513,-0.046583
675026.024676,0.27946,0.777405,-0.230133,-0.476541,0.847141,0.400033,0.04741,0.280371,-0.777824,0.229833,-0.47575,-0.847968,0.400549,-0.046595
675026.044784,0.279472,0.777429,-0.230121,-0.476529,0.847165,0.400033,0.047422,0.280407,-0.777824,0.229833,-0.475738,-0.847956,0.400537,-0.046607
675026.064872,0.279448,0.777429,-0.230097,-0.476529,0.847141,0.399985,0.04741,0.280395,-0.7778,0.229857,-0.475762,-0.847992,0.400549,-0.046595
675026.084964,0.279484,0.777429,-0.230121,-0.476517,0.847153,0.400021,0.04741,0.280407,-0.777812,0.229857,-0.475762,-0.847956,0.400525,-0.046583
675026.105127,0.279484,0.777429,-0.230109,-0.476529,0.847129,0.399997,0.04741,0.280395,-0.777824,0.229833,-0.47575,-0.847968,0.400513,-0.046595
675026.125229,0.279496,0.777429,-0.230133,-0.476517,0.847141,0.400021,0.04741,0.280395,-0.777812,0.229833,-0.475762,-0.847968,0.400537,-0.046583
675026.145312,0.279484,0.777429,-0.230109,-0.476505,0.847129,0.399997,0.04741,0.280383,-0.7778,0.229857,-0.47575,-0.847968,0.400549,-0.046583
675026.165403,0.279472,0.777429,-0.230097,-0.476505,0.847141,0.400033,0.04741,0.280383,-0.7778,0.229833,-0.475762,-0.847968,0.400525,-0.046583
675026.185495,0.279472,0.777429,-0.230121,-0.476529,0.847129,0.400009,0.04741,0.280395,-0.7778,0.229833,-0.475738,-0.847968,0.400477,-0.046583
675026.205591,0.279484,0.777429,-0.230097,-0.476517,0.847141,0.400033,0.047422,0.280371,-0.777824,0.229857,-0.47575,-0.847944,0.400525,-0.046595
675026.225677,0.279508,0.777429,-0.230121,-0.476505,0.847129,0.400033,0.04741,0.280383,-0.777812,0.229833,-0.475762,-0.847968,0.400513,-0.046583
675026.245754,0.279484,0.777429,-0.230121,-0.476493,0.847105,0.400033,0.047398,0.280383,-0.777812,0.229833,-0.475738,-0.847968,0.400525,-0.046583
675026.265838,0.279472,0.777429,-0.230121,-0.476505,0.847141,0.400033,0.04741,0.280383,-0.777824,0.229857,-0.475762,-0.847968,0.400537,-0.046583
675026.286154,0.279472,0.777429,-0.230133,-0.476505,0.847141,0.400033,0.04741,0.280395,-0.777824,0.229833,-0.47575,-0.847956,0.400525,-0.046595
675026.306358,0.279484,0.777405,-0.230133,-0.476493,0.847129,0.400021,0.047398,0.280407,-0.777824,0.229833,-0.475762,-0.847968,0.400537,-0.046571
675026.326435,0.279472,0.777429,-0.230109,-0.476493,0.847117,0.400021,0.047398,0.280395,-0.777824,0.229833,-0.475738,-0.847968,0.400549,-0.046595
675026.346518,0.279484,0.777429,-0.230121,-0.476493,0.847117,0.400033,0.047398,0.280383,-0.7778,0.229833,-0.47575,-0.84798,0.400549,-0.046559
675026.366808,0.279484,0.777429,-0.230121,-0.476493,0.847105,0.400033,0.04741,0.280395,-0.777812,0.229833,-0.475762,-0.84798,0.400561,-0.046583
675026.387082,0.279496,0.777429,-0.230109,-0.476481,0.847129,0.400033,0.047398,0.280371,-0.777824,0.229833,-0.47575,-0.847956,0.400525,-0.046583
675026.407279,0.279484,0.777429,-0.230133,-0.476493,0.847129,0.400009,0.047374,0.280383,-0.7778,0.229845,-0.475762,-0.847956,0.400537,-0.046571
675026.427352,0.279496,0.777429,-0.230121,-0.476481,0.847117,0.400009,0.04741,0.280395,-0.777812,0.229845,-0.475762,-0.847968,0.400549,-0.046571
675026.447436,0.279496,0.777429,-0.230109,-0.476481,0.847105,0.400021,0.047398,0.280383,-0.777812,0.229833,-0.47575,-0.847968,0.400537,-0.046583
675026.467532,0.279484,0.777429,-0.230097,-0.476493,0.847117,0.400009,0.047398,0.280395,-0.777836,0.229833,-0.47575,-0.847968,0.400537,-0.046595
675026.487626,0.279484,0.777429,-0.230121,-0.476493,0.847129,0.400021,0.04741,0.280395,-0.7778,0.229833,-0.47575,-0.847968,0.400501,-0.046583
675026.507765,0.279484,0.777405,-0.230133,-0.476481,0.847117,0.400045,0.047398,0.280395,-0.777812,0.229833,-0.47575,-0.84798,0.400525,-0.046595
675026.527851,0.279496,0.777429,-0.230133,-0.476481,0.847117,0.400021,0.047398,0.280383,-0.777824,0.229845,-0.47575,-0.84798,0.400537,-0.046559
675026.547927,0.279508,0.777405,-0.230133,-0.476469,0.847129,0.400021,0.04741,0.280383,-0.777812,0.229833,-0.475738,-0.847992,0.400537,-0.046583
675026.568021,0.279496,0.777429,-0.230121,-0.476469,0.847129,0.399997,0.047398,0.280407,-0.777812,0.229857,-0.475762,-0.847956,0.400537,-0.046595
675026.588107,0.27946,0.777405,-0.230145,-0.476469,0.847117,0.400009,0.047398,0.280395,-0.777812,0.229857,-0.475762,-0.84798,0.400525,-0.046583
675026.608196,0.279484,0.777429,-0.230133,-0.476493,0.847117,0.400009,0.04741,0.280383,-0.777836,0.229833,-0.47575,-0.84798,0.400525,-0.046571
675026.628463,0.279484,0.777429,-0.230109,-0.476481,0.847129,0.400021,0.047398,0.280383,-0.777812,0.229833,-0.47575,-0.84798,0.400525,-0.046583
675026.648769,0.279484,0.777429,-0.230121,-0.476445,0.847189,0.400033,0.047398,0.280383,-0.777812,0.229833,-0.475726,-0.847992,0.400537,-0.046571
675026.66898,0.27946,0.777429,-0.230121,-0.476469,0.847237,0.399962,0.047386,0.280395,-0.777812,0.229845,-0.475762,-0.84798,0.400573,-0.046583
675026.689147,0.279484,0.777429,-0.230109,-0.476457,0.847177,0.399997,0.047386,0.280395,-0.777812,0.229845,-0.475762,-0.847992,0.400513,-0.046583
675026.709292,0.27946,0.777453,-0.230097,-0.476469,0.847165,0.400021,0.047374,0.280419,-0.777836,0.229857,-0.475726,-0.847968,0.400573,-0.046583
675026.729368,0.279484,0.777429,-0.230133,-0.476445,0.847165,0.400009,0.047374,0.280371,-0.777812,0.229845,-0.475726,-0.847968,0.400513,-0.046583
675026.74945,0.279496,0.777429,-0.230121,-0.476457,0.847153,0.400009,0.047374,0.280383,-0.777812,0.229833,-0.47575,-0.84798,0.400549,-0.046583
675026.769647,0.279496,0.777453,-0.230121,-0.476469,0.847177,0.400009,0.047374,0.280395,-0.777812,0.229833,-0.475738,-0.847968,0.400561,-0.046595
675026.789786,0.279472,0.777429,-0.230121,-0.476469,0.847153,0.399997,0.047374,0.280395,-0.777836,0.229833,-0.47575,-0.847968,0.400525,-0.046595
675026.809863,0.279472,0.777429,-0.230121,-0.476469,0.847129,0.399997,0.047374,0.280383,-0.777812,0.229845,-0.475762,-0.847968,0.400537,-0.046583
675026.829954,0.279484,0.777429,-0.230121,-0.476457,0.847165,0.400009,0.047374,0.280383,-0.777812,0.229845,-0.475738,-0.847956,0.400537,-0.046571
675026.850018,0.279496,0.777429,-0.230133,-0.476457,0.847129,0.399997,0.047374,0.280383,-0.777812,0.229833,-0.475738,-0.847968,0.400525,-0.046583
675026.870111,0.279496,0.777429,-0.230109,-0.476457,0.847153,0.399997,0.047374,0.280395,-0.777812,0.229833,-0.475762,-0.847992,0.400513,-0.046595
675026.890185,0.279472,0.777429,-0.230109,-0.476457,0.847117,0.400009,0.047374,0.280395,-0.777812,0.229833,-0.47575,-0.84798,0.400525,-0.046583
675026.910263,0.279472,0.777429,-0.230121,-0.476457,0.847189,0.400009,0.047374,0.280383,-0.777812,0.229833,-0.475738,-0.84798,0.400549,-0.046583
675026.930342,0.279472,0.777453,-0.230121,-0.476445,0.847201,0.400009,0.047386,0.280407,-0.777812,0.229833,-0.475738,-0.84798,0.400513,-0.046595
675026.950415,0.279484,0.777429,-0.230121,-0.476445,0.847177,0.400009,0.047374,0.280383,-0.7778,0.229845,-0.47575,-0.847968,0.400525,-0.046595
675026.970494,0.279484,0.777429,-0.230109,-0.476433,0.847177,0.400033,0.047374,0.280359,-0.777812,0.229833,-0.475762,-0.847968,0.400525,-0.046607
675026.990563,0.279472,0.777417,-0.230121,-0.476469,0.847153,0.400021,0.047386,0.280371,-0.777812,0.229845,-0.47575,-0.847932,0.400525,-0.046583
675027.010634,0.279472,0.777441,-0.230121,-0.476457,0.847129,0.400033,0.047362,0.280395,-0.777812,0.229833,-0.47575,-0.847944,0.400489,-0.046583
675027.030826,0.279496,0.777429,-0.230121,-0.476445,0.847177,0.400033,0.047362,0.280407,-0.777824,0.229833,-0.47575,-0.84792,0.400537,-0.046595
675027.051,0.279496,0.777441,-0.230097,-0.476433,0.847153,0.400033,0.047374,0.280371,-0.777812,0.229833,-0.475762,-0.847944,0.400585,-0.046607
675027.071135,0.279496,0.777429,-0.230121,-0.476457,0.847141,0.400009,0.047374,0.280395,-0.777812,0.22981,-0.475762,-0.847932,0.400609,-0.046595
675027.09123,0.279472,0.777429,-0.230097,-0.476445,0.847165,0.399997,0.047374,0.280371,-0.7778,0.229833,-0.47575,-0.847932,0.400477,-0.046595
675027.111299,0.279448,0.777429,-0.230121,-0.476457,0.847153,0.400009,0.047374,0.280395,-0.777812,0.229833,-0.475762,-0.84792,0.400489,-0.046607
675027.131382,0.279472,0.777441,-0.230097,-0.476457,0.847153,0.400021,0.047374,0.280395,-0.777836,0.229833,-0.47575,-0.847932,0.400525,-0.046607
675027.151441,0.279484,0.777453,-0.230097,-0.476445,0.847153,0.400009,0.047374,0.280383,-0.777836,0.229833,-0.475738,-0.847944,0.400525,-0.046619
675027.171502,0.279496,0.777429,-0.230121,-0.476457,0.847165,0.399997,0.047386,0.280395,-0.777824,0.229833,-0.475738,-0.847932,0.400549,-0.046595
675027.191582,0.279484,0.777453,-0.230121,-0.476445,0.847141,0.400009,0.047374,0.280371,-0.777824,0.229833,-0.475762,-0.847956,0.400501,-0.046583
675027.211663,0.279496,0.777429,-0.230109,-0.476445,0.847153,0.400045,0.047374,0.280383,-0.777824,0.229833,-0.475738,-0.847932,0.400513,-0.046607
675027.231769,0.279484,0.777429,-0.230145,-0.476433,0.847129,0.400009,0.047386,0.280383,-0.777812,0.229833,-0.47575,-0.847932,0.400549,-0.046595
675027.251854,0.279484,0.777429,-0.230121,-0.476445,0.847141,0.400009,0.047386,0.280395,-0.777812,0.229833,-0.475762,-0.847932,0.400525,-0.046607
675027.271929,0.279484,0.777429,-0.230121,-0.476457,0.847117,0.399997,0.047374,0.280371,-0.777812,0.229833,-0.475762,-0.847944,0.400489,-0.046607
675027.292007,0.279496,0.777429,-0.230097,-0.476445,0.847117,0.400009,0.047386,0.280395,-0.777812,0.229833,-0.475738,-0.847932,0.400525,-0.046607
675027.312084,0.279484,0.777441,-0.230121,-0.476457,0.847117,0.399997,0.047398,0.280383,-0.777812,0.22981,-0.475738,-0.84798,0.400561,-0.046607
675027.332155,0.279496,0.777429,-0.230121,-0.476433,0.847153,0.399997,0.047386,0.280395,-0.777812,0.229833,-0.47575,-0.847944,0.400525,-0.046607
675027.352234,0.279484,0.777417,-0.230133,-0.476445,0.847129,0.400009,0.047386,0.280383,-0.777812,0.229833,-0.475738,-0.847932,0.400513,-0.046607
675027.372315,0.279472,0.777453,-0.230121,-0.476457,0.847129,0.400009,0.047374,0.280371,-0.777812,0.229833,-0.475762,-0.847956,0.400537,-0.046595
675027.392396,0.279484,0.777429,-0.230109,-0.476445,0.847105,0.400009,0.047374,0.280395,-0.777824,0.229833,-0.475738,-0.847944,0.400549,-0.046607
675027.412481,0.27946,0.777453,-0.230109,-0.476433,0.847129,0.400009,0.047386,0.280383,-0.777812,0.229833,-0.47575,-0.847932,0.400525,-0.046607
675027.432633,0.279496,0.777429,-0.230121,-0.476445,0.847117,0.400009,0.047374,0.280383,-0.777812,0.229833,-0.47575,-0.847944,0.400561,-0.046607
675027.45269,0.279484,0.777429,-0.230121,-0.476433,0.847093,0.400009,0.047374,0.280383,-0.777812,0.229833,-0.47575,-0.847932,0.400549,-0.046631
675027.472777,0.279472,0.777429,-0.230121,-0.476433,0.847105,0.400009,0.047374,0.280383,-0.777812,0.229833,-0.475762,-0.847932,0.400513,-0.046607
675027.492866,0.279496,0.777429,-0.230121,-0.476433,0.847117,0.400009,0.047386,0.280383,-0.777812,0.22981,-0.47575,-0.847944,0.400537,-0.046607
675027.512947,0.279496,0.777429,-0.230121,-0.476457,0.847081,0.400021,0.047362,0.280383,-0.777812,0.229833,-0.475762,-0.847944,0.400525,-0.046595
675027.533018,0.279472,0.777417,-0.230121,-0.476433,0.847105,0.399997,0.047374,0.280371,-0.777812,0.229833,-0.475762,-0.847932,0.400549,-0.046583
675027.553258,0.27946,0.777405,-0.230121,-0.476445,0.847105,0.400009,0.047386,0.280383,-0.777812,0.229821,-0.475762,-0.847932,0.400549,-0.046607
675027.573337,0.279484,0.777429,-0.230121,-0.476433,0.847093,0.400033,0.04741,0.280383,-0.777812,0.229833,-0.475762,-0.84792,0.400573,-0.046595
675027.593431,0.279484,0.777441,-0.230121,-0.476445,0.847105,0.400033,0.047386,0.280407,-0.777836,0.229833,-0.47575,-0.847968,0.400525,-0.046595
675027.613732,0.279472,0.777429,-0.230121,-0.476445,0.847129,0.400045,0.047386,0.280371,-0.777824,0.229833,-0.475762,-0.848064,0.400537,-0.046607
675027.63394,0.279496,0.777429,-0.230121,-0.476445,0.847117,0.400021,0.047386,0.280383,-0.777824,0.22981,-0.475774,-0.848064,0.400561,-0.046607
675027.65401,0.279496,0.777429,-0.230097,-0.476445,0.847117,0.400033,0.047386,0.280395,-0.777836,0.229833,-0.475762,-0.848052,0.400549,-0.046607
675027.674093,0.279472,0.777429,-0.230109,-0.476457,0.847117,0.400021,0.047374,0.280395,-0.777812,0.229833,-0.475774,-0.848016,0.400525,-0.046607
675027.694187,0.279484,0.777429,-0.230133,-0.476445,0.847105,0.400033,0.047374,0.280383,-0.777824,0.229833,-0.475762,-0.848016,0.400561,-0.046607
675027.714278,0.279472,0.777405,-0.230121,-0.476445,0.847117,0.400033,0.047374,0.280383,-0.777836,0.229833,-0.475774,-0.848028,0.400537,-0.046607
675027.734365,0.279484,0.777429,-0.230121,-0.476457,0.847093,0.400033,0.047374,0.280371,-0.777812,0.22981,-0.475762,-0.848016,0.400549,-0.046607
675027.754456,0.279484,0.777429,-0.230109,-0.476433,0.847093,0.400033,0.04741,0.280371,-0.777812,0.229833,-0.475786,-0.84804,0.400537,-0.046607
675027.774546,0.279472,0.777429,-0.230109,-0.476457,0.847105,0.400009,0.047374,0.280383,-0.777824,0.229833,-0.475762,-0.848028,0.400537,-0.046607
675027.794677,0.279448,0.777429,-0.230109,-0.476445,0.847129,0.400045,0.047374,0.280395,-0.777812,0.229833,-0.475762,-0.848004,0.400525,-0.046607
675027.814772,0.279472,0.777429,-0.230109,-0.476445,0.847117,0.400033,0.047386,0.280395,-0.777812,0.229833,-0.475762,-0.848004,0.400537,-0.046607
675027.834883,0.279484,0.777429,-0.230121,-0.476457,0.847105,0.400033,0.047374,0.280383,-0.777812,0.229833,-0.475762,-0.848004,0.400525,-0.046607
675027.854964,0.279484,0.777429,-0.230109,-0.476457,0.847105,0.400033,0.047386,0.280383,-0.777836,0.229833,-0.475762,-0.848028,0.400537,-0.046607
675027.875275,0.279484,0.777429,-0.230121,-0.476445,0.847105,0.399997,0.047386,0.280383,-0.777812,0.229833,-0.475762,-0.848028,0.400525,-0.046619
675027.895377,0.279484,0.777429,-0.230121,-0.476457,0.847129,0.400033,0.047386,0.280383,-0.777824,0.22981,-0.475762,-0.848028,0.400525,-0.046607
675027.915475,0.279484,0.777429,-0.230121,-0.476457,0.847153,0.400009,0.047386,0.280383,-0.777812,0.229821,-0.475774,-0.848028,0.400525,-0.046607
675027.935586,0.279484,0.777429,-0.230133,-0.476433,0.847117,0.400045,0.047374,0.280383,-0.777836,0.229833,-0.475762,-0.848016,0.400489,-0.046607
675027.955688,0.279484,0.777429,-0.230121,-0.476445,0.847129,0.400009,0.047374,0.280383,-0.777836,0.229821,-0.475786,-0.848028,0.400513,-0.046607
675027.975859,0.279472,0.777429,-0.230109,-0.476445,0.847117,0.400033,0.047386,0.280395,-0.777812,0.229833,-0.475762,-0.848016,0.400525,-0.046619
675027.995948,0.27946,0.777429,-0.230097,-0.476457,0.847129,0.400009,0.047386,0.280383,-0.777812,0.22981,-0.475762,-0.847968,0.400525,-0.046607
675028.016011,0.279484,0.777429,-0.230097,-0.476445,0.847129,0.400021,0.047386,0.280383,-0.777812,0.229833,-0.475762,-0.847992,0.400525,-0.046631
675028.036257,0.27946,0.777429,-0.230133,-0.476457,0.847153,0.400009,0.047374,0.280371,-0.777836,0.229833,-0.475774,-0.848028,0.400561,-0.046619
675028.056341,0.279484,0.777453,-0.230097,-0.476445,0.847141,0.400009,0.047374,0.280371,-0.777812,0.229833,-0.475762,-0.848028,0.400561,-0.046607
675028.076426,0.279484,0.777429,-0.230097,-0.476445,0.847141,0.400009,0.047362,0.280383,-0.777812,0.229833,-0.475762,-0.848028,0.400549,-0.046607
675028.096527,0.279472,0.777429,-0.230109,-0.476457,0.847153,0.399997,0.047386,0.280371,-0.777836,0.229833,-0.475762,-0.848052,0.400525,-0.046631
675028.116831,0.279472,0.777429,-0.230121,-0.476445,0.847153,0.399997,0.047374,0.280383,-0.777812,0.229833,-0.475762,-0.848016,0.400513,-0.046619
675028.136971,0.279472,0.777405,-0.230121,-0.476445,0.847141,0.400021,0.047386,0.280371,-0.777812,0.229821,-0.475762,-0.848028,0.400549,-0.046607
675028.157177,0.27946,0.777429,-0.230121,-0.476457,0.847105,0.400009,0.047374,0.280383,-0.777824,0.229833,-0.475762,-0.848016,0.400549,-0.046607
675028.177325,0.279472,0.777429,-0.230121,-0.476445,0.847153,0.399997,0.047374,0.280395,-0.777812,0.229821,-0.47575,-0.848016,0.400549,-0.046607
675028.197491,0.279484,0.777429,-0.230121,-0.476445,0.847141,0.400009,0.047386,0.280383,-0.777812,0.229833,-0.475774,-0.848028,0.400537,-0.046619
675028.217568,0.279484,0.777429,-0.230121,-0.476445,0.847129,0.399997,0.047374,0.280383,-0.777824,0.229821,-0.475762,-0.848004,0.400525,-0.046619
675028.23765,0.279484,0.777429,-0.230121,-0.476445,0.847105,0.400033,0.047374,0.280395,-0.777824,0.229833,-0.475786,-0.848028,0.400549,-0.046619
675028.257802,0.279472,0.777453,-0.230121,-0.476433,0.847141,0.399997,0.047386,0.280383,-0.777836,0.229821,-0.475774,-0.848016,0.400549,-0.046607
675028.277965,0.279496,0.777429,-0.230121,-0.476433,0.847129,0.400009,0.047374,0.280383,-0.777812,0.229833,-0.475786,-0.848016,0.400525,-0.046619
675028.298008,0.279484,0.777429,-0.230121,-0.476457,0.847117,0.399997,0.047374,0.280407,-0.777836,0.229833,-0.475762,-0.848016,0.400525,-0.046619
675028.318085,0.279496,0.777429,-0.230121,-0.476457,0.847117,0.400033,0.047374,0.280359,-0.777812,0.229821,-0.475762,-0.848016,0.400537,-0.046607
675028.338164,0.279484,0.777429,-0.230121,-0.476445,0.847105,0.400033,0.047374,0.280383,-0.777824,0.229833,-0.475762,-0.848004,0.400525,-0.046607
675028.358251,0.279472,0.777429,-0.230121,-0.476445,0.847117,0.400009,0.047386,0.280383,-0.777812,0.229833,-0.475762,-0.848004,0.400537,-0.046607
675028.378344,0.279472,0.777429,-0.230109,-0.476457,0.847117,0.400009,0.047386,0.280395,-0.777824,0.229821,-0.475762,-0.848004,0.400525,-0.046619
675028.398436,0.279484,0.777429,-0.230121,-0.476445,0.847105,0.400009,0.047386,0.280383,-0.777824,0.229833,-0.475762,-0.848016,0.400525,-0.046607
675028.418509,0.279484,0.777429,-0.230109,-0.476433,0.847141,0.400045,0.047374,0.280383,-0.777812,0.229833,-0.475762,-0.848004,0.400561,-0.046607
675028.438593,0.279484,0.777429,-0.230121,-0.476445,0.847117,0.400009,0.047386,0.280383,-0.777836,0.229821,-0.475762,-0.848004,0.400549,-0.046607
675028.458752,0.27946,0.777429,-0.230121,-0.476433,0.847129,0.400009,0.047386,0.280383,-0.777824,0.229821,-0.475762,-0.848004,0.400585,-0.046619
675028.478876,0.279496,0.777429,-0.230133,-0.476433,0.847117,0.400009,0.047362,0.280383,-0.777812,0.22981,-0.47575,-0.848004,0.400537,-0.046607
675028.499031,0.279484,0.777453,-0.230121,-0.476445,0.847129,0.399997,0.047386,0.280395,-0.777812,0.229821,-0.475738,-0.848004,0.400561,-0.046607
675028.519156,0.279484,0.777429,-0.230121,-0.476433,0.847093,0.400009,0.047386,0.280395,-0.777812,0.229821,-0.475762,-0.848004,0.400561,-0.046607
675028.539277,0.279472,0.777429,-0.230097,-0.476457,0.847105,0.400021,0.047374,0.280383,-0.777812,0.229833,-0.475762,-0.848004,0.400537,-0.046607
675028.559416,0.279472,0.777429,-0.230121,-0.476445,0.847129,0.400009,0.047362,0.280395,-0.777824,0.229821,-0.475762,-0.848004,0.400537,-0.046595
675028.579553,0.279472,0.777429,-0.230097,-0.476445,0.847117,0.399997,0.047386,0.280383,-0.777812,0.22981,-0.475762,-0.848028,0.400549,-0.046607
675028.599682,0.279472,0.777429,-0.230121,-0.476433,0.847117,0.400009,0.047374,0.280383,-0.777812,0.229821,-0.475762,-0.84798,0.400561,-0.046595
675028.619797,0.279472,0.777429,-0.230121,-0.476433,0.847117,0.400021,0.047386,0.280383,-0.777812,0.229833,-0.475762,-0.848004,0.400501,-0.046607
675028.639908,0.279484,0.777429,-0.230121,-0.476445,0.847129,0.400021,0.047398,0.280383,-0.777812,0.229845,-0.475762,-0.847992,0.400525,-0.046607
675028.660038,0.279508,0.777453,-0.230109,-0.476433,0.847117,0.400009,0.047386,0.280383,-0.777824,0.229833,-0.475762,-0.84798,0.400537,-0.046607
675028.680158,0.279472,0.777429,-0.230133,-0.476445,0.847117,0.400021,0.047362,0.280371,-0.777824,0.229833,-0.475762,-0.84798,0.400549,-0.046595
675028.70029,0.279496,0.777453,-0.230121,-0.476445,0.847117,0.400009,0.047386,0.280371,-0.777824,0.229833,-0.475786,-0.847968,0.400501,-0.046607
675028.720436,0.279448,0.777429,-0.230109,-0.476457,0.847117,0.400021,0.047386,0.280395,-0.777812,0.229833,-0.475762,-0.847968,0.400525,-0.046595
675028.740715,0.279472,0.777429,-0.230133,-0.476445,0.847117,0.400009,0.047386,0.280383,-0.777788,0.229833,-0.475774,-0.84798,0.400525,-0.046583
675028.760861,0.27946,0.777441,-0.230121,-0.476445,0.847141,0.400009,0.047386,0.280383,-0.777812,0.229833,-0.475762,-0.847956,0.400513,-0.046607
675028.781021,0.279496,0.777405,-0.230121,-0.476433,0.847117,0.400009,0.047386,0.280383,-0.7778,0.229821,-0.475738,-0.847992,0.400513,-0.046607
675028.801152,0.279472,0.777429,-0.230121,-0.476457,0.847201,0.399997,0.047386,0.280395,-0.777812,0.229821,-0.475762,-0.847968,0.400549,-0.046607
675028.821271,0.279484,0.777429,-0.230109,-0.476433,0.847201,0.400033,0.047374,0.280395,-0.777788,0.229821,-0.475738,-0.847968,0.400549,-0.046595
675028.841427,0.279484,0.777429,-0.230121,-0.476457,0.847189,0.400033,0.047374,0.280383,-0.777812,0.229821,-0.475762,-0.84798,0.400501,-0.046595
675028.861578,0.27946,0.777429,-0.230145,-0.476433,0.847153,0.400021,0.047374,0.280407,-0.777812,0.229821,-0.475738,-0.847992,0.400525,-0.046607
675028.881709,0.279484,0.777429,-0.230121,-0.476433,0.847165,0.400033,0.047386,0.280383,-0.777812,0.229845,-0.475762,-0.848016,0.400537,-0.046607
675028.901834,0.279508,0.777429,-0.230121,-0.476457,0.847153,0.400009,0.047374,0.280383,-0.777812,0.229833,-0.475762,-0.847992,0.400537,-0.046595
675028.921998,0.279472,0.777429,-0.230097,-0.476433,0.847165,0.400009,0.047386,0.280383,-0.777812,0.229833,-0.475762,-0.84798,0.400549,-0.046607
675028.942167,0.279484,0.777453,-0.230121,-0.476433,0.847177,0.400021,0.047386,0.280395,-0.7778,0.229833,-0.475762,-0.847968,0.400489,-0.046607
675028.962298,0.279472,0.777429,-0.230109,-0.476445,0.847153,0.400033,0.047386,0.280383,-0.777812,0.229821,-0.475774,-0.84798,0.400525,-0.046595
675028.982439,0.279484,0.777429,-0.230133,-0.476433,0.847165,0.400033,0.047374,0.280371,-0.777812,0.229821,-0.475774,-0.847992,0.400513,-0.046595
675029.002591,0.279496,0.777429,-0.230121,-0.476457,0.847153,0.400033,0.047374,0.280383,-0.7778,0.229833,-0.475762,-0.847992,0.400537,-0.046631
675029.022749,0.279472,0.777429,-0.230121,-0.476457,0.847153,0.400021,0.047374,0.280383,-0.777812,0.229821,-0.475762,-0.84798,0.400525,-0.046607
675029.042908,0.27946,0.777429,-0.230121,-0.476433,0.847153,0.400033,0.047374,0.280371,-0.777812,0.229833,-0.475762,-0.847992,0.400525,-0.046607
675029.063028,0.279484,0.777429,-0.230121,-0.476445,0.847141,0.400021,0.047386,0.280395,-0.777812,0.229821,-0.475774,-0.848016,0.400525,-0.046607
675029.083144,0.279484,0.777429,-0.230133,-0.476433,0.847153,0.400045,0.047374,0.280383,-0.777812,0.229833,-0.475786,-0.847992,0.400537,-0.046607
675029.103291,0.279472,0.777429,-0.230121,-0.476445,0.847153,0.400033,0.047374,0.280395,-0.777824,0.229821,-0.47575,-0.848004,0.400525,-0.046595
675029.123431,0.279472,0.777429,-0.230121,-0.476445,0.847153,0.400033,0.047386,0.280407,-0.777812,0.229833,-0.475762,-0.84798,0.400525,-0.046607
675029.143579,0.279484,0.777429,-0.230121,-0.476445,0.847129,0.400033,0.047374,0.280383,-0.777824,0.229833,-0.475762,-0.847968,0.400549,-0.046595
675029.163692,0.27946,0.777429,-0.230133,-0.476433,0.847129,0.400033,0.047398,0.280383,-0.777812,0.229833,-0.47575,-0.84798,0.400537,-0.046595
675029.18381,0.279484,0.777429,-0.230121,-0.476433,0.847105,0.400045,0.047374,0.280395,-0.777812,0.229833,-0.475762,-0.847992,0.400513,-0.046607
675029.203925,0.279448,0.777429,-0.230109,-0.476433,0.847141,0.400033,0.047374,0.280383,-0.777812,0.229833,-0.475774,-0.847992,0.400513,-0.046607
675029.224116,0.279508,0.777441,-0.230121,-0.476433,0.847153,0.400045,0.047386,0.280395,-0.777812,0.229833,-0.475774,-0.848004,0.400501,-0.046607
675029.244265,0.279484,0.777429,-0.230121,-0.476433,0.847129,0.400033,0.047386,0.280419,-0.777824,0.229833,-0.475762,-0.84798,0.400525,-0.046607
675029.264392,0.279472,0.777441,-0.230121,-0.476433,0.847153,0.400021,0.047374,0.280371,-0.777812,0.229833,-0.475774,-0.848004,0.400525,-0.046595
675029.284516,0.279484,0.777429,-0.230133,-0.476433,0.847141,0.400009,0.04741,0.280395,-0.777812,0.229821,-0.47575,-0.847968,0.400525,-0.046607
675029.304778,0.279484,0.777429,-0.230121,-0.476433,0.847153,0.400021,0.047386,0.280371,-0.7778,0.229821,-0.475762,-0.84798,0.400525,-0.046607
675029.324902,0.279484,0.777429,-0.230109,-0.476433,0.847141,0.400009,0.047386,0.280371,-0.777812,0.229833,-0.475762,-0.84798,0.400513,-0.046607
675029.34503,0.279472,0.777429,-0.230121,-0.476421,0.847117,0.400045,0.047374,0.280395,-0.777824,0.229833,-0.475762,-0.848004,0.400513,-0.046607
675029.365175,0.279484,0.777429,-0.230109,-0.476433,0.847117,0.400033,0.047386,0.280395,-0.777812,0.229821,-0.475786,-0.84798,0.400537,-0.046595
675029.385309,0.279448,0.777429,-0.230121,-0.476445,0.847141,0.400021,0.047386,0.280407,-0.777812,0.229833,-0.475774,-0.84798,0.400525,-0.046607
675029.405435,0.279484,0.777429,-0.230121,-0.476457,0.847141,0.400045,0.047386,0.280383,-0.777812,0.22981,-0.475774,-0.847992,0.400525,-0.046619
675029.425577,0.279484,0.777417,-0.230121,-0.476445,0.847117,0.400021,0.047374,0.280395,-0.7778,0.229833,-0.47575,-0.847992,0.400525,-0.046607
675029.445717,0.279472,0.777429,-0.230097,-0.476433,0.847141,0.400021,0.047386,0.280371,-0.777812,0.229821,-0.475762,-0.84798,0.400525,-0.046607
675029.465835,0.27946,0.777429,-0.230121,-0.476457,0.847141,0.400033,0.047374,0.280395,-0.777812,0.229833,-0.475762,-0.84798,0.400537,-0.046607
675029.485992,0.279484,0.777429,-0.230121,-0.476433,0.847141,0.400021,0.047374,0.280383,-0.777824,0.229821,-0.475786,-0.847992,0.400525,-0.046583
675029.506165,0.279484,0.777429,-0.230133,-0.476433,0.847117,0.400009,0.047374,0.280383,-0.777812,0.229821,-0.475762,-0.847992,0.400537,-0.046607
675029.526299,0.279484,0.777429,-0.230133,-0.476445,0.847105,0.400033,0.047374,0.280371,-0.777824,0.229821,-0.475738,-0.84798,0.400525,-0.046607
675029.546417,0.279472,0.777453,-0.230121,-0.476445,0.847129,0.400033,0.047374,0.280395,-0.777788,0.229833,-0.475762,-0.848004,0.400537,-0.046595
675029.566557,0.279472,0.777429,-0.230121,-0.476433,0.847153,0.400045,0.047362,0.280383,-0.777812,0.229833,-0.475738,-0.84798,0.400525,-0.046607
675029.586697,0.279472,0.777429,-0.230121,-0.476433,0.847129,0.400021,0.047386,0.280407,-0.777836,0.229821,-0.475762,-0.84798,0.400537,-0.046607
675029.606827,0.279496,0.777429,-0.230121,-0.476433,0.847129,0.400021,0.047386,0.280395,-0.777824,0.229833,-0.475762,-0.848004,0.400525,-0.046607
675029.626938,0.279472,0.777429,-0.230133,-0.476433,0.847141,0.400009,0.047386,0.280383,-0.777824,0.229821,-0.475762,-0.847992,0.400525,-0.046607
675029.647021,0.279472,0.777429,-0.230121,-0.476433,0.847129,0.400009,0.047374,0.280395,-0.777812,0.229821,-0.475774,-0.848004,0.400537,-0.046607
675029.667129,0.279484,0.777429,-0.230121,-0.476433,0.847141,0.400033,0.047386,0.280395,-0.777812,0.229821,-0.475762,-0.848076,0.400525,-0.046607
675029.687261,0.279484,0.777429,-0.230121,-0.476433,0.847153,0.400033,0.047386,0.280395,-0.777824,0.229821,-0.475774,-0.848016,0.400525,-0.046607
675029.707404,0.279496,0.777429,-0.230121,-0.476457,0.847141,0.399997,0.047374,0.280395,-0.777836,0.229833,-0.475774,-0.848112,0.400525,-0.046619
675029.72754,0.279484,0.777429,-0.230109,-0.476421,0.847141,0.400009,0.047362,0.280395,-0.777812,0.229821,-0.475774,-0.848016,0.400513,-0.046619
675029.747662,0.279472,0.777429,-0.230121,-0.476457,0.847105,0.400021,0.047374,0.280383,-0.777812,0.229821,-0.475762,-0.848016,0.400537,-0.046595
675029.767775,0.279484,0.777429,-0.230121,-0.476445,0.847117,0.400009,0.047374,0.280359,-0.777812,0.229833,-0.475762,-0.848028,0.400525,-0.046583
675029.787906,0.279484,0.777429,-0.230121,-0.476433,0.847117,0.400021,0.047386,0.280395,-0.777824,0.229833,-0.475774,-0.848028,0.400537,-0.046631
675029.808058,0.279496,0.777429,-0.230121,-0.476433,0.847141,0.400033,0.047386,0.280371,-0.777812,0.229821,-0.475762,-0.848016,0.400561,-0.046607
675029.828227,0.27946,0.777429,-0.230121,-0.476433,0.847129,0.400009,0.047362,0.280395,-0.777812,0.229821,-0.475774,-0.848028,0.400525,-0.046607
675029.848359,0.279484,0.777429,-0.230097,-0.476445,0.847117,0.400009,0.047386,0.280395,-0.777812,0.229821,-0.475762,-0.848028,0.400525,-0.046607
675029.86861,0.279484,0.777429,-0.230097,-0.476433,0.847153,0.400021,0.047374,0.280395,-0.777812,0.229821,-0.47575,-0.84804,0.400525,-0.046607
675029.88873,0.279496,0.777429,-0.230133,-0.476457,0.847129,0.400009,0.047398,0.280371,-0.777824,0.229821,-0.475762,-0.84804,0.400525,-0.046619
675029.908868,0.279484,0.777441,-0.230097,-0.476433,0.847129,0.400021,0.047386,0.280407,-0.7778,0.229821,-0.475774,-0.848016,0.400513,-0.046607
675029.929021,0.279484,0.777429,-0.230109,-0.476445,0.847117,0.400033,0.047374,0.280383,-0.777812,0.229833,-0.475774,-0.848028,0.400549,-0.046607
675029.949147,0.279472,0.777441,-0.230121,-0.476433,0.847141,0.400009,0.047374,0.280395,-0.777812,0.229821,-0.475762,-0.848028,0.400537,-0.046607
675029.969286,0.27946,0.777405,-0.230109,-0.476445,0.847093,0.400021,0.047386,0.280395,-0.777836,0.229833,-0.475774,-0.848028,0.400513,-0.046595
675029.989433,0.279472,0.777429,-0.230109,-0.476445,0.847141,0.400045,0.047374,0.280395,-0.777824,0.229821,-0.475774,-0.84804,0.400549,-0.046619
675030.00957,0.279484,0.777429,-0.230109,-0.476445,0.847129,0.400021,0.047374,0.280383,-0.777812,0.22981,-0.475762,-0.848028,0.400525,-0.046607
675030.029698,0.279484,0.777429,-0.230109,-0.476433,0.847105,0.399997,0.047362,0.280395,-0.777812,0.229821,-0.475738,-0.848016,0.400513,-0.046607
675030.049836,0.27946,0.777429,-0.230109,-0.476433,0.847129,0.400033,0.047386,0.280395,-0.7778,0.229833,-0.475762,-0.848028,0.400525,-0.046607
675030.069986,0.279484,0.777429,-0.230109,-0.476433,0.847117,0.400033,0.047386,0.280395,-0.777824,0.229821,-0.475762,-0.848028,0.400549,-0.046607
675030.090147,0.27946,0.777429,-0.230133,-0.476433,0.847117,0.400033,0.047386,0.280383,-0.777812,0.229833,-0.475762,-0.848004,0.400537,-0.046607
675030.110255,0.279472,0.777429,-0.230121,-0.476409,0.847105,0.400021,0.047362,0.280395,-0.777824,0.22981,-0.475738,-0.848028,0.400525,-0.046607
675030.130377,0.279484,0.777429,-0.230097,-0.476445,0.847105,0.400021,0.047374,0.280395,-0.777824,0.229833,-0.475762,-0.848028,0.400525,-0.046607
675030.150511,0.279472,0.777429,-0.230097,-0.476433,0.847105,0.400021,0.047374,0.280395,-0.777824,0.229833,-0.475738,-0.848028,0.400549,-0.046619
675030.170675,0.279496,0.777429,-0.230133,-0.476433,0.847141,0.400021,0.047386,0.280383,-0.777824,0.229833,-0.475798,-0.84804,0.400525,-0.046619
675030.190806,0.279484,0.777429,-0.230109,-0.476433,0.847129,0.400033,0.047386,0.280395,-0.777824,0.22981,-0.475774,-0.84804,0.400525,-0.046619
675030.210926,0.279496,0.777429,-0.230121,-0.476433,0.847117,0.400033,0.047362,0.280395,-0.777812,0.229821,-0.475762,-0.848028,0.400549,-0.046607
675030.231038,0.279508,0.777429,-0.230121,-0.476445,0.847141,0.400033,0.047386,0.280395,-0.777812,0.229833,-0.475786,-0.848016,0.400549,-0.046607
675030.251211,0.279472,0.777405,-0.230121,-0.476433,0.847141,0.400033,0.047386,0.280371,-0.777824,0.229821,-0.475762,-0.848028,0.400537,-0.046607
675030.271355,0.279496,0.777429,-0.230121,-0.476433,0.847141,0.400021,0.047386,0.280395,-0.777824,0.229833,-0.475762,-0.848016,0.400537,-0.046607
675030.291512,0.279484,0.777429,-0.230121,-0.476433,0.847117,0.400033,0.047386,0.280395,-0.777812,0.22981,-0.475774,-0.848016,0.400525,-0.046595
675030.311636,0.279472,0.777429,-0.230121,-0.476433,0.847153,0.400009,0.047386,0.280395,-0.7778,0.229821,-0.475762,-0.848028,0.400537,-0.046595
675030.331775,0.279472,0.777429,-0.230109,-0.476457,0.847153,0.400021,0.047374,0.280395,-0.7778,0.229821,-0.475762,-0.848016,0.400525,-0.046607
675030.352193,0.279484,0.777429,-0.230121,-0.476433,0.847129,0.400033,0.047386,0.280383,-0.777824,0.229833,-0.475762,-0.847992,0.400525,-0.046619
675030.372298,0.279472,0.777453,-0.230133,-0.476445,0.847105,0.400021,0.047374,0.280383,-0.777812,0.229833,-0.475762,-0.848028,0.400525,-0.046619
675030.392397,0.279484,0.777429,-0.230133,-0.476445,0.847117,0.400009,0.047386,0.280383,-0.777812,0.229821,-0.475762,-0.848028,0.400537,-0.046607
675030.412581,0.279496,0.777429,-0.230121,-0.476457,0.847117,0.400009,0.047386,0.280383,-0.777824,0.229821,-0.475774,-0.84804,0.400537,-0.046607
675030.432675,0.279496,0.777429,-0.230121,-0.476433,0.847093,0.400021,0.047374,0.280383,-0.777812,0.229821,-0.475774,-0.84804,0.400525,-0.046607
675030.453079,0.279484,0.777429,-0.230121,-0.476421,0.847141,0.400021,0.047386,0.280383,-0.777812,0.229821,-0.475762,-0.848016,0.400513,-0.046607
675030.47319,0.279472,0.777429,-0.230109,-0.476421,0.847129,0.400009,0.047374,0.280395,-0.777824,0.229821,-0.475762,-0.848016,0.400525,-0.046607
675030.493355,0.279484,0.777429,-0.230133,-0.476433,0.847153,0.400021,0.047386,0.280383,-0.777812,0.229833,-0.475774,-0.848028,0.400525,-0.046607
675030.513525,0.279484,0.777429,-0.230121,-0.476433,0.847105,0.400009,0.047386,0.280383,-0.777812,0.229833,-0.475762,-0.848016,0.400525,-0.046619
675030.533605,0.279472,0.777429,-0.230097,-0.476433,0.847141,0.400009,0.047386,0.280395,-0.777812,0.22981,-0.475762,-0.84804,0.400513,-0.046619
675030.553746,0.279496,0.777429,-0.230121,-0.476433,0.847129,0.400009,0.047386,0.280407,-0.7778,0.229821,-0.47575,-0.848016,0.400549,-0.046607
675030.573844,0.279484,0.777429,-0.230121,-0.476433,0.847141,0.400009,0.047362,0.280383,-0.777836,0.229833,-0.475738,-0.848028,0.400549,-0.046619
675030.593987,0.279472,0.777429,-0.230121,-0.476433,0.847153,0.400009,0.047374,0.280383,-0.777824,0.229821,-0.47575,-0.848016,0.400513,-0.046607
675030.61426,0.279472,0.777429,-0.230121,-0.476445,0.847117,0.399997,0.047374,0.280383,-0.777812,0.229821,-0.475762,-0.848016,0.400525,-0.046619
675030.634364,0.279496,0.777429,-0.230121,-0.476433,0.847141,0.400033,0.047374,0.280395,-0.777824,0.229833,-0.475762,-0.848028,0.400525,-0.046607
675030.654459,0.279484,0.777429,-0.230121,-0.476445,0.847129,0.400033,0.047386,0.280395,-0.777824,0.229833,-0.475762,-0.848016,0.400525,-0.046607
675030.674551,0.27946,0.777429,-0.230121,-0.476433,0.847141,0.400009,0.047374,0.280383,-0.777812,0.229833,-0.475774,-0.848028,0.400525,-0.046607
675030.694669,0.279496,0.777429,-0.230133,-0.476421,0.847117,0.400045,0.047386,0.280395,-0.777812,0.229833,-0.475738,-0.848028,0.400549,-0.046607
675030.714756,0.279496,0.777429,-0.230133,-0.476433,0.847105,0.399985,0.047386,0.280371,-0.777812,0.229833,-0.475774,-0.848016,0.400489,-0.046607
675030.734854,0.279484,0.777429,-0.230121,-0.476433,0.847105,0.400009,0.047374,0.280383,-0.777812,0.229833,-0.475738,-0.848016,0.400513,-0.046607
675030.755019,0.279472,0.777441,-0.230121,-0.476433,0.847141,0.400033,0.047374,0.280383,-0.777812,0.229833,-0.475762,-0.848004,0.400513,-0.046607
675030.775271,0.279472,0.777429,-0.230097,-0.476433,0.847093,0.400045,0.047374,0.280395,-0.777824,0.229821,-0.475762,-0.848028,0.400561,-0.046643
675030.795368,0.279472,0.777429,-0.230121,-0.476433,0.847093,0.400033,0.047362,0.280383,-0.777824,0.229833,-0.475774,-0.848016,0.400513,-0.046607
675030.815477,0.279472,0.777429,-0.230097,-0.476445,0.847117,0.400033,0.047374,0.280407,-0.777812,0.229821,-0.475762,-0.848028,0.400513,-0.046595
675030.835567,0.279508,0.777429,-0.230121,-0.476421,0.847129,0.400009,0.047362,0.280395,-0.777812,0.229821,-0.475774,-0.848028,0.400525,-0.046607
675030.855663,0.279448,0.777429,-0.230121,-0.476433,0.847129,0.399997,0.047386,0.280383,-0.7778,0.229833,-0.475762,-0.848028,0.400525,-0.046607
675030.875823,0.27946,0.777453,-0.230121,-0.476433,0.847105,0.400033,0.047386,0.280383,-0.777812,0.229833,-0.475762,-0.84804,0.400549,-0.046619
675030.895922,0.279484,0.777429,-0.230109,-0.476421,0.847105,0.400045,0.047374,0.280395,-0.777812,0.229833,-0.475762,-0.848004,0.400525,-0.046607
675030.916018,0.279472,0.777429,-0.230109,-0.476457,0.847141,0.400009,0.047386,0.280383,-0.777812,0.229833,-0.475762,-0.848028,0.400537,-0.046607
675030.936116,0.279484,0.777429,-0.230133,-0.476433,0.847141,0.400021,0.047374,0.280383,-0.777824,0.229821,-0.475774,-0.848028,0.400537,-0.046607
675030.956216,0.279472,0.777429,-0.230121,-0.476433,0.847117,0.400021,0.047386,0.280395,-0.7778,0.229833,-0.475762,-0.848028,0.400513,-0.046619
675030.976381,0.279484,0.777429,-0.230097,-0.476433,0.847141,0.400033,0.047374,0.280359,-0.777812,0.22981,-0.475786,-0.848016,0.400537,-0.046619
675030.996484,0.279472,0.777429,-0.230109,-0.476433,0.847129,0.400033,0.047374,0.280395,-0.777836,0.229833,-0.475762,-0.848028,0.400537,-0.046619
675031.01658,0.279472,0.777429,-0.230109,-0.476433,0.847141,0.400009,0.047386,0.280383,-0.777824,0.229833,-0.475762,-0.848016,0.400549,-0.046583
675031.036685,0.279484,0.777429,-0.230109,-0.476433,0.847129,0.400021,0.047374,0.280395,-0.7778,0.229833,-0.475762,-0.848016,0.400525,-0.046607
675031.057078,0.279472,0.777429,-0.230121,-0.476445,0.847141,0.400009,0.047374,0.280395,-0.777824,0.229821,-0.475762,-0.848028,0.400537,-0.046607
675031.077174,0.279472,0.777417,-0.230121,-0.476433,0.847141,0.400009,0.047374,0.280383,-0.777812,0.229821,-0.475774,-0.848004,0.400537,-0.046607
675031.09727,0.27946,0.777429,-0.230121,-0.476433,0.847129,0.400009,0.047374,0.280383,-0.777824,0.229833,-0.475774,-0.848028,0.400537,-0.046607
675031.117368,0.279472,0.777429,-0.230121,-0.476457,0.847141,0.400009,0.047386,0.280395,-0.777824,0.229845,-0.475762,-0.848028,0.400525,-0.046607
675031.137461,0.279484,0.777429,-0.230109,-0.476433,0.847105,0.400021,0.047374,0.280359,-0.777812,0.229821,-0.475786,-0.84804,0.400513,-0.046619
675031.157606,0.279472,0.777429,-0.230121,-0.476433,0.847141,0.400009,0.047362,0.280383,-0.777836,0.229833,-0.475762,-0.848028,0.400537,-0.046607
675031.1778,0.279484,0.777453,-0.230121,-0.476433,0.847105,0.400009,0.047386,0.280383,-0.777824,0.229833,-0.475762,-0.848016,0.400537,-0.046607
675031.197903,0.279472,0.777429,-0.230109,-0.476409,0.847153,0.400021,0.047386,0.280371,-0.777824,0.229821,-0.475786,-0.84804,0.400525,-0.046607
675031.218232,0.27946,0.777405,-0.230121,-0.476433,0.847153,0.400009,0.047374,0.280383,-0.777812,0.229833,-0.475762,-0.848016,0.400525,-0.046595
675031.238392,0.279484,0.777429,-0.230121,-0.476421,0.847141,0.400033,0.047386,0.280395,-0.777812,0.22981,-0.475762,-0.848016,0.400525,-0.046607
675031.258494,0.279484,0.777429,-0.230121,-0.476433,0.847141,0.400033,0.047386,0.280407,-0.777812,0.229833,-0.475762,-0.848016,0.400513,-0.046631
675031.278586,0.279472,0.777441,-0.230121,-0.476433,0.847141,0.400021,0.047386,0.280383,-0.777812,0.229821,-0.475762,-0.848016,0.400513,-0.046607
675031.298684,0.279484,0.777429,-0.230109,-0.476445,0.847129,0.400033,0.047386,0.280371,-0.777812,0.229821,-0.475762,-0.848028,0.400525,-0.046607
675031.318778,0.27946,0.777429,-0.230121,-0.476433,0.847141,0.400033,0.047374,0.280383,-0.7778,0.229821,-0.475762,-0.848028,0.400549,-0.046619
675031.338876,0.279484,0.777429,-0.230121,-0.476433,0.847141,0.400021,0.047386,0.280395,-0.777812,0.229821,-0.47575,-0.84804,0.400513,-0.046607
675031.359089,0.279496,0.777429,-0.230121,-0.476433,0.847141,0.399997,0.047386,0.280383,-0.777824,0.229833,-0.475762,-0.848028,0.400525,-0.046619
675031.379317,0.279472,0.777429,-0.230109,-0.476433,0.847141,0.400021,0.047386,0.280383,-0.777812,0.229821,-0.475762,-0.848028,0.400525,-0.046619
675031.399417,0.279484,0.777429,-0.230133,-0.476433,0.847105,0.400045,0.047386,0.280371,-0.777812,0.229833,-0.475762,-0.848028,0.400525,-0.046619
675031.41951,0.279484,0.777429,-0.230121,-0.476433,0.847129,0.400033,0.047374,0.280407,-0.777836,0.229821,-0.475762,-0.848028,0.400525,-0.046619
675031.439624,0.279472,0.777429,-0.230121,-0.476433,0.847153,0.400009,0.047374,0.280383,-0.777788,0.229821,-0.475774,-0.848028,0.400549,-0.046607
675031.459775,0.279472,0.777417,-0.230133,-0.476457,0.847105,0.400045,0.047374,0.280383,-0.777812,0.229833,-0.475762,-0.848016,0.400513,-0.046607
675031.479992,0.27946,0.777405,-0.230121,-0.476433,0.847117,0.400021,0.047386,0.280383,-0.777812,0.229821,-0.475762,-0.848016,0.400525,-0.046619
675031.500257,0.279484,0.777429,-0.230121,-0.476433,0.847129,0.400033,0.047374,0.280383,-0.777812,0.229821,-0.475774,-0.84804,0.400525,-0.046607
675031.520349,0.279484,0.777429,-0.230121,-0.476457,0.847129,0.400021,0.047386,0.280371,-0.777812,0.229821,-0.475738,-0.848028,0.400525,-0.046619
675031.540509,0.279472,0.777429,-0.230097,-0.476433,0.847153,0.400033,0.047374,0.280383,-0.777812,0.229833,-0.475762,-0.848028,0.400561,-0.046631
675031.560722,0.279472,0.777429,-0.230121,-0.476409,0.847153,0.400033,0.047386,0.280383,-0.777836,0.229833,-0.475762,-0.848028,0.400537,-0.046619
675031.58094,0.279484,0.777417,-0.230121,-0.476433,0.847129,0.400021,0.047374,0.280371,-0.777824,0.229833,-0.475762,-0.848028,0.400537,-0.046631
675031.601102,0.279484,0.777429,-0.230133,-0.476433,0.847141,0.400033,0.047374,0.280371,-0.777812,0.229833,-0.475774,-0.848016,0.400525,-0.046607
675031.621197,0.279496,0.777429,-0.230121,-0.476445,0.847129,0.400009,0.047374,0.280395,-0.7778,0.229833,-0.475774,-0.848028,0.400525,-0.046607
675031.641288,0.279496,0.777429,-0.230133,-0.476433,0.847129,0.400033,0.047386,0.280383,-0.777824,0.229821,-0.475786,-0.84804,0.400537,-0.046619
675031.661428,0.279484,0.777429,-0.230121,-0.476433,0.847141,0.400033,0.047386,0.280371,-0.777824,0.229821,-0.475762,-0.848028,0.400537,-0.046607
675031.681472,0.279472,0.777405,-0.230109,-0.476445,0.847117,0.400033,0.047374,0.280383,-0.777824,0.229821,-0.475762,-0.848016,0.400537,-0.046619
675031.701558,0.27946,0.777429,-0.230121,-0.476433,0.847117,0.400033,0.047386,0.280407,-0.777836,0.229833,-0.475762,-0.848028,0.400525,-0.046619
675031.72163,0.279472,0.777429,-0.230121,-0.476433,0.847117,0.400021,0.047386,0.280395,-0.777824,0.229821,-0.475762,-0.848028,0.400525,-0.046619
675031.741712,0.279472,0.777429,-0.230121,-0.476433,0.847141,0.400021,0.047374,0.280395,-0.777812,0.229821,-0.475762,-0.848028,0.400549,-0.046619
675031.761793,0.279484,0.777429,-0.230121,-0.476433,0.847129,0.400021,0.047386,0.280383,-0.7778,0.229833,-0.475738,-0.848028,0.400525,-0.046607
675031.781869,0.279496,0.777453,-0.230109,-0.476433,0.847141,0.400045,0.047386,0.280395,-0.777824,0.229821,-0.475774,-0.848016,0.400525,-0.046607
675031.801958,0.279472,0.777429,-0.230133,-0.476433,0.847117,0.400009,0.047374,0.280383,-0.777812,0.229821,-0.475762,-0.848016,0.400537,-0.046607
675031.822021,0.279472,0.777429,-0.230121,-0.476433,0.847129,0.400009,0.047374,0.280395,-0.777812,0.229821,-0.475762,-0.84804,0.400525,-0.046619
675031.842105,0.279484,0.777417,-0.230097,-0.476433,0.847117,0.400009,0.047386,0.280383,-0.777812,0.229833,-0.475762,-0.848028,0.400549,-0.046619
675031.862181,0.27946,0.777429,-0.230097,-0.476433,0.847129,0.400009,0.047374,0.280383,-0.777812,0.229833,-0.475762,-0.848016,0.400573,-0.046607
675031.882276,0.279472,0.777453,-0.230097,-0.476433,0.847117,0.400021,0.047374,0.280383,-0.777812,0.229821,-0.47575,-0.848016,0.400525,-0.046643
675031.902355,0.279484,0.777429,-0.230121,-0.476433,0.847129,0.400021,0.047386,0.280383,-0.777812,0.22981,-0.47575,-0.848016,0.400525,-0.046607
675031.922446,0.279472,0.777441,-0.230121,-0.476433,0.847105,0.400033,0.047386,0.280371,-0.777824,0.229833,-0.475786,-0.848004,0.400573,-0.046643
675031.942543,0.279472,0.777429,-0.230121,-0.476421,0.847117,0.399997,0.047374,0.280383,-0.777812,0.229833,-0.475762,-0.848016,0.400537,-0.046607
675031.962633,0.27946,0.777429,-0.230121,-0.476457,0.847117,0.400009,0.047374,0.280383,-0.777812,0.229821,-0.475762,-0.848016,0.400525,-0.046607
675031.982707,0.279472,0.777429,-0.230121,-0.476433,0.847117,0.400009,0.047386,0.280383,-0.777812,0.22981,-0.475738,-0.848004,0.400549,-0.046619
675032.002801,0.279496,0.777429,-0.230121,-0.476433,0.847141,0.400021,0.047374,0.280395,-0.777836,0.229833,-0.475774,-0.848016,0.400549,-0.046607
675032.022891,0.279484,0.777429,-0.230109,-0.476445,0.847129,0.400009,0.047362,0.280395,-0.777824,0.229833,-0.475762,-0.84804,0.400525,-0.046607
675032.042998,0.279472,0.777429,-0.230145,-0.476433,0.847129,0.400033,0.047386,0.280395,-0.777812,0.229821,-0.475774,-0.848016,0.400537,-0.046631
675032.063102,0.279484,0.777429,-0.230097,-0.476433,0.847153,0.400021,0.047374,0.280383,-0.777824,0.22981,-0.475774,-0.848028,0.400525,-0.046607
675032.083249,0.279472,0.777429,-0.230097,-0.476433,0.847129,0.400021,0.047386,0.280383,-0.777812,0.229833,-0.475786,-0.848016,0.400525,-0.046631
675032.103358,0.279472,0.777429,-0.230121,-0.476409,0.847141,0.400009,0.047398,0.280371,-0.777812,0.229833,-0.475774,-0.848028,0.400513,-0.046607
675032.123448,0.279496,0.777429,-0.230109,-0.476433,0.847129,0.400009,0.047374,0.280395,-0.777788,0.229821,-0.475762,-0.848016,0.400537,-0.046619
675032.143524,0.279496,0.777429,-0.230121,-0.476433,0.847141,0.400021,0.047374,0.280383,-0.777824,0.229821,-0.475762,-0.848004,0.400513,-0.046607
675032.163607,0.279484,0.777429,-0.230121,-0.476457,0.847129,0.400045,0.047386,0.280371,-0.777824,0.229833,-0.475762,-0.848028,0.400537,-0.046643
675032.183698,0.279484,0.777453,-0.230109,-0.476433,0.847105,0.400033,0.047386,0.280383,-0.777824,0.229821,-0.475774,-0.848028,0.400525,-0.046619
675032.203807,0.279472,0.777429,-0.230121,-0.476445,0.847141,0.400033,0.047374,0.280395,-0.777824,0.229821,-0.475762,-0.848016,0.400525,-0.046595
675032.22409,0.279472,0.777429,-0.230121,-0.476433,0.847117,0.400033,0.047386,0.280383,-0.777812,0.22981,-0.475762,-0.848016,0.400513,-0.046607
675032.244172,0.279472,0.777453,-0.230097,-0.476433,0.847105,0.400045,0.047386,0.280383,-0.777824,0.229833,-0.475762,-0.848028,0.400513,-0.046643
675032.264273,0.279484,0.777429,-0.230121,-0.476433,0.847117,0.400045,0.047386,0.280383,-0.777812,0.229821,-0.475762,-0.848004,0.400513,-0.046619
675032.284356,0.279472,0.777429,-0.230121,-0.476433,0.847141,0.400021,0.047386,0.280395,-0.777812,0.229821,-0.475762,-0.848028,0.400525,-0.046619
675032.304441,0.27946,0.777429,-0.230133,-0.476409,0.847129,0.400009,0.047374,0.280395,-0.777824,0.229821,-0.475738,-0.848028,0.400525,-0.046607
675032.324546,0.279484,0.777429,-0.230121,-0.476433,0.847117,0.400021,0.047386,0.280395,-0.777812,0.229833,-0.475762,-0.848016,0.400525,-0.046607
675032.344653,0.279496,0.777429,-0.230109,-0.476421,0.847141,0.400021,0.047374,0.280383,-0.777812,0.229821,-0.475774,-0.847992,0.400513,-0.046607
675032.364707,0.279484,0.777429,-0.230121,-0.476433,0.847141,0.400021,0.047374,0.280395,-0.777824,0.229821,-0.475774,-0.848016,0.400525,-0.046631
675032.384762,0.279496,0.777429,-0.230133,-0.476433,0.847141,0.400033,0.047386,0.280383,-0.777824,0.229821,-0.475762,-0.848016,0.400537,-0.046607
675032.404866,0.279472,0.777429,-0.230121,-0.476433,0.847129,0.400033,0.047386,0.280383,-0.777812,0.229833,-0.475738,-0.84804,0.400525,-0.046607
675032.424896,0.279496,0.777405,-0.230121,-0.476421,0.847117,0.400033,0.047398,0.280383,-0.777824,0.229821,-0.475762,-0.848016,0.400525,-0.046607
675032.444974,0.279496,0.777429,-0.230121,-0.476433,0.847117,0.400045,0.047374,0.280371,-0.777824,0.22981,-0.475762,-0.848016,0.400525,-0.046619
675032.465078,0.279484,0.777453,-0.230097,-0.476433,0.847141,0.400033,0.047386,0.280395,-0.777836,0.229821,-0.475774,-0.848028,0.400537,-0.046619
675032.485161,0.279484,0.777417,-0.230133,-0.476433,0.847141,0.400033,0.047386,0.280383,-0.777824,0.229833,-0.475798,-0.848028,0.400513,-0.046619
675032.505256,0.279484,0.777429,-0.230109,-0.476433,0.847141,0.400045,0.047386,0.280383,-0.777812,0.22981,-0.475786,-0.848028,0.400537,-0.046607
675032.52534,0.279472,0.777429,-0.230109,-0.476433,0.847141,0.400021,0.047386,0.280383,-0.777812,0.22981,-0.475738,-0.848016,0.400537,-0.046607
675032.545425,0.279472,0.777429,-0.230121,-0.476433,0.847117,0.400045,0.047386,0.280371,-0.777824,0.229821,-0.475762,-0.848004,0.400525,-0.046607
675032.565509,0.279472,0.777453,-0.230109,-0.476433,0.847117,0.400033,0.047386,0.280371,-0.777824,0.229833,-0.475762,-0.848028,0.400513,-0.046607
675032.58556,0.279472,0.777429,-0.230133,-0.476433,0.847153,0.400033,0.047374,0.280383,-0.777824,0.229833,-0.475762,-0.848028,0.400525,-0.046607
675032.605641,0.279472,0.777429,-0.230133,-0.476409,0.847129,0.400021,0.047386,0.280383,-0.777824,0.229821,-0.475762,-0.847992,0.400525,-0.046619
675032.62574,0.279496,0.777429,-0.230121,-0.476433,0.847129,0.400033,0.047374,0.280395,-0.777812,0.229833,-0.475762,-0.848016,0.400525,-0.046619
675032.645879,0.279472,0.777429,-0.230121,-0.476433,0.847141,0.400009,0.047386,0.280383,-0.777824,0.229833,-0.475762,-0.848052,0.400537,-0.046619
675032.665954,0.279484,0.777429,-0.230109,-0.476433,0.847129,0.400009,0.047374,0.280383,-0.777824,0.229821,-0.475762,-0.848016,0.400525,-0.046607
675032.686011,0.279472,0.777429,-0.230097,-0.476433,0.847129,0.400033,0.047374,0.280383,-0.777824,0.229833,-0.475762,-0.848016,0.400549,-0.046607
675032.706091,0.279472,0.777429,-0.230097,-0.476433,0.847117,0.400021,0.04735,0.280383,-0.777812,0.229821,-0.475762,-0.848028,0.400561,-0.046619
675032.726187,0.27946,0.777429,-0.230133,-0.476433,0.847141,0.400021,0.047386,0.280395,-0.777824,0.229821,-0.475762,-0.848004,0.400549,-0.046619
675032.746277,0.279472,0.777429,-0.230097,-0.476433,0.847129,0.400021,0.047386,0.280371,-0.777836,0.22981,-0.475762,-0.848028,0.400537,-0.046607
675032.766355,0.279472,0.777429,-0.230109,-0.476421,0.847129,0.400021,0.047374,0.280395,-0.777824,0.229833,-0.475738,-0.848028,0.400513,-0.046619
675032.78645,0.279484,0.777429,-0.230121,-0.476433,0.847129,0.400009,0.047374,0.280383,-0.777824,0.229833,-0.475762,-0.848028,0.400537,-0.046619
675032.806492,0.279484,0.777429,-0.230121,-0.476433,0.847105,0.399997,0.047374,0.280395,-0.777824,0.229833,-0.47575,-0.848028,0.400549,-0.046619
675032.826569,0.279472,0.777429,-0.230133,-0.476433,0.847129,0.400009,0.047374,0.280407,-0.777812,0.229821,-0.475762,-0.84804,0.400525,-0.046607
675032.846655,0.27946,0.777429,-0.230133,-0.476433,0.847105,0.400009,0.047386,0.280371,-0.777812,0.229821,-0.475738,-0.848016,0.400537,-0.046607
675032.866739,0.27946,0.777417,-0.230121,-0.476409,0.847117,0.400021,0.047374,0.280383,-0.777812,0.229833,-0.475762,-0.848004,0.400525,-0.046619
675032.886824,0.27946,0.777429,-0.230121,-0.476433,0.847117,0.400033,0.047386,0.280359,-0.777812,0.229821,-0.475762,-0.847992,0.400537,-0.046607
675032.906899,0.279496,0.777429,-0.230133,-0.476433,0.847141,0.400033,0.047362,0.280383,-0.777824,0.229833,-0.475774,-0.848016,0.400525,-0.046607
675032.926984,0.279484,0.777429,-0.230121,-0.476409,0.847129,0.400009,0.047386,0.280383,-0.777824,0.229821,-0.475762,-0.848016,0.400537,-0.046607
675032.947079,0.279484,0.777429,-0.230109,-0.476433,0.847141,0.400021,0.047386,0.280371,-0.777824,0.22981,-0.475762,-0.848016,0.400537,-0.046607
675032.967169,0.279496,0.777429,-0.230121,-0.476433,0.847141,0.400033,0.047386,0.280383,-0.777812,0.229833,-0.475762,-0.848028,0.400525,-0.046619
675032.987254,0.279472,0.777429,-0.230109,-0.476433,0.847153,0.400021,0.047374,0.280383,-0.777812,0.229821,-0.475762,-0.848016,0.400537,-0.046631
675033.007336,0.279472,0.777429,-0.230097,-0.476433,0.847129,0.400033,0.047374,0.280395,-0.777812,0.229821,-0.475738,-0.848016,0.400525,-0.046607
675033.027439,0.279484,0.777453,-0.230109,-0.476433,0.847129,0.400033,0.047374,0.280395,-0.777812,0.229821,-0.475762,-0.848028,0.400525,-0.046619
675033.047532,0.279484,0.777429,-0.230121,-0.476433,0.847105,0.400021,0.047386,0.280371,-0.777824,0.229821,-0.475762,-0.848016,0.400537,-0.046607
675033.067627,0.27946,0.777429,-0.230109,-0.476433,0.847129,0.400033,0.047386,0.280395,-0.777824,0.229821,-0.475762,-0.848028,0.400525,-0.046619
675033.08806,0.279472,0.777429,-0.230121,-0.476433,0.847129,0.400033,0.047386,0.280395,-0.777812,0.229821,-0.475762,-0.848016,0.400525,-0.046607
675033.108224,0.279472,0.777453,-0.230121,-0.476421,0.847141,0.400033,0.047374,0.280395,-0.777812,0.229833,-0.475762,-0.848028,0.400525,-0.046607
675033.128424,0.279472,0.777429,-0.230121,-0.476433,0.847105,0.400009,0.047386,0.280383,-0.777824,0.229821,-0.475738,-0.848028,0.400537,-0.046619
675033.148508,0.279484,0.777429,-0.230133,-0.476433,0.847129,0.400033,0.047386,0.280383,-0.777824,0.229833,-0.475738,-0.848016,0.400525,-0.046607
675033.168578,0.279484,0.777429,-0.230121,-0.476433,0.847141,0.400033,0.047386,0.280395,-0.777824,0.229821,-0.475738,-0.848004,0.400525,-0.046631
675033.188684,0.27946,0.777429,-0.230121,-0.476409,0.847129,0.400021,0.047374,0.280383,-0.777824,0.229833,-0.475774,-0.848028,0.400525,-0.046607
675033.20882,0.279484,0.777429,-0.230133,-0.476421,0.847117,0.400021,0.047386,0.280383,-0.777824,0.229821,-0.475762,-0.848016,0.400525,-0.046607
675033.228965,0.279472,0.777417,-0.230121,-0.476421,0.847117,0.400033,0.047386,0.280383,-0.777824,0.229833,-0.47575,-0.848016,0.400537,-0.046607
675033.24928,0.279484,0.777429,-0.230097,-0.476433,0.847141,0.400021,0.047374,0.280371,-0.7778,0.229821,-0.475762,-0.848028,0.400525,-0.046607
675033.269358,0.279472,0.777429,-0.230121,-0.476409,0.847129,0.400021,0.047386,0.280383,-0.777812,0.229821,-0.475762,-0.848028,0.400513,-0.046619
675033.289631,0.27946,0.777429,-0.230121,-0.476433,0.847141,0.400033,0.047374,0.280395,-0.7778,0.229833,-0.475762,-0.848028,0.400525,-0.046619
675033.309837,0.279472,0.777417,-0.230121,-0.476433,0.847129,0.400033,0.047374,0.280395,-0.777812,0.22981,-0.475762,-0.848016,0.400537,-0.046607
675033.329999,0.279472,0.777453,-0.230121,-0.476433,0.847153,0.400033,0.047374,0.280383,-0.777824,0.229821,-0.475762,-0.848004,0.400525,-0.046607
675033.350231,0.279484,0.777405,-0.230121,-0.476433,0.847141,0.400021,0.047398,0.280395,-0.777812,0.229821,-0.475762,-0.847992,0.400513,-0.046619
675033.370308,0.27946,0.777429,-0.230109,-0.476433,0.847129,0.400033,0.047386,0.280383,-0.777824,0.229821,-0.475762,-0.848028,0.400525,-0.046643
675033.390413,0.279484,0.777429,-0.230121,-0.476433,0.847117,0.400009,0.047374,0.280383,-0.777824,0.229833,-0.47575,-0.848016,0.400525,-0.046607
675033.410514,0.27946,0.777429,-0.230097,-0.476433,0.847129,0.400009,0.047374,0.280383,-0.777824,0.229821,-0.475762,-0.848016,0.400525,-0.046607
675033.430574,0.27946,0.777429,-0.230121,-0.476433,0.847129,0.400021,0.047386,0.280383,-0.777836,0.229821,-0.475774,-0.848028,0.400525,-0.046619
675033.450661,0.279484,0.777429,-0.230109,-0.476445,0.847141,0.400033,0.04741,0.280383,-0.777812,0.229833,-0.475762,-0.84804,0.400525,-0.046607
675033.470738,0.279472,0.777429,-0.230109,-0.476433,0.847117,0.400033,0.047374,0.280383,-0.777824,0.229821,-0.475762,-0.84804,0.400537,-0.046607
675033.490829,0.279496,0.777429,-0.230121,-0.476433,0.847129,0.400009,0.047398,0.280395,-0.777812,0.229821,-0.475762,-0.848028,0.400525,-0.046607
675033.510926,0.279484,0.777429,-0.230121,-0.476433,0.847117,0.400021,0.047386,0.280395,-0.777812,0.22981,-0.475762,-0.848028,0.400525,-0.046619
675033.53138,0.27946,0.777429,-0.230121,-0.476433,0.847141,0.400021,0.047386,0.280407,-0.777824,0.22981,-0.475762,-0.848028,0.400525,-0.046607
675033.551452,0.279472,0.777429,-0.230121,-0.476421,0.847129,0.400021,0.047386,0.280371,-0.777824,0.229833,-0.475774,-0.848016,0.400525,-0.046607
675033.571537,0.279472,0.777429,-0.230121,-0.476433,0.847129,0.400021,0.047398,0.280395,-0.777812,0.229833,-0.475762,-0.848028,0.400525,-0.046619
675033.591643,0.279472,0.777417,-0.230097,-0.476433,0.847093,0.400021,0.047374,0.280371,-0.777788,0.229833,-0.475762,-0.848016,0.400501,-0.046619
675033.61184,0.279496,0.777429,-0.230121,-0.476433,0.847141,0.400033,0.047374,0.280383,-0.777824,0.229821,-0.475762,-0.848016,0.400525,-0.046619
675033.632206,0.279496,0.777429,-0.230121,-0.476433,0.847129,0.400033,0.047374,0.280383,-0.777812,0.229833,-0.475762,-0.848004,0.400525,-0.046619
675033.652298,0.279484,0.777429,-0.230121,-0.476433,0.847105,0.399997,0.047386,0.280371,-0.777812,0.229845,-0.475762,-0.848016,0.400537,-0.046595
675033.672502,0.279472,0.777429,-0.230121,-0.476433,0.847141,0.400033,0.047386,0.280395,-0.777824,0.229821,-0.475774,-0.84804,0.400537,-0.046607
675033.692681,0.279484,0.777429,-0.230121,-0.476421,0.847141,0.400033,0.047374,0.280407,-0.777812,0.22981,-0.475762,-0.848028,0.400549,-0.046607
675033.712799,0.279472,0.777429,-0.230121,-0.476433,0.847141,0.400009,0.047386,0.280383,-0.777812,0.229833,-0.475738,-0.848028,0.400525,-0.046619
675033.733015,0.279472,0.777429,-0.230121,-0.476409,0.847129,0.400021,0.047386,0.280383,-0.777824,0.229833,-0.475762,-0.84804,0.400513,-0.046607
675033.753195,0.279484,0.777429,-0.230121,-0.476409,0.847117,0.400009,0.047398,0.280395,-0.777812,0.229821,-0.47575,-0.848016,0.400549,-0.046643
675033.773402,0.279484,0.777429,-0.230121,-0.476433,0.847129,0.400021,0.047386,0.280383,-0.777812,0.229821,-0.475762,-0.848028,0.400525,-0.046607
675033.793657,0.279472,0.777429,-0.230121,-0.476433,0.847141,0.400033,0.047374,0.280371,-0.777812,0.229821,-0.475774,-0.848016,0.400525,-0.046619
675033.813832,0.279484,0.777429,-0.230133,-0.476409,0.847141,0.400021,0.047374,0.280383,-0.777812,0.229821,-0.475738,-0.848028,0.400537,-0.046607
675033.834073,0.279472,0.777429,-0.230109,-0.476421,0.847129,0.400021,0.047386,0.280383,-0.777824,0.22981,-0.475762,-0.848016,0.400537,-0.046643
675033.854243,0.279496,0.777429,-0.230133,-0.476433,0.847129,0.400021,0.047374,0.280395,-0.777836,0.229833,-0.475762,-0.848016,0.400537,-0.046607
675033.874361,0.279484,0.777429,-0.230109,-0.476433,0.847141,0.400009,0.047386,0.280383,-0.777812,0.229821,-0.475774,-0.848028,0.400525,-0.046607
675033.894613,0.279472,0.777429,-0.230121,-0.476421,0.847129,0.400033,0.047374,0.280371,-0.7778,0.229833,-0.475762,-0.848028,0.400513,-0.046607
675033.914803,0.279484,0.777429,-0.230121,-0.476409,0.847141,0.400033,0.047362,0.280395,-0.777824,0.229821,-0.475762,-0.848028,0.400513,-0.046607
675033.934898,0.27946,0.777429,-0.230121,-0.476433,0.847141,0.400021,0.047386,0.280383,-0.777824,0.229833,-0.475762,-0.848028,0.400537,-0.046619
675033.954999,0.279484,0.777441,-0.230121,-0.476433,0.847129,0.400033,0.047386,0.280395,-0.777812,0.229821,-0.475774,-0.848028,0.400537,-0.046607
675033.975231,0.27946,0.777429,-0.230097,-0.476445,0.847141,0.400009,0.047386,0.280395,-0.7778,0.229833,-0.475762,-0.848028,0.400525,-0.046595
675033.995332,0.279484,0.777429,-0.230121,-0.476433,0.847093,0.400009,0.047386,0.280395,-0.777812,0.229821,-0.475762,-0.848016,0.400525,-0.046607
675034.015406,0.279484,0.777429,-0.230121,-0.476409,0.847129,0.400033,0.047386,0.280383,-0.777812,0.229821,-0.475762,-0.848028,0.400525,-0.046619
675034.035507,0.279484,0.777429,-0.230121,-0.476445,0.847129,0.400033,0.047386,0.280383,-0.777824,0.229821,-0.475762,-0.848016,0.400525,-0.046619
675034.055708,0.279496,0.777429,-0.230121,-0.476409,0.847141,0.400045,0.047374,0.280383,-0.777824,0.22981,-0.475762,-0.848016,0.400525,-0.046607
675034.075888,0.279472,0.777429,-0.230121,-0.476433,0.847141,0.400009,0.047374,0.280407,-0.777812,0.229845,-0.475762,-0.848028,0.400537,-0.046619
675034.095988,0.279472,0.777429,-0.230133,-0.476433,0.847141,0.400021,0.047362,0.280395,-0.7778,0.229821,-0.475774,-0.84804,0.400525,-0.046607
675034.116106,0.279472,0.777429,-0.230109,-0.476433,0.847117,0.400033,0.047374,0.280395,-0.777812,0.229833,-0.475762,-0.847992,0.400513,-0.046619
675034.136338,0.27946,0.777429,-0.230121,-0.476433,0.847129,0.400033,0.047386,0.280383,-0.777812,0.229833,-0.475762,-0.848016,0.400525,-0.046619
675034.156442,0.279472,0.777429,-0.230121,-0.476433,0.847129,0.400021,0.047386,0.280383,-0.777812,0.229833,-0.475738,-0.848028,0.400525,-0.046607
675034.17655,0.27946,0.777429,-0.230121,-0.476409,0.847117,0.400021,0.047374,0.280383,-0.777824,0.229833,-0.47575,-0.84804,0.400525,-0.046607
675034.196645,0.279496,0.777429,-0.230121,-0.476409,0.847153,0.400009,0.047374,0.280383,-0.777812,0.229821,-0.475738,-0.848028,0.400513,-0.046607
675034.216745,0.279472,0.777429,-0.230121,-0.476433,0.847153,0.400045,0.047386,0.280395,-0.777824,0.229821,-0.475762,-0.84804,0.400513,-0.046607
675034.23694,0.279484,0.777429,-0.230133,-0.476433,0.847153,0.400009,0.047374,0.280383,-0.777812,0.229821,-0.475762,-0.848016,0.400537,-0.046607
675034.257137,0.279496,0.777429,-0.230121,-0.476409,0.847141,0.400045,0.047386,0.280371,-0.777812,0.229833,-0.47575,-0.848028,0.400537,-0.046607
675034.277453,0.279472,0.777429,-0.230121,-0.476433,0.847153,0.400033,0.047374,0.280395,-0.777824,0.229821,-0.475762,-0.848004,0.400537,-0.046619
675034.297557,0.279484,0.777429,-0.230121,-0.476433,0.847141,0.400009,0.047386,0.280395,-0.777824,0.229821,-0.475786,-0.848028,0.400525,-0.046619
675034.317832,0.279496,0.777429,-0.230109,-0.476433,0.847129,0.399985,0.047374,0.280395,-0.777824,0.229821,-0.475762,-0.848028,0.400513,-0.046619
675034.338027,0.279496,0.777429,-0.230097,-0.476445,0.847105,0.400009,0.047386,0.280383,-0.7778,0.229833,-0.475762,-0.848016,0.400525,-0.046595
675034.358211,0.279472,0.777429,-0.230097,-0.476433,0.847141,0.400009,0.047374,0.280383,-0.777824,0.229821,-0.475762,-0.848028,0.400525,-0.046619
675034.378315,0.279472,0.777429,-0.230109,-0.476433,0.847117,0.399997,0.047374,0.280395,-0.777824,0.229821,-0.475762,-0.84804,0.400513,-0.046583
675034.398546,0.279472,0.777429,-0.230121,-0.476421,0.847129,0.400009,0.047374,0.280395,-0.777824,0.229821,-0.475762,-0.848028,0.400525,-0.046607
675034.418651,0.279484,0.777429,-0.230121,-0.476433,0.847141,0.400045,0.047374,0.280371,-0.777812,0.229821,-0.475738,-0.848016,0.400549,-0.046619
675034.438799,0.27946,0.777429,-0.230121,-0.476433,0.847141,0.400021,0.047386,0.280371,-0.777824,0.229821,-0.475762,-0.848016,0.400525,-0.046607
675034.458999,0.279496,0.777417,-0.230121,-0.476409,0.847129,0.400009,0.047386,0.280395,-0.777824,0.229821,-0.475762,-0.848028,0.400537,-0.046607
675034.479727,0.279484,0.777429,-0.230097,-0.476409,0.847117,0.400021,0.047374,0.280371,-0.777812,0.229821,-0.475762,-0.848052,0.400525,-0.046607
675034.499819,0.279472,0.777429,-0.230121,-0.476433,0.847105,0.400021,0.047386,0.280395,-0.777824,0.229821,-0.475762,-0.848028,0.400537,-0.046607
675034.520042,0.279472,0.777429,-0.230121,-0.476433,0.847117,0.399974,0.047386,0.280395,-0.777812,0.229833,-0.475762,-0.848004,0.400537,-0.046619
675034.540292,0.279484,0.777429,-0.230097,-0.476433,0.847129,0.400021,0.047374,0.280383,-0.777836,0.22981,-0.475738,-0.848028,0.400513,-0.046607
675034.560402,0.279484,0.777429,-0.230133,-0.476433,0.847153,0.400009,0.047374,0.280383,-0.777812,0.229833,-0.475774,-0.848016,0.400537,-0.046607
675034.580504,0.279472,0.777429,-0.230097,-0.476433,0.847129,0.400021,0.047386,0.280395,-0.777812,0.229821,-0.47575,-0.848016,0.400525,-0.046619
675034.600758,0.279484,0.777441,-0.230121,-0.476433,0.847129,0.400033,0.047374,0.280383,-0.777812,0.229833,-0.475738,-0.848004,0.400537,-0.046607
675034.620863,0.279484,0.777417,-0.230133,-0.476433,0.847141,0.400045,0.047386,0.280395,-0.777824,0.229821,-0.47575,-0.848028,0.400537,-0.046607
675034.640979,0.279496,0.777429,-0.230097,-0.476433,0.847105,0.400009,0.047374,0.280395,-0.7778,0.229833,-0.475762,-0.848016,0.400525,-0.046607
675034.66111,0.27946,0.777429,-0.230121,-0.476433,0.847117,0.400021,0.047374,0.280371,-0.777824,0.229821,-0.475786,-0.848028,0.400513,-0.046595
675034.681197,0.279484,0.777429,-0.230121,-0.476433,0.847129,0.400021,0.047386,0.280359,-0.777812,0.229821,-0.475762,-0.848028,0.400525,-0.046607
675034.701289,0.279484,0.777417,-0.230121,-0.476421,0.847141,0.400033,0.047374,0.280383,-0.777824,0.229833,-0.47575,-0.848028,0.400537,-0.046607
675034.721384,0.279472,0.777429,-0.230133,-0.476421,0.847105,0.400009,0.047374,0.280383,-0.777824,0.229821,-0.475774,-0.848016,0.400537,-0.046619
675034.741485,0.279472,0.777429,-0.230109,-0.476433,0.847129,0.400009,0.047386,0.280395,-0.777824,0.229833,-0.475738,-0.848028,0.400537,-0.046631
675034.761559,0.279484,0.777429,-0.230097,-0.476421,0.847141,0.400021,0.047374,0.280383,-0.777812,0.229833,-0.475762,-0.848004,0.400537,-0.046631
675034.781641,0.279496,0.777429,-0.230121,-0.476421,0.847141,0.400033,0.047386,0.280383,-0.777824,0.229833,-0.475738,-0.848028,0.400513,-0.046607
675034.801735,0.27946,0.777429,-0.230121,-0.476433,0.847117,0.400033,0.047398,0.280359,-0.777836,0.229833,-0.475786,-0.84804,0.400525,-0.046619
675034.821818,0.279472,0.777429,-0.230121,-0.476433,0.847153,0.400033,0.047374,0.280395,-0.777824,0.229833,-0.475786,-0.848016,0.400537,-0.046619
675034.841899,0.279496,0.777429,-0.230097,-0.476433,0.847117,0.400045,0.047374,0.280371,-0.777812,0.229833,-0.475762,-0.848004,0.400537,-0.046607
675034.861981,0.27946,0.777417,-0.230121,-0.476397,0.847153,0.400009,0.047386,0.280383,-0.777812,0.229833,-0.475738,-0.848028,0.400525,-0.046619
675034.882116,0.279472,0.777429,-0.230097,-0.476433,0.847129,0.400009,0.047374,0.280383,-0.777824,0.229821,-0.475762,-0.848028,0.400525,-0.046619
675034.902206,0.279484,0.777429,-0.230133,-0.476433,0.847141,0.400033,0.047386,0.280383,-0.777824,0.229821,-0.475762,-0.848028,0.400525,-0.046619
675034.92231,0.279496,0.777429,-0.230121,-0.476433,0.847141,0.400045,0.047386,0.280395,-0.777824,0.229821,-0.475738,-0.848016,0.400525,-0.046607
675034.942398,0.279472,0.777453,-0.230121,-0.476433,0.847129,0.400009,0.047374,0.280395,-0.777824,0.229833,-0.47575,-0.848028,0.400549,-0.046607
675034.962473,0.27946,0.777441,-0.230097,-0.476433,0.847129,0.400045,0.047386,0.280395,-0.777812,0.229833,-0.475762,-0.848016,0.400525,-0.046631
675034.982552,0.279472,0.777429,-0.230133,-0.476433,0.847105,0.400033,0.047374,0.280407,-0.777824,0.229821,-0.475762,-0.848028,0.400537,-0.046607
675035.002638,0.279484,0.777429,-0.230133,-0.476409,0.847153,0.399997,0.047374,0.280395,-0.777824,0.229821,-0.475762,-0.84804,0.400537,-0.046619
675035.022736,0.279496,0.777453,-0.230133,-0.476433,0.847117,0.400009,0.047386,0.280395,-0.777812,0.229833,-0.475762,-0.848016,0.400513,-0.046607
675035.04282,0.279472,0.777417,-0.230121,-0.476433,0.847129,0.400033,0.047386,0.280371,-0.777812,0.229821,-0.47575,-0.848028,0.400525,-0.046607
675035.063347,0.27946,0.777429,-0.230121,-0.476421,0.847129,0.400021,0.047386,0.280383,-0.777812,0.229833,-0.475762,-0.848028,0.400525,-0.046583
675035.083431,0.279484,0.777429,-0.230121,-0.476433,0.847117,0.400009,0.047386,0.280383,-0.777812,0.229833,-0.475762,-0.848028,0.400537,-0.046619
675035.103527,0.279484,0.777429,-0.230121,-0.476409,0.847129,0.400009,0.047386,0.280383,-0.777812,0.229833,-0.47575,-0.848016,0.400525,-0.046607
675035.123625,0.27946,0.777417,-0.230133,-0.476433,0.847105,0.400009,0.047362,0.280371,-0.777812,0.229821,-0.475762,-0.848028,0.400525,-0.046619
675035.143691,0.27946,0.777429,-0.230121,-0.476433,0.847117,0.400021,0.047386,0.280395,-0.777812,0.229821,-0.475762,-0.848016,0.400525,-0.046619
675035.16376,0.279484,0.777429,-0.230133,-0.476421,0.847153,0.400009,0.047386,0.280383,-0.777824,0.229845,-0.475762,-0.848028,0.400561,-0.046607
675035.183836,0.279472,0.777441,-0.230097,-0.476433,0.847129,0.400009,0.047386,0.280371,-0.7778,0.229821,-0.475762,-0.848028,0.400537,-0.046607
675035.203924,0.279496,0.777429,-0.230133,-0.476409,0.847129,0.400021,0.047386,0.280407,-0.777812,0.229821,-0.475762,-0.848028,0.400525,-0.046619
675035.224013,0.279484,0.777429,-0.230109,-0.476421,0.847129,0.400009,0.047386,0.280395,-0.777812,0.229821,-0.475762,-0.84804,0.400525,-0.046607
675035.244094,0.279484,0.777429,-0.230121,-0.476433,0.847129,0.400021,0.047386,0.280407,-0.777812,0.229821,-0.475762,-0.848004,0.400537,-0.046607
675035.26417,0.279484,0.777429,-0.230133,-0.476433,0.847141,0.400021,0.047386,0.280395,-0.777824,0.229821,-0.475738,-0.848016,0.400537,-0.046607
675035.284268,0.279484,0.777429,-0.230121,-0.476433,0.847093,0.400021,0.047386,0.280383,-0.777836,0.229821,-0.475762,-0.848016,0.400525,-0.046595
675035.304362,0.27946,0.777429,-0.230097,-0.476433,0.847141,0.400045,0.047374,0.280383,-0.777812,0.229833,-0.475774,-0.848028,0.400525,-0.046607
675035.324444,0.279496,0.777429,-0.230121,-0.476433,0.847141,0.400021,0.047386,0.280383,-0.7778,0.229821,-0.475762,-0.848004,0.400525,-0.046607
675035.34458,0.279484,0.777429,-0.230121,-0.476433,0.847105,0.400009,0.047374,0.280383,-0.777812,0.229821,-0.475762,-0.848028,0.400537,-0.046607
675035.36466,0.279484,0.777429,-0.230097,-0.476433,0.847129,0.400033,0.047386,0.280383,-0.777812,0.229833,-0.475762,-0.848028,0.400537,-0.046607
675035.384746,0.279496,0.777429,-0.230121,-0.476433,0.847129,0.400021,0.047386,0.280395,-0.777824,0.229821,-0.475774,-0.848028,0.400525,-0.046607
675035.404832,0.279472,0.777417,-0.230109,-0.476433,0.847141,0.400009,0.047386,0.280395,-0.777824,0.229833,-0.475762,-0.848016,0.400537,-0.046607
675035.424991,0.279472,0.777417,-0.230097,-0.476433,0.847117,0.400009,0.047386,0.280395,-0.777812,0.229821,-0.475762,-0.848028,0.400537,-0.046619
675035.445073,0.27946,0.777429,-0.230109,-0.476433,0.847141,0.400021,0.047386,0.280383,-0.777812,0.22981,-0.475762,-0.848016,0.400525,-0.046619
675035.465147,0.279484,0.777429,-0.230121,-0.476433,0.847105,0.400021,0.047398,0.280383,-0.7778,0.229821,-0.475762,-0.848016,0.400537,-0.046607
675035.485226,0.27946,0.777429,-0.230097,-0.476433,0.847129,0.400033,0.047374,0.280371,-0.7778,0.229821,-0.47575,-0.848028,0.400537,-0.046607
675035.505333,0.279472,0.777429,-0.230121,-0.476433,0.847129,0.400033,0.047374,0.280383,-0.777824,0.229833,-0.475762,-0.848016,0.400513,-0.046631
675035.525429,0.279496,0.777429,-0.230121,-0.476433,0.847129,0.400021,0.047374,0.280383,-0.777824,0.229833,-0.475762,-0.848004,0.400537,-0.046643
675035.54553,0.279472,0.777429,-0.230121,-0.476433,0.847141,0.400033,0.047374,0.280383,-0.777824,0.229821,-0.475762,-0.848028,0.400513,-0.046607
675035.565631,0.27946,0.777429,-0.230121,-0.476433,0.847117,0.400033,0.047374,0.280383,-0.777824,0.229821,-0.475762,-0.848004,0.400537,-0.046643
675035.585745,0.279472,0.777429,-0.230121,-0.476433,0.847141,0.400033,0.047386,0.280383,-0.777812,0.229821,-0.475762,-0.848028,0.400525,-0.046607
675035.605828,0.279484,0.777429,-0.230097,-0.476433,0.847129,0.400021,0.047374,0.280383,-0.7778,0.229821,-0.475762,-0.848016,0.400525,-0.046607
675035.625931,0.279484,0.777429,-0.230121,-0.476433,0.847105,0.400033,0.047386,0.280383,-0.7778,0.229833,-0.475762,-0.848028,0.400525,-0.046607
675035.646017,0.279484,0.777429,-0.230121,-0.476421,0.847129,0.399997,0.047374,0.280383,-0.777812,0.229833,-0.475762,-0.848028,0.400537,-0.046595
675035.666112,0.279484,0.777429,-0.230121,-0.476433,0.847093,0.400009,0.047374,0.280383,-0.777812,0.229833,-0.475738,-0.848016,0.400525,-0.046631
675035.686216,0.279484,0.777429,-0.230097,-0.476421,0.847153,0.400009,0.047374,0.280383,-0.777824,0.229833,-0.475762,-0.848016,0.400537,-0.046619
675035.706311,0.279496,0.777405,-0.230121,-0.476433,0.847153,0.400021,0.047374,0.280395,-0.777812,0.229821,-0.475774,-0.848004,0.400549,-0.046619
675035.726403,0.279484,0.777429,-0.230133,-0.476433,0.847141,0.400033,0.047362,0.280383,-0.777812,0.229833,-0.475762,-0.848028,0.400501,-0.046631
675035.746464,0.27946,0.777429,-0.230121,-0.476421,0.847141,0.400033,0.047386,0.280383,-0.777812,0.229821,-0.475762,-0.848028,0.400525,-0.046631
675035.766553,0.279472,0.777429,-0.230121,-0.476421,0.847129,0.400033,0.047374,0.280395,-0.777812,0.229833,-0.475762,-0.848028,0.400549,-0.046631
675035.786635,0.27946,0.777453,-0.230121,-0.476409,0.847105,0.400009,0.047386,0.280395,-0.777836,0.229833,-0.475762,-0.848016,0.400525,-0.046607
675035.80669,0.279484,0.777429,-0.230097,-0.476433,0.847141,0.400033,0.047362,0.280383,-0.777824,0.229821,-0.475762,-0.848028,0.400525,-0.046619
675035.826768,0.279484,0.777429,-0.230133,-0.476433,0.847141,0.400009,0.047374,0.280383,-0.777812,0.229821,-0.475774,-0.848016,0.400537,-0.046619
675035.846949,0.279484,0.777417,-0.230097,-0.476421,0.847129,0.400033,0.047386,0.280383,-0.777812,0.229821,-0.475762,-0.848016,0.400537,-0.046619
675035.867017,0.279496,0.777429,-0.230121,-0.476433,0.847117,0.400045,0.047386,0.280383,-0.7778,0.229821,-0.475762,-0.848028,0.400513,-0.046619
675035.887115,0.279472,0.777429,-0.230133,-0.476421,0.847141,0.400033,0.047386,0.280383,-0.7778,0.229833,-0.475762,-0.848028,0.400513,-0.046631
675035.907209,0.27946,0.777417,-0.230109,-0.476445,0.847141,0.400021,0.047386,0.280371,-0.777824,0.229821,-0.475774,-0.848028,0.400525,-0.046607
675035.927322,0.279472,0.777417,-0.230133,-0.476433,0.847129,0.400009,0.047386,0.280383,-0.777812,0.229833,-0.475762,-0.848028,0.400525,-0.046607
675035.947418,0.279472,0.777429,-0.230121,-0.476421,0.847141,0.400021,0.047374,0.280383,-0.777812,0.229821,-0.475738,-0.848016,0.400525,-0.046607
675035.967499,0.279484,0.777417,-0.230121,-0.476433,0.847129,0.400045,0.047374,0.280407,-0.777812,0.229821,-0.475738,-0.848028,0.400513,-0.046595
675035.987642,0.279484,0.777453,-0.230121,-0.476433,0.847153,0.400033,0.047386,0.280371,-0.777824,0.229821,-0.475762,-0.848016,0.400525,-0.046607
675036.007719,0.27946,0.777429,-0.230133,-0.476433,0.847129,0.400033,0.047374,0.280383,-0.777812,0.229833,-0.475762,-0.848028,0.400525,-0.046607
675036.027821,0.279472,0.777429,-0.230133,-0.476433,0.847153,0.400009,0.047374,0.280383,-0.777812,0.229833,-0.475762,-0.848028,0.400525,-0.046607
675036.047925,0.27946,0.777429,-0.230109,-0.476433,0.847117,0.400033,0.047374,0.280395,-0.777824,0.229821,-0.475762,-0.848028,0.400537,-0.046595
675036.068037,0.279484,0.777429,-0.230109,-0.476433,0.847141,0.400033,0.047374,0.280383,-0.777824,0.229833,-0.47575,-0.848028,0.400549,-0.046643
675036.088157,0.279472,0.777429,-0.230121,-0.476433,0.847105,0.400033,0.047374,0.280383,-0.777824,0.229821,-0.475762,-0.848004,0.400525,-0.046619
675036.10826,0.279472,0.777429,-0.230145,-0.476421,0.847129,0.400009,0.047386,0.280371,-0.777812,0.22981,-0.475762,-0.848028,0.400525,-0.046619
675036.128362,0.279472,0.777429,-0.230121,-0.476433,0.847105,0.400009,0.047374,0.280383,-0.777824,0.22981,-0.475762,-0.848016,0.400537,-0.046607
675036.148465,0.279484,0.777429,-0.230121,-0.476433,0.847105,0.400009,0.047386,0.280383,-0.777824,0.229821,-0.47575,-0.848016,0.400501,-0.046607
675036.168544,0.279484,0.777429,-0.230121,-0.476409,0.847141,0.400033,0.047386,0.280359,-0.777824,0.229821,-0.475762,-0.848016,0.400537,-0.046607
675036.188631,0.279484,0.777429,-0.230121,-0.476433,0.847141,0.400009,0.047386,0.280383,-0.777812,0.229821,-0.475738,-0.847992,0.400537,-0.046607
675036.208702,0.279472,0.777429,-0.230121,-0.476433,0.847141,0.400009,0.047374,0.280383,-0.777812,0.229821,-0.475762,-0.848028,0.400549,-0.046631
675036.228778,0.279484,0.777429,-0.230121,-0.476433,0.847153,0.400009,0.047386,0.280383,-0.777812,0.229821,-0.475762,-0.848028,0.400537,-0.046619
675036.248831,0.279484,0.777429,-0.230121,-0.476433,0.847141,0.400021,0.047386,0.280383,-0.777824,0.229833,-0.475762,-0.848016,0.400537,-0.046619
675036.268925,0.279472,0.777429,-0.230109,-0.476433,0.847141,0.400033,0.047374,0.280383,-0.777824,0.229821,-0.475738,-0.84804,0.400537,-0.046607
675036.289009,0.279472,0.777429,-0.230121,-0.476421,0.847153,0.400009,0.047374,0.280383,-0.777812,0.229833,-0.475762,-0.848028,0.400537,-0.046607
675036.309097,0.279484,0.777429,-0.230097,-0.476433,0.847141,0.400033,0.047374,0.280407,-0.7778,0.229833,-0.475762,-0.848016,0.400525,-0.046607
675036.329183,0.279496,0.777429,-0.230121,-0.476433,0.847117,0.400009,0.04741,0.280407,-0.777824,0.229833,-0.475786,-0.848028,0.400537,-0.046607
675036.349265,0.279484,0.777429,-0.230121,-0.476409,0.847117,0.400021,0.047386,0.280383,-0.777836,0.229833,-0.475762,-0.848028,0.400525,-0.046607
675036.369496,0.279484,0.777417,-0.230121,-0.476433,0.847141,0.400009,0.047386,0.280395,-0.777812,0.229821,-0.47575,-0.848028,0.400549,-0.046607
675036.389588,0.279472,0.777405,-0.230121,-0.476433,0.847129,0.400009,0.047386,0.280395,-0.777824,0.22981,-0.475762,-0.848028,0.400537,-0.046607
675036.409667,0.279472,0.777405,-0.230121,-0.476433,0.847105,0.400009,0.047374,0.280395,-0.777824,0.229821,-0.475762,-0.84804,0.400525,-0.046619
675036.429757,0.27946,0.777429,-0.230121,-0.476433,0.847141,0.400009,0.047386,0.280383,-0.777812,0.229821,-0.475762,-0.848052,0.400549,-0.046607
675036.449853,0.279472,0.777429,-0.230133,-0.476433,0.847117,0.400009,0.047386,0.280383,-0.777812,0.229833,-0.475786,-0.848016,0.400525,-0.046607
675036.469943,0.279484,0.777429,-0.230097,-0.476433,0.847141,0.400009,0.047386,0.280395,-0.777812,0.229821,-0.475762,-0.848028,0.400525,-0.046607
675036.490017,0.279472,0.777429,-0.230121,-0.476433,0.847105,0.400009,0.047386,0.280371,-0.777824,0.229833,-0.475762,-0.848016,0.400537,-0.046607
675036.510104,0.27946,0.777429,-0.230133,-0.476433,0.847141,0.400033,0.047374,0.280383,-0.777812,0.229821,-0.475738,-0.848004,0.400525,-0.046607
675036.530189,0.279484,0.777429,-0.230097,-0.476433,0.847153,0.400033,0.047386,0.280407,-0.777812,0.229821,-0.475762,-0.848028,0.400525,-0.046607
675036.550315,0.27946,0.777429,-0.230133,-0.476433,0.847141,0.400045,0.047386,0.280383,-0.777824,0.229821,-0.475786,-0.84804,0.400525,-0.046619
675036.570392,0.279484,0.777429,-0.230121,-0.476433,0.847141,0.400033,0.047362,0.280395,-0.777824,0.229833,-0.475762,-0.848016,0.400525,-0.046607
675036.590462,0.279472,0.777429,-0.230121,-0.476433,0.847129,0.399997,0.047386,0.280383,-0.777812,0.229833,-0.475762,-0.848028,0.400513,-0.046607
675036.610516,0.279472,0.777417,-0.230121,-0.476433,0.847129,0.400021,0.047386,0.280383,-0.777812,0.229821,-0.475762,-0.848028,0.400525,-0.046619
675036.630602,0.279484,0.777429,-0.230133,-0.476421,0.847141,0.400009,0.047374,0.280383,-0.777824,0.229821,-0.47575,-0.848028,0.400525,-0.046607
675036.650686,0.279496,0.777429,-0.230097,-0.476445,0.847141,0.400009,0.047374,0.280395,-0.777824,0.229821,-0.475738,-0.848028,0.400525,-0.046607
675036.67078,0.279484,0.777429,-0.230109,-0.476433,0.847129,0.400033,0.047398,0.280383,-0.777824,0.229821,-0.475738,-0.848028,0.400549,-0.046607
675036.69087,0.279484,0.777429,-0.230121,-0.476409,0.847141,0.400021,0.047374,0.280395,-0.777812,0.229833,-0.475762,-0.848028,0.400537,-0.046607
675036.71096,0.279484,0.777429,-0.230121,-0.476433,0.847141,0.400045,0.047374,0.280383,-0.7778,0.229833,-0.475762,-0.848016,0.400549,-0.046619
675036.731009,0.279472,0.777429,-0.230121,-0.476433,0.847129,0.400021,0.047386,0.280395,-0.777824,0.22981,-0.475762,-0.848028,0.400537,-0.046619
675036.751091,0.279472,0.777429,-0.230121,-0.476421,0.847141,0.400009,0.047398,0.280395,-0.777824,0.22981,-0.475738,-0.848028,0.400525,-0.046595
675036.77119,0.279472,0.777429,-0.230121,-0.476409,0.847141,0.400033,0.047374,0.280371,-0.777824,0.229821,-0.475738,-0.84804,0.400537,-0.046619
675036.791277,0.279484,0.777429,-0.230109,-0.476433,0.847129,0.400033,0.047386,0.280395,-0.777824,0.229821,-0.47575,-0.848028,0.400525,-0.046595
675036.811373,0.27946,0.777429,-0.230121,-0.476433,0.847141,0.400021,0.047386,0.280383,-0.777812,0.229821,-0.475774,-0.84804,0.400537,-0.046607
675036.831464,0.279484,0.777429,-0.230121,-0.476421,0.847129,0.400021,0.047386,0.280395,-0.777812,0.229821,-0.475762,-0.848028,0.400501,-0.046595
675036.851523,0.279496,0.777453,-0.230097,-0.476421,0.847141,0.400009,0.047374,0.280395,-0.7778,0.229821,-0.475762,-0.848028,0.400525,-0.046607
675036.871621,0.279472,0.777429,-0.230121,-0.476409,0.847105,0.400033,0.047386,0.280383,-0.777824,0.229833,-0.475762,-0.848016,0.400525,-0.046595
675036.891716,0.27946,0.777429,-0.230097,-0.476433,0.847117,0.400033,0.047374,0.280383,-0.777812,0.229821,-0.475762,-0.848028,0.400525,-0.046607
675036.911825,0.27946,0.777429,-0.230133,-0.476433,0.847129,0.400009,0.047386,0.280383,-0.777824,0.229821,-0.475738,-0.84804,0.400537,-0.046607
675036.931894,0.279484,0.777417,-0.230121,-0.476433,0.847153,0.400009,0.047386,0.280383,-0.777836,0.229821,-0.475762,-0.848016,0.400537,-0.046607
675036.951975,0.279484,0.777429,-0.230121,-0.476433,0.847141,0.400021,0.047374,0.280395,-0.777824,0.229821,-0.475762,-0.848016,0.400525,-0.046607
675036.972074,0.279472,0.777429,-0.230109,-0.476433,0.847129,0.400009,0.047386,0.280395,-0.777812,0.229821,-0.475762,-0.848016,0.400525,-0.046607
675036.992151,0.279496,0.777429,-0.230121,-0.476433,0.847141,0.400033,0.047386,0.280383,-0.777824,0.229821,-0.475774,-0.848028,0.400525,-0.046607
675037.012232,0.279484,0.777429,-0.230097,-0.476421,0.847141,0.400033,0.047374,0.280383,-0.777824,0.229821,-0.47575,-0.84804,0.400525,-0.046595
675037.032301,0.27946,0.777429,-0.230121,-0.476433,0.847129,0.399997,0.047374,0.280395,-0.777824,0.229821,-0.47575,-0.848028,0.400537,-0.046619
675037.052389,0.279472,0.777417,-0.230121,-0.476433,0.847153,0.400021,0.047362,0.280383,-0.777824,0.229821,-0.475762,-0.848028,0.400537,-0.046619
675037.072474,0.279472,0.777429,-0.230121,-0.476421,0.847129,0.400021,0.047374,0.280407,-0.777836,0.22981,-0.475762,-0.848052,0.400525,-0.046607
675037.09264,0.279484,0.777429,-0.230097,-0.476433,0.847129,0.400009,0.047374,0.280371,-0.777824,0.229821,-0.475762,-0.848028,0.400525,-0.046619
675037.112722,0.279472,0.777429,-0.230097,-0.476433,0.847117,0.400009,0.047386,0.280383,-0.777824,0.229821,-0.475738,-0.848028,0.400525,-0.046607
675037.132809,0.279472,0.777429,-0.230109,-0.476421,0.847129,0.400009,0.047374,0.280395,-0.777812,0.22981,-0.475738,-0.848004,0.400513,-0.046607
675037.152884,0.279496,0.777429,-0.230121,-0.476409,0.847141,0.400021,0.047374,0.280383,-0.777824,0.229821,-0.475738,-0.848004,0.400525,-0.046619
675037.17293,0.279496,0.777429,-0.230121,-0.476433,0.847129,0.400021,0.047386,0.280395,-0.777824,0.229833,-0.475762,-0.848028,0.400525,-0.046607
675037.193029,0.279484,0.777429,-0.230097,-0.476433,0.847141,0.400033,0.047398,0.280383,-0.777812,0.229821,-0.475762,-0.848028,0.400525,-0.046607
675037.213106,0.279472,0.777429,-0.230121,-0.476409,0.847117,0.400009,0.047386,0.280371,-0.777812,0.229821,-0.475762,-0.848016,0.400525,-0.046607
675037.233178,0.279484,0.777429,-0.230109,-0.476433,0.847129,0.399997,0.047386,0.280407,-0.777848,0.229833,-0.475762,-0.848004,0.400525,-0.046607
675037.253257,0.279472,0.777429,-0.230097,-0.476409,0.847141,0.400009,0.047386,0.280395,-0.777812,0.22981,-0.475738,-0.848028,0.400525,-0.046619
675037.273359,0.279484,0.777429,-0.230133,-0.476433,0.847117,0.400009,0.047386,0.280383,-0.7778,0.229821,-0.475762,-0.848028,0.400525,-0.046583
675037.293476,0.279484,0.777453,-0.230121,-0.476433,0.847141,0.400009,0.047374,0.280371,-0.777812,0.229821,-0.475762,-0.848016,0.400537,-0.046619
675037.313597,0.279484,0.777429,-0.230121,-0.476433,0.847117,0.400045,0.047374,0.280395,-0.7778,0.229821,-0.475762,-0.848016,0.400537,-0.046619
675037.333688,0.279496,0.777429,-0.230109,-0.476433,0.847129,0.400021,0.047386,0.280395,-0.777812,0.229833,-0.475762,-0.848016,0.400537,-0.046619
675037.353965,0.279484,0.777417,-0.230097,-0.476421,0.847117,0.400045,0.047386,0.280371,-0.777836,0.229821,-0.475738,-0.848016,0.400537,-0.046607
675037.374112,0.279472,0.777441,-0.230121,-0.476433,0.847117,0.400009,0.047374,0.280383,-0.777836,0.229821,-0.47575,-0.848028,0.400537,-0.046619
675037.394201,0.279496,0.777429,-0.230133,-0.476433,0.847093,0.400009,0.047398,0.280395,-0.777812,0.229821,-0.475762,-0.848004,0.400525,-0.046607
675037.414302,0.27946,0.777429,-0.230121,-0.476433,0.847117,0.400033,0.047386,0.280383,-0.777812,0.229821,-0.475762,-0.848028,0.400513,-0.046607
675037.434404,0.279472,0.777429,-0.230121,-0.476409,0.847141,0.400021,0.047386,0.280383,-0.777824,0.229821,-0.475762,-0.84804,0.400525,-0.046619
675037.454499,0.27946,0.777429,-0.230121,-0.476421,0.847129,0.400009,0.047374,0.280383,-0.777812,0.229821,-0.47575,-0.848028,0.400525,-0.046607
675037.47459,0.279496,0.777429,-0.230121,-0.476409,0.847117,0.400021,0.047374,0.280383,-0.777812,0.229821,-0.475762,-0.84804,0.400525,-0.046607
675037.494673,0.279472,0.777429,-0.230121,-0.476433,0.847141,0.400033,0.047386,0.280383,-0.777836,0.229821,-0.475762,-0.848028,0.400525,-0.046607
675037.514775,0.279484,0.777429,-0.230121,-0.476421,0.847153,0.400009,0.047374,0.280383,-0.777824,0.229821,-0.475762,-0.84804,0.400537,-0.046607
675037.534947,0.279484,0.777441,-0.230121,-0.476433,0.847141,0.400009,0.047362,0.280383,-0.777812,0.22981,-0.475762,-0.848028,0.400525,-0.046607
675037.55524,0.279496,0.777417,-0.230097,-0.476409,0.847129,0.399997,0.047386,0.280383,-0.777824,0.229821,-0.475762,-0.847992,0.400525,-0.046607
675037.575304,0.279508,0.777429,-0.230121,-0.476433,0.847129,0.400033,0.047374,0.280383,-0.777824,0.229821,-0.475774,-0.848028,0.400537,-0.046607
675037.595385,0.279472,0.777429,-0.230121,-0.476433,0.847117,0.400009,0.047374,0.280395,-0.777812,0.229821,-0.475762,-0.848004,0.400561,-0.046619
675037.61564,0.279484,0.777429,-0.230121,-0.476433,0.847129,0.400033,0.047374,0.280383,-0.7778,0.229821,-0.475762,-0.848028,0.400537,-0.046607
675037.635906,0.279484,0.777429,-0.230121,-0.476409,0.847129,0.400021,0.047386,0.280395,-0.777824,0.229821,-0.475762,-0.848016,0.400525,-0.046619
675037.656035,0.279472,0.777429,-0.230133,-0.476421,0.847141,0.400009,0.047386,0.280383,-0.777812,0.229821,-0.475762,-0.848028,0.400537,-0.046607
675037.676133,0.279472,0.777429,-0.230121,-0.476433,0.847117,0.400045,0.047386,0.280383,-0.777812,0.229821,-0.475786,-0.848028,0.400537,-0.046595
675037.696276,0.279472,0.777429,-0.230121,-0.476433,0.847141,0.400021,0.047374,0.280371,-0.777824,0.229821,-0.475762,-0.848016,0.400525,-0.046607
675037.716363,0.279484,0.777429,-0.230121,-0.476433,0.847141,0.400021,0.047386,0.280383,-0.777812,0.229821,-0.475762,-0.848028,0.400525,-0.046607
675037.736446,0.279472,0.777429,-0.230121,-0.476409,0.847093,0.400033,0.047374,0.280395,-0.7778,0.229821,-0.475762,-0.848016,0.400549,-0.046607
675037.756534,0.279472,0.777453,-0.230109,-0.476421,0.847141,0.400021,0.047386,0.280395,-0.777812,0.229821,-0.475762,-0.848028,0.400537,-0.046607
675037.776645,0.279496,0.777429,-0.230121,-0.476433,0.847153,0.400021,0.04735,0.280383,-0.777824,0.229821,-0.475762,-0.848028,0.400525,-0.046619
675037.796745,0.279472,0.777429,-0.230121,-0.476433,0.847129,0.400045,0.047386,0.280383,-0.777836,0.229821,-0.475762,-0.848004,0.400513,-0.046607
675037.816826,0.279472,0.777429,-0.230097,-0.476409,0.847093,0.400033,0.047362,0.280383,-0.777824,0.229821,-0.475762,-0.848028,0.400513,-0.046619
675037.836918,0.279496,0.777429,-0.230133,-0.476433,0.847117,0.400009,0.047374,0.280383,-0.777824,0.229821,-0.475762,-0.848004,0.400513,-0.046607
675037.857017,0.27946,0.777429,-0.230097,-0.476445,0.847129,0.400009,0.047386,0.280395,-0.777812,0.229821,-0.475774,-0.848028,0.400537,-0.046607
675037.877078,0.279472,0.777417,-0.230109,-0.476433,0.847117,0.400021,0.047374,0.280395,-0.777824,0.22981,-0.475762,-0.848016,0.400537,-0.046607
675037.897155,0.279496,0.777429,-0.230109,-0.476421,0.847141,0.400009,0.047374,0.280395,-0.777812,0.229821,-0.475762,-0.847992,0.400525,-0.046607
675037.917225,0.279484,0.777429,-0.230145,-0.476409,0.847141,0.400009,0.047386,0.280395,-0.777812,0.229821,-0.475738,-0.848028,0.400549,-0.046607
675037.937319,0.279484,0.777429,-0.230133,-0.476445,0.847129,0.400009,0.047374,0.280395,-0.777824,0.229821,-0.47575,-0.848016,0.400525,-0.046619
675037.957408,0.279484,0.777429,-0.230121,-0.476433,0.847141,0.400045,0.047374,0.280383,-0.777824,0.229821,-0.475762,-0.848016,0.400525,-0.046619
675037.977495,0.279484,0.777441,-0.230121,-0.476409,0.847105,0.400021,0.047374,0.280383,-0.777824,0.229821,-0.475738,-0.848004,0.400525,-0.046619
675037.997667,0.279472,0.777429,-0.230121,-0.476433,0.847141,0.400009,0.047386,0.280395,-0.777812,0.229821,-0.475762,-0.848016,0.400525,-0.046595
675038.017756,0.279472,0.777429,-0.230097,-0.476433,0.847117,0.400021,0.047386,0.280395,-0.777812,0.229821,-0.47575,-0.848028,0.400525,-0.046607
675038.038099,0.279484,0.777429,-0.230121,-0.476433,0.847129,0.400009,0.047386,0.280395,-0.777812,0.229821,-0.47575,-0.848016,0.400537,-0.046607
675038.058247,0.279472,0.777429,-0.230121,-0.476433,0.847141,0.400009,0.047374,0.280383,-0.777824,0.229821,-0.475762,-0.848016,0.400537,-0.046595
675038.078343,0.279472,0.777429,-0.230133,-0.476445,0.847141,0.399997,0.047374,0.280395,-0.777824,0.229821,-0.475762,-0.848016,0.400537,-0.046619
675038.098424,0.279472,0.777417,-0.230121,-0.476421,0.847117,0.400033,0.047374,0.280395,-0.777824,0.229821,-0.475774,-0.848016,0.400525,-0.046607
675038.118519,0.279472,0.777429,-0.230121,-0.476433,0.847141,0.400033,0.047374,0.280395,-0.777824,0.229821,-0.475762,-0.848028,0.400537,-0.046607
675038.138626,0.279484,0.777429,-0.230121,-0.476433,0.847129,0.399997,0.047386,0.280407,-0.777812,0.229821,-0.475738,-0.848004,0.400513,-0.046619
675038.158718,0.279484,0.777429,-0.230121,-0.476433,0.847141,0.400021,0.047362,0.280383,-0.777836,0.229821,-0.475762,-0.848028,0.400537,-0.046607
675038.178783,0.279472,0.777429,-0.230121,-0.476421,0.847129,0.400033,0.047386,0.280383,-0.777824,0.229821,-0.475762,-0.848028,0.400525,-0.046607
675038.198878,0.27946,0.777429,-0.230133,-0.476409,0.847141,0.400021,0.047362,0.280383,-0.777824,0.229821,-0.475738,-0.84804,0.400525,-0.046595
675038.219021,0.279484,0.777429,-0.230121,-0.476433,0.847117,0.400021,0.047362,0.280395,-0.777824,0.229821,-0.475762,-0.848028,0.400525,-0.046607
675038.239122,0.279508,0.777429,-0.230121,-0.476409,0.847141,0.400033,0.047374,0.280383,-0.777812,0.22981,-0.475738,-0.848016,0.400525,-0.046607
675038.259217,0.279484,0.777429,-0.230121,-0.476421,0.847129,0.400021,0.047374,0.280407,-0.777824,0.229821,-0.475762,-0.848016,0.400525,-0.046619
675038.279307,0.279484,0.777429,-0.230121,-0.476433,0.847117,0.400021,0.047386,0.280395,-0.777812,0.229798,-0.475762,-0.848004,0.400525,-0.046607
675038.299358,0.279472,0.777429,-0.230133,-0.476409,0.847129,0.400021,0.047386,0.280383,-0.777836,0.229821,-0.475762,-0.848016,0.400525,-0.046607
675038.319454,0.279484,0.777429,-0.230121,-0.476445,0.847153,0.400009,0.047374,0.280395,-0.777824,0.229821,-0.475762,-0.848004,0.400525,-0.046607
675038.339545,0.279472,0.777429,-0.230097,-0.476433,0.847117,0.400033,0.047374,0.280395,-0.777824,0.229821,-0.475762,-0.848004,0.400537,-0.046607
675038.359625,0.279484,0.777429,-0.230097,-0.476421,0.847105,0.400033,0.047386,0.280407,-0.777812,0.229821,-0.475738,-0.848004,0.400525,-0.046607
675038.379709,0.279484,0.777429,-0.230097,-0.476409,0.847141,0.400033,0.047386,0.280371,-0.777824,0.229821,-0.47575,-0.84804,0.400525,-0.046607
675038.399801,0.279472,0.777429,-0.230097,-0.476433,0.847105,0.400009,0.047386,0.280383,-0.777812,0.229821,-0.475774,-0.848016,0.400549,-0.046607
675038.41988,0.279496,0.777429,-0.230121,-0.476433,0.847141,0.400009,0.047386,0.280395,-0.777824,0.229821,-0.47575,-0.848028,0.400549,-0.046607
675038.439964,0.279484,0.777417,-0.230121,-0.476421,0.847141,0.399997,0.047374,0.280383,-0.777812,0.229821,-0.475762,-0.848004,0.400537,-0.046607
675038.460079,0.279484,0.777429,-0.230133,-0.476433,0.847129,0.400009,0.047374,0.280395,-0.777812,0.229821,-0.475762,-0.848004,0.400537,-0.046607
675038.480172,0.27946,0.777429,-0.230121,-0.476409,0.847117,0.400021,0.047362,0.280395,-0.777824,0.229821,-0.475738,-0.84804,0.400537,-0.046607
675038.500267,0.27946,0.777429,-0.230097,-0.476421,0.847093,0.399997,0.047374,0.280383,-0.777836,0.229821,-0.475762,-0.848028,0.400525,-0.046607
675038.520355,0.279484,0.777429,-0.230121,-0.476433,0.847129,0.400033,0.047374,0.280383,-0.777824,0.229821,-0.475738,-0.848004,0.400525,-0.046607
675038.540457,0.279484,0.777429,-0.230109,-0.476433,0.847129,0.400021,0.047386,0.280395,-0.777812,0.229821,-0.475762,-0.848016,0.400525,-0.046607
675038.560568,0.27946,0.777429,-0.230097,-0.476409,0.847105,0.399997,0.047362,0.280395,-0.777824,0.229821,-0.475762,-0.848004,0.400525,-0.046607
675038.580652,0.279472,0.777429,-0.230133,-0.476433,0.847117,0.400033,0.047374,0.280383,-0.777812,0.229821,-0.475738,-0.848028,0.400525,-0.046619
675038.600733,0.279496,0.777429,-0.230121,-0.476421,0.847117,0.400045,0.047374,0.280383,-0.777812,0.229821,-0.475762,-0.848028,0.400525,-0.046607
675038.620833,0.279484,0.777429,-0.230121,-0.476421,0.847129,0.400033,0.047386,0.280383,-0.777824,0.229798,-0.475762,-0.848028,0.400513,-0.046607
675038.640921,0.279472,0.777429,-0.230097,-0.476433,0.847129,0.400009,0.047374,0.280395,-0.7778,0.229821,-0.475762,-0.848004,0.400537,-0.046619
675038.661014,0.27946,0.777429,-0.230121,-0.476433,0.847129,0.400021,0.047374,0.280407,-0.7778,0.229821,-0.475762,-0.848016,0.400525,-0.046607
675038.681092,0.279484,0.777429,-0.230133,-0.476409,0.847117,0.400033,0.047374,0.280383,-0.777824,0.229821,-0.475738,-0.848028,0.400525,-0.046607
675038.70117,0.27946,0.777453,-0.230121,-0.476421,0.847141,0.400033,0.047386,0.280383,-0.777812,0.229821,-0.475726,-0.84804,0.400513,-0.046607
675038.721252,0.279496,0.777429,-0.230121,-0.476433,0.847105,0.400033,0.047386,0.280407,-0.777812,0.229821,-0.47575,-0.848016,0.400537,-0.046595
675038.741343,0.279472,0.777429,-0.230097,-0.476409,0.847081,0.400033,0.047386,0.280395,-0.777836,0.22981,-0.475738,-0.848028,0.400525,-0.046619
675038.761437,0.279472,0.777429,-0.230121,-0.476433,0.847129,0.400033,0.047374,0.280371,-0.777812,0.229821,-0.475738,-0.848028,0.400525,-0.046607
675038.781585,0.279472,0.777429,-0.230133,-0.476433,0.847129,0.400033,0.047386,0.280383,-0.777812,0.229821,-0.47575,-0.848028,0.400525,-0.046607
675038.801691,0.279484,0.777429,-0.230121,-0.476433,0.847141,0.400045,0.047374,0.280383,-0.777824,0.229821,-0.475738,-0.848016,0.400525,-0.046595
675038.821797,0.279484,0.777429,-0.230145,-0.476421,0.847129,0.400033,0.047374,0.280395,-0.7778,0.229821,-0.475762,-0.84804,0.400525,-0.046607
675038.841907,0.279472,0.777429,-0.230121,-0.476433,0.847117,0.400033,0.047374,0.280407,-0.7778,0.229821,-0.475738,-0.848028,0.400537,-0.046619
675038.861999,0.279484,0.777429,-0.230121,-0.476433,0.847117,0.400033,0.047386,0.280383,-0.777812,0.229821,-0.475786,-0.848028,0.400525,-0.046607
675038.882107,0.279484,0.777429,-0.230097,-0.476433,0.847117,0.400033,0.047374,0.280395,-0.777812,0.22981,-0.475762,-0.848004,0.400513,-0.046619
675038.902188,0.279472,0.777429,-0.230121,-0.476433,0.847129,0.400033,0.047386,0.280383,-0.7778,0.229821,-0.475774,-0.848004,0.400537,-0.046619
675038.922286,0.279472,0.777429,-0.230133,-0.476433,0.847141,0.400033,0.047362,0.280395,-0.7778,0.229821,-0.475738,-0.848028,0.400537,-0.046607
675038.942388,0.279484,0.777429,-0.230109,-0.476445,0.847129,0.400033,0.047374,0.280371,-0.777824,0.22981,-0.475762,-0.848016,0.400537,-0.046619
675038.962506,0.279484,0.777429,-0.230121,-0.476433,0.847141,0.400033,0.047374,0.280383,-0.777812,0.229821,-0.475774,-0.84798,0.400537,-0.046607
675038.982608,0.27946,0.777429,-0.230121,-0.476433,0.847129,0.400033,0.047374,0.280383,-0.777812,0.229821,-0.475762,-0.848004,0.400537,-0.046607
675039.002696,0.279472,0.777429,-0.230121,-0.476433,0.847141,0.400009,0.047386,0.280395,-0.777812,0.229821,-0.475762,-0.84804,0.400525,-0.046619
675039.022775,0.279472,0.777429,-0.230121,-0.476421,0.847141,0.400009,0.047374,0.280407,-0.777824,0.22981,-0.475774,-0.84798,0.400525,-0.046619
675039.042864,0.279472,0.777429,-0.230109,-0.476421,0.847141,0.400033,0.047374,0.280395,-0.777824,0.229821,-0.475762,-0.848004,0.400525,-0.046607
675039.06294,0.279484,0.777429,-0.230133,-0.476445,0.847117,0.400033,0.047386,0.280383,-0.777812,0.229798,-0.475738,-0.848016,0.400513,-0.046607
675039.083021,0.279472,0.777429,-0.230133,-0.476433,0.847129,0.400021,0.047374,0.280395,-0.777824,0.229821,-0.475762,-0.848004,0.400525,-0.046619
675039.103127,0.279484,0.777429,-0.230121,-0.476421,0.847117,0.400021,0.047374,0.280383,-0.777812,0.229821,-0.475774,-0.848064,0.400525,-0.046619
675039.123213,0.279484,0.777429,-0.230121,-0.476433,0.847117,0.400009,0.047362,0.280383,-0.777812,0.229821,-0.475762,-0.848028,0.400525,-0.046607
675039.143312,0.279496,0.777429,-0.230121,-0.476433,0.847105,0.400009,0.047386,0.280383,-0.777812,0.22981,-0.475762,-0.848028,0.400537,-0.046619
675039.163405,0.279484,0.777429,-0.230121,-0.476433,0.847141,0.400021,0.047386,0.280371,-0.777812,0.229821,-0.475738,-0.84804,0.400525,-0.046607
675039.183484,0.27946,0.777429,-0.230121,-0.476433,0.847129,0.400021,0.047374,0.280395,-0.777824,0.22981,-0.475774,-0.848016,0.400525,-0.046607
