gracetata/LocomotionHEC/legged_lab/Reference Data/ArmHack/StandPerturb/TestData/ArmOnly/trajectories/representative/representative_arm_trajectory_02_source_102_107s_1x_50hz.csv
time_s,left_shoulder_pitch_joint,left_shoulder_roll_joint,left_shoulder_yaw_joint,left_elbow_joint,left_wrist_roll_joint,left_wrist_pitch_joint,left_wrist_yaw_joint,right_shoulder_pitch_joint,right_shoulder_roll_joint,right_shoulder_yaw_joint,right_elbow_joint,right_wrist_roll_joint,right_wrist_pitch_joint,right_wrist_yaw_joint
0.00000000,-0.63567900,0.58524364,-0.66395656,0.21961707,0.72175131,0.00910231,-0.36889865,0.27939978,-0.77827978,0.22977400,-0.47606122,-0.84802822,0.40052456,-0.04670300
0.02000000,-0.63567900,0.58482731,-0.66425535,0.21939979,0.72159746,0.00877918,-0.36890973,0.27937653,-0.77828000,0.22976227,-0.47607273,-0.84801627,0.40058367,-0.04672549
0.04000000,-0.63567900,0.58450401,-0.66454100,0.21918502,0.72150068,0.00859799,-0.36893333,0.27938767,-0.77829167,0.22976200,-0.47607300,-0.84802767,0.40052667,-0.04671531
0.06000000,-0.63566749,0.58419579,-0.66471011,0.21913393,0.72145197,0.00851244,-0.36893400,0.27941102,-0.77829200,0.22976200,-0.47607300,-0.84801649,0.40054802,-0.04670349
0.08000000,-0.63566700,0.58396529,-0.66503784,0.21898304,0.72136979,0.00837150,-0.36892254,0.27940054,-0.77828054,0.22978492,-0.47607300,-0.84801600,0.40059483,-0.04669154
0.10000000,-0.63566700,0.58356791,-0.66533737,0.21885046,0.72130989,0.00815957,-0.36893341,0.27938859,-0.77829141,0.22976317,-0.47607300,-0.84800459,0.40057417,-0.04670241
0.12000000,-0.63566700,0.58309334,-0.66567026,0.21880990,0.72130700,0.00805807,-0.36893400,0.27939937,-0.77829200,0.22976200,-0.47607300,-0.84801537,0.40052753,-0.04671437
0.14000000,-0.63564444,0.58271924,-0.66581209,0.21878544,0.72127316,0.00795242,-0.36895656,0.27938872,-0.77828072,0.22977328,-0.47607300,-0.84801600,0.40052500,-0.04670372
0.16000000,-0.63566545,0.58252864,-0.66588641,0.21873910,0.72124855,0.00791233,-0.36892433,0.27939922,-0.77829122,0.22978522,-0.47607300,-0.84799355,0.40053622,-0.04670300
0.18000000,-0.63564465,0.58246113,-0.66594687,0.21873600,0.72122465,0.00788765,-0.36888848,0.27941117,-0.77828083,0.22977483,-0.47606183,-0.84803669,0.40052583,-0.04670300
0.20000000,-0.63565411,0.58242368,-0.66591768,0.21860271,0.72123411,0.00789711,-0.36893043,0.27942311,-0.77829111,0.22978511,-0.47607211,-0.84802889,0.40053611,-0.04670300
0.22000000,-0.63568813,0.58248726,-0.66589291,0.21844844,0.72129022,0.00788696,-0.36893400,0.27942400,-0.77828096,0.22976391,-0.47607300,-0.84802800,0.40059222,-0.04669196
0.24000000,-0.63566901,0.58249300,-0.66590200,0.21860094,0.72129500,0.00790799,-0.36892300,0.27942400,-0.77828000,0.22976200,-0.47607300,-0.84802800,0.40062999,-0.04670200
0.26000000,-0.63567789,0.58251479,-0.66587123,0.21865957,0.72132768,0.00794268,-0.36894379,0.27943489,-0.77829089,0.22976200,-0.47607300,-0.84801711,0.40062211,-0.04669211
0.28000000,-0.63568984,0.58253867,-0.66586800,0.21866400,0.72125514,0.00793516,-0.36890265,0.27943600,-0.77829200,0.22976200,-0.47604049,-0.84799433,0.40063184,-0.04670184
0.30000000,-0.63569100,0.58251944,-0.66586800,0.21864244,0.72126856,0.00793400,-0.36889800,0.27941444,-0.77828122,0.22976200,-0.47605856,-0.84801356,0.40063300,-0.04668144
0.32000000,-0.63568028,0.58248485,-0.66589926,0.21852211,0.72123885,0.00791257,-0.36893015,0.27941200,-0.77828000,0.22976200,-0.47607172,-0.84803743,0.40060085,-0.04672098
0.34000000,-0.63567900,0.58241700,-0.66591367,0.21837022,0.72120300,0.00787800,-0.36892333,0.27941200,-0.77829067,0.22976200,-0.47606233,-0.84804000,0.40059700,-0.04669489
0.36000000,-0.63567900,0.58232407,-0.66593623,0.21817251,0.72114592,0.00778907,-0.36891138,0.27941200,-0.77829200,0.22976200,-0.47607162,-0.84800815,0.40056515,-0.04669100
0.38000000,-0.63567900,0.58218685,-0.66594959,0.21807490,0.72111783,0.00772507,-0.36894176,0.27941200,-0.77828141,0.22976200,-0.47607300,-0.84803576,0.40055041,-0.04668041
0.40000000,-0.63566847,0.58208576,-0.66594047,0.21795970,0.72109394,0.00767588,-0.36893547,0.27938041,-0.77830106,0.22976200,-0.47606247,-0.84801894,0.40052794,-0.04671059
0.42000000,-0.63566700,0.58204259,-0.66593900,0.21782981,0.72105959,0.00763859,-0.36893400,0.27940741,-0.77828306,0.22977247,-0.47605053,-0.84800553,0.40054594,-0.04671500
0.44000000,-0.63568764,0.58203800,-0.66591836,0.21772012,0.72108596,0.00759272,-0.36894432,0.27940168,-0.77828000,0.22977400,-0.47605932,-0.84801432,0.40054900,-0.04670468
0.46000000,-0.63569100,0.58202775,-0.66589450,0.21765459,0.72109100,0.00759625,-0.36894600,0.27940000,-0.77829025,0.22976375,-0.47607125,-0.84801600,0.40054900,-0.04670300
0.48000000,-0.63569100,0.58203617,-0.66591134,0.21762566,0.72111134,0.00760817,-0.36893583,0.27940000,-0.77828183,0.22977217,-0.47606283,-0.84802617,0.40054900,-0.04668266
0.50000000,-0.63569100,0.58202786,-0.66591500,0.21762200,0.72109472,0.00762014,-0.36891372,0.27940000,-0.77828000,0.22976386,-0.47607114,-0.84802800,0.40053886,-0.04670942
0.52000000,-0.63568090,0.58203610,-0.66592510,0.21762200,0.72112129,0.00762200,-0.36889990,0.27941010,-0.77829010,0.22976200,-0.47606290,-0.84801790,0.40052690,-0.04670490
0.54000000,-0.63568906,0.58203800,-0.66591694,0.21764213,0.72109681,0.00762200,-0.36890806,0.27940194,-0.77828194,0.22977206,-0.47607106,-0.84802606,0.40052500,-0.04671306
0.56000000,-0.63569100,0.58204801,-0.66591500,0.21764600,0.72111103,0.00763201,-0.36894004,0.27940000,-0.77829001,0.22976399,-0.47606299,-0.84802800,0.40054503,-0.04671500
0.58000000,-0.63569100,0.58204005,-0.66591500,0.21767503,0.72111500,0.00763400,-0.36892609,0.27940995,-0.77828205,0.22976200,-0.47608091,-0.84803795,0.40051914,-0.04669509
0.60000000,-0.63569100,0.58205779,-0.66591500,0.21773048,0.72113479,0.00765379,-0.36892200,0.27941200,-0.77828990,0.22976200,-0.47607510,-0.84801031,0.40055259,-0.04671079
0.62000000,-0.63569100,0.58207184,-0.66591500,0.21779020,0.72112916,0.00767768,-0.36891216,0.27941200,-0.77828216,0.22976200,-0.47607300,-0.84802368,0.40058068,-0.04669532
0.64000000,-0.63567140,0.58207400,-0.66593460,0.21784020,0.72114660,0.00768200,-0.36891000,0.27941200,-0.77828000,0.22976200,-0.47607300,-0.84802800,0.40053600,-0.04670080
0.66000000,-0.63569593,0.58207400,-0.66591007,0.21786828,0.72117028,0.00767236,-0.36891000,0.27940236,-0.77828964,0.22976200,-0.47607300,-0.84799907,0.40053464,-0.04670300
0.68000000,-0.63568393,0.58207400,-0.66587518,0.21791115,0.72119407,0.00767954,-0.36890046,0.27940000,-0.77829200,0.22978107,-0.47607300,-0.84799200,0.40054654,-0.04669346
0.70000000,-0.63567900,0.58207400,-0.66588617,0.21793048,0.72118952,0.00767252,-0.36886008,0.27940948,-0.77828252,0.22977652,-0.47607300,-0.84800148,0.40054900,-0.04669100
0.72000000,-0.63567900,0.58207400,-0.66590974,0.21792363,0.72118700,0.00767937,-0.36889685,0.27940263,-0.77828000,0.22976463,-0.47606363,-0.84802274,0.40055837,-0.04670037
0.74000000,-0.63568822,0.58208322,-0.66590578,0.21791178,0.72119622,0.00767278,-0.36889156,0.27940922,-0.77828000,0.22978044,-0.47606100,-0.84801878,0.40056100,-0.04669378
0.76000000,-0.63569100,0.58206798,-0.66589399,0.21789098,0.72118098,0.00767000,-0.36889501,0.27942101,-0.77828000,0.22977699,-0.47606100,-0.84801600,0.40055199,-0.04670902
0.78000000,-0.63568220,0.58206200,-0.66590861,0.21787620,0.72114859,0.00767000,-0.36889800,0.27941520,-0.77828000,0.22976520,-0.47606980,-0.84802480,0.40054900,-0.04669739
0.80000000,-0.63568768,0.58206200,-0.66591500,0.21784697,0.72114768,0.00767000,-0.36889800,0.27941200,-0.77828868,0.22977068,-0.47607300,-0.84801065,0.40054900,-0.04669968
0.82000000,-0.63569100,0.58206200,-0.66589785,0.21782842,0.72114242,0.00767858,-0.36888085,0.27941200,-0.77828342,0.22977400,-0.47606442,-0.84800400,0.40054042,-0.04670300
0.84000000,-0.63569100,0.58204495,-0.66589952,0.21779943,0.72111343,0.00766495,-0.36891662,0.27940348,-0.77827148,0.22977400,-0.47606100,-0.84802105,0.40053700,-0.04667743
0.86000000,-0.63568252,0.58205496,-0.66589452,0.21778900,0.72111148,0.00766648,-0.36893400,0.27940848,-0.77829344,0.22976552,-0.47606100,-0.84801952,0.40054548,-0.04668396
0.88000000,-0.63568743,0.58206200,-0.66589943,0.21778900,0.72111500,0.00767000,-0.36890029,0.27941200,-0.77829557,0.22976200,-0.47606943,-0.84801600,0.40054057,-0.04669943
0.90000000,-0.63569100,0.58206200,-0.66589464,0.21778900,0.72110664,0.00767000,-0.36890272,0.27941200,-0.77828364,0.22976200,-0.47607300,-0.84802436,0.40054536,-0.04669464
0.92000000,-0.63569100,0.58205370,-0.66590759,0.21778900,0.72112789,0.00766170,-0.36890170,0.27941200,-0.77827170,0.22976200,-0.47606470,-0.84801970,0.40057389,-0.04669930
0.94000000,-0.63569100,0.58205824,-0.66590676,0.21779724,0.72116373,0.00766624,-0.36892273,0.27941200,-0.77828449,0.22976200,-0.47606924,-0.84802424,0.40053554,-0.04669476
0.96000000,-0.63569100,0.58206200,-0.66589480,0.21780100,0.72115041,0.00767820,-0.36892580,0.27941200,-0.77828380,0.22976200,-0.47607300,-0.84801161,0.40052939,-0.04669100
0.98000000,-0.63569100,0.58206200,-0.66590730,0.21780915,0.72113900,0.00767385,-0.36893015,0.27940385,-0.77827185,0.22976200,-0.47606485,-0.84801215,0.40057776,-0.04669100
1.00000000,-0.63569100,0.58207010,-0.66591500,0.21782110,0.72113900,0.00767810,-0.36897451,0.27940810,-0.77827610,0.22977010,-0.47606100,-0.84803220,0.40057270,-0.04669100
1.02000000,-0.63569904,0.58208204,-0.66590696,0.21781696,0.72112291,0.00769809,-0.36910663,0.27941200,-0.77828000,0.22976596,-0.47606904,-0.84803196,0.40057709,-0.04669904
1.04000000,-0.63568707,0.58209397,-0.66587977,0.21778910,0.72106721,0.00773786,-0.36946402,0.27939607,-0.77828797,0.22976200,-0.47607300,-0.84802800,0.40057703,-0.04671097
1.06000000,-0.63570267,0.58211378,-0.66585222,0.21767510,0.72095622,0.00784867,-0.37008244,0.27940378,-0.77828411,0.22976989,-0.47607300,-0.84803589,0.40058878,-0.04670711
1.08000000,-0.63571500,0.58214545,-0.66578927,0.21741872,0.72079373,0.00802244,-0.37106643,0.27940418,-0.77828782,0.22976618,-0.47606518,-0.84803218,0.40055791,-0.04669518
1.10000000,-0.63573824,0.58220448,-0.66573676,0.21699305,0.72053025,0.00829815,-0.37246871,0.27940775,-0.77829200,0.22976200,-0.47606100,-0.84802025,0.40056024,-0.04670649
1.12000000,-0.63585079,0.58233683,-0.66554745,0.21615182,0.72000613,0.00879616,-0.37453894,0.27940432,-0.77829200,0.22976200,-0.47606100,-0.84803903,0.40056532,-0.04669965
1.14000000,-0.63612686,0.58251105,-0.66518252,0.21495611,0.71939284,0.00954360,-0.37704898,0.27940000,-0.77828440,0.22976200,-0.47606860,-0.84801398,0.40055340,-0.04669860
1.16000000,-0.63663813,0.58288518,-0.66470513,0.21315764,0.71860183,0.01049812,-0.38021034,0.27940000,-0.77828000,0.22976200,-0.47607300,-0.84801460,0.40054900,-0.04671053
1.18000000,-0.63730603,0.58350865,-0.66407297,0.21090316,0.71760638,0.01153800,-0.38329305,0.27940747,-0.77828000,0.22977694,-0.47607300,-0.84802053,0.40054153,-0.04670753
1.20000000,-0.63820168,0.58430093,-0.66319214,0.20849464,0.71639405,0.01266164,-0.38640550,0.27941200,-0.77828000,0.22977118,-0.47606559,-0.84801600,0.40052959,-0.04669559
1.22000000,-0.63942436,0.58533499,-0.66224200,0.20598400,0.71461101,0.01414126,-0.39103356,0.27940468,-0.77828732,0.22976200,-0.47606100,-0.84802332,0.40053963,-0.04669832
1.24000000,-0.64051340,0.58626549,-0.66130654,0.20314433,0.71261554,0.01608589,-0.39654710,0.27939277,-0.77828477,0.22976200,-0.47605377,-0.84802077,0.40054900,-0.04668131
1.26000000,-0.64171735,0.58735230,-0.66025081,0.19992448,0.71042273,0.01848575,-0.40255405,0.27939516,-0.77828000,0.22976916,-0.47606332,-0.84801600,0.40053468,-0.04668849
1.28000000,-0.64302696,0.58878828,-0.65919647,0.19666037,0.70858720,0.02109349,-0.40872955,0.27937871,-0.77828000,0.22978110,-0.47606590,-0.84801600,0.40051081,-0.04670300
1.30000000,-0.64417275,0.59057215,-0.65780867,0.19330594,0.70703179,0.02373689,-0.41501924,0.27937103,-0.77829406,0.22977194,-0.47606100,-0.84801600,0.40050803,-0.04669597
1.32000000,-0.64561436,0.59318798,-0.65569217,0.18931298,0.70492181,0.02666647,-0.42273693,0.27939691,-0.77829703,0.22976200,-0.47605403,-0.84803691,0.40054784,-0.04668403
1.34000000,-0.64745737,0.59613758,-0.65364868,0.18506949,0.70256486,0.02942443,-0.42988507,0.27942581,-0.77829200,0.22976891,-0.47604900,-0.84803819,0.40060062,-0.04668591
1.36000000,-0.64977558,0.59870638,-0.65119357,0.18002720,0.70006965,0.03224330,-0.43794549,0.27944968,-0.77830511,0.22976716,-0.47604216,-0.84801432,0.40066887,-0.04669784
1.38000000,-0.65314605,0.60083335,-0.64835948,0.17429918,0.69744205,0.03533591,-0.44643298,0.27943973,-0.77830881,0.22976200,-0.47604376,-0.84800400,0.40067122,-0.04669624
1.40000000,-0.65726490,0.60291285,-0.64539190,0.16802059,0.69440053,0.03877616,-0.45447952,0.27941732,-0.77830400,0.22976868,-0.47604900,-0.84799732,0.40061160,-0.04669100
1.42000000,-0.66199212,0.60502176,-0.64224548,0.16124744,0.69081648,0.04252499,-0.46340138,0.27941862,-0.77829738,0.22978062,-0.47604238,-0.84800524,0.40060486,-0.04669100
1.44000000,-0.66734365,0.60699438,-0.63874891,0.15444074,0.68748483,0.04613343,-0.47244443,0.27938464,-0.77829856,0.22977944,-0.47604356,-0.84802912,0.40058164,-0.04669100
1.46000000,-0.67269229,0.60900580,-0.63485434,0.14774168,0.68435605,0.04931153,-0.48169482,0.27928703,-0.77829750,0.22978050,-0.47606199,-0.84802051,0.40047104,-0.04669750
1.48000000,-0.67770435,0.61180419,-0.63089887,0.14036212,0.68118420,0.05259025,-0.49131696,0.27914891,-0.77829843,0.22977957,-0.47607300,-0.84801687,0.40038570,-0.04670300
1.50000000,-0.68235313,0.61515954,-0.62693756,0.13252600,0.67818438,0.05582705,-0.50091589,0.27910242,-0.77830983,0.22977400,-0.47605393,-0.84802164,0.40041349,-0.04669664
1.52000000,-0.68681729,0.61820080,-0.62306122,0.12529572,0.67505906,0.05931240,-0.51054034,0.27911874,-0.77832804,0.22977400,-0.47604326,-0.84801600,0.40049681,-0.04669726
1.54000000,-0.69133357,0.62097206,-0.61961697,0.11848591,0.67141383,0.06358757,-0.52026240,0.27908831,-0.77831531,0.22977400,-0.47605517,-0.84802834,0.40048763,-0.04669683
1.56000000,-0.69557443,0.62345062,-0.61651957,0.11180374,0.66810926,0.06756041,-0.53032494,0.27907721,-0.77829810,0.22978621,-0.47606100,-0.84802169,0.40044710,-0.04669100
1.58000000,-0.69936372,0.62587278,-0.61358258,0.10494008,0.66502892,0.07111488,-0.54016643,0.27911316,-0.77829796,0.22978592,-0.47606704,-0.84800400,0.40047112,-0.04669100
1.60000000,-0.70283988,0.62840073,-0.61063677,0.09754585,0.66143927,0.07475195,-0.55008978,0.27913700,-0.77829798,0.22976802,-0.47606104,-0.84800998,0.40053087,-0.04669698
1.62000000,-0.70657020,0.63066256,-0.60783760,0.09001150,0.65810226,0.07797525,-0.55962226,0.27914293,-0.77830400,0.22975607,-0.47605493,-0.84800415,0.40058485,-0.04670300
1.64000000,-0.71066117,0.63246281,-0.60485498,0.08300005,0.65503969,0.08129536,-0.56875759,0.27912588,-0.77829822,0.22976156,-0.47607256,-0.84799778,0.40052765,-0.04670878
1.66000000,-0.71483769,0.63432023,-0.60135051,0.07627232,0.65179041,0.08500194,-0.57800357,0.27908980,-0.77829760,0.22977400,-0.47608500,-0.84800960,0.40046979,-0.04670940
1.68000000,-0.71893343,0.63655867,-0.59769508,0.06970368,0.64871283,0.08831579,-0.58640019,0.27910454,-0.77830400,0.22977951,-0.47607949,-0.84802151,0.40050002,-0.04670300
1.70000000,-0.72261728,0.63889710,-0.59440978,0.06332195,0.64596578,0.09131832,-0.59479547,0.27912610,-0.77829855,0.22978055,-0.47607300,-0.84802800,0.40052390,-0.04670845
1.72000000,-0.72598282,0.64148548,-0.59165498,0.05681788,0.64315749,0.09430033,-0.60301634,0.27911839,-0.77830234,0.22977400,-0.47607300,-0.84802800,0.40052082,-0.04670421
1.74000000,-0.72918303,0.64408166,-0.58874331,0.05087420,0.64033455,0.09698611,-0.61071780,0.27914634,-0.77830478,0.22977933,-0.47606767,-0.84802267,0.40057034,-0.04669100
1.76000000,-0.73238832,0.64624124,-0.58599004,0.04585889,0.63794275,0.09928397,-0.61838379,0.27916246,-0.77829200,0.22978600,-0.47607154,-0.84802654,0.40062537,-0.04669627
1.78000000,-0.73541771,0.64799988,-0.58362396,0.04160480,0.63586954,0.10167745,-0.62497973,0.27912831,-0.77829200,0.22977566,-0.47607466,-0.84802448,0.40054363,-0.04670300
1.80000000,-0.73810651,0.64967011,-0.58133211,0.03768544,0.63382511,0.10426668,-0.63071137,0.27910100,-0.77828697,0.22976200,-0.47606100,-0.84802412,0.40049906,-0.04670300
1.82000000,-0.74042352,0.65127810,-0.57918225,0.03372554,0.63193082,0.10663537,-0.63674481,0.27911085,-0.77828985,0.22976692,-0.47606592,-0.84803230,0.40053270,-0.04670300
1.84000000,-0.74247701,0.65270294,-0.57735530,0.03018146,0.63024483,0.10870782,-0.64242524,0.27911538,-0.77830400,0.22977881,-0.47607300,-0.84801362,0.40056581,-0.04669338
1.86000000,-0.74428686,0.65385109,-0.57583609,0.02713223,0.62882336,0.11057609,-0.64668431,0.27911032,-0.77829934,0.22978134,-0.47607300,-0.84803266,0.40055903,-0.04668832
1.88000000,-0.74598191,0.65486412,-0.57466432,0.02385547,0.62755384,0.11240662,-0.65065981,0.27912956,-0.77829200,0.22977400,-0.47607300,-0.84803088,0.40054156,-0.04669388
1.90000000,-0.74718654,0.65564587,-0.57360506,0.02063471,0.62635066,0.11383761,-0.65429666,0.27912813,-0.77828757,0.22977400,-0.47607743,-0.84801600,0.40054900,-0.04668787
1.92000000,-0.74796134,0.65625250,-0.57247766,0.01787223,0.62513536,0.11492804,-0.65768137,0.27911300,-0.77828000,0.22977400,-0.47607640,-0.84802030,0.40054470,-0.04670730
1.94000000,-0.74858841,0.65684093,-0.57168036,0.01541860,0.62395562,0.11579464,-0.66072648,0.27912148,-0.77828424,0.22977824,-0.47606948,-0.84802800,0.40053276,-0.04671500
1.96000000,-0.74906479,0.65726836,-0.57097088,0.01325757,0.62283244,0.11656262,-0.66329666,0.27912864,-0.77828782,0.22978182,-0.47608082,-0.84803218,0.40052500,-0.04670664
1.98000000,-0.74957993,0.65755620,-0.57049111,0.01166723,0.62190671,0.11724216,-0.66532321,0.27912124,-0.77828412,0.22977400,-0.47607300,-0.84803588,0.40052088,-0.04669924
2.00000000,-0.75026874,0.65768643,-0.57030815,0.01101667,0.62138072,0.11762222,-0.66620132,0.27912888,-0.77828794,0.22977400,-0.47607706,-0.84803612,0.40051300,-0.04671094
2.02000000,-0.75102703,0.65780183,-0.57011357,0.01091006,0.62113854,0.11783286,-0.66657447,0.27911300,-0.77828798,0.22977400,-0.47608101,-0.84804003,0.40051699,-0.04670300
2.04000000,-0.75164545,0.65799563,-0.56988012,0.01086225,0.62097537,0.11798738,-0.66674125,0.27911688,-0.77830012,0.22977400,-0.47607300,-0.84801600,0.40052888,-0.04669912
2.06000000,-0.75208399,0.65820245,-0.56969301,0.01084223,0.62093216,0.11812661,-0.66680508,0.27912500,-0.77829200,0.22977400,-0.47607300,-0.84801977,0.40054077,-0.04669477
2.08000000,-0.75236810,0.65833182,-0.56957488,0.01083029,0.62088729,0.11820371,-0.66685282,0.27912871,-0.77828829,0.22977400,-0.47606929,-0.84802800,0.40056382,-0.04670671
2.10000000,-0.75253959,0.65837594,-0.56954271,0.01081471,0.62087535,0.11821929,-0.66689329,0.27913335,-0.77828365,0.22977765,-0.47606465,-0.84802800,0.40058241,-0.04671500
2.12000000,-0.75257300,0.65839741,-0.56953677,0.01079800,0.62086341,0.11824677,-0.66691359,0.27911423,-0.77829200,0.22978241,-0.47607300,-0.84802800,0.40055259,-0.04671141
2.14000000,-0.75256947,0.65839253,-0.56955847,0.01079800,0.62083737,0.11827553,-0.66692553,0.27910311,-0.77829553,0.22977753,-0.47606947,-0.84802800,0.40057158,-0.04670300
2.16000000,-0.75256100,0.65840789,-0.56954656,0.01078767,0.62078467,0.11829433,-0.66694089,0.27913356,-0.77829711,0.22978256,-0.47606444,-0.84802111,0.40059011,-0.04670300
2.18000000,-0.75256100,0.65844813,-0.56953139,0.01072895,0.62075239,0.11832330,-0.66696791,0.27912170,-0.77828330,0.22977070,-0.47607300,-0.84800730,0.40056639,-0.04670300
2.20000000,-0.75256100,0.65855018,-0.56949499,0.01057864,0.62070649,0.11834784,-0.66700984,0.27911300,-0.77828883,0.22976517,-0.47607300,-0.84801917,0.40054900,-0.04670300
2.22000000,-0.75255791,0.65871130,-0.56939904,0.01031583,0.62058996,0.11841361,-0.66709413,0.27911609,-0.77828309,0.22977400,-0.47607300,-0.84802491,0.40054900,-0.04670609
2.24000000,-0.75254900,0.65892968,-0.56919917,0.00992166,0.62044054,0.11851240,-0.66725246,0.27912803,-0.77829200,0.22977703,-0.47607300,-0.84801600,0.40054900,-0.04671500
2.26000000,-0.75254308,0.65928659,-0.56886569,0.00933507,0.62024715,0.11864961,-0.66743401,0.27913700,-0.77828904,0.22978600,-0.47607300,-0.84801600,0.40054308,-0.04671204
2.28000000,-0.75252216,0.65975666,-0.56837882,0.00862067,0.61997182,0.11878522,-0.66766182,0.27913700,-0.77828000,0.22978316,-0.47607584,-0.84801600,0.40052500,-0.04670300
2.30000000,-0.75251300,0.66038761,-0.56767289,0.00755770,0.61966562,0.11898967,-0.66790647,0.27912582,-0.77828000,0.22977121,-0.47607941,-0.84802159,0.40052779,-0.04670300
2.32000000,-0.75251026,0.66114633,-0.56673025,0.00613627,0.61928231,0.11924331,-0.66818827,0.27909722,-0.77828000,0.22976748,-0.47606374,-0.84803452,0.40053700,-0.04670300
2.34000000,-0.75249589,0.66207139,-0.56564618,0.00433588,0.61882392,0.11950276,-0.66853864,0.27912500,-0.77828000,0.22978067,-0.47607300,-0.84801867,0.40053700,-0.04670567
2.36000000,-0.75247019,0.66295713,-0.56439777,0.00257612,0.61822489,0.11978387,-0.66893187,0.27912240,-0.77828260,0.22976720,-0.47607300,-0.84802540,0.40053440,-0.04671240
2.38000000,-0.75242676,0.66391880,-0.56285209,0.00065378,0.61747301,0.12016746,-0.66942873,0.27911554,-0.77829454,0.22978346,-0.47607300,-0.84801600,0.40053516,-0.04670300
2.40000000,-0.75234763,0.66498167,-0.56126989,-0.00148314,0.61667369,0.12051308,-0.67000109,0.27912500,-0.77830151,0.22977400,-0.47607549,-0.84801351,0.40056803,-0.04670300
2.42000000,-0.75216488,0.66620145,-0.55963533,-0.00383950,0.61585024,0.12088106,-0.67061220,0.27912014,-0.77829200,0.22977400,-0.47608257,-0.84800643,0.40054414,-0.04670300
2.44000000,-0.75155162,0.66778185,-0.55785229,-0.00684150,0.61492883,0.12133916,-0.67140223,0.27910100,-0.77828724,0.22977400,-0.47607300,-0.84801600,0.40051786,-0.04670300
2.46000000,-0.75035085,0.66985823,-0.55591379,-0.01048326,0.61398733,0.12183302,-0.67233193,0.27910332,-0.77827032,0.22977400,-0.47607300,-0.84802065,0.40049132,-0.04670532
2.48000000,-0.74885912,0.67222617,-0.55417169,-0.01431662,0.61297466,0.12242490,-0.67342573,0.27911074,-0.77828226,0.22977174,-0.47607300,-0.84804226,0.40051685,-0.04671500
2.50000000,-0.74677305,0.67486126,-0.55224917,-0.01826833,0.61186439,0.12318171,-0.67462702,0.27910100,-0.77828979,0.22976421,-0.47607300,-0.84804536,0.40059164,-0.04671057
2.52000000,-0.74407086,0.67699977,-0.55004492,-0.02225183,0.61074869,0.12405612,-0.67593120,0.27909668,-0.77828432,0.22977400,-0.47607300,-0.84801816,0.40060587,-0.04669532
2.54000000,-0.74102196,0.67936145,-0.54792717,-0.02668346,0.60958581,0.12489371,-0.67730341,0.27907278,-0.77829978,0.22977611,-0.47607300,-0.84802800,0.40053278,-0.04671500
2.56000000,-0.73748662,0.68194927,-0.54542107,-0.03143058,0.60829681,0.12574780,-0.67872187,0.27905507,-0.77828000,0.22978600,-0.47607713,-0.84803007,0.40051300,-0.04671500
2.58000000,-0.73393772,0.68466293,-0.54299066,-0.03593284,0.60673809,0.12666768,-0.68037182,0.27906500,-0.77828404,0.22978600,-0.47609498,-0.84804000,0.40052715,-0.04670893
2.60000000,-0.73063719,0.68771673,-0.54029297,-0.04024652,0.60488677,0.12778013,-0.68210590,0.27905905,-0.77830202,0.22978203,-0.47608302,-0.84804000,0.40058709,-0.04668495
2.62000000,-0.72749174,0.69040491,-0.53733752,-0.04480000,0.60268371,0.12895196,-0.68389145,0.27903286,-0.77829570,0.22976393,-0.47607300,-0.84803807,0.40054471,-0.04671307
2.64000000,-0.72429325,0.69346009,-0.53442869,-0.04972724,0.60082324,0.13010918,-0.68559860,0.27904736,-0.77830952,0.22977212,-0.47607676,-0.84802988,0.40058312,-0.04670300
2.66000000,-0.72096179,0.69641866,-0.53105085,-0.05533619,0.59902921,0.13147586,-0.68723774,0.27900602,-0.77828366,0.22976383,-0.47609883,-0.84804000,0.40056202,-0.04670651
2.68000000,-0.71723665,0.69962681,-0.52781000,-0.06239923,0.59711698,0.13288649,-0.68852685,0.27894678,-0.77830222,0.22977400,-0.47610722,-0.84804000,0.40050633,-0.04672437
2.70000000,-0.71363889,0.70308106,-0.52454814,-0.06968479,0.59468120,0.13396076,-0.68998287,0.27893285,-0.77829373,0.22977573,-0.47609355,-0.84803655,0.40053355,-0.04671155
2.72000000,-0.71030843,0.70616815,-0.52077085,-0.07596495,0.59256329,0.13498333,-0.69160031,0.27875889,-0.77830065,0.22978433,-0.47607802,-0.84801935,0.40050129,-0.04669435
2.74000000,-0.70587891,0.71032178,-0.51537349,-0.08322804,0.59068689,0.13612457,-0.69337942,0.27858605,-0.77827837,0.22977726,-0.47610900,-0.84804000,0.40042574,-0.04671337
2.76000000,-0.70191121,0.71489103,-0.51070072,-0.09053404,0.58873259,0.13729054,-0.69548481,0.27866425,-0.77827275,0.22979642,-0.47610900,-0.84803842,0.40041768,-0.04670300
2.78000000,-0.69740092,0.71981568,-0.50637961,-0.09813149,0.58670796,0.13882504,-0.69777069,0.27864065,-0.77830540,0.22978447,-0.47610900,-0.84802953,0.40051324,-0.04670453
2.80000000,-0.69250667,0.72453766,-0.50245919,-0.10610823,0.58398168,0.14039261,-0.70006802,0.27870041,-0.77831216,0.22977252,-0.47610752,-0.84803852,0.40060144,-0.04671352
2.82000000,-0.68729137,0.72849932,-0.49808989,-0.11392891,0.58074781,0.14180412,-0.70268440,0.27875300,-0.77829200,0.22976489,-0.47609411,-0.84802945,0.40062577,-0.04670011
2.84000000,-0.68230287,0.73265544,-0.49382537,-0.12165453,0.57780237,0.14302577,-0.70544001,0.27875162,-0.77829465,0.22978462,-0.47607715,-0.84803446,0.40056885,-0.04667900
2.86000000,-0.67730271,0.73666960,-0.48942768,-0.12976902,0.57477509,0.14416514,-0.70794942,0.27872122,-0.77831379,0.22977532,-0.47610900,-0.84799596,0.40053041,-0.04667900
2.88000000,-0.67235873,0.74066426,-0.48502880,-0.13834960,0.57190460,0.14576512,-0.70985169,0.27856840,-0.77830400,0.22978723,-0.47611023,-0.84802677,0.40047330,-0.04667900
2.90000000,-0.66665787,0.74556749,-0.47971454,-0.14856454,0.56952658,0.14751184,-0.71184605,0.27863300,-0.77830400,0.22979919,-0.47611626,-0.84801363,0.40044574,-0.04667663
2.92000000,-0.66124221,0.75049621,-0.47432140,-0.15729999,0.56717304,0.14922234,-0.71389783,0.27862846,-0.77830400,0.22980773,-0.47607300,-0.84799540,0.40048900,-0.04665727
2.94000000,-0.65611594,0.75588250,-0.46841980,-0.16573590,0.56421552,0.15131457,-0.71638980,0.27858392,-0.77830400,0.22978815,-0.47607300,-0.84802585,0.40049331,-0.04667900
2.96000000,-0.65130796,0.76139521,-0.46301605,-0.17464576,0.56111686,0.15346399,-0.71890093,0.27857505,-0.77830400,0.22980898,-0.47607300,-0.84800707,0.40053598,-0.04667695
2.98000000,-0.64595019,0.76735604,-0.45766236,-0.18417935,0.55780960,0.15558919,-0.72163566,0.27861420,-0.77830483,0.22979709,-0.47606757,-0.84803638,0.40053677,-0.04665319
3.00000000,-0.64119214,0.77271813,-0.45240730,-0.19289027,0.55444120,0.15729534,-0.72501165,0.27882797,-0.77831500,0.22978600,-0.47600397,-0.84799497,0.40067952,-0.04663174
3.02000000,-0.63548676,0.77747723,-0.44656669,-0.20174370,0.55145653,0.15904838,-0.72843661,0.27886284,-0.77831398,0.22978707,-0.47605007,-0.84803893,0.40064898,-0.04664247
3.04000000,-0.63009430,0.78231218,-0.44116086,-0.21117667,0.54884010,0.16077390,-0.73108842,0.27864309,-0.77829292,0.22981044,-0.47607300,-0.84801504,0.40047604,-0.04662861
3.06000000,-0.62411270,0.78724997,-0.43542754,-0.22140011,0.54638858,0.16241520,-0.73324614,0.27859700,-0.77831466,0.22982100,-0.47607300,-0.84799349,0.40045449,-0.04657249
3.08000000,-0.61756037,0.79319805,-0.42944744,-0.23259423,0.54266614,0.16410527,-0.73565431,0.27859874,-0.77830543,0.22982015,-0.47607184,-0.84804000,0.40050332,-0.04661900
3.10000000,-0.61169809,0.79902736,-0.42419988,-0.24212439,0.53905704,0.16531402,-0.73821556,0.27866645,-0.77836259,0.22978600,-0.47602585,-0.84803979,0.40059551,-0.04661921
3.12000000,-0.60556510,0.80463072,-0.41845700,-0.25130161,0.53539979,0.16690050,-0.74089995,0.27852481,-0.77834000,0.22978619,-0.47607300,-0.84802725,0.40051319,-0.04663081
3.14000000,-0.59961100,0.81057083,-0.41337906,-0.26223877,0.53190067,0.16896335,-0.74388429,0.27851505,-0.77834063,0.22979774,-0.47607173,-0.84797974,0.40052641,-0.04661849
3.16000000,-0.59439963,0.81557674,-0.40845075,-0.27114917,0.52898794,0.17095029,-0.74716712,0.27870435,-0.77839892,0.22977408,-0.47595415,-0.84795611,0.40065669,-0.04657108
3.18000000,-0.58865931,0.82018293,-0.40243662,-0.28057663,0.52646977,0.17322949,-0.75032852,0.27850122,-0.77837503,0.22979797,-0.47600095,-0.84799196,0.40056111,-0.04659497
3.20000000,-0.58258203,0.82533487,-0.39671522,-0.29007239,0.52337215,0.17519992,-0.75296480,0.27840701,-0.77837500,0.22982076,-0.47606036,-0.84801575,0.40043040,-0.04654751
3.22000000,-0.57577587,0.83162281,-0.39046749,-0.30051572,0.52036396,0.17711045,-0.75531885,0.27839418,-0.77836318,0.22979834,-0.47607282,-0.84800418,0.40047629,-0.04658246
3.24000000,-0.56984852,0.83733261,-0.38482965,-0.31065086,0.51686842,0.17889308,-0.75748291,0.27856873,-0.77840985,0.22978629,-0.47596758,-0.84798057,0.40071127,-0.04658300
3.26000000,-0.56412693,0.84310739,-0.37931224,-0.32079542,0.51303319,0.18073024,-0.75992311,0.27846803,-0.77837601,0.22977434,-0.47599999,-0.84796834,0.40061203,-0.04655967
3.28000000,-0.55843592,0.84868400,-0.37405641,-0.33047158,0.51010821,0.18249800,-0.76303997,0.27852304,-0.77837500,0.22981946,-0.47600100,-0.84799122,0.40053935,-0.04655900
3.30000000,-0.55321828,0.85386306,-0.36915272,-0.33969602,0.50779756,0.18412539,-0.76614314,0.27851345,-0.77839811,0.22979886,-0.47600100,-0.84796889,0.40056011,-0.04655900
3.32000000,-0.54734329,0.85859865,-0.36253026,-0.34976917,0.50472195,0.18553133,-0.76943329,0.27843335,-0.77838749,0.22982007,-0.47597797,-0.84796800,0.40056100,-0.04652446
3.34000000,-0.54155875,0.86344052,-0.35681794,-0.35908046,0.50144531,0.18680201,-0.77253415,0.27844052,-0.77839847,0.22982100,-0.47598847,-0.84802535,0.40054953,-0.04651153
3.36000000,-0.53563408,0.86871953,-0.35160527,-0.36850169,0.49818571,0.18854649,-0.77506668,0.27835058,-0.77839900,0.22982100,-0.47608037,-0.84800516,0.40046905,-0.04655669
3.38000000,-0.53041646,0.87475879,-0.34702544,-0.37813841,0.49450619,0.19060858,-0.77722145,0.27840288,-0.77837625,0.22977644,-0.47600537,-0.84799262,0.40052188,-0.04654762
3.40000000,-0.52523687,0.88010973,-0.34216109,-0.38709164,0.49150778,0.19253775,-0.77915375,0.27848434,-0.77839765,0.22979665,-0.47595664,-0.84800333,0.40061561,-0.04653567
3.42000000,-0.52032295,0.88523377,-0.33682473,-0.39580390,0.48896850,0.19449107,-0.78114085,0.27851152,-0.77837648,0.22981959,-0.47599811,-0.84799274,0.40055343,-0.04654626
3.44000000,-0.51608785,0.89010576,-0.33213798,-0.40404924,0.48618382,0.19630438,-0.78368036,0.27849070,-0.77838615,0.22979962,-0.47601215,-0.84798085,0.40054900,-0.04656930
3.46000000,-0.51123587,0.89407509,-0.32672136,-0.41275668,0.48366907,0.19839478,-0.78635736,0.27847791,-0.77840919,0.22979800,-0.47601300,-0.84801328,0.40061556,-0.04658209
3.48000000,-0.50586146,0.89823806,-0.32141379,-0.42183816,0.48109963,0.19995435,-0.78898458,0.27845493,-0.77838893,0.22981915,-0.47600197,-0.84799393,0.40055480,-0.04654990
3.50000000,-0.50060116,0.90305881,-0.31653710,-0.43042879,0.47855111,0.20132897,-0.79174586,0.27849699,-0.77838700,0.22982100,-0.47602300,-0.84798100,0.40048301,-0.04654700
3.52000000,-0.49623741,0.90766430,-0.31253575,-0.43786679,0.47559453,0.20255754,-0.79425085,0.27846817,-0.77839794,0.22980002,-0.47598122,-0.84799094,0.40061928,-0.04656889
3.54000000,-0.49125077,0.91270965,-0.30840119,-0.44516303,0.47258866,0.20398164,-0.79654222,0.27847581,-0.77837739,0.22978719,-0.47604184,-0.84800281,0.40056816,-0.04658181
3.56000000,-0.48634088,0.91706503,-0.30448306,-0.45272488,0.47055798,0.20525483,-0.79819892,0.27853075,-0.77839650,0.22979675,-0.47601675,-0.84799325,0.40053950,-0.04657225
3.58000000,-0.48170661,0.92095441,-0.30070805,-0.46061571,0.46843411,0.20635232,-0.79972494,0.27861147,-0.77839900,0.22981839,-0.47601300,-0.84799200,0.40060083,-0.04654972
3.60000000,-0.47781981,0.92461711,-0.29645387,-0.46751658,0.46602909,0.20736083,-0.80128907,0.27856828,-0.77838846,0.22980079,-0.47600246,-0.84801309,0.40061954,-0.04656809
3.62000000,-0.47439435,0.92850305,-0.29238142,-0.47452658,0.46361417,0.20831738,-0.80323241,0.27856100,-0.77837656,0.22979800,-0.47605320,-0.84800556,0.40055836,-0.04657100
3.64000000,-0.47105969,0.93168258,-0.28835968,-0.48111220,0.46162468,0.20921616,-0.80523025,0.27854031,-0.77838535,0.22979800,-0.47606100,-0.84801435,0.40052831,-0.04658135
3.66000000,-0.46697367,0.93466745,-0.28411704,-0.48770790,0.45969862,0.21036389,-0.80731924,0.27850626,-0.77838700,0.22980825,-0.47604051,-0.84801600,0.40052500,-0.04658300
3.68000000,-0.46294538,0.93797453,-0.28031269,-0.49449052,0.45770602,0.21174963,-0.80923610,0.27855194,-0.77838700,0.22981934,-0.47605738,-0.84800581,0.40051481,-0.04658300
3.70000000,-0.45916194,0.94137838,-0.27685378,-0.50041075,0.45545929,0.21289625,-0.81123253,0.27861166,-0.77841739,0.22980158,-0.47606100,-0.84799387,0.40060418,-0.04658300
3.72000000,-0.45581711,0.94434903,-0.27406448,-0.50573312,0.45351945,0.21403441,-0.81331023,0.27855041,-0.77838266,0.22979800,-0.47605092,-0.84799200,0.40062100,-0.04659308
3.74000000,-0.45275633,0.94768867,-0.27154850,-0.51054800,0.45199067,0.21520633,-0.81509333,0.27854700,-0.77838500,0.22981717,-0.47605900,-0.84801200,0.40053100,-0.04659500
3.76000000,-0.44967538,0.95053037,-0.26895383,-0.51480698,0.45046810,0.21623572,-0.81646168,0.27859856,-0.77837709,0.22980200,-0.47604118,-0.84799618,0.40058238,-0.04659500
3.78000000,-0.44676554,0.95289625,-0.26625408,-0.51936248,0.44904466,0.21722328,-0.81760904,0.27857961,-0.77837500,0.22979800,-0.47603700,-0.84799200,0.40063619,-0.04659500
3.80000000,-0.44437326,0.95510274,-0.26365708,-0.52326082,0.44750942,0.21807791,-0.81840991,0.27855350,-0.77839450,0.22979800,-0.47605650,-0.84798225,0.40054750,-0.04661450
3.82000000,-0.44174532,0.95762541,-0.26107229,-0.52785514,0.44598516,0.21893034,-0.81915707,0.27857809,-0.77839900,0.22979800,-0.47606100,-0.84799939,0.40048621,-0.04660930
3.84000000,-0.43959740,0.96024309,-0.25887034,-0.53248396,0.44473129,0.21984578,-0.82002288,0.27863317,-0.77838937,0.22977873,-0.47607063,-0.84800400,0.40065040,-0.04660700
3.86000000,-0.43801201,0.96217884,-0.25669217,-0.53656967,0.44365300,0.22061342,-0.82075469,0.27857796,-0.77839658,0.22977400,-0.47606342,-0.84802315,0.40063554,-0.04660700
3.88000000,-0.43658959,0.96409679,-0.25464831,-0.54048306,0.44266050,0.22119917,-0.82144748,0.27859910,-0.77837995,0.22980258,-0.47606100,-0.84800895,0.40050669,-0.04659747
3.90000000,-0.43502609,0.96567014,-0.25265058,-0.54337338,0.44180790,0.22162351,-0.82208074,0.27859957,-0.77837500,0.22980057,-0.47607043,-0.84801343,0.40044870,-0.04660443
3.92000000,-0.43333252,0.96711142,-0.25090999,-0.54558649,0.44111652,0.22205463,-0.82274722,0.27862511,-0.77836563,0.22978863,-0.47607300,-0.84800663,0.40057216,-0.04659763
3.94000000,-0.43150464,0.96841185,-0.24965951,-0.54740608,0.44050672,0.22248623,-0.82345457,0.27861439,-0.77837231,0.22978600,-0.47607300,-0.84799469,0.40059039,-0.04660431
3.96000000,-0.42953067,0.96943274,-0.24870509,-0.54907714,0.43989404,0.22288604,-0.82411237,0.27862741,-0.77838421,0.22979521,-0.47606379,-0.84801962,0.40054817,-0.04660700
3.98000000,-0.42788055,0.97024523,-0.24782208,-0.55067068,0.43923239,0.22314138,-0.82477054,0.27862392,-0.77838700,0.22978892,-0.47607008,-0.84800077,0.40054608,-0.04661608
4.00000000,-0.42652987,0.97091156,-0.24698535,-0.55209317,0.43850839,0.22336511,-0.82534752,0.27862100,-0.77837799,0.22978600,-0.47607300,-0.84801902,0.40055801,-0.04659198
4.02000000,-0.42553596,0.97145441,-0.24616170,-0.55338496,0.43795650,0.22353844,-0.82579850,0.27862996,-0.77839291,0.22979496,-0.47607300,-0.84803696,0.40053413,-0.04660987
4.04000000,-0.42481920,0.97202039,-0.24525848,-0.55477361,0.43752937,0.22371967,-0.82621578,0.27863300,-0.77839900,0.22978020,-0.47607300,-0.84803110,0.40056060,-0.04661010
4.06000000,-0.42436679,0.97260526,-0.24448721,-0.55616921,0.43718600,0.22391047,-0.82654505,0.27864184,-0.77839016,0.22978284,-0.47606416,-0.84801916,0.40056416,-0.04660700
4.08000000,-0.42415152,0.97316434,-0.24375277,-0.55745008,0.43684563,0.22407548,-0.82675609,0.27862739,-0.77838700,0.22978600,-0.47606100,-0.84803361,0.40053458,-0.04659819
4.10000000,-0.42407496,0.97374828,-0.24305639,-0.55835945,0.43650844,0.22414328,-0.82690912,0.27863852,-0.77838700,0.22979476,-0.47606976,-0.84801372,0.40052500,-0.04659500
4.12000000,-0.42397534,0.97429056,-0.24258676,-0.55884958,0.43630535,0.22418766,-0.82706860,0.27861900,-0.77836967,0.22978933,-0.47607300,-0.84801267,0.40053367,-0.04660367
4.14000000,-0.42381305,0.97479805,-0.24225349,-0.55911073,0.43617604,0.22427837,-0.82720096,0.27861760,-0.77836300,0.22979460,-0.47607300,-0.84802460,0.40053700,-0.04661560
4.16000000,-0.42365952,0.97512816,-0.24205398,-0.55922324,0.43610784,0.22432608,-0.82733748,0.27863808,-0.77838008,0.22978092,-0.47606446,-0.84802800,0.40053700,-0.04661046
4.18000000,-0.42350005,0.97532266,-0.24199205,-0.55931180,0.43605162,0.22440080,-0.82744680,0.27863652,-0.77837005,0.22977400,-0.47606948,-0.84802800,0.40054548,-0.04661548
4.20000000,-0.42340899,0.97542241,-0.24196049,-0.55938201,0.43600879,0.22444580,-0.82753382,0.27864140,-0.77837980,0.22979080,-0.47607300,-0.84802800,0.40053220,-0.04661900
4.22000000,-0.42334106,0.97548561,-0.24191671,-0.55946658,0.43598135,0.22447797,-0.82759229,0.27862835,-0.77836203,0.22978135,-0.47607300,-0.84803632,0.40054165,-0.04660235
4.24000000,-0.42331900,0.97550400,-0.24188552,-0.55950424,0.43598224,0.22450479,-0.82761524,0.27862100,-0.77836748,0.22979048,-0.47606476,-0.84803176,0.40053252,-0.04660324
4.26000000,-0.42330264,0.97554491,-0.24186164,-0.55949982,0.43596145,0.22450382,-0.82761900,0.27862100,-0.77837500,0.22979800,-0.47606918,-0.84801164,0.40052500,-0.04659882
4.28000000,-0.42329500,0.97558826,-0.24185400,-0.55952026,0.43595000,0.22452426,-0.82762709,0.27862100,-0.77839118,0.22978991,-0.47608109,-0.84802018,0.40051691,-0.04661118
4.30000000,-0.42329500,0.97560793,-0.24182227,-0.55952407,0.43595000,0.22453600,-0.82764686,0.27862100,-0.77838314,0.22977807,-0.47607707,-0.84802800,0.40052093,-0.04661900
4.32000000,-0.42330282,0.97562764,-0.24179818,-0.55952782,0.43595782,0.22452818,-0.82765500,0.27862100,-0.77837500,0.22978182,-0.47607300,-0.84802018,0.40052500,-0.04661900
4.34000000,-0.42328384,0.97563600,-0.24176313,-0.55953200,0.43593113,0.22453944,-0.82765500,0.27861328,-0.77837500,0.22978600,-0.47606528,-0.84802372,0.40053272,-0.04661128
4.36000000,-0.42327100,0.97565892,-0.24174600,-0.55953200,0.43593692,0.22454036,-0.82763208,0.27862428,-0.77837500,0.22978600,-0.47606864,-0.84802800,0.40052172,-0.04661464
4.38000000,-0.42326341,0.97566441,-0.24174600,-0.55953895,0.43594241,0.22455117,-0.82761141,0.27864059,-0.77838259,0.22977841,-0.47606541,-0.84803559,0.40052817,-0.04660383
4.40000000,-0.42319167,0.97566000,-0.24171608,-0.55954300,0.43595296,0.22458992,-0.82758456,0.27863752,-0.77839448,0.22978896,-0.47606848,-0.84802504,0.40052952,-0.04660248
4.42000000,-0.42305522,0.97566000,-0.24168327,-0.55955037,0.43599147,0.22460800,-0.82752680,0.27864037,-0.77838427,0.22979800,-0.47607300,-0.84801600,0.40052500,-0.04661437
4.44000000,-0.42286431,0.97566000,-0.24164482,-0.55954771,0.43605377,0.22462988,-0.82744065,0.27863041,-0.77837500,0.22978341,-0.47607300,-0.84803059,0.40052500,-0.04662629
4.46000000,-0.42260644,0.97566000,-0.24159707,-0.55954300,0.43614708,0.22466569,-0.82729453,0.27862100,-0.77838223,0.22978846,-0.47607300,-0.84802554,0.40053223,-0.04661654
4.48000000,-0.42230612,0.97566000,-0.24158515,-0.55955015,0.43626864,0.22470860,-0.82710861,0.27862100,-0.77838700,0.22979085,-0.47607300,-0.84801600,0.40053700,-0.04661415
4.50000000,-0.42193284,0.97563876,-0.24159000,-0.55954143,0.43639279,0.22479879,-0.82686878,0.27863516,-0.77837284,0.22979308,-0.47607300,-0.84801600,0.40052992,-0.04661192
4.52000000,-0.42149515,0.97561001,-0.24159000,-0.55953200,0.43662331,0.22491796,-0.82651814,0.27864500,-0.77837699,0.22978401,-0.47607300,-0.84801600,0.40052500,-0.04660700
4.54000000,-0.42101859,0.97560000,-0.24159000,-0.55953826,0.43694432,0.22504316,-0.82593860,0.27864500,-0.77838017,0.22978767,-0.47607300,-0.84801600,0.40052500,-0.04661383
4.56000000,-0.42049327,0.97560672,-0.24157655,-0.55953011,0.43729015,0.22513362,-0.82509166,0.27863155,-0.77836828,0.22979128,-0.47607300,-0.84800255,0.40052500,-0.04662572
4.58000000,-0.41980419,0.97560532,-0.24151258,-0.55951332,0.43776794,0.22527963,-0.82404347,0.27861432,-0.77837635,0.22979268,-0.47607300,-0.84799868,0.40051832,-0.04662432
4.60000000,-0.41893943,0.97558016,-0.24145678,-0.55949478,0.43833376,0.22550063,-0.82283101,0.27862222,-0.77838039,0.22979800,-0.47607300,-0.84801061,0.40053284,-0.04661239
4.62000000,-0.41792230,0.97554452,-0.24142003,-0.55949049,0.43898898,0.22573934,-0.82151692,0.27863300,-0.77838149,0.22979151,-0.47607300,-0.84801600,0.40052952,-0.04660700
4.64000000,-0.41666448,0.97548969,-0.24134692,-0.55949600,0.43969341,0.22602686,-0.82018733,0.27863300,-0.77837423,0.22978600,-0.47607300,-0.84802877,0.40051939,-0.04662616
4.66000000,-0.41513805,0.97543719,-0.24126438,-0.55948973,0.44040121,0.22631594,-0.81886382,0.27863927,-0.77837554,0.22979227,-0.47607300,-0.84802119,0.40054381,-0.04664300
4.68000000,-0.41345114,0.97534050,-0.24123612,-0.55945954,0.44114077,0.22662496,-0.81760635,0.27863888,-0.77838088,0.22979800,-0.47606077,-0.84801012,0.40056100,-0.04663077
4.70000000,-0.41175204,0.97517379,-0.24123599,-0.55941194,0.44184728,0.22702953,-0.81630385,0.27862699,-0.77836899,0.22978597,-0.47605501,-0.84800999,0.40054897,-0.04661900
4.72000000,-0.41003841,0.97491847,-0.24123593,-0.55936428,0.44260250,0.22746997,-0.81479306,0.27862100,-0.77836893,0.22977400,-0.47606693,-0.84802179,0.40054886,-0.04661307
4.74000000,-0.40839962,0.97452152,-0.24123031,-0.55931662,0.44351183,0.22793935,-0.81292951,0.27862685,-0.77836915,0.22977400,-0.47606715,-0.84802831,0.40056685,-0.04661869
4.76000000,-0.40653825,0.97402736,-0.24117797,-0.55928621,0.44457060,0.22845237,-0.81029224,0.27862721,-0.77836879,0.22977979,-0.47606679,-0.84802757,0.40054406,-0.04661943
4.78000000,-0.40429381,0.97351450,-0.24107215,-0.55924572,0.44565691,0.22893565,-0.80708375,0.27862100,-0.77837500,0.22978600,-0.47607300,-0.84804000,0.40053014,-0.04660129
4.80000000,-0.40216669,0.97293580,-0.24099173,-0.55914036,0.44679357,0.22941639,-0.80388411,0.27862100,-0.77836936,0.22978036,-0.47606736,-0.84803436,0.40056591,-0.04660627
4.82000000,-0.40025417,0.97221164,-0.24095698,-0.55904198,0.44822574,0.22986019,-0.80067151,0.27862650,-0.77835750,0.22977400,-0.47607201,-0.84803350,0.40056849,-0.04661900
4.84000000,-0.39807442,0.97147706,-0.24087736,-0.55898918,0.44981743,0.23033412,-0.79751805,0.27863300,-0.77835636,0.22978473,-0.47607964,-0.84802927,0.40053827,-0.04661900
4.86000000,-0.39547077,0.97084387,-0.24066921,-0.55890874,0.45146014,0.23093457,-0.79463144,0.27862250,-0.77836300,0.22979275,-0.47607300,-0.84802125,0.40053550,-0.04661900
4.88000000,-0.39272238,0.97029270,-0.24043130,-0.55879230,0.45307587,0.23158283,-0.79158530,0.27862431,-0.77836300,0.22979110,-0.47607300,-0.84801269,0.40055410,-0.04661900
4.90000000,-0.38962726,0.96975237,-0.24032587,-0.55861658,0.45456451,0.23238376,-0.78786592,0.27863998,-0.77836802,0.22979298,-0.47607300,-0.84801208,0.40055598,-0.04661900
4.92000000,-0.38593849,0.96905668,-0.24026910,-0.55834784,0.45639225,0.23336961,-0.78348252,0.27863300,-0.77837997,0.22978103,-0.47607300,-0.84803006,0.40054900,-0.04661900
4.94000000,-0.38197714,0.96819443,-0.24025776,-0.55799945,0.45848218,0.23439145,-0.77905340,0.27864764,-0.77838700,0.22977400,-0.47607300,-0.84802576,0.40057829,-0.04662388
4.96000000,-0.37850746,0.96734838,-0.24024809,-0.55763368,0.46063401,0.23537332,-0.77537999,0.27866422,-0.77838222,0.22978356,-0.47607300,-0.84803522,0.40059231,-0.04662622
4.98000000,-0.37522620,0.96658740,-0.24014638,-0.55736202,0.46291704,0.23650671,-0.77181384,0.27864763,-0.77837969,0.22979331,-0.47607300,-0.84803269,0.40053494,-0.04661900
5.00000000,-0.37171252,0.96574775,-0.24000306,-0.55714002,0.46487731,0.23773342,-0.76745310,0.27863300,-0.77837790,0.22978145,-0.47606845,-0.84804000,0.40054029,-0.04661900
