gracetata/LocomotionHEC/legged_lab/Reference Data/ArmHack/StandPerturb/TestData/ArmOnly/trajectories/representative/representative_arm_trajectory_04_source_385_390s_025x_50hz.csv
time_s,left_shoulder_pitch_joint,left_shoulder_roll_joint,left_shoulder_yaw_joint,left_elbow_joint,left_wrist_roll_joint,left_wrist_pitch_joint,left_wrist_yaw_joint,right_shoulder_pitch_joint,right_shoulder_roll_joint,right_shoulder_yaw_joint,right_elbow_joint,right_wrist_roll_joint,right_wrist_pitch_joint,right_wrist_yaw_joint
0.00000000,0.27729100,0.77772800,-0.22960308,-0.47562708,0.84737354,0.40012900,0.04637446,-0.92155100,-0.68531373,0.55933614,0.04091604,-0.54053893,0.17223632,0.79725261
0.02000000,0.27729100,0.77772800,-0.22959718,-0.47562118,0.84737059,0.40012900,0.04637741,-0.92155100,-0.68540237,0.55929182,0.04077422,-0.54048304,0.17228359,0.79730555
0.04000000,0.27729237,0.77772800,-0.22959400,-0.47562074,0.84736900,0.40013037,0.04637900,-0.92154826,-0.68549518,0.55923781,0.04059804,-0.54042830,0.17233508,0.79736968
0.06000000,0.27729534,0.77772800,-0.22959400,-0.47562668,0.84736900,0.40013334,0.04637900,-0.92154232,-0.68559284,0.55917253,0.04038195,-0.54037489,0.17239145,0.79744682
0.08000000,0.27729831,0.77772800,-0.22959400,-0.47563261,0.84736900,0.40013631,0.04637900,-0.92153639,-0.68569050,0.55910726,0.04016586,-0.54032149,0.17244782,0.79752396
0.10000000,0.27730127,0.77772800,-0.22959400,-0.47563855,0.84736900,0.40013927,0.04637900,-0.92153045,-0.68578816,0.55904199,0.03994976,-0.54026808,0.17250419,0.79760110
0.12000000,0.27730175,0.77772675,-0.22959400,-0.47564075,0.84737025,0.40014100,0.04637775,-0.92152700,-0.68589365,0.55895420,0.03971432,-0.54019209,0.17257183,0.79768717
0.14000000,0.27729877,0.77772377,-0.22959400,-0.47563777,0.84737323,0.40014100,0.04637477,-0.92152700,-0.68601005,0.55883507,0.03945194,-0.54008465,0.17265514,0.79778566
0.16000000,0.27729578,0.77772078,-0.22959400,-0.47563478,0.84737622,0.40014100,0.04637178,-0.92152700,-0.68612644,0.55871594,0.03918955,-0.53997721,0.17273846,0.79788414
0.18000000,0.27729280,0.77771780,-0.22959400,-0.47563180,0.84737920,0.40014100,0.04636880,-0.92152700,-0.68624284,0.55859681,0.03892717,-0.53986977,0.17282178,0.79798263
0.20000000,0.27729100,0.77771717,-0.22959634,-0.47563000,0.84737983,0.40014100,0.04636700,-0.92152349,-0.68636676,0.55847124,0.03864859,-0.53976997,0.17289776,0.79809108
0.22000000,0.27729100,0.77772012,-0.22960224,-0.47563000,0.84737688,0.40014100,0.04636700,-0.92151464,-0.68650212,0.55833588,0.03834546,-0.53968178,0.17296261,0.79821464
0.24000000,0.27729100,0.77772307,-0.22960813,-0.47563000,0.84737393,0.40014100,0.04636700,-0.92150580,-0.68663747,0.55820053,0.03804233,-0.53959359,0.17302746,0.79833821
0.26000000,0.27729100,0.77772601,-0.22961403,-0.47563000,0.84737099,0.40014100,0.04636700,-0.92149696,-0.68677283,0.55806517,0.03773919,-0.53950540,0.17309232,0.79846177
0.28000000,0.27729197,0.77772800,-0.22961800,-0.47563000,0.84736997,0.40014003,0.04636603,-0.92148906,-0.68691720,0.55790433,0.03741116,-0.53940346,0.17316506,0.79858657
0.30000000,0.27729494,0.77772800,-0.22961800,-0.47563000,0.84737294,0.40013706,0.04636306,-0.92148313,-0.68708019,0.55769089,0.03703176,-0.53927311,0.17325410,0.79871395
0.32000000,0.27729790,0.77772800,-0.22961800,-0.47563000,0.84737590,0.40013410,0.04636010,-0.92147719,-0.68724318,0.55747744,0.03665236,-0.53914277,0.17334314,0.79884132
0.34000000,0.27730087,0.77772800,-0.22961800,-0.47563000,0.84737887,0.40013113,0.04635713,-0.92147125,-0.68740617,0.55726400,0.03627296,-0.53901243,0.17343218,0.79896870
0.36000000,0.27730300,0.77772800,-0.22961632,-0.47563084,0.84738016,0.40012900,0.04635584,-0.92146447,-0.68757431,0.55704705,0.03587564,-0.53888025,0.17352204,0.79910205
0.38000000,0.27730300,0.77772800,-0.22961037,-0.47563382,0.84737718,0.40012900,0.04635882,-0.92145555,-0.68775549,0.55682126,0.03543296,-0.53874344,0.17361400,0.79925051
0.40000000,0.27730300,0.77772800,-0.22960442,-0.47563679,0.84737421,0.40012900,0.04636179,-0.92144663,-0.68793668,0.55659546,0.03499029,-0.53860662,0.17370595,0.79939898
0.42000000,0.27730300,0.77772800,-0.22959847,-0.47563977,0.84737123,0.40012900,0.04636477,-0.92143770,-0.68811786,0.55636966,0.03454762,-0.53846980,0.17379791,0.79954744
0.44000000,0.27730300,0.77772800,-0.22959400,-0.47564200,0.84737048,0.40012900,0.04636774,-0.92142952,-0.68829766,0.55612670,0.03408847,-0.53832779,0.17389368,0.79970266
0.46000000,0.27730300,0.77772800,-0.22959400,-0.47564200,0.84737644,0.40012900,0.04637072,-0.92142356,-0.68847328,0.55583185,0.03357950,-0.53817006,0.17400098,0.79987828
0.48000000,0.27730300,0.77772800,-0.22959400,-0.47564200,0.84738241,0.40012900,0.04637370,-0.92141759,-0.68864889,0.55553700,0.03307054,-0.53801232,0.17410829,0.80005389
0.50000000,0.27730300,0.77772800,-0.22959400,-0.47564200,0.84738837,0.40012900,0.04637668,-0.92141163,-0.68882451,0.55524216,0.03256157,-0.53785459,0.17421560,0.80022951
0.52000000,0.27730234,0.77772734,-0.22959334,-0.47564266,0.84739234,0.40012834,0.04637834,-0.92140434,-0.68902276,0.55494066,0.03203522,-0.53768752,0.17432620,0.80040982
0.54000000,0.27729935,0.77772435,-0.22959035,-0.47564565,0.84738935,0.40012535,0.04637535,-0.92139241,-0.68929997,0.55461596,0.03144823,-0.53748788,0.17444827,0.80060647
0.56000000,0.27729637,0.77772137,-0.22958737,-0.47564863,0.84738637,0.40012237,0.04637237,-0.92138047,-0.68957719,0.55429126,0.03086123,-0.53728824,0.17457034,0.80080313
0.58000000,0.27729338,0.77771838,-0.22958438,-0.47565162,0.84738338,0.40011938,0.04636938,-0.92136854,-0.68985440,0.55396656,0.03027424,-0.53708859,0.17469242,0.80099979
0.60000000,0.27729160,0.77771660,-0.22958140,-0.47565280,0.84737980,0.40011760,0.04636760,-0.92135361,-0.69014956,0.55364182,0.02965728,-0.53688773,0.17481870,0.80119707
0.62000000,0.27729458,0.77771958,-0.22957842,-0.47564683,0.84737383,0.40012058,0.04637058,-0.92132674,-0.69051626,0.55331692,0.02892089,-0.53668199,0.17496174,0.80139685
0.64000000,0.27729757,0.77772257,-0.22957543,-0.47564086,0.84736786,0.40012357,0.04637357,-0.92129987,-0.69088297,0.55299201,0.02818450,-0.53647624,0.17510479,0.80159662
0.66000000,0.27730055,0.77772555,-0.22957245,-0.47563489,0.84736189,0.40012655,0.04637655,-0.92127301,-0.69124967,0.55266710,0.02744810,-0.53627050,0.17524784,0.80179639
0.68000000,0.27730300,0.77772854,-0.22957108,-0.47563000,0.84735808,0.40012900,0.04637900,-0.92124078,-0.69162285,0.55233031,0.02671173,-0.53606476,0.17539197,0.80200102
0.70000000,0.27730300,0.77773153,-0.22957705,-0.47563000,0.84736405,0.40012900,0.04637900,-0.92118431,-0.69202534,0.55193976,0.02597541,-0.53585904,0.17554097,0.80222763
0.72000000,0.27730300,0.77773451,-0.22958302,-0.47563000,0.84737002,0.40012900,0.04637900,-0.92112784,-0.69242783,0.55154922,0.02523909,-0.53565332,0.17568998,0.80245425
0.74000000,0.27730300,0.77773750,-0.22958899,-0.47563000,0.84737599,0.40012900,0.04637900,-0.92107138,-0.69283031,0.55115867,0.02450277,-0.53544760,0.17583898,0.80268087
0.76000000,0.27730252,0.77773952,-0.22959400,-0.47563096,0.84738100,0.40012900,0.04637852,-0.92100536,-0.69323719,0.55076033,0.02374749,-0.53524210,0.17599264,0.80291494
0.78000000,0.27729955,0.77773655,-0.22959400,-0.47563689,0.84738100,0.40012900,0.04637555,-0.92088956,-0.69366697,0.55032140,0.02289337,-0.53503772,0.17617054,0.80318785
0.80000000,0.27729658,0.77773358,-0.22959400,-0.47564283,0.84738100,0.40012900,0.04637258,-0.92077377,-0.69409676,0.54988246,0.02203925,-0.53483335,0.17634844,0.80346076
0.82000000,0.27729361,0.77773061,-0.22959400,-0.47564877,0.84738100,0.40012900,0.04636961,-0.92065797,-0.69452654,0.54944353,0.02118514,-0.53462897,0.17652634,0.80373367
0.84000000,0.27729064,0.77772800,-0.22959400,-0.47565364,0.84738064,0.40012900,0.04636736,-0.92053435,-0.69497352,0.54899701,0.02031939,-0.53441952,0.17670963,0.80401269
0.86000000,0.27728767,0.77772800,-0.22959400,-0.47565067,0.84737767,0.40012900,0.04637033,-0.92035298,-0.69554738,0.54849461,0.01936792,-0.53417266,0.17693268,0.80433671
0.88000000,0.27728469,0.77772800,-0.22959400,-0.47564769,0.84737469,0.40012900,0.04637331,-0.92017162,-0.69612124,0.54799220,0.01841645,-0.53392580,0.17715572,0.80466073
0.90000000,0.27728171,0.77772800,-0.22959400,-0.47564471,0.84737171,0.40012900,0.04637629,-0.91999026,-0.69669510,0.54748979,0.01746498,-0.53367894,0.17737876,0.80498475
0.92000000,0.27727900,0.77772774,-0.22959400,-0.47564200,0.84736900,0.40012926,0.04637900,-0.91980184,-0.69726514,0.54697616,0.01652296,-0.53343319,0.17760176,0.80531081
0.94000000,0.27727900,0.77772477,-0.22959400,-0.47564200,0.84736900,0.40013223,0.04637900,-0.91954101,-0.69779595,0.54634736,0.01567787,-0.53319884,0.17782422,0.80565775
0.96000000,0.27727900,0.77772180,-0.22959400,-0.47564200,0.84736900,0.40013520,0.04637900,-0.91928019,-0.69832675,0.54571855,0.01483278,-0.53296449,0.17804669,0.80600470
0.98000000,0.27727900,0.77771883,-0.22959400,-0.47564200,0.84736900,0.40013817,0.04637900,-0.91901936,-0.69885756,0.54508975,0.01398769,-0.53273015,0.17826916,0.80635164
1.00000000,0.27727886,0.77771600,-0.22959400,-0.47564200,0.84736914,0.40014114,0.04637900,-0.91875816,-0.69938525,0.54445821,0.01314636,-0.53249602,0.17849284,0.80669698
1.02000000,0.27727587,0.77771600,-0.22959400,-0.47564200,0.84737213,0.40014413,0.04637900,-0.91848964,-0.69985063,0.54377234,0.01237985,-0.53226632,0.17874046,0.80701030
1.04000000,0.27727288,0.77771600,-0.22959400,-0.47564200,0.84737512,0.40014712,0.04637900,-0.91822111,-0.70031601,0.54308646,0.01161334,-0.53203661,0.17898808,0.80732363
1.06000000,0.27726990,0.77771600,-0.22959400,-0.47564200,0.84737810,0.40015010,0.04637900,-0.91795258,-0.70078139,0.54240058,0.01084682,-0.53180691,0.17923571,0.80763695
1.08000000,0.27726691,0.77771609,-0.22959400,-0.47564200,0.84738100,0.40015273,0.04637882,-0.91768106,-0.70125136,0.54171082,0.01007511,-0.53157421,0.17948765,0.80795264
1.10000000,0.27726393,0.77771907,-0.22959400,-0.47564200,0.84738100,0.40014378,0.04637285,-0.91731137,-0.70187157,0.54089382,0.00913298,-0.53124333,0.17988122,0.80834597
1.12000000,0.27726094,0.77772206,-0.22959400,-0.47564200,0.84738100,0.40013482,0.04636688,-0.91694168,-0.70249178,0.54007682,0.00819085,-0.53091245,0.18027479,0.80873929
1.14000000,0.27725796,0.77772504,-0.22959400,-0.47564200,0.84738100,0.40012587,0.04636091,-0.91657199,-0.70311199,0.53925983,0.00724871,-0.53058157,0.18066836,0.80913261
1.16000000,0.27725506,0.77772797,-0.22959397,-0.47564200,0.84738097,0.40011709,0.04635506,-0.91620147,-0.70373327,0.53844328,0.00630492,-0.53024920,0.18106184,0.80952617
1.18000000,0.27726103,0.77772499,-0.22959099,-0.47564200,0.84737799,0.40012604,0.04636103,-0.91574848,-0.70446023,0.53767157,0.00519657,-0.52976962,0.18144621,0.80994336
1.20000000,0.27726699,0.77772200,-0.22958800,-0.47564200,0.84737500,0.40013499,0.04636699,-0.91529550,-0.70518720,0.53689985,0.00408822,-0.52929003,0.18183058,0.81036054
1.22000000,0.27727296,0.77771902,-0.22958502,-0.47564200,0.84737202,0.40014394,0.04637296,-0.91484251,-0.70591417,0.53612813,0.00297987,-0.52881044,0.18221494,0.81077773
1.24000000,0.27727893,0.77771604,-0.22958204,-0.47564200,0.84736904,0.40015289,0.04637893,-0.91438953,-0.70664113,0.53535641,0.00187152,-0.52833085,0.18259931,0.81119491
1.26000000,0.27728488,0.77771894,-0.22958200,-0.47563612,0.84736606,0.40015006,0.04637900,-0.91395276,-0.70717821,0.53471031,0.00082485,-0.52801082,0.18292969,0.81158152
1.28000000,0.27729083,0.77772191,-0.22958200,-0.47563017,0.84736309,0.40014709,0.04637900,-0.91351620,-0.70771294,0.53406576,-0.00022106,-0.52769276,0.18325941,0.81196776
1.30000000,0.27729678,0.77772489,-0.22958200,-0.47562422,0.84736011,0.40014411,0.04637900,-0.91307964,-0.70824767,0.53342120,-0.00126698,-0.52737469,0.18358912,0.81235400
1.32000000,0.27730273,0.77772786,-0.22958200,-0.47561827,0.84735714,0.40014114,0.04637900,-0.91264308,-0.70878240,0.53277665,-0.00231289,-0.52705663,0.18391883,0.81274023
1.34000000,0.27729733,0.77772800,-0.22958484,-0.47562651,0.84736551,0.40014100,0.04637616,-0.91196565,-0.70924334,0.53197926,-0.00364143,-0.52662007,0.18424838,0.81323405
1.36000000,0.27729138,0.77772800,-0.22958781,-0.47563543,0.84737443,0.40014100,0.04637319,-0.91127660,-0.70970073,0.53117450,-0.00498360,-0.52617781,0.18457791,0.81373306
1.38000000,0.27728543,0.77772800,-0.22959078,-0.47564435,0.84738335,0.40014100,0.04637022,-0.91058755,-0.71015811,0.53036975,-0.00632577,-0.52573554,0.18490744,0.81423207
1.40000000,0.27727949,0.77772800,-0.22959376,-0.47565327,0.84739227,0.40014100,0.04636724,-0.90989850,-0.71061549,0.52956499,-0.00766794,-0.52529327,0.18523698,0.81473108
1.42000000,0.27727352,0.77772526,-0.22959400,-0.47565400,0.84738478,0.40014100,0.04636974,-0.90919072,-0.71113187,0.52895163,-0.00913536,-0.52485189,0.18551040,0.81516592
1.44000000,0.27726755,0.77772227,-0.22959400,-0.47565400,0.84737582,0.40014100,0.04637273,-0.90848127,-0.71165351,0.52835536,-0.01061397,-0.52441060,0.18577881,0.81559502
1.46000000,0.27726158,0.77771929,-0.22959400,-0.47565400,0.84736687,0.40014100,0.04637571,-0.90777182,-0.71217515,0.52775909,-0.01209258,-0.52396931,0.18604721,0.81602413
1.48000000,0.27725561,0.77771630,-0.22959400,-0.47565400,0.84735791,0.40014100,0.04637870,-0.90706236,-0.71269679,0.52716282,-0.01357118,-0.52352801,0.18631562,0.81645323
1.50000000,0.27724432,0.77771600,-0.22959400,-0.47565667,0.84735967,0.40013566,0.04637900,-0.90631545,-0.71330708,0.52658474,-0.01507910,-0.52301380,0.18659351,0.81690769
1.52000000,0.27723243,0.77771600,-0.22959400,-0.47565964,0.84736264,0.40012971,0.04637900,-0.90556429,-0.71392743,0.52600874,-0.01659035,-0.52249130,0.18687247,0.81736503
1.54000000,0.27722054,0.77771600,-0.22959400,-0.47566262,0.84736562,0.40012377,0.04637900,-0.90481313,-0.71454779,0.52543273,-0.01810160,-0.52196881,0.18715143,0.81782237
1.56000000,0.27720865,0.77771600,-0.22959400,-0.47566559,0.84736859,0.40011782,0.04637900,-0.90406196,-0.71516814,0.52485672,-0.01961284,-0.52144631,0.18743039,0.81827970
1.58000000,0.27719422,0.77771600,-0.22959656,-0.47566344,0.84737922,0.40012211,0.04637900,-0.90313602,-0.71586681,0.52412606,-0.02119779,-0.52081231,0.18773717,0.81879222
1.60000000,0.27717939,0.77771600,-0.22959952,-0.47566048,0.84739109,0.40012805,0.04637900,-0.90218200,-0.71657806,0.52337056,-0.02279458,-0.52016039,0.18804842,0.81931361
1.62000000,0.27716455,0.77771600,-0.22960249,-0.47565751,0.84740296,0.40013398,0.04637900,-0.90122798,-0.71728931,0.52261506,-0.02439136,-0.51950848,0.18835967,0.81983499
1.64000000,0.27714972,0.77771600,-0.22960546,-0.47565454,0.84741482,0.40013991,0.04637900,-0.90027397,-0.71800056,0.52185956,-0.02598815,-0.51885656,0.18867092,0.82035638
1.66000000,0.27714700,0.77771356,-0.22960844,-0.47565400,0.84740725,0.40013613,0.04637656,-0.89941268,-0.71889044,0.52115391,-0.02746414,-0.51818697,0.18906131,0.82094618
1.68000000,0.27714700,0.77771058,-0.22961142,-0.47565400,0.84739531,0.40013016,0.04637358,-0.89857221,-0.71982045,0.52045945,-0.02891300,-0.51751340,0.18946948,0.82155134
1.70000000,0.27714700,0.77770759,-0.22961441,-0.47565400,0.84738337,0.40012419,0.04637059,-0.89773175,-0.72075046,0.51976499,-0.03036186,-0.51683984,0.18987765,0.82215650
1.72000000,0.27714700,0.77770461,-0.22961739,-0.47565400,0.84737143,0.40011822,0.04636761,-0.89689129,-0.72168046,0.51907053,-0.03181072,-0.51616627,0.19028582,0.82276167
1.74000000,0.27713274,0.77770638,-0.22961325,-0.47565875,0.84737375,0.40011938,0.04636700,-0.89601480,-0.72275070,0.51827847,-0.03323828,-0.51562767,0.19070853,0.82339290
1.76000000,0.27711482,0.77770936,-0.22960727,-0.47566473,0.84737973,0.40012236,0.04636700,-0.89512910,-0.72385684,0.51746144,-0.03466038,-0.51512362,0.19113496,0.82403081
1.78000000,0.27709691,0.77771235,-0.22960130,-0.47567070,0.84738570,0.40012535,0.04636700,-0.89424339,-0.72496298,0.51664440,-0.03608248,-0.51461956,0.19156139,0.82466871
1.80000000,0.27707900,0.77771533,-0.22959533,-0.47567667,0.84739167,0.40012833,0.04636700,-0.89335769,-0.72606911,0.51582736,-0.03750459,-0.51411551,0.19198782,0.82530662
1.82000000,0.27709354,0.77771600,-0.22959168,-0.47567568,0.84738836,0.40012668,0.04636700,-0.89238007,-0.72716778,0.51483494,-0.03898629,-0.51364664,0.19249962,0.82595601
1.84000000,0.27711741,0.77771600,-0.22958870,-0.47567270,0.84738240,0.40012370,0.04636700,-0.89137604,-0.72826430,0.51379212,-0.04048512,-0.51318789,0.19303595,0.82660870
1.86000000,0.27714128,0.77771600,-0.22958571,-0.47566971,0.84737643,0.40012071,0.04636700,-0.89037201,-0.72936083,0.51274931,-0.04198395,-0.51272914,0.19357227,0.82726140
1.88000000,0.27716515,0.77771600,-0.22958273,-0.47566673,0.84737046,0.40011773,0.04636700,-0.88936799,-0.73045735,0.51170649,-0.04348279,-0.51227039,0.19410860,0.82791409
1.90000000,0.27717325,0.77771600,-0.22958200,-0.47565924,0.84737125,0.40012376,0.04636475,-0.88847619,-0.73152031,0.51069499,-0.04512116,-0.51174629,0.19460684,0.82856455
1.92000000,0.27717624,0.77771600,-0.22958200,-0.47565029,0.84737424,0.40013271,0.04636176,-0.88762081,-0.73257238,0.50969364,-0.04680482,-0.51120099,0.19509271,0.82921430
1.94000000,0.27717922,0.77771600,-0.22958200,-0.47564134,0.84737722,0.40014166,0.04635878,-0.88676543,-0.73362445,0.50869230,-0.04848848,-0.51065568,0.19557859,0.82986404
1.96000000,0.27718220,0.77771600,-0.22958200,-0.47563239,0.84738020,0.40015061,0.04635580,-0.88591004,-0.73467652,0.50769096,-0.05017214,-0.51011038,0.19606447,0.83051378
1.98000000,0.27718300,0.77771600,-0.22958857,-0.47563657,0.84738100,0.40014862,0.04635719,-0.88508099,-0.73575920,0.50662180,-0.05198518,-0.50944899,0.19652396,0.83127488
2.00000000,0.27718300,0.77771600,-0.22959752,-0.47564552,0.84738100,0.40014265,0.04636017,-0.88426150,-0.73685301,0.50552799,-0.05384526,-0.50874539,0.19697387,0.83207646
2.02000000,0.27718300,0.77771600,-0.22960647,-0.47565447,0.84738100,0.40013668,0.04636316,-0.88344201,-0.73794683,0.50443417,-0.05570534,-0.50804180,0.19742379,0.83287804
2.04000000,0.27718300,0.77771600,-0.22961543,-0.47566343,0.84738100,0.40013072,0.04636614,-0.88262252,-0.73904064,0.50334036,-0.05756541,-0.50733821,0.19787370,0.83367963
2.06000000,0.27718087,0.77771600,-0.22960949,-0.47566387,0.84737887,0.40013113,0.04636913,-0.88179201,-0.74006256,0.50225904,-0.05944705,-0.50673018,0.19834730,0.83440092
2.08000000,0.27717789,0.77771600,-0.22959755,-0.47566089,0.84737589,0.40013411,0.04637211,-0.88095706,-0.74105550,0.50118276,-0.06133738,-0.50616069,0.19883045,0.83508983
2.10000000,0.27717490,0.77771600,-0.22958561,-0.47565790,0.84737290,0.40013710,0.04637510,-0.88012211,-0.74204843,0.50010648,-0.06322771,-0.50559121,0.19931361,0.83577873
2.12000000,0.27717192,0.77771600,-0.22957366,-0.47565492,0.84736992,0.40014008,0.04637808,-0.87928716,-0.74304137,0.49903020,-0.06511805,-0.50502172,0.19979677,0.83646764
2.14000000,0.27717100,0.77772013,-0.22957000,-0.47565606,0.84737106,0.40014100,0.04637694,-0.87848280,-0.74409815,0.49789833,-0.06707453,-0.50445545,0.20030147,0.83713228
2.16000000,0.27717100,0.77772608,-0.22957000,-0.47565904,0.84737404,0.40014100,0.04637396,-0.87769196,-0.74518318,0.49674185,-0.06906029,-0.50389061,0.20081571,0.83778618
2.18000000,0.27717100,0.77773203,-0.22957000,-0.47566202,0.84737702,0.40014100,0.04637098,-0.87690113,-0.74626822,0.49558537,-0.07104605,-0.50332576,0.20132995,0.83844008
2.20000000,0.27717100,0.77773799,-0.22957000,-0.47566499,0.84737999,0.40014100,0.04636801,-0.87611030,-0.74735326,0.49442889,-0.07303181,-0.50276092,0.20184419,0.83909398
2.22000000,0.27715927,0.77773609,-0.22957587,-0.47566600,0.84737709,0.40013904,0.04636896,-0.87533728,-0.74825684,0.49312610,-0.07489790,-0.50217376,0.20242417,0.83974659
2.24000000,0.27714155,0.77773018,-0.22958473,-0.47566600,0.84737118,0.40013609,0.04637191,-0.87457335,-0.74906778,0.49174862,-0.07670288,-0.50157522,0.20303773,0.84039854
2.26000000,0.27712383,0.77772428,-0.22959359,-0.47566600,0.84736528,0.40013314,0.04637486,-0.87380942,-0.74987871,0.49037113,-0.07850786,-0.50097668,0.20365129,0.84105049
2.28000000,0.27710611,0.77771837,-0.22960245,-0.47566600,0.84735937,0.40013018,0.04637782,-0.87304549,-0.75068965,0.48899365,-0.08031284,-0.50037814,0.20426484,0.84170244
2.30000000,0.27709900,0.77771600,-0.22960600,-0.47566779,0.84735879,0.40012543,0.04637721,-0.87221257,-0.75164507,0.48761465,-0.08236490,-0.49969542,0.20483579,0.84238514
2.32000000,0.27709900,0.77771600,-0.22960600,-0.47567077,0.84736177,0.40011946,0.04637423,-0.87133344,-0.75269730,0.48623465,-0.08458251,-0.49895630,0.20537819,0.84308845
2.34000000,0.27709900,0.77771600,-0.22960600,-0.47567376,0.84736476,0.40011349,0.04637124,-0.87045431,-0.75374952,0.48485464,-0.08680012,-0.49821718,0.20592060,0.84379176
2.36000000,0.27709900,0.77771600,-0.22960600,-0.47567674,0.84736774,0.40010752,0.04636826,-0.86957517,-0.75480175,0.48347464,-0.08901773,-0.49747806,0.20646300,0.84449506
2.38000000,0.27710245,0.77771945,-0.22960255,-0.47567283,0.84737072,0.40010845,0.04636700,-0.86876868,-0.75589984,0.48223472,-0.09118070,-0.49680807,0.20697757,0.84526005
2.40000000,0.27710841,0.77772541,-0.22959659,-0.47566389,0.84737370,0.40011441,0.04636700,-0.86801528,-0.75703143,0.48109716,-0.09330375,-0.49618860,0.20747180,0.84607011
2.42000000,0.27711437,0.77773137,-0.22959063,-0.47565494,0.84737669,0.40012037,0.04636700,-0.86726187,-0.75816303,0.47995960,-0.09542680,-0.49556913,0.20796604,0.84688017
2.44000000,0.27712034,0.77773734,-0.22958466,-0.47564600,0.84737967,0.40012634,0.04636700,-0.86650847,-0.75929463,0.47882203,-0.09754985,-0.49494966,0.20846027,0.84769023
2.46000000,0.27711313,0.77773507,-0.22958364,-0.47564858,0.84737936,0.40012736,0.04636864,-0.86562504,-0.76055390,0.47763575,-0.09979722,-0.49430832,0.20897346,0.84848398
2.48000000,0.27709530,0.77772615,-0.22958662,-0.47566047,0.84737638,0.40012438,0.04637162,-0.86463668,-0.76191621,0.47641014,-0.10214491,-0.49364933,0.20950194,0.84926456
2.50000000,0.27707747,0.77771724,-0.22958959,-0.47567235,0.84737341,0.40012141,0.04637459,-0.86364832,-0.76327852,0.47518454,-0.10449261,-0.49299034,0.21003042,0.85004514
2.52000000,0.27705964,0.77770832,-0.22959256,-0.47568424,0.84737044,0.40011844,0.04637756,-0.86265996,-0.76464083,0.47395893,-0.10684031,-0.49233135,0.21055890,0.85082573
2.54000000,0.27705715,0.77770554,-0.22959092,-0.47568846,0.84736900,0.40012008,0.04637900,-0.86168780,-0.76595855,0.47272732,-0.10904734,-0.49164483,0.21110692,0.85164950
2.56000000,0.27706909,0.77770852,-0.22958495,-0.47568548,0.84736900,0.40012605,0.04637900,-0.86073089,-0.76723436,0.47149007,-0.11112211,-0.49093243,0.21167331,0.85251389
2.58000000,0.27708103,0.77771151,-0.22957898,-0.47568249,0.84736900,0.40013202,0.04637900,-0.85977397,-0.76851017,0.47025282,-0.11319688,-0.49022002,0.21223970,0.85337827
2.60000000,0.27709297,0.77771449,-0.22957301,-0.47567951,0.84736900,0.40013799,0.04637900,-0.85881705,-0.76978597,0.46901556,-0.11527165,-0.48950762,0.21280609,0.85424266
2.62000000,0.27709606,0.77771894,-0.22957735,-0.47567653,0.84737047,0.40013806,0.04637900,-0.85781324,-0.77099336,0.46763557,-0.11731364,-0.48872995,0.21341322,0.85507220
2.64000000,0.27709013,0.77772487,-0.22959218,-0.47567356,0.84737344,0.40013213,0.04637900,-0.85676162,-0.77213101,0.46611005,-0.11932219,-0.48788574,0.21406189,0.85586623
2.66000000,0.27708420,0.77773080,-0.22960701,-0.47567060,0.84737640,0.40012620,0.04637900,-0.85571001,-0.77326865,0.46458454,-0.12133074,-0.48704153,0.21471056,0.85666026
2.68000000,0.27707826,0.77773674,-0.22962184,-0.47566763,0.84737937,0.40012026,0.04637900,-0.85465839,-0.77440630,0.46305903,-0.12333930,-0.48619732,0.21535923,0.85745428
2.70000000,0.27700953,0.77773063,-0.22963669,-0.47567671,0.84737966,0.40010763,0.04637900,-0.85329405,-0.77578717,0.46126163,-0.12569235,-0.48515416,0.21614907,0.85842958
2.72000000,0.27686405,0.77770981,-0.22965156,-0.47570050,0.84737669,0.40008681,0.04637900,-0.85154750,-0.77746532,0.45913190,-0.12846647,-0.48386785,0.21711145,0.85962641
2.74000000,0.27671856,0.77768899,-0.22966643,-0.47572429,0.84737371,0.40006599,0.04637900,-0.84980094,-0.77914347,0.45700218,-0.13124058,-0.48258154,0.21807382,0.86082325
2.76000000,0.27657308,0.77766817,-0.22968130,-0.47574809,0.84737074,0.40004517,0.04637900,-0.84805439,-0.78082162,0.45487246,-0.13401470,-0.48129523,0.21903620,0.86202009
2.78000000,0.27651154,0.77765848,-0.22968133,-0.47575828,0.84737024,0.40004043,0.04637900,-0.84636234,-0.78255658,0.45297854,-0.13666658,-0.48005552,0.21991951,0.86322245
2.80000000,0.27656825,0.77766445,-0.22966044,-0.47574933,0.84737322,0.40005834,0.04637900,-0.84474707,-0.78437155,0.45141674,-0.13914632,-0.47888143,0.22069146,0.86443260
2.82000000,0.27662495,0.77767042,-0.22963955,-0.47574038,0.84737621,0.40007625,0.04637900,-0.84313180,-0.78618652,0.44985494,-0.14162605,-0.47770735,0.22146341,0.86564275
2.84000000,0.27668165,0.77767638,-0.22961866,-0.47573142,0.84737919,0.40009415,0.04637900,-0.84151653,-0.78800149,0.44829314,-0.14410578,-0.47653326,0.22223535,0.86685289
2.86000000,0.27674650,0.77769765,-0.22959188,-0.47571305,0.84737865,0.40011442,0.04637900,-0.83998790,-0.78968866,0.44677111,-0.14645428,-0.47550816,0.22303557,0.86797271
2.88000000,0.27682388,0.77774244,-0.22955605,-0.47568021,0.84737268,0.40013830,0.04637900,-0.83859242,-0.79117943,0.44531019,-0.14860112,-0.47471202,0.22387923,0.86895370
2.90000000,0.27690125,0.77778722,-0.22952022,-0.47564737,0.84736670,0.40016218,0.04637900,-0.83719694,-0.79267020,0.44384928,-0.15074796,-0.47391588,0.22472289,0.86993469
2.92000000,0.27697863,0.77783200,-0.22948440,-0.47561453,0.84736073,0.40018607,0.04637900,-0.83580146,-0.79416097,0.44238836,-0.15289480,-0.47311975,0.22556654,0.87091568
2.94000000,0.27702700,0.77785554,-0.22946758,-0.47560181,0.84735812,0.40019542,0.04638012,-0.83448350,-0.79558970,0.44094484,-0.15501658,-0.47235808,0.22637576,0.87186419
2.96000000,0.27702700,0.77784364,-0.22948245,-0.47562263,0.84736109,0.40018055,0.04638309,-0.83329487,-0.79691495,0.43953033,-0.15709656,-0.47165393,0.22712752,0.87275852
2.98000000,0.27702700,0.77783174,-0.22949733,-0.47564346,0.84736407,0.40016567,0.04638607,-0.83210623,-0.79824020,0.43811582,-0.15917655,-0.47094977,0.22787928,0.87365285
3.00000000,0.27702700,0.77781984,-0.22951221,-0.47566429,0.84736704,0.40015079,0.04638904,-0.83091760,-0.79956546,0.43670131,-0.16125654,-0.47024562,0.22863104,0.87454718
3.02000000,0.27702190,0.77780894,-0.22952302,-0.47567596,0.84737002,0.40013896,0.04638794,-0.82968491,-0.80096244,0.43531787,-0.16349967,-0.46948766,0.22934395,0.87547206
3.04000000,0.27700698,0.77779999,-0.22952600,-0.47566999,0.84737300,0.40013299,0.04637899,-0.82836731,-0.80249769,0.43399430,-0.16605725,-0.46862601,0.22998198,0.87645584
3.06000000,0.27699205,0.77779103,-0.22952899,-0.47566402,0.84737599,0.40012702,0.04637003,-0.82704972,-0.80403293,0.43267074,-0.16861484,-0.46776436,0.23062001,0.87743962
3.08000000,0.27697713,0.77778208,-0.22953197,-0.47565805,0.84737897,0.40012105,0.04636108,-0.82573212,-0.80556818,0.43134717,-0.17117242,-0.46690271,0.23125803,0.87842341
3.10000000,0.27697372,0.77777984,-0.22953208,-0.47565112,0.84738004,0.40012180,0.04635692,-0.82438471,-0.80704322,0.43000146,-0.17380323,-0.46605544,0.23185871,0.87937179
3.12000000,0.27699462,0.77779178,-0.22952611,-0.47564216,0.84737705,0.40013673,0.04636289,-0.82297434,-0.80839113,0.42860901,-0.17658864,-0.46523853,0.23238050,0.88024543
3.14000000,0.27701552,0.77780373,-0.22952014,-0.47563321,0.84737407,0.40015166,0.04636886,-0.82156396,-0.80973905,0.42721655,-0.17937405,-0.46442162,0.23290230,0.88111908
3.16000000,0.27703642,0.77781567,-0.22951416,-0.47562425,0.84737108,0.40016659,0.04637484,-0.82015359,-0.81108696,0.42582410,-0.18215946,-0.46360471,0.23342410,0.88199272
3.18000000,0.27704197,0.77782039,-0.22951271,-0.47561890,0.84737352,0.40017519,0.04637810,-0.81882536,-0.81241402,0.42439559,-0.18490405,-0.46276700,0.23394594,0.88290154
3.20000000,0.27701211,0.77780845,-0.22952167,-0.47562189,0.84738844,0.40016922,0.04637511,-0.81768644,-0.81369300,0.42288400,-0.18755456,-0.46188134,0.23446788,0.88389144
3.22000000,0.27698226,0.77779650,-0.22953062,-0.47562487,0.84740337,0.40016325,0.04637213,-0.81654752,-0.81497199,0.42137241,-0.19020507,-0.46099568,0.23498982,0.88488134
3.24000000,0.27695241,0.77778456,-0.22953958,-0.47562786,0.84741830,0.40015728,0.04636914,-0.81540861,-0.81625097,0.41986081,-0.19285558,-0.46011002,0.23551177,0.88587124
3.26000000,0.27691670,0.77777854,-0.22954685,-0.47563254,0.84742562,0.40014962,0.04636785,-0.81428899,-0.81745327,0.41837357,-0.19544632,-0.45925642,0.23607416,0.88679451
3.28000000,0.27686619,0.77778749,-0.22954983,-0.47564149,0.84741368,0.40013768,0.04637083,-0.81321827,-0.81846128,0.41694802,-0.19788560,-0.45848405,0.23673903,0.88754896
3.30000000,0.27681568,0.77779645,-0.22955282,-0.47565045,0.84740173,0.40012573,0.04637382,-0.81214755,-0.81946929,0.41552247,-0.20032489,-0.45771168,0.23740391,0.88830342
3.32000000,0.27676517,0.77780541,-0.22955580,-0.47565941,0.84738979,0.40011379,0.04637680,-0.81107683,-0.82047730,0.41409692,-0.20276417,-0.45693931,0.23806878,0.88905787
3.34000000,0.27672092,0.77781200,-0.22955721,-0.47566443,0.84738100,0.40010500,0.04637900,-0.80997543,-0.82161121,0.41266523,-0.20528053,-0.45617529,0.23873797,0.88986846
3.36000000,0.27669411,0.77781200,-0.22955423,-0.47565847,0.84738100,0.40010500,0.04637900,-0.80878854,-0.82309575,0.41121644,-0.20801153,-0.45543451,0.23941917,0.89083540
3.38000000,0.27666729,0.77781200,-0.22955125,-0.47565251,0.84738100,0.40010500,0.04637900,-0.80760166,-0.82458028,0.40976766,-0.21074252,-0.45469373,0.24010037,0.89180233
3.40000000,0.27664048,0.77781200,-0.22954828,-0.47564655,0.84738100,0.40010500,0.04637900,-0.80641478,-0.82606482,0.40831887,-0.21347352,-0.45395295,0.24078157,0.89276926
3.42000000,0.27663053,0.77781200,-0.22954460,-0.47564200,0.84738100,0.40010711,0.04637900,-0.80522825,-0.82750817,0.40685375,-0.21618607,-0.45319769,0.24145837,0.89372111
3.44000000,0.27667515,0.77781200,-0.22953865,-0.47564200,0.84738100,0.40011603,0.04637900,-0.80404289,-0.82881822,0.40533573,-0.21883888,-0.45239555,0.24212095,0.89462414
3.46000000,0.27671977,0.77781200,-0.22953270,-0.47564200,0.84738100,0.40012495,0.04637900,-0.80285752,-0.83012827,0.40381771,-0.22149170,-0.45159341,0.24278354,0.89552717
3.48000000,0.27676439,0.77781200,-0.22952675,-0.47564200,0.84738100,0.40013388,0.04637900,-0.80167216,-0.83143832,0.40229968,-0.22414452,-0.45079127,0.24344612,0.89643020
3.50000000,0.27679819,0.77781200,-0.22952260,-0.47564260,0.84738341,0.40014040,0.04637840,-0.80052553,-0.83276635,0.40082253,-0.22671951,-0.44997162,0.24411947,0.89733580
3.52000000,0.27678923,0.77781200,-0.22952559,-0.47564559,0.84739536,0.40013741,0.04637541,-0.79953210,-0.83416551,0.39950700,-0.22898665,-0.44908274,0.24483535,0.89825157
3.54000000,0.27678027,0.77781200,-0.22952858,-0.47564858,0.84740731,0.40013442,0.04637242,-0.79853867,-0.83556468,0.39819147,-0.23125378,-0.44819386,0.24555124,0.89916733
3.56000000,0.27677131,0.77781200,-0.22953156,-0.47565156,0.84741926,0.40013144,0.04636944,-0.79754524,-0.83696384,0.39687594,-0.23352092,-0.44730497,0.24626712,0.90008310
3.58000000,0.27675960,0.77781200,-0.22953510,-0.47565455,0.84742735,0.40012680,0.04636755,-0.79652784,-0.83834898,0.39553541,-0.23581018,-0.44643272,0.24698892,0.90098333
3.60000000,0.27673573,0.77781200,-0.22954107,-0.47565753,0.84741840,0.40011486,0.04637053,-0.79540441,-0.83967209,0.39408424,-0.23819729,-0.44563404,0.24773689,0.90181484
3.62000000,0.27671186,0.77781200,-0.22954704,-0.47566052,0.84740945,0.40010293,0.04637352,-0.79428097,-0.84099519,0.39263308,-0.24058440,-0.44483535,0.24848485,0.90264635
3.64000000,0.27668798,0.77781200,-0.22955300,-0.47566350,0.84740049,0.40009099,0.04637650,-0.79315754,-0.84231830,0.39118191,-0.24297151,-0.44403666,0.24923281,0.90347786
3.66000000,0.27666557,0.77781103,-0.22955703,-0.47566503,0.84739251,0.40008197,0.04637851,-0.79199228,-0.84366920,0.38969999,-0.24538016,-0.44320590,0.24996095,0.90432934
3.68000000,0.27665064,0.77780506,-0.22955106,-0.47565906,0.84738953,0.40008794,0.04637553,-0.79061190,-0.84516303,0.38805986,-0.24789957,-0.44221018,0.25058720,0.90528351
3.70000000,0.27663571,0.77779909,-0.22954509,-0.47565309,0.84738654,0.40009391,0.04637254,-0.78923153,-0.84665685,0.38641973,-0.25041897,-0.44121446,0.25121344,0.90623768
3.72000000,0.27662078,0.77779311,-0.22953911,-0.47564711,0.84738356,0.40009989,0.04636956,-0.78785115,-0.84815068,0.38477961,-0.25293838,-0.44021874,0.25183968,0.90719185
3.74000000,0.27661314,0.77778843,-0.22953400,-0.47564200,0.84738100,0.40010629,0.04636700,-0.78647504,-0.84966247,0.38316478,-0.25546252,-0.43924224,0.25246207,0.90813830
3.76000000,0.27664897,0.77779141,-0.22953400,-0.47564200,0.84738100,0.40011524,0.04636700,-0.78512434,-0.85128137,0.38170088,-0.25801489,-0.43838042,0.25306141,0.90903868
3.78000000,0.27668480,0.77779440,-0.22953400,-0.47564200,0.84738100,0.40012420,0.04636700,-0.78377364,-0.85290027,0.38023698,-0.26056726,-0.43751860,0.25366075,0.90993906
3.80000000,0.27672062,0.77779739,-0.22953400,-0.47564200,0.84738100,0.40013316,0.04636700,-0.78242294,-0.85451917,0.37877308,-0.26311963,-0.43665678,0.25426010,0.91083944
3.82000000,0.27675385,0.77780074,-0.22953326,-0.47564200,0.84738063,0.40014137,0.04636737,-0.78109523,-0.85610621,0.37731330,-0.26564673,-0.43580611,0.25485646,0.91175389
3.84000000,0.27676878,0.77780671,-0.22952729,-0.47564200,0.84737764,0.40014436,0.04637036,-0.77992962,-0.85746858,0.37588252,-0.26799562,-0.43503400,0.25543180,0.91276752
3.86000000,0.27678370,0.77781268,-0.22952132,-0.47564200,0.84737466,0.40014734,0.04637334,-0.77876400,-0.85883095,0.37445175,-0.27034451,-0.43426190,0.25600715,0.91378116
3.88000000,0.27679863,0.77781865,-0.22951535,-0.47564200,0.84737167,0.40015033,0.04637633,-0.77759839,-0.86019332,0.37302097,-0.27269340,-0.43348980,0.25658249,0.91479479
3.90000000,0.27680672,0.77782369,-0.22951062,-0.47564293,0.84736931,0.40015207,0.04637900,-0.77642652,-0.86154673,0.37158608,-0.27504364,-0.43271242,0.25717985,0.91579603
3.92000000,0.27675596,0.77782070,-0.22951659,-0.47565189,0.84737230,0.40014311,0.04637900,-0.77520078,-0.86282298,0.37011575,-0.27740554,-0.43188954,0.25796690,0.91669058
3.94000000,0.27670520,0.77781772,-0.22952256,-0.47566085,0.84737528,0.40013415,0.04637900,-0.77397505,-0.86409923,0.36864541,-0.27976744,-0.43106666,0.25875396,0.91758512
3.96000000,0.27665444,0.77781473,-0.22952854,-0.47566981,0.84737827,0.40012519,0.04637900,-0.77274931,-0.86537549,0.36717507,-0.28212933,-0.43024377,0.25954101,0.91847967
3.98000000,0.27660775,0.77781149,-0.22953400,-0.47567674,0.84738125,0.40011725,0.04637900,-0.77152802,-0.86664402,0.36570475,-0.28449606,-0.42942534,0.26032289,0.91937375
4.00000000,0.27660478,0.77780556,-0.22953400,-0.47566190,0.84738422,0.40012022,0.04637900,-0.77035450,-0.86782965,0.36423470,-0.28691457,-0.42865470,0.26104926,0.92026285
4.02000000,0.27660181,0.77779962,-0.22953400,-0.47564706,0.84738719,0.40012319,0.04637900,-0.76918098,-0.86901529,0.36276465,-0.28933308,-0.42788406,0.26177562,0.92115196
4.04000000,0.27659884,0.77779369,-0.22953400,-0.47563222,0.84739016,0.40012616,0.04637900,-0.76800746,-0.87020092,0.36129460,-0.29175158,-0.42711343,0.26250199,0.92204106
4.06000000,0.27659750,0.77778812,-0.22953400,-0.47561837,0.84739288,0.40012888,0.04637912,-0.76683066,-0.87139494,0.35982993,-0.29417789,-0.42634186,0.26322279,0.92293050
4.08000000,0.27663331,0.77779111,-0.22953400,-0.47562733,0.84738989,0.40012589,0.04638211,-0.76557861,-0.87278105,0.35848859,-0.29678298,-0.42554894,0.26381573,0.92382763
4.10000000,0.27666913,0.77779409,-0.22953400,-0.47563628,0.84738691,0.40012291,0.04638509,-0.76432656,-0.87416716,0.35714725,-0.29938806,-0.42475602,0.26440868,0.92472476
4.12000000,0.27670494,0.77779708,-0.22953400,-0.47564524,0.84738392,0.40011992,0.04638808,-0.76307451,-0.87555327,0.35580591,-0.30199314,-0.42396311,0.26500162,0.92562189
4.14000000,0.27674006,0.77780019,-0.22953400,-0.47565387,0.84738125,0.40011713,0.04639094,-0.76182715,-0.87693924,0.35446906,-0.30459163,-0.42316869,0.26559609,0.92651769
4.16000000,0.27674305,0.77780914,-0.22953400,-0.47564791,0.84739319,0.40012309,0.04638795,-0.76079647,-0.87831845,0.35333994,-0.30688567,-0.42230482,0.26626058,0.92735197
4.18000000,0.27674603,0.77781809,-0.22953400,-0.47564194,0.84740512,0.40012906,0.04638497,-0.75976580,-0.87969765,0.35221082,-0.30917971,-0.42144095,0.26692508,0.92818626
4.20000000,0.27674901,0.77782704,-0.22953400,-0.47563597,0.84741705,0.40013503,0.04638199,-0.75873512,-0.88107686,0.35108170,-0.31147375,-0.42057708,0.26758957,0.92902055
4.22000000,0.27675200,0.77783599,-0.22953400,-0.47563001,0.84742898,0.40014099,0.04637900,-0.75770444,-0.88245607,0.34995258,-0.31376779,-0.41971321,0.26825407,0.92985483
4.24000000,0.27671622,0.77783302,-0.22953698,-0.47564491,0.84742304,0.40013802,0.04638198,-0.75669352,-0.88372662,0.34845628,-0.31632564,-0.41899719,0.26892186,0.93079393
4.26000000,0.27668039,0.77783003,-0.22953997,-0.47565984,0.84741707,0.40013503,0.04638497,-0.75568262,-0.88499703,0.34695946,-0.31888386,-0.41828137,0.26958965,0.93173317
4.28000000,0.27664457,0.77782705,-0.22954295,-0.47567476,0.84741109,0.40013205,0.04638795,-0.75467172,-0.88626743,0.34546265,-0.32144208,-0.41756556,0.27025745,0.93267241
4.30000000,0.27660874,0.77782406,-0.22954594,-0.47568969,0.84740512,0.40012906,0.04639094,-0.75366082,-0.88753783,0.34396583,-0.32400030,-0.41684975,0.27092524,0.93361165
4.32000000,0.27662548,0.77782109,-0.22954309,-0.47567834,0.84740209,0.40012317,0.04638517,-0.75260990,-0.88875996,0.34247994,-0.32655589,-0.41620946,0.27152982,0.93440224
4.34000000,0.27664334,0.77781811,-0.22954011,-0.47566644,0.84739911,0.40011722,0.04637922,-0.75155813,-0.88998107,0.34099427,-0.32911143,-0.41557076,0.27213306,0.93518971
4.36000000,0.27666119,0.77781514,-0.22953714,-0.47565454,0.84739614,0.40011127,0.04637327,-0.75050636,-0.89120219,0.33950860,-0.33166697,-0.41493206,0.27273630,0.93597717
4.38000000,0.27667904,0.77781216,-0.22953416,-0.47564264,0.84739316,0.40010532,0.04636732,-0.74945459,-0.89242330,0.33802293,-0.33422251,-0.41429336,0.27333955,0.93676463
4.40000000,0.27669695,0.77781200,-0.22953965,-0.47563918,0.84739018,0.40011065,0.04636982,-0.74838221,-0.89385178,0.33656916,-0.33682567,-0.41358173,0.27381504,0.93754901
4.42000000,0.27671486,0.77781200,-0.22954562,-0.47563619,0.84738719,0.40011662,0.04637281,-0.74730867,-0.89529204,0.33511720,-0.33943153,-0.41286595,0.27428327,0.93833320
4.44000000,0.27673278,0.77781200,-0.22955159,-0.47563320,0.84738420,0.40012259,0.04637580,-0.74623513,-0.89673231,0.33366524,-0.34203739,-0.41215017,0.27475150,0.93911740
4.46000000,0.27675069,0.77781200,-0.22955756,-0.47563022,0.84738122,0.40012856,0.04637878,-0.74516158,-0.89817257,0.33221328,-0.34464325,-0.41143439,0.27521973,0.93990160
4.48000000,0.27677689,0.77781200,-0.22955247,-0.47562723,0.84738377,0.40013177,0.04637900,-0.74411075,-0.89948237,0.33085008,-0.34700809,-0.41068058,0.27574566,0.94075723
4.50000000,0.27680375,0.77781200,-0.22954650,-0.47562425,0.84738675,0.40013475,0.04637900,-0.74306170,-0.90078186,0.32949388,-0.34935389,-0.40992377,0.27627615,0.94161850
4.52000000,0.27683061,0.77781200,-0.22954053,-0.47562127,0.84738973,0.40013773,0.04637900,-0.74201266,-0.90208136,0.32813768,-0.35169969,-0.40916696,0.27680664,0.94247977
4.54000000,0.27685748,0.77781200,-0.22953456,-0.47561828,0.84739272,0.40014072,0.04637900,-0.74096361,-0.90338085,0.32678148,-0.35404549,-0.40841014,0.27733713,0.94334104
4.56000000,0.27685192,0.77781739,-0.22953400,-0.47561531,0.84739569,0.40014908,0.04637900,-0.74009287,-0.90437996,0.32551892,-0.35626996,-0.40767708,0.27790078,0.94415642
4.58000000,0.27684300,0.77782333,-0.22953400,-0.47561233,0.84739867,0.40015800,0.04637900,-0.73924062,-0.90534790,0.32426607,-0.35848183,-0.40694647,0.27846787,0.94496705
4.60000000,0.27683408,0.77782928,-0.22953400,-0.47560936,0.84740164,0.40016692,0.04637900,-0.73838838,-0.90631584,0.32301322,-0.36069370,-0.40621587,0.27903496,0.94577767
4.62000000,0.27682516,0.77783522,-0.22953400,-0.47560639,0.84740461,0.40017584,0.04637900,-0.73753613,-0.90728378,0.32176037,-0.36290557,-0.40548527,0.27960205,0.94658829
4.64000000,0.27679807,0.77783081,-0.22953400,-0.47561637,0.84739981,0.40016922,0.04637641,-0.73651857,-0.90828012,0.32052199,-0.36540323,-0.40473212,0.28025867,0.94729742
4.66000000,0.27676824,0.77782485,-0.22953400,-0.47562830,0.84739385,0.40016027,0.04637342,-0.73547622,-0.90928072,0.31928579,-0.36794374,-0.40397558,0.28092872,0.94799133
4.68000000,0.27673842,0.77781888,-0.22953400,-0.47564023,0.84738788,0.40015133,0.04637044,-0.73443387,-0.91028131,0.31804958,-0.37048425,-0.40321904,0.28159877,0.94868523
4.70000000,0.27670859,0.77781292,-0.22953400,-0.47565216,0.84738192,0.40014238,0.04636746,-0.73339152,-0.91128191,0.31681338,-0.37302476,-0.40246251,0.28226881,0.94937914
4.72000000,0.27672421,0.77780695,-0.22953147,-0.47565147,0.84738100,0.40014100,0.04636953,-0.73234268,-0.91241507,0.31560119,-0.37558111,-0.40143515,0.28280363,0.95028336
4.74000000,0.27674811,0.77780097,-0.22952849,-0.47564849,0.84738100,0.40014100,0.04637251,-0.73129265,-0.91357236,0.31439337,-0.37814034,-0.40035849,0.28331384,0.95122587
4.76000000,0.27677200,0.77779500,-0.22952550,-0.47564550,0.84738100,0.40014100,0.04637550,-0.73024263,-0.91472965,0.31318556,-0.38069958,-0.39928184,0.28382404,0.95216838
4.78000000,0.27679589,0.77778903,-0.22952251,-0.47564251,0.84738100,0.40014100,0.04637849,-0.72919260,-0.91588695,0.31197774,-0.38325881,-0.39820518,0.28433424,0.95311089
4.80000000,0.27677526,0.77780037,-0.22952942,-0.47564695,0.84738100,0.40014595,0.04637653,-0.72818181,-0.91697330,0.31090002,-0.38538680,-0.39742943,0.28480492,0.95393039
4.82000000,0.27674537,0.77781531,-0.22953839,-0.47565293,0.84738100,0.40015193,0.04637354,-0.72717917,-0.91804493,0.30984931,-0.38742520,-0.39671617,0.28526739,0.95472433
4.84000000,0.27671549,0.77783026,-0.22954735,-0.47565890,0.84738100,0.40015790,0.04637055,-0.72617653,-0.91911655,0.30879861,-0.38946360,-0.39600292,0.28572986,0.95551827
4.86000000,0.27668560,0.77784520,-0.22955632,-0.47566488,0.84738100,0.40016388,0.04636756,-0.72517389,-0.92018818,0.30774790,-0.39150200,-0.39528966,0.28619233,0.95631222
4.88000000,0.27666059,0.77784072,-0.22955800,-0.47566115,0.84738100,0.40015530,0.04636457,-0.72410645,-0.92129989,0.30664011,-0.39350969,-0.39466660,0.28674657,0.95706664
4.90000000,0.27663671,0.77783177,-0.22955800,-0.47565518,0.84738100,0.40014336,0.04636159,-0.72302406,-0.92242084,0.30551916,-0.39551028,-0.39406433,0.28732197,0.95781195
4.92000000,0.27661283,0.77782281,-0.22955800,-0.47564921,0.84738100,0.40013142,0.04635860,-0.72194166,-0.92354179,0.30439821,-0.39751088,-0.39346206,0.28789737,0.95855726
4.94000000,0.27658895,0.77781386,-0.22955800,-0.47564324,0.84738100,0.40011947,0.04635562,-0.72085927,-0.92466274,0.30327726,-0.39951148,-0.39285979,0.28847278,0.95930257
4.96000000,0.27661688,0.77782374,-0.22955800,-0.47563730,0.84737865,0.40012170,0.04635265,-0.71994073,-0.92572060,0.30218651,-0.40131219,-0.39225173,0.28909406,0.95999409
4.98000000,0.27665836,0.77783856,-0.22955800,-0.47563138,0.84737569,0.40012762,0.04634969,-0.71906502,-0.92676198,0.30110366,-0.40306066,-0.39164216,0.28972733,0.96067156
5.00000000,0.27669984,0.77785337,-0.22955800,-0.47562545,0.84737273,0.40013355,0.04634673,-0.71818930,-0.92780336,0.30002080,-0.40480913,-0.39103259,0.29036060,0.96134902
5.02000000,0.27674132,0.77786818,-0.22955800,-0.47561953,0.84736976,0.40013947,0.04634376,-0.71731358,-0.92884474,0.29893794,-0.40655759,-0.39042303,0.29099387,0.96202649
5.04000000,0.27674759,0.77786539,-0.22955800,-0.47562241,0.84737781,0.40013880,0.04634741,-0.71631571,-0.93001970,0.29771503,-0.40851972,-0.38979741,0.29157510,0.96275773
5.06000000,0.27674166,0.77785649,-0.22955800,-0.47562834,0.84738969,0.40013583,0.04635334,-0.71527544,-0.93124101,0.29644351,-0.41055598,-0.38916623,0.29213826,0.96350763
5.08000000,0.27673572,0.77784758,-0.22955800,-0.47563428,0.84740156,0.40013286,0.04635928,-0.71423518,-0.93246232,0.29517199,-0.41259224,-0.38853504,0.29270143,0.96425753
5.10000000,0.27672979,0.77783868,-0.22955800,-0.47564021,0.84741343,0.40012989,0.04636521,-0.71319491,-0.93368363,0.29390047,-0.41462849,-0.38790386,0.29326460,0.96500743
5.12000000,0.27673631,0.77783808,-0.22955384,-0.47563784,0.84741077,0.40013108,0.04636700,-0.71226132,-0.93485196,0.29281021,-0.41654245,-0.38731967,0.29372668,0.96571046
5.14000000,0.27674820,0.77784105,-0.22954790,-0.47563190,0.84740185,0.40013405,0.04636700,-0.71137362,-0.93599750,0.29179793,-0.41840380,-0.38675569,0.29414526,0.96639332
5.16000000,0.27676009,0.77784402,-0.22954195,-0.47562595,0.84739293,0.40013702,0.04636700,-0.71048592,-0.93714304,0.29078564,-0.42026515,-0.38619171,0.29456385,0.96707619
5.18000000,0.27677198,0.77784699,-0.22953601,-0.47562001,0.84738402,0.40013999,0.04636700,-0.70959822,-0.93828858,0.28977335,-0.42212649,-0.38562774,0.29498243,0.96775905
5.20000000,0.27677994,0.77784997,-0.22953203,-0.47561800,0.84738100,0.40014691,0.04636700,-0.70874683,-0.93940263,0.28876943,-0.42381119,-0.38508642,0.29539950,0.96836013
5.22000000,0.27678590,0.77785295,-0.22952905,-0.47561800,0.84738100,0.40015585,0.04636700,-0.70791399,-0.94050058,0.28776978,-0.42540562,-0.38455668,0.29581580,0.96891941
5.24000000,0.27679186,0.77785593,-0.22952607,-0.47561800,0.84738100,0.40016479,0.04636700,-0.70708115,-0.94159854,0.28677013,-0.42700005,-0.38402694,0.29623209,0.96947869
5.26000000,0.27679782,0.77785891,-0.22952309,-0.47561800,0.84738100,0.40017372,0.04636700,-0.70624832,-0.94269649,0.28577047,-0.42859448,-0.38349720,0.29664839,0.97003797
5.28000000,0.27680189,0.77785622,-0.22952389,-0.47561989,0.84738100,0.40017133,0.04636511,-0.70540477,-0.94361817,0.28472617,-0.43015147,-0.38296314,0.29710131,0.97063769
5.30000000,0.27680488,0.77785025,-0.22952688,-0.47562288,0.84738100,0.40016237,0.04636212,-0.70455502,-0.94443782,0.28365602,-0.43168680,-0.38242657,0.29757544,0.97126083
5.32000000,0.27680786,0.77784428,-0.22952986,-0.47562586,0.84738100,0.40015342,0.04635914,-0.70370527,-0.94525747,0.28258587,-0.43322212,-0.38189000,0.29804957,0.97188396
5.34000000,0.27681085,0.77783831,-0.22953285,-0.47562885,0.84738100,0.40014446,0.04635615,-0.70285551,-0.94607712,0.28151572,-0.43475744,-0.38135344,0.29852370,0.97250710
5.36000000,0.27682665,0.77783600,-0.22953400,-0.47562634,0.84737551,0.40014466,0.04635683,-0.70204050,-0.94686035,0.28051311,-0.43644287,-0.38078937,0.29899221,0.97310448
5.38000000,0.27685053,0.77783600,-0.22953400,-0.47562037,0.84736655,0.40015063,0.04635982,-0.70124739,-0.94762063,0.27955306,-0.43822290,-0.38020797,0.29945719,0.97368563
5.40000000,0.27687442,0.77783600,-0.22953400,-0.47561440,0.84735759,0.40015660,0.04636280,-0.70045428,-0.94838090,0.27859302,-0.44000292,-0.37962657,0.29992216,0.97426678
5.42000000,0.27689830,0.77783600,-0.22953400,-0.47560843,0.84734864,0.40016257,0.04636579,-0.69966116,-0.94914118,0.27763297,-0.44178295,-0.37904517,0.30038713,0.97484794
5.44000000,0.27689914,0.77783954,-0.22953223,-0.47560954,0.84734854,0.40015968,0.04636700,-0.69893026,-0.94982345,0.27679173,-0.44349345,-0.37849934,0.30082201,0.97540267
5.46000000,0.27688422,0.77784551,-0.22952924,-0.47561551,0.84735451,0.40015073,0.04636700,-0.69824191,-0.95045237,0.27603176,-0.44515639,-0.37797786,0.30123632,0.97593932
5.48000000,0.27686930,0.77785148,-0.22952626,-0.47562148,0.84736048,0.40014178,0.04636700,-0.69755355,-0.95108128,0.27527178,-0.44681932,-0.37745637,0.30165062,0.97647598
5.50000000,0.27685438,0.77785745,-0.22952328,-0.47562745,0.84736645,0.40013283,0.04636700,-0.69686520,-0.95171020,0.27451181,-0.44848226,-0.37693488,0.30206493,0.97701263
5.52000000,0.27683793,0.77786000,-0.22952368,-0.47563000,0.84736900,0.40013068,0.04636700,-0.69608495,-0.95236280,0.27372263,-0.45020370,-0.37643380,0.30247670,0.97753699
5.54000000,0.27682034,0.77786000,-0.22952661,-0.47563000,0.84736900,0.40013361,0.04636700,-0.69523611,-0.95303309,0.27291165,-0.45196881,-0.37594794,0.30288659,0.97805216
5.56000000,0.27680275,0.77786000,-0.22952954,-0.47563000,0.84736900,0.40013654,0.04636700,-0.69438726,-0.95370337,0.27210067,-0.45373392,-0.37546209,0.30329648,0.97856732
5.58000000,0.27678517,0.77786000,-0.22953247,-0.47563000,0.84736900,0.40013947,0.04636700,-0.69353842,-0.95437365,0.27128968,-0.45549903,-0.37497623,0.30370637,0.97908249
5.60000000,0.27677600,0.77785717,-0.22953400,-0.47562858,0.84737042,0.40014242,0.04636983,-0.69276800,-0.95511174,0.27046847,-0.45714836,-0.37448829,0.30408111,0.97965069
5.62000000,0.27677600,0.77785126,-0.22953400,-0.47562563,0.84737337,0.40014537,0.04637574,-0.69208296,-0.95592364,0.26963612,-0.45867166,-0.37399810,0.30441760,0.98027662
5.64000000,0.27677600,0.77784535,-0.22953400,-0.47562267,0.84737633,0.40014833,0.04638165,-0.69139792,-0.95673554,0.26880378,-0.46019496,-0.37350790,0.30475408,0.98090254
5.66000000,0.27677600,0.77783943,-0.22953400,-0.47561972,0.84737928,0.40015128,0.04638757,-0.69071287,-0.95754745,0.26797143,-0.46171827,-0.37301771,0.30509057,0.98152846
5.68000000,0.27677600,0.77783849,-0.22953649,-0.47561800,0.84738100,0.40015176,0.04638727,-0.69007896,-0.95843646,0.26717244,-0.46310619,-0.37252557,0.30542014,0.98210192
5.70000000,0.27677600,0.77784442,-0.22954242,-0.47561800,0.84738100,0.40014879,0.04637837,-0.68951587,-0.95943230,0.26641969,-0.46430655,-0.37203074,0.30574014,0.98260269
5.72000000,0.27677600,0.77785036,-0.22954836,-0.47561800,0.84738100,0.40014582,0.04636946,-0.68895279,-0.96042815,0.26566693,-0.46550690,-0.37153590,0.30606013,0.98310345
5.74000000,0.27677600,0.77785629,-0.22955429,-0.47561800,0.84738100,0.40014285,0.04636056,-0.68838970,-0.96142399,0.26491417,-0.46670726,-0.37104107,0.30638013,0.98360422
5.76000000,0.27677823,0.77785888,-0.22955577,-0.47561800,0.84738100,0.40013988,0.04635500,-0.68778833,-0.96239493,0.26408726,-0.46783262,-0.37055916,0.30671823,0.98411207
5.78000000,0.27678418,0.77785591,-0.22954982,-0.47561800,0.84738100,0.40013691,0.04635500,-0.68712325,-0.96332440,0.26313697,-0.46883322,-0.37009876,0.30708645,0.98463169
5.80000000,0.27679013,0.77785294,-0.22954387,-0.47561800,0.84738100,0.40013394,0.04635500,-0.68645817,-0.96425388,0.26218668,-0.46983381,-0.36963836,0.30745468,0.98515132
5.82000000,0.27679607,0.77784996,-0.22953793,-0.47561800,0.84738100,0.40013096,0.04635500,-0.68579309,-0.96518336,0.26123638,-0.47083441,-0.36917796,0.30782290,0.98567094
5.84000000,0.27680203,0.77784699,-0.22953400,-0.47561699,0.84738100,0.40013103,0.04635804,-0.68516564,-0.96605627,0.26034264,-0.47183328,-0.36876262,0.30819867,0.98615682
5.86000000,0.27680800,0.77784400,-0.22953400,-0.47561400,0.84738100,0.40013700,0.04636700,-0.68461130,-0.96681926,0.25955875,-0.47282880,-0.36843484,0.30858913,0.98657711
5.88000000,0.27681397,0.77784102,-0.22953400,-0.47561102,0.84738100,0.40014297,0.04637595,-0.68405696,-0.96758225,0.25877487,-0.47382433,-0.36810706,0.30897958,0.98699740
5.90000000,0.27681993,0.77783803,-0.22953400,-0.47560803,0.84738100,0.40014893,0.04638490,-0.68350262,-0.96834525,0.25799098,-0.47481985,-0.36777928,0.30937003,0.98741770
5.92000000,0.27682495,0.77783600,-0.22953590,-0.47560695,0.84738100,0.40015205,0.04638815,-0.68297519,-0.96906306,0.25721243,-0.47584493,-0.36742612,0.30974318,0.98783578
5.94000000,0.27682793,0.77783600,-0.22954185,-0.47560993,0.84738100,0.40014907,0.04637922,-0.68250526,-0.96968434,0.25644526,-0.47693316,-0.36701872,0.31007937,0.98824914
5.96000000,0.27683090,0.77783600,-0.22954781,-0.47561290,0.84738100,0.40014610,0.04637029,-0.68203533,-0.97030562,0.25567809,-0.47802139,-0.36661131,0.31041557,0.98866250
5.98000000,0.27683388,0.77783600,-0.22955376,-0.47561588,0.84738100,0.40014312,0.04636136,-0.68156540,-0.97092690,0.25491092,-0.47910962,-0.36620391,0.31075176,0.98907585
6.00000000,0.27683772,0.77783772,-0.22955800,-0.47561800,0.84738100,0.40014272,0.04635672,-0.68110206,-0.97153152,0.25418275,-0.48023487,-0.36581426,0.31108126,0.98947662
6.02000000,0.27684369,0.77784369,-0.22955800,-0.47561800,0.84738100,0.40014869,0.04636269,-0.68065498,-0.97209504,0.25355081,-0.48145147,-0.36546844,0.31139425,0.98984633
6.04000000,0.27684966,0.77784966,-0.22955800,-0.47561800,0.84738100,0.40015466,0.04636866,-0.68020790,-0.97265855,0.25291888,-0.48266807,-0.36512262,0.31170723,0.99021604
6.06000000,0.27685564,0.77785564,-0.22955800,-0.47561800,0.84738100,0.40016064,0.04637464,-0.67976082,-0.97322207,0.25228694,-0.48388467,-0.36477680,0.31202021,0.99058574
6.08000000,0.27685681,0.77785840,-0.22955640,-0.47561800,0.84738100,0.40016420,0.04637820,-0.67930008,-0.97379897,0.25167040,-0.48509989,-0.36440610,0.31231676,0.99095481
6.10000000,0.27684494,0.77785247,-0.22955047,-0.47561800,0.84738100,0.40016124,0.04637524,-0.67880223,-0.97441226,0.25109567,-0.48631139,-0.36396783,0.31256865,0.99132214
6.12000000,0.27683308,0.77784654,-0.22954454,-0.47561800,0.84738100,0.40015827,0.04637227,-0.67830438,-0.97502555,0.25052094,-0.48752289,-0.36352955,0.31282054,0.99168947
6.14000000,0.27682121,0.77784061,-0.22953861,-0.47561800,0.84738100,0.40015530,0.04636930,-0.67780653,-0.97563884,0.24994622,-0.48873439,-0.36309128,0.31307243,0.99205680
6.16000000,0.27681000,0.77783600,-0.22953533,-0.47561800,0.84738100,0.40015233,0.04636633,-0.67732733,-0.97621634,0.24938064,-0.48988964,-0.36264098,0.31330132,0.99241798
6.18000000,0.27680104,0.77783600,-0.22954131,-0.47561800,0.84738100,0.40014935,0.04636335,-0.67691291,-0.97666958,0.24884680,-0.49084960,-0.36214894,0.31345032,0.99275778
6.20000000,0.27679209,0.77783600,-0.22954728,-0.47561800,0.84738100,0.40014636,0.04636036,-0.67649848,-0.97712281,0.24831297,-0.49180955,-0.36165690,0.31359933,0.99309758
6.22000000,0.27678313,0.77783600,-0.22955325,-0.47561800,0.84738100,0.40014338,0.04635738,-0.67608405,-0.97757604,0.24777914,-0.49276950,-0.36116486,0.31374833,0.99343738
6.24000000,0.27677722,0.77783600,-0.22955800,-0.47561800,0.84738100,0.40014039,0.04635500,-0.67566662,-0.97803167,0.24726844,-0.49372461,-0.36071718,0.31391193,0.99376083
6.26000000,0.27678319,0.77783600,-0.22955800,-0.47561800,0.84738100,0.40013741,0.04635500,-0.67523745,-0.97849667,0.24684823,-0.49466082,-0.36044301,0.31413261,0.99402032
6.28000000,0.27678916,0.77783600,-0.22955800,-0.47561800,0.84738100,0.40013442,0.04635500,-0.67480828,-0.97896166,0.24642802,-0.49559703,-0.36016884,0.31435329,0.99427982
6.30000000,0.27679513,0.77783600,-0.22955800,-0.47561800,0.84738100,0.40013144,0.04635500,-0.67437912,-0.97942666,0.24600781,-0.49653324,-0.35989467,0.31457397,0.99453931
6.32000000,0.27680110,0.77783710,-0.22955690,-0.47561800,0.84738045,0.40012955,0.04635500,-0.67395431,-0.97988454,0.24560291,-0.49741949,-0.35961991,0.31478255,0.99480370
6.34000000,0.27680707,0.77784307,-0.22955093,-0.47561800,0.84737746,0.40013254,0.04635500,-0.67354882,-0.98031093,0.24526583,-0.49808444,-0.35934253,0.31493753,0.99508978
6.36000000,0.27681304,0.77784904,-0.22954496,-0.47561800,0.84737448,0.40013552,0.04635500,-0.67314332,-0.98073732,0.24492875,-0.49874940,-0.35906515,0.31509251,0.99537586
6.38000000,0.27681901,0.77785501,-0.22953899,-0.47561800,0.84737149,0.40013851,0.04635500,-0.67273783,-0.98116371,0.24459167,-0.49941436,-0.35878778,0.31524750,0.99566195
6.40000000,0.27682302,0.77785951,-0.22953400,-0.47561800,0.84736949,0.40014149,0.04635598,-0.67234163,-0.98158081,0.24427374,-0.50005876,-0.35852068,0.31540839,0.99594761
6.42000000,0.27681704,0.77785652,-0.22953400,-0.47561800,0.84737248,0.40014448,0.04636196,-0.67199265,-0.98195070,0.24405320,-0.50059866,-0.35830587,0.31559931,0.99623113
6.44000000,0.27681107,0.77785353,-0.22953400,-0.47561800,0.84737547,0.40014747,0.04636793,-0.67164366,-0.98232059,0.24383266,-0.50113856,-0.35809105,0.31579023,0.99651464
6.46000000,0.27680510,0.77785055,-0.22953400,-0.47561800,0.84737845,0.40015045,0.04637390,-0.67129468,-0.98269048,0.24361212,-0.50167846,-0.35787624,0.31598115,0.99679816
6.48000000,0.27680000,0.77784757,-0.22953443,-0.47561800,0.84738100,0.40015257,0.04637900,-0.67095064,-0.98304215,0.24338572,-0.50220704,-0.35766792,0.31616908,0.99707909
6.50000000,0.27680000,0.77784468,-0.22953732,-0.47561800,0.84738100,0.40014968,0.04637900,-0.67063524,-0.98328804,0.24312535,-0.50266987,-0.35749731,0.31633969,0.99734502
6.52000000,0.27680000,0.77784178,-0.22954022,-0.47561800,0.84738100,0.40014678,0.04637900,-0.67031985,-0.98353394,0.24286497,-0.50313271,-0.35732670,0.31651030,0.99761094
6.54000000,0.27680000,0.77783889,-0.22954311,-0.47561800,0.84738100,0.40014389,0.04637900,-0.67000445,-0.98377984,0.24260460,-0.50359555,-0.35715610,0.31668090,0.99787687
6.56000000,0.27680001,0.77783600,-0.22954601,-0.47561799,0.84738099,0.40014100,0.04637899,-0.66968903,-0.98402560,0.24234418,-0.50405848,-0.35698546,0.31685137,0.99814248
6.58000000,0.27680299,0.77783600,-0.22954899,-0.47561501,0.84737801,0.40014100,0.04637601,-0.66936716,-0.98422534,0.24206981,-0.50455024,-0.35680662,0.31697350,0.99830342
6.60000000,0.27680598,0.77783600,-0.22955198,-0.47561202,0.84737502,0.40014100,0.04637302,-0.66904529,-0.98442508,0.24179545,-0.50504201,-0.35662777,0.31709563,0.99846436
6.62000000,0.27680896,0.77783600,-0.22955496,-0.47560904,0.84737204,0.40014100,0.04637004,-0.66872341,-0.98462482,0.24152108,-0.50553378,-0.35644892,0.31721777,0.99862529
6.64000000,0.27681195,0.77783600,-0.22955795,-0.47560605,0.84736905,0.40014100,0.04636705,-0.66840154,-0.98482456,0.24124672,-0.50602554,-0.35627008,0.31733990,0.99878623
6.66000000,0.27681200,0.77783893,-0.22955213,-0.47560893,0.84737487,0.40013807,0.04636700,-0.66807666,-0.98501261,0.24098722,-0.50649393,-0.35603838,0.31746817,0.99894133
6.68000000,0.27681200,0.77784192,-0.22954616,-0.47561192,0.84738084,0.40013508,0.04636700,-0.66775174,-0.98520045,0.24072797,-0.50696191,-0.35580576,0.31759655,0.99909633
6.70000000,0.27681200,0.77784491,-0.22954019,-0.47561491,0.84738681,0.40013209,0.04636700,-0.66742682,-0.98538829,0.24046873,-0.50742989,-0.35557314,0.31772492,0.99925133
6.72000000,0.27681200,0.77784789,-0.22953422,-0.47561789,0.84739278,0.40012911,0.04636700,-0.66710189,-0.98557613,0.24020949,-0.50789787,-0.35534051,0.31785330,0.99940633
6.74000000,0.27681200,0.77785086,-0.22953400,-0.47561800,0.84739014,0.40013186,0.04636986,-0.66688166,-0.98571134,0.23996880,-0.50831453,-0.35518652,0.31794348,0.99957200
6.76000000,0.27681200,0.77785382,-0.22953400,-0.47561800,0.84738718,0.40013482,0.04637282,-0.66666541,-0.98584455,0.23972883,-0.50872924,-0.35503552,0.31803220,0.99973808
6.78000000,0.27681200,0.77785679,-0.22953400,-0.47561800,0.84738421,0.40013779,0.04637579,-0.66644916,-0.98597776,0.23948885,-0.50914395,-0.35488451,0.31812093,0.99990417
6.80000000,0.27681200,0.77785975,-0.22953400,-0.47561800,0.84738125,0.40014075,0.04637875,-0.66623291,-0.98611097,0.23924887,-0.50955866,-0.35473350,0.31820965,1.00007025
6.82000000,0.27681200,0.77785452,-0.22953948,-0.47561800,0.84737826,0.40014374,0.04637626,-0.66603455,-0.98626960,0.23903487,-0.50997853,-0.35459804,0.31829091,1.00024802
6.84000000,0.27681200,0.77784856,-0.22954544,-0.47561800,0.84737528,0.40014672,0.04637328,-0.66583782,-0.98643052,0.23882321,-0.51039887,-0.35446398,0.31837150,1.00042685
6.86000000,0.27681200,0.77784259,-0.22955141,-0.47561800,0.84737229,0.40014971,0.04637029,-0.66564108,-0.98659144,0.23861155,-0.51081920,-0.35432992,0.31845208,1.00060568
6.88000000,0.27681200,0.77783662,-0.22955738,-0.47561800,0.84736931,0.40015269,0.04636731,-0.66544434,-0.98675236,0.23839989,-0.51123954,-0.35419586,0.31853267,1.00078451
6.90000000,0.27681200,0.77783868,-0.22955265,-0.47561800,0.84736900,0.40015300,0.04636700,-0.66532791,-0.98692395,0.23822840,-0.51158219,-0.35410441,0.31861569,1.00093654
6.92000000,0.27681200,0.77784166,-0.22954668,-0.47561800,0.84736900,0.40015300,0.04636700,-0.66522074,-0.98709676,0.23806155,-0.51191589,-0.35401788,0.31869899,1.00108549
6.94000000,0.27681200,0.77784464,-0.22954071,-0.47561800,0.84736900,0.40015300,0.04636700,-0.66511357,-0.98726958,0.23789471,-0.51224959,-0.35393135,0.31878229,1.00123444
6.96000000,0.27681200,0.77784763,-0.22953475,-0.47561800,0.84736900,0.40015300,0.04636700,-0.66500640,-0.98744240,0.23772786,-0.51258329,-0.35384482,0.31886559,1.00138338
6.98000000,0.27680938,0.77784015,-0.22953923,-0.47562062,0.84736900,0.40015823,0.04636700,-0.66491190,-0.98761813,0.23756595,-0.51285762,-0.35377143,0.31894663,1.00151166
7.00000000,0.27680639,0.77783118,-0.22954521,-0.47562361,0.84736900,0.40016421,0.04636700,-0.66481922,-0.98779428,0.23740475,-0.51312346,-0.35369992,0.31902736,1.00163698
7.02000000,0.27680340,0.77782221,-0.22955119,-0.47562660,0.84736900,0.40017019,0.04636700,-0.66472653,-0.98797043,0.23724354,-0.51338931,-0.35362842,0.31910809,1.00176231
7.04000000,0.27680041,0.77781324,-0.22955717,-0.47562959,0.84736900,0.40017617,0.04636700,-0.66463385,-0.98814659,0.23708234,-0.51365515,-0.35355691,0.31918881,1.00188763
7.06000000,0.27680255,0.77781966,-0.22955800,-0.47562745,0.84736900,0.40016934,0.04636700,-0.66456756,-0.98830109,0.23694524,-0.51387574,-0.35349590,0.31923832,1.00196376
7.08000000,0.27680552,0.77782856,-0.22955800,-0.47562448,0.84736900,0.40016044,0.04636700,-0.66450552,-0.98845211,0.23681202,-0.51408905,-0.35343658,0.31928281,1.00203198
7.10000000,0.27680849,0.77783746,-0.22955800,-0.47562151,0.84736900,0.40015154,0.04636700,-0.66444348,-0.98860313,0.23667879,-0.51430236,-0.35337726,0.31932731,1.00210020
7.12000000,0.27681145,0.77784636,-0.22955800,-0.47561855,0.84736900,0.40014264,0.04636700,-0.66438144,-0.98875415,0.23654557,-0.51451567,-0.35331794,0.31937180,1.00216842
7.14000000,0.27681200,0.77784557,-0.22955314,-0.47561557,0.84736900,0.40014828,0.04636214,-0.66434329,-0.98889368,0.23640204,-0.51472231,-0.35328272,0.31942350,1.00223441
7.16000000,0.27681200,0.77784260,-0.22954719,-0.47561260,0.84736900,0.40015721,0.04635619,-0.66431055,-0.98903060,0.23625619,-0.51492745,-0.35325296,0.31947683,1.00229990
7.18000000,0.27681200,0.77783962,-0.22954124,-0.47560962,0.84736900,0.40016614,0.04635024,-0.66427781,-0.98916753,0.23611033,-0.51513259,-0.35322319,0.31953016,1.00236538
7.20000000,0.27681200,0.77783664,-0.22953528,-0.47560664,0.84736900,0.40017507,0.04634428,-0.66424507,-0.98930445,0.23596448,-0.51533773,-0.35319342,0.31958349,1.00243087
7.22000000,0.27680966,0.77783834,-0.22953868,-0.47560834,0.84736900,0.40017232,0.04635236,-0.66422161,-0.98939467,0.23582551,-0.51549886,-0.35315423,0.31963012,1.00247290
7.24000000,0.27680667,0.77784133,-0.22954465,-0.47561133,0.84736900,0.40016635,0.04636430,-0.66420072,-0.98947204,0.23568844,-0.51564787,-0.35311243,0.31967489,1.00250847
7.26000000,0.27680369,0.77784431,-0.22955062,-0.47561431,0.84736900,0.40016038,0.04637625,-0.66417982,-0.98954941,0.23555137,-0.51579688,-0.35307064,0.31971967,1.00254404
7.28000000,0.27680070,0.77784730,-0.22955659,-0.47561730,0.84736900,0.40015441,0.04638819,-0.66415892,-0.98962677,0.23541429,-0.51594589,-0.35302885,0.31976445,1.00257962
7.30000000,0.27680228,0.77784800,-0.22955800,-0.47561800,0.84737128,0.40015300,0.04638415,-0.66414259,-0.98968151,0.23528635,-0.51608578,-0.35299846,0.31979097,1.00262679
7.32000000,0.27680527,0.77784800,-0.22955800,-0.47561800,0.84737427,0.40015300,0.04637520,-0.66412766,-0.98972928,0.23516121,-0.51622286,-0.35297159,0.31981187,1.00267755
7.34000000,0.27680825,0.77784800,-0.22955800,-0.47561800,0.84737725,0.40015300,0.04636624,-0.66411274,-0.98977704,0.23503607,-0.51635994,-0.35294473,0.31983277,1.00272830
7.36000000,0.27681124,0.77784800,-0.22955800,-0.47561800,0.84738024,0.40015300,0.04635729,-0.66409781,-0.98982481,0.23491093,-0.51649702,-0.35291786,0.31985367,1.00277905
7.38000000,0.27681200,0.77785021,-0.22955357,-0.47561800,0.84737657,0.40014636,0.04635500,-0.66408294,-0.98985913,0.23479713,-0.51662475,-0.35289127,0.31986785,1.00280085
7.40000000,0.27681200,0.77785318,-0.22954763,-0.47561800,0.84737063,0.40013745,0.04635500,-0.66406808,-0.98988884,0.23468720,-0.51674929,-0.35286478,0.31987974,1.00281274
7.42000000,0.27681200,0.77785615,-0.22954169,-0.47561800,0.84736469,0.40012854,0.04635500,-0.66405323,-0.98991855,0.23457727,-0.51687383,-0.35283829,0.31989162,1.00282462
7.44000000,0.27681200,0.77785913,-0.22953575,-0.47561800,0.84735875,0.40011962,0.04635500,-0.66403837,-0.98994826,0.23446734,-0.51699836,-0.35281179,0.31990350,1.00283650
7.46000000,0.27681200,0.77785790,-0.22953400,-0.47561800,0.84735910,0.40012120,0.04635710,-0.66402770,-0.98997169,0.23439740,-0.51710215,-0.35279561,0.31991959,1.00285259
7.48000000,0.27681200,0.77785493,-0.22953400,-0.47561800,0.84736207,0.40012714,0.04636007,-0.66401879,-0.98999250,0.23434414,-0.51719729,-0.35278371,0.31993743,1.00287043
7.50000000,0.27681200,0.77785196,-0.22953400,-0.47561800,0.84736504,0.40013309,0.04636304,-0.66400987,-0.99001331,0.23429087,-0.51729243,-0.35277182,0.31995527,1.00288827
7.52000000,0.27681200,0.77784898,-0.22953400,-0.47561800,0.84736802,0.40013904,0.04636602,-0.66400095,-0.99003412,0.23423760,-0.51738757,-0.35275993,0.31997311,1.00290611
7.54000000,0.27681200,0.77784998,-0.22953400,-0.47561800,0.84737296,0.40014100,0.04636502,-0.66399800,-0.99004496,0.23420018,-0.51746458,-0.35274411,0.31998098,1.00292191
7.56000000,0.27681200,0.77785294,-0.22953400,-0.47561800,0.84737888,0.40014100,0.04636206,-0.66399800,-0.99005088,0.23417059,-0.51753264,-0.35272635,0.31998394,1.00293670
7.58000000,0.27681200,0.77785590,-0.22953400,-0.47561800,0.84738480,0.40014100,0.04635910,-0.66399800,-0.99005680,0.23414100,-0.51760070,-0.35270860,0.31998690,1.00295150
7.60000000,0.27681200,0.77785886,-0.22953400,-0.47561800,0.84739072,0.40014100,0.04635614,-0.66399800,-0.99006272,0.23411141,-0.51766877,-0.35269084,0.31998986,1.00296630
7.62000000,0.27681200,0.77785633,-0.22953583,-0.47561800,0.84738933,0.40013917,0.04635500,-0.66399250,-0.99006867,0.23409633,-0.51772418,-0.35267483,0.31998917,1.00298117
7.64000000,0.27681200,0.77785037,-0.22953882,-0.47561800,0.84738337,0.40013618,0.04635500,-0.66398355,-0.99007463,0.23409037,-0.51777166,-0.35265992,0.31998618,1.00299608
7.66000000,0.27681200,0.77784440,-0.22954180,-0.47561800,0.84737740,0.40013320,0.04635500,-0.66397460,-0.99008060,0.23408440,-0.51781915,-0.35264500,0.31998320,1.00301100
7.68000000,0.27681200,0.77783843,-0.22954478,-0.47561800,0.84737143,0.40013022,0.04635500,-0.66396565,-0.99008657,0.23407843,-0.51786663,-0.35263009,0.31998022,1.00302591
7.70000000,0.27681200,0.77783777,-0.22954423,-0.47561977,0.84736900,0.40013253,0.04635500,-0.66395494,-0.99008900,0.23407423,-0.51789130,-0.35261164,0.31998077,1.00303906
7.72000000,0.27681200,0.77784075,-0.22954125,-0.47562275,0.84736900,0.40013850,0.04635500,-0.66394301,-0.99008900,0.23407125,-0.51790025,-0.35259076,0.31998375,1.00305099
7.74000000,0.27681200,0.77784373,-0.22953827,-0.47562573,0.84736900,0.40014446,0.04635500,-0.66393108,-0.99008900,0.23406827,-0.51790919,-0.35256988,0.31998673,1.00306292
7.76000000,0.27681200,0.77784671,-0.22953529,-0.47562871,0.84736900,0.40015043,0.04635500,-0.66391914,-0.99008900,0.23406529,-0.51791814,-0.35254900,0.31998971,1.00307486
7.78000000,0.27681369,0.77784631,-0.22953400,-0.47562831,0.84737069,0.40015300,0.04635500,-0.66391739,-0.99008900,0.23406569,-0.51792369,-0.35253831,0.31999439,1.00308508
7.80000000,0.27681667,0.77784333,-0.22953400,-0.47562533,0.84737367,0.40015300,0.04635500,-0.66392334,-0.99008900,0.23406867,-0.51792667,-0.35253533,0.32000034,1.00309401
7.82000000,0.27681964,0.77784036,-0.22953400,-0.47562236,0.84737664,0.40015300,0.04635500,-0.66392929,-0.99008900,0.23407164,-0.51792964,-0.35253236,0.32000629,1.00310293
7.84000000,0.27682262,0.77783738,-0.22953400,-0.47561938,0.84737962,0.40015300,0.04635500,-0.66393524,-0.99008900,0.23407462,-0.51793262,-0.35252938,0.32001224,1.00311186
7.86000000,0.27682081,0.77783919,-0.22953400,-0.47561640,0.84738100,0.40015300,0.04635660,-0.66393162,-0.99008900,0.23407440,-0.51793560,-0.35252481,0.32001660,1.00311760
7.88000000,0.27681486,0.77784514,-0.22953400,-0.47561343,0.84738100,0.40015300,0.04635957,-0.66391972,-0.99008900,0.23407143,-0.51793857,-0.35251886,0.32001957,1.00312057
7.90000000,0.27680891,0.77785109,-0.22953400,-0.47561045,0.84738100,0.40015300,0.04636255,-0.66390782,-0.99008900,0.23406845,-0.51794155,-0.35251291,0.32002255,1.00312355
7.92000000,0.27680296,0.77785704,-0.22953400,-0.47560748,0.84738100,0.40015300,0.04636552,-0.66389592,-0.99008900,0.23406548,-0.51794452,-0.35250696,0.32002552,1.00312652
7.94000000,0.27680000,0.77786000,-0.22953400,-0.47560749,0.84737951,0.40015151,0.04636551,-0.66389000,-0.99009197,0.23406400,-0.51794749,-0.35250251,0.32002700,1.00313097
7.96000000,0.27680000,0.77786000,-0.22953400,-0.47561044,0.84737656,0.40014856,0.04636256,-0.66389000,-0.99009788,0.23406400,-0.51795044,-0.35249956,0.32002700,1.00313688
7.98000000,0.27680000,0.77786000,-0.22953400,-0.47561340,0.84737360,0.40014560,0.04635960,-0.66389000,-0.99010379,0.23406400,-0.51795340,-0.35249660,0.32002700,1.00314279
8.00000000,0.27680000,0.77786000,-0.22953400,-0.47561635,0.84737065,0.40014265,0.04635665,-0.66389000,-0.99010971,0.23406400,-0.51795635,-0.35249365,0.32002700,1.00314871
8.02000000,0.27680132,0.77785737,-0.22953400,-0.47561668,0.84736900,0.40014100,0.04635500,-0.66388737,-0.99011300,0.23406268,-0.51795800,-0.35249068,0.32003358,1.00315200
8.04000000,0.27680429,0.77785143,-0.22953400,-0.47561371,0.84736900,0.40014100,0.04635500,-0.66388143,-0.99011300,0.23405971,-0.51795800,-0.35248771,0.32004843,1.00315200
8.06000000,0.27680726,0.77784548,-0.22953400,-0.47561074,0.84736900,0.40014100,0.04635500,-0.66387548,-0.99011300,0.23405674,-0.51795800,-0.35248474,0.32006329,1.00315200
8.08000000,0.27681023,0.77783954,-0.22953400,-0.47560777,0.84736900,0.40014100,0.04635500,-0.66386954,-0.99011300,0.23405377,-0.51795800,-0.35248177,0.32007815,1.00315200
8.10000000,0.27681200,0.77783600,-0.22953400,-0.47560720,0.84736900,0.40013861,0.04635500,-0.66386361,-0.99011420,0.23404961,-0.51795800,-0.35248000,0.32008700,1.00315320
8.12000000,0.27681200,0.77783600,-0.22953400,-0.47561016,0.84736900,0.40013269,0.04635500,-0.66385769,-0.99011716,0.23404369,-0.51795800,-0.35248000,0.32008700,1.00315616
8.14000000,0.27681200,0.77783600,-0.22953400,-0.47561312,0.84736900,0.40012677,0.04635500,-0.66385177,-0.99012012,0.23403777,-0.51795800,-0.35248000,0.32008700,1.00315912
8.16000000,0.27681200,0.77783600,-0.22953400,-0.47561608,0.84736900,0.40012085,0.04635500,-0.66384585,-0.99012308,0.23403185,-0.51795800,-0.35248000,0.32008700,1.00316208
8.18000000,0.27681200,0.77783704,-0.22953504,-0.47561904,0.84736796,0.40011804,0.04635500,-0.66383992,-0.99012500,0.23402800,-0.51795800,-0.35248000,0.32008700,1.00316296
8.20000000,0.27681200,0.77784001,-0.22953801,-0.47562201,0.84736499,0.40012101,0.04635500,-0.66383398,-0.99012500,0.23402800,-0.51795800,-0.35248000,0.32008700,1.00315999
8.22000000,0.27681200,0.77784298,-0.22954098,-0.47562498,0.84736202,0.40012398,0.04635500,-0.66382803,-0.99012500,0.23402800,-0.51795800,-0.35248000,0.32008700,1.00315702
8.24000000,0.27681200,0.77784596,-0.22954396,-0.47562796,0.84735904,0.40012696,0.04635500,-0.66382209,-0.99012500,0.23402800,-0.51795800,-0.35248000,0.32008700,1.00315404
8.26000000,0.27681107,0.77784893,-0.22954507,-0.47562907,0.84735793,0.40012900,0.04635500,-0.66381430,-0.99012500,0.23402800,-0.51795893,-0.35248093,0.32008978,1.00315107
8.28000000,0.27680811,0.77785189,-0.22954211,-0.47562611,0.84736089,0.40012900,0.04635500,-0.66380245,-0.99012500,0.23402800,-0.51796189,-0.35248389,0.32009866,1.00314811
8.30000000,0.27680515,0.77785485,-0.22953915,-0.47562315,0.84736385,0.40012900,0.04635500,-0.66379060,-0.99012500,0.23402800,-0.51796485,-0.35248685,0.32010755,1.00314515
8.32000000,0.27680219,0.77785781,-0.22953619,-0.47562019,0.84736681,0.40012900,0.04635500,-0.66377875,-0.99012500,0.23402800,-0.51796781,-0.35248981,0.32011644,1.00314219
8.34000000,0.27680078,0.77785844,-0.22953634,-0.47561722,0.84736978,0.40013056,0.04635500,-0.66376533,-0.99012500,0.23402956,-0.51796922,-0.35249434,0.32012300,1.00314227
8.36000000,0.27680376,0.77785249,-0.22954527,-0.47561424,0.84737276,0.40013651,0.04635500,-0.66374746,-0.99012500,0.23403551,-0.51796624,-0.35250327,0.32012300,1.00315096
8.38000000,0.27680674,0.77784653,-0.22955421,-0.47561126,0.84737574,0.40014247,0.04635500,-0.66372959,-0.99012500,0.23404147,-0.51796326,-0.35251221,0.32012300,1.00315965
8.40000000,0.27680971,0.77784057,-0.22956314,-0.47560829,0.84737871,0.40014843,0.04635500,-0.66371172,-0.99012500,0.23404743,-0.51796029,-0.35252114,0.32012300,1.00316833
8.42000000,0.27681200,0.77783669,-0.22956861,-0.47560808,0.84738031,0.40015161,0.04635639,-0.66369176,-0.99012431,0.23405061,-0.51795869,-0.35252661,0.32012369,1.00317298
8.44000000,0.27681200,0.77783968,-0.22956265,-0.47561703,0.84737732,0.40014565,0.04636235,-0.66366490,-0.99012132,0.23404465,-0.51796168,-0.35252065,0.32012668,1.00316427
8.46000000,0.27681200,0.77784266,-0.22955668,-0.47562598,0.84737434,0.40013968,0.04636832,-0.66363805,-0.99011834,0.23403868,-0.51796466,-0.35251468,0.32012966,1.00315557
8.48000000,0.27681200,0.77784565,-0.22955071,-0.47563494,0.84737135,0.40013371,0.04637429,-0.66361119,-0.99011535,0.23403271,-0.51796765,-0.35250871,0.32013265,1.00314687
8.50000000,0.27681200,0.77784737,-0.22954537,-0.47564074,0.84736837,0.40013152,0.04637837,-0.66358187,-0.99011363,0.23402674,-0.51797126,-0.35250463,0.32013500,1.00313874
8.52000000,0.27681200,0.77784439,-0.22954239,-0.47563477,0.84736539,0.40014346,0.04637539,-0.66354332,-0.99011661,0.23402077,-0.51797723,-0.35250761,0.32013500,1.00313277
8.54000000,0.27681200,0.77784140,-0.22953940,-0.47562880,0.84736240,0.40015539,0.04637240,-0.66350477,-0.99011960,0.23401480,-0.51798320,-0.35251060,0.32013500,1.00312680
8.56000000,0.27681200,0.77783842,-0.22953642,-0.47562283,0.84735942,0.40016733,0.04636942,-0.66346622,-0.99012258,0.23400883,-0.51798917,-0.35251358,0.32013500,1.00312083
8.58000000,0.27681200,0.77783714,-0.22953514,-0.47561800,0.84735700,0.40017530,0.04636757,-0.66342251,-0.99012500,0.23400400,-0.51799400,-0.35251714,0.32013670,1.00311032
8.60000000,0.27681200,0.77784310,-0.22954110,-0.47561800,0.84735700,0.40016634,0.04637055,-0.66335686,-0.99012500,0.23400400,-0.51799400,-0.35252310,0.32014566,1.00308048
8.62000000,0.27681200,0.77784907,-0.22954707,-0.47561800,0.84735700,0.40015739,0.04637354,-0.66329121,-0.99012500,0.23400400,-0.51799400,-0.35252907,0.32015461,1.00305064
8.64000000,0.27681200,0.77785504,-0.22955304,-0.47561800,0.84735700,0.40014844,0.04637652,-0.66322556,-0.99012500,0.23400400,-0.51799400,-0.35253504,0.32016356,1.00302080
8.66000000,0.27681200,0.77785950,-0.22955699,-0.47561750,0.84735750,0.40014100,0.04637850,-0.66315237,-0.99012500,0.23400350,-0.51799450,-0.35254101,0.32016999,1.00299045
8.68000000,0.27681200,0.77785651,-0.22955102,-0.47561451,0.84736049,0.40014100,0.04637551,-0.66304216,-0.99012500,0.23400051,-0.51799749,-0.35254698,0.32016402,1.00295761
8.70000000,0.27681200,0.77785352,-0.22954505,-0.47561152,0.84736348,0.40014100,0.04637252,-0.66293195,-0.99012500,0.23399752,-0.51800048,-0.35255295,0.32015805,1.00292477
8.72000000,0.27681200,0.77785054,-0.22953908,-0.47560854,0.84736646,0.40014100,0.04636954,-0.66282174,-0.99012500,0.23399454,-0.51800346,-0.35255892,0.32015208,1.00289193
8.74000000,0.27681200,0.77784756,-0.22953488,-0.47560688,0.84736900,0.40014100,0.04636700,-0.66270723,-0.99012500,0.23399112,-0.51800600,-0.35256488,0.32014700,1.00285560
8.76000000,0.27681200,0.77784460,-0.22954080,-0.47561280,0.84736900,0.40014100,0.04636700,-0.66256822,-0.99012500,0.23398520,-0.51800600,-0.35257080,0.32014700,1.00279941
8.78000000,0.27681200,0.77784164,-0.22954671,-0.47561871,0.84736900,0.40014100,0.04636700,-0.66242921,-0.99012500,0.23397929,-0.51800600,-0.35257671,0.32014700,1.00274321
8.80000000,0.27681200,0.77783869,-0.22955263,-0.47562463,0.84736900,0.40014100,0.04636700,-0.66229020,-0.99012500,0.23397337,-0.51800600,-0.35258263,0.32014700,1.00268702
8.82000000,0.27681200,0.77783655,-0.22955800,-0.47562972,0.84736872,0.40014100,0.04636672,-0.66214999,-0.99012472,0.23396800,-0.51800655,-0.35259048,0.32014755,1.00262887
8.84000000,0.27681200,0.77784252,-0.22955800,-0.47562674,0.84736574,0.40014100,0.04636374,-0.66199800,-0.99012174,0.23396800,-0.51801252,-0.35261734,0.32015352,1.00255151
8.86000000,0.27681200,0.77784849,-0.22955800,-0.47562375,0.84736275,0.40014100,0.04636075,-0.66184602,-0.99011875,0.23396800,-0.51801849,-0.35264421,0.32015949,1.00247415
8.88000000,0.27681200,0.77785446,-0.22955800,-0.47562077,0.84735977,0.40014100,0.04635777,-0.66169404,-0.99011577,0.23396800,-0.51802446,-0.35267107,0.32016546,1.00239679
8.90000000,0.27681200,0.77785957,-0.22955779,-0.47561757,0.84735721,0.40014121,0.04635521,-0.66153969,-0.99011321,0.23396800,-0.51803021,-0.35269879,0.32017227,1.00231554
8.92000000,0.27681200,0.77785360,-0.22955480,-0.47561160,0.84736020,0.40014420,0.04635820,-0.66135486,-0.99011620,0.23396800,-0.51803320,-0.35273760,0.32018993,1.00218419
8.94000000,0.27681200,0.77784763,-0.22955181,-0.47560563,0.84736319,0.40014719,0.04636119,-0.66117002,-0.99011919,0.23396800,-0.51803619,-0.35277641,0.32020760,1.00205284
8.96000000,0.27681200,0.77784166,-0.22954883,-0.47559966,0.84736617,0.40015017,0.04636417,-0.66098519,-0.99012217,0.23396800,-0.51803917,-0.35281522,0.32022526,1.00192149
8.98000000,0.27681184,0.77783631,-0.22954584,-0.47559416,0.84736900,0.40015316,0.04636684,-0.66079884,-0.99012453,0.23396831,-0.51804169,-0.35285556,0.32024262,1.00178739
9.00000000,0.27680887,0.77784226,-0.22954287,-0.47559713,0.84736900,0.40015613,0.04636387,-0.66058504,-0.99011562,0.23397426,-0.51803574,-0.35292369,0.32025451,1.00160332
9.02000000,0.27680590,0.77784820,-0.22953990,-0.47560010,0.84736900,0.40015910,0.04636090,-0.66037123,-0.99010670,0.23398020,-0.51802980,-0.35299182,0.32026640,1.00141924
9.04000000,0.27680293,0.77785415,-0.22953693,-0.47560307,0.84736900,0.40016207,0.04635793,-0.66015743,-0.99009778,0.23398615,-0.51802385,-0.35305995,0.32027830,1.00123517
9.06000000,0.27680005,0.77786000,-0.22953405,-0.47560600,0.84736900,0.40016500,0.04635500,-0.65994388,-0.99008900,0.23399191,-0.51801800,-0.35312807,0.32029023,1.00105051
9.08000000,0.27680299,0.77786000,-0.22953699,-0.47560600,0.84736900,0.40016500,0.04635500,-0.65974661,-0.99008900,0.23398601,-0.51801800,-0.35319587,0.32030497,1.00082966
9.10000000,0.27680594,0.77786000,-0.22953994,-0.47560600,0.84736900,0.40016500,0.04635500,-0.65954935,-0.99008900,0.23398011,-0.51801800,-0.35326368,0.32031971,1.00060881
9.12000000,0.27680889,0.77786000,-0.22954289,-0.47560600,0.84736900,0.40016500,0.04635500,-0.65935208,-0.99008900,0.23397422,-0.51801800,-0.35333148,0.32033445,1.00038795
9.14000000,0.27681184,0.77786000,-0.22954584,-0.47560600,0.84736900,0.40016500,0.04635500,-0.65915481,-0.99008900,0.23396832,-0.51801800,-0.35339928,0.32034919,1.00016710
9.16000000,0.27681200,0.77786000,-0.22954600,-0.47560600,0.84737182,0.40015936,0.04635500,-0.65894675,-0.99008054,0.23396800,-0.51801800,-0.35349586,0.32036975,0.99987899
9.18000000,0.27681200,0.77786000,-0.22954600,-0.47560600,0.84737481,0.40015339,0.04635500,-0.65873806,-0.99007158,0.23396800,-0.51801800,-0.35359411,0.32039064,0.99958698
9.20000000,0.27681200,0.77786000,-0.22954600,-0.47560600,0.84737779,0.40014742,0.04635500,-0.65852938,-0.99006263,0.23396800,-0.51801800,-0.35369236,0.32041154,0.99929497
9.22000000,0.27681200,0.77786000,-0.22954600,-0.47560600,0.84738078,0.40014145,0.04635500,-0.65832069,-0.99005367,0.23396800,-0.51801800,-0.35379061,0.32043243,0.99900296
9.24000000,0.27681200,0.77785450,-0.22954875,-0.47560875,0.84737825,0.40014100,0.04635500,-0.65807426,-0.99004750,0.23396250,-0.51801800,-0.35389158,0.32043950,0.99875829
9.26000000,0.27681200,0.77784854,-0.22955173,-0.47561173,0.84737527,0.40014100,0.04635500,-0.65782475,-0.99004154,0.23395654,-0.51801800,-0.35399277,0.32044546,0.99851746
9.28000000,0.27681200,0.77784259,-0.22955470,-0.47561470,0.84737230,0.40014100,0.04635500,-0.65757525,-0.99003559,0.23395059,-0.51801800,-0.35409396,0.32045141,0.99827664
9.30000000,0.27681200,0.77783664,-0.22955768,-0.47561768,0.84736932,0.40014100,0.04635500,-0.65732575,-0.99002964,0.23394464,-0.51801800,-0.35419515,0.32045736,0.99803582
9.32000000,0.27681200,0.77783867,-0.22955800,-0.47561800,0.84737700,0.40014900,0.04635500,-0.65699561,-0.99002900,0.23392534,-0.51801800,-0.35430173,0.32047399,0.99776525
9.34000000,0.27681200,0.77784165,-0.22955800,-0.47561800,0.84738595,0.40015795,0.04635500,-0.65665579,-0.99002900,0.23390445,-0.51801800,-0.35440894,0.32049190,0.99749110
9.36000000,0.27681200,0.77784464,-0.22955800,-0.47561800,0.84739491,0.40016691,0.04635500,-0.65631597,-0.99002900,0.23388355,-0.51801800,-0.35451616,0.32050981,0.99721696
9.38000000,0.27681200,0.77784762,-0.22955800,-0.47561800,0.84740386,0.40017586,0.04635500,-0.65597616,-0.99002900,0.23386265,-0.51801800,-0.35462338,0.32052773,0.99694282
9.40000000,0.27681460,0.77784540,-0.22955279,-0.47561800,0.84739979,0.40017179,0.04635500,-0.65558462,-0.99002379,0.23385740,-0.51801800,-0.35474633,0.32055082,0.99665832
9.42000000,0.27681758,0.77784242,-0.22954683,-0.47561800,0.84739383,0.40016583,0.04635500,-0.65518555,-0.99001783,0.23385442,-0.51801800,-0.35487157,0.32057468,0.99637231
9.44000000,0.27682057,0.77783943,-0.22954087,-0.47561800,0.84738787,0.40015987,0.04635500,-0.65478648,-0.99001187,0.23385143,-0.51801800,-0.35499680,0.32059853,0.99608631
9.46000000,0.27682355,0.77783645,-0.22953490,-0.47561800,0.84738190,0.40015390,0.04635500,-0.65438742,-0.99000590,0.23384845,-0.51801800,-0.35512204,0.32062239,0.99580030
9.48000000,0.27682147,0.77784107,-0.22953653,-0.47561800,0.84737847,0.40014793,0.04636007,-0.65402097,-0.98999234,0.23385053,-0.51801293,-0.35525222,0.32065133,0.99551176
9.50000000,0.27681848,0.77784703,-0.22953952,-0.47561800,0.84737548,0.40014197,0.04636603,-0.65366035,-0.98997741,0.23385352,-0.51800697,-0.35538329,0.32068117,0.99522276
9.52000000,0.27681550,0.77785300,-0.22954250,-0.47561800,0.84737250,0.40013600,0.04637200,-0.65329972,-0.98996249,0.23385650,-0.51800100,-0.35551436,0.32071102,0.99493376
9.54000000,0.27681251,0.77785897,-0.22954549,-0.47561800,0.84736951,0.40013003,0.04637797,-0.65293910,-0.98994757,0.23385949,-0.51799503,-0.35564543,0.32074086,0.99464477
9.56000000,0.27681200,0.77785506,-0.22954847,-0.47561800,0.84736900,0.40013394,0.04637406,-0.65262268,-0.98993017,0.23386000,-0.51799153,-0.35579382,0.32076824,0.99435797
9.58000000,0.27681200,0.77784909,-0.22955146,-0.47561800,0.84736900,0.40013991,0.04636809,-0.65231545,-0.98991226,0.23386000,-0.51798854,-0.35594582,0.32079511,0.99407164
9.60000000,0.27681200,0.77784312,-0.22955444,-0.47561800,0.84736900,0.40014588,0.04636212,-0.65200822,-0.98989435,0.23386000,-0.51798556,-0.35609782,0.32082197,0.99378531
9.62000000,0.27681200,0.77783715,-0.22955743,-0.47561800,0.84736900,0.40015185,0.04635615,-0.65170099,-0.98987644,0.23386000,-0.51798257,-0.35624982,0.32084884,0.99349898
9.64000000,0.27681200,0.77783841,-0.22955318,-0.47561800,0.84736900,0.40015059,0.04635741,-0.65137967,-0.98986095,0.23386000,-0.51798200,-0.35643788,0.32088513,0.99313346
9.66000000,0.27681200,0.77784139,-0.22954721,-0.47561800,0.84736900,0.40014761,0.04636039,-0.65105500,-0.98984603,0.23386000,-0.51798200,-0.35663452,0.32092367,0.99274913
9.68000000,0.27681200,0.77784438,-0.22954125,-0.47561800,0.84736900,0.40014462,0.04636338,-0.65073034,-0.98983112,0.23386000,-0.51798200,-0.35683116,0.32096220,0.99236481
9.70000000,0.27681200,0.77784736,-0.22953528,-0.47561800,0.84736900,0.40014164,0.04636636,-0.65040567,-0.98981620,0.23386000,-0.51798200,-0.35702780,0.32100073,0.99198048
9.72000000,0.27681200,0.77784800,-0.22953400,-0.47561800,0.84737135,0.40014335,0.04636465,-0.65010410,-0.98980596,0.23385765,-0.51797731,-0.35722232,0.32104420,0.99154663
9.74000000,0.27681200,0.77784800,-0.22953400,-0.47561800,0.84737433,0.40014633,0.04636167,-0.64980884,-0.98979700,0.23385467,-0.51797133,-0.35741625,0.32108901,0.99109926
9.76000000,0.27681200,0.77784800,-0.22953400,-0.47561800,0.84737732,0.40014932,0.04635868,-0.64951358,-0.98978804,0.23385168,-0.51796536,-0.35761019,0.32113382,0.99065189
9.78000000,0.27681200,0.77784800,-0.22953400,-0.47561800,0.84738031,0.40015231,0.04635569,-0.64921832,-0.98977907,0.23384869,-0.51795938,-0.35780412,0.32117863,0.99020452
9.80000000,0.27681200,0.77784800,-0.22953859,-0.47561800,0.84737641,0.40015071,0.04635500,-0.64887486,-0.98976094,0.23383882,-0.51796029,-0.35802089,0.32121194,0.98968169
9.82000000,0.27681200,0.77784800,-0.22954456,-0.47561800,0.84737044,0.40014772,0.04635500,-0.64851688,-0.98974004,0.23382688,-0.51796328,-0.35824453,0.32124180,0.98913614
9.84000000,0.27681200,0.77784800,-0.22955053,-0.47561800,0.84736447,0.40014474,0.04635500,-0.64815890,-0.98971915,0.23381494,-0.51796626,-0.35846818,0.32127165,0.98859059
9.86000000,0.27681200,0.77784800,-0.22955650,-0.47561800,0.84735850,0.40014175,0.04635500,-0.64780092,-0.98969825,0.23380300,-0.51796925,-0.35869182,0.32130150,0.98804504
9.88000000,0.27680976,0.77784800,-0.22955353,-0.47561800,0.84735700,0.40013876,0.04635947,-0.64738940,-0.98966615,0.23379329,-0.51797000,-0.35891561,0.32134032,0.98749467
9.90000000,0.27680678,0.77784800,-0.22954755,-0.47561800,0.84735700,0.40013578,0.04636545,-0.64695991,-0.98963030,0.23378433,-0.51797000,-0.35913944,0.32138215,0.98694269
9.92000000,0.27680379,0.77784800,-0.22954157,-0.47561800,0.84735700,0.40013279,0.04637143,-0.64653042,-0.98959445,0.23377536,-0.51797000,-0.35936327,0.32142398,0.98639070
9.94000000,0.27680080,0.77784800,-0.22953560,-0.47561800,0.84735700,0.40012980,0.04637740,-0.64610093,-0.98955859,0.23376640,-0.51797000,-0.35958710,0.32146581,0.98583871
9.96000000,0.27680219,0.77784800,-0.22953837,-0.47561581,0.84736137,0.40013337,0.04637463,-0.64568241,-0.98952513,0.23376400,-0.51796563,-0.35980189,0.32150543,0.98530869
9.98000000,0.27680517,0.77784800,-0.22954434,-0.47561283,0.84736734,0.40013934,0.04636866,-0.64526790,-0.98949253,0.23376400,-0.51795966,-0.36001338,0.32154424,0.98478670
10.00000000,0.27680816,0.77784800,-0.22955032,-0.47560984,0.84737332,0.40014532,0.04636268,-0.64485339,-0.98945994,0.23376400,-0.51795368,-0.36022486,0.32158305,0.98426470
10.02000000,0.27681114,0.77784800,-0.22955629,-0.47560686,0.84737929,0.40015129,0.04635671,-0.64443888,-0.98942735,0.23376400,-0.51794771,-0.36043635,0.32162187,0.98374271
10.04000000,0.27681200,0.77784800,-0.22955587,-0.47560813,0.84737887,0.40015087,0.04635713,-0.64403276,-0.98937965,0.23376826,-0.51793748,-0.36065447,0.32166904,0.98323138
10.06000000,0.27681200,0.77784800,-0.22955288,-0.47561112,0.84737588,0.40014788,0.04636012,-0.64363001,-0.98932589,0.23377423,-0.51792553,-0.36087526,0.32171957,0.98272433
10.08000000,0.27681200,0.77784800,-0.22954990,-0.47561410,0.84737290,0.40014490,0.04636310,-0.64322726,-0.98927212,0.23378021,-0.51791358,-0.36109605,0.32177010,0.98221729
10.10000000,0.27681200,0.77784800,-0.22954691,-0.47561709,0.84736991,0.40014191,0.04636609,-0.64282452,-0.98921836,0.23378618,-0.51790163,-0.36131684,0.32182063,0.98171024
10.12000000,0.27681615,0.77784800,-0.22954808,-0.47561800,0.84736692,0.40013892,0.04636700,-0.64239904,-0.98913552,0.23378385,-0.51790215,-0.36161858,0.32185885,0.98106434
10.14000000,0.27682213,0.77784800,-0.22955106,-0.47561800,0.84736394,0.40013594,0.04636700,-0.64196363,-0.98903998,0.23377787,-0.51790813,-0.36195571,0.32189169,0.98035773
10.16000000,0.27682810,0.77784800,-0.22955405,-0.47561800,0.84736095,0.40013295,0.04636700,-0.64152822,-0.98894444,0.23377190,-0.51791410,-0.36229284,0.32192454,0.97965113
10.18000000,0.27683407,0.77784800,-0.22955703,-0.47561800,0.84735797,0.40012997,0.04636700,-0.64109281,-0.98884890,0.23376593,-0.51792007,-0.36262997,0.32195738,0.97894452
10.20000000,0.27683398,0.77784598,-0.22955395,-0.47561598,0.84735902,0.40013102,0.04636498,-0.64066722,-0.98873117,0.23375995,-0.51791593,-0.36298551,0.32199835,0.97826935
10.22000000,0.27683099,0.77784299,-0.22954797,-0.47561299,0.84736201,0.40013401,0.04636199,-0.64024631,-0.98860283,0.23375397,-0.51790696,-0.36334984,0.32204321,0.97760921
10.24000000,0.27682800,0.77784000,-0.22954199,-0.47561000,0.84736500,0.40013700,0.04635900,-0.63982541,-0.98847449,0.23374799,-0.51789799,-0.36371418,0.32208806,0.97694908
10.26000000,0.27682501,0.77783701,-0.22953601,-0.47560701,0.84736799,0.40013999,0.04635601,-0.63940451,-0.98834615,0.23374201,-0.51788902,-0.36407851,0.32213292,0.97628894
10.28000000,0.27681805,0.77783600,-0.22953400,-0.47560798,0.84737296,0.40014298,0.04635698,-0.63896202,-0.98821991,0.23372612,-0.51788402,-0.36449388,0.32216782,0.97562363
10.30000000,0.27680909,0.77783600,-0.22953400,-0.47561097,0.84737894,0.40014597,0.04635997,-0.63850861,-0.98809474,0.23370522,-0.51788103,-0.36493510,0.32219769,0.97495570
10.32000000,0.27680014,0.77783600,-0.22953400,-0.47561395,0.84738491,0.40014895,0.04636295,-0.63805520,-0.98796956,0.23368432,-0.51787805,-0.36537632,0.32222755,0.97428777
10.34000000,0.27679118,0.77783600,-0.22953400,-0.47561694,0.84739088,0.40015194,0.04636594,-0.63760178,-0.98784439,0.23366341,-0.51787506,-0.36581754,0.32225741,0.97361985
10.36000000,0.27678800,0.77783793,-0.22953400,-0.47561800,0.84738914,0.40015107,0.04636700,-0.63704559,-0.98771696,0.23362333,-0.51787400,-0.36623439,0.32230276,0.97294124
10.38000000,0.27678800,0.77784092,-0.22953400,-0.47561800,0.84738315,0.40014808,0.04636700,-0.63643293,-0.98758829,0.23357271,-0.51787400,-0.36663784,0.32235662,0.97225677
10.40000000,0.27678800,0.77784392,-0.22953400,-0.47561800,0.84737717,0.40014508,0.04636700,-0.63582028,-0.98745963,0.23352209,-0.51787400,-0.36704129,0.32241048,0.97157230
10.42000000,0.27678800,0.77784691,-0.22953400,-0.47561800,0.84737118,0.40014209,0.04636700,-0.63520762,-0.98733096,0.23347148,-0.51787400,-0.36744474,0.32246434,0.97088783
10.44000000,0.27678800,0.77784610,-0.22953779,-0.47561800,0.84737279,0.40014100,0.04636510,-0.63453321,-0.98718553,0.23345110,-0.51787210,-0.36783257,0.32252747,0.97015306
10.46000000,0.27678800,0.77784312,-0.22954377,-0.47561800,0.84737877,0.40014100,0.04636212,-0.63382329,-0.98703045,0.23344812,-0.51786912,-0.36821142,0.32259592,0.96938939
10.48000000,0.27678800,0.77784013,-0.22954974,-0.47561800,0.84738474,0.40014100,0.04635913,-0.63311338,-0.98687538,0.23344513,-0.51786613,-0.36859028,0.32266437,0.96862571
10.50000000,0.27678800,0.77783714,-0.22955572,-0.47561800,0.84739072,0.40014100,0.04635614,-0.63240347,-0.98672030,0.23344214,-0.51786314,-0.36896913,0.32273282,0.96786203
10.52000000,0.27678984,0.77783784,-0.22955800,-0.47561616,0.84738931,0.40014100,0.04635500,-0.63164373,-0.98656707,0.23343362,-0.51785831,-0.36934615,0.32280143,0.96710017
10.54000000,0.27679283,0.77784083,-0.22955800,-0.47561317,0.84738334,0.40014100,0.04635500,-0.63085312,-0.98641497,0.23342167,-0.51785234,-0.36972203,0.32287014,0.96633944
10.56000000,0.27679582,0.77784382,-0.22955800,-0.47561018,0.84737736,0.40014100,0.04635500,-0.63006252,-0.98626287,0.23340972,-0.51784636,-0.37009791,0.32293884,0.96557872
10.58000000,0.27679881,0.77784681,-0.22955800,-0.47560719,0.84737139,0.40014100,0.04635500,-0.62927192,-0.98611078,0.23339777,-0.51784039,-0.37047380,0.32300755,0.96481799
10.60000000,0.27680179,0.77784621,-0.22955441,-0.47560779,0.84736900,0.40014279,0.04635679,-0.62831848,-0.98594255,0.23339300,-0.51782903,-0.37088373,0.32307789,0.96400724
10.62000000,0.27680478,0.77784322,-0.22954844,-0.47561078,0.84736900,0.40014578,0.04635978,-0.62725665,-0.98576359,0.23339300,-0.51781410,-0.37131633,0.32314933,0.96316320
10.64000000,0.27680777,0.77784023,-0.22954247,-0.47561377,0.84736900,0.40014877,0.04636277,-0.62619482,-0.98558463,0.23339300,-0.51779916,-0.37174892,0.32322076,0.96231917
10.66000000,0.27681075,0.77783725,-0.22953649,-0.47561675,0.84736900,0.40015175,0.04636575,-0.62513299,-0.98540566,0.23339300,-0.51778423,-0.37218152,0.32329220,0.96147513
10.68000000,0.27680852,0.77783600,-0.22953400,-0.47561800,0.84737074,0.40015126,0.04636352,-0.62412153,-0.98525456,0.23339474,-0.51776596,-0.37260888,0.32337074,0.96066579
10.70000000,0.27680255,0.77783600,-0.22953400,-0.47561800,0.84737373,0.40014827,0.04635755,-0.62314612,-0.98512339,0.23339773,-0.51774530,-0.37303250,0.32345437,0.95988128
10.72000000,0.27679657,0.77783600,-0.22953400,-0.47561800,0.84737671,0.40014529,0.04635157,-0.62217071,-0.98499222,0.23340071,-0.51772464,-0.37345611,0.32353799,0.95909677
10.74000000,0.27679060,0.77783600,-0.22953400,-0.47561800,0.84737970,0.40014230,0.04634560,-0.62119530,-0.98486106,0.23340370,-0.51770399,-0.37387973,0.32362162,0.95831226
10.76000000,0.27678969,0.77783600,-0.22953400,-0.47561631,0.84738269,0.40014438,0.04634469,-0.62034388,-0.98474314,0.23340838,-0.51767641,-0.37426995,0.32371533,0.95751346
10.78000000,0.27679268,0.77783600,-0.22953400,-0.47561332,0.84738568,0.40015036,0.04634768,-0.61958792,-0.98463544,0.23341436,-0.51764349,-0.37463447,0.32381681,0.95670364
10.80000000,0.27679567,0.77783600,-0.22953400,-0.47561033,0.84738867,0.40015635,0.04635067,-0.61883197,-0.98452773,0.23342035,-0.51761058,-0.37499898,0.32391829,0.95589383
10.82000000,0.27679867,0.77783600,-0.22953400,-0.47560733,0.84739167,0.40016233,0.04635367,-0.61807601,-0.98442002,0.23342633,-0.51757767,-0.37536350,0.32401976,0.95508401
10.84000000,0.27680166,0.77783600,-0.22953731,-0.47560600,0.84739134,0.40016334,0.04635500,-0.61721338,-0.98430263,0.23342072,-0.51755141,-0.37575730,0.32412955,0.95421558
10.86000000,0.27680464,0.77783600,-0.22954328,-0.47560600,0.84738836,0.40016036,0.04635500,-0.61626494,-0.98417744,0.23340579,-0.51753051,-0.37617465,0.32424602,0.95330000
10.88000000,0.27680763,0.77783600,-0.22954926,-0.47560600,0.84738537,0.40015737,0.04635500,-0.61531651,-0.98405226,0.23339086,-0.51750960,-0.37659200,0.32436249,0.95238442
10.90000000,0.27681061,0.77783600,-0.22955523,-0.47560600,0.84738239,0.40015439,0.04635500,-0.61436807,-0.98392708,0.23337593,-0.51748870,-0.37700935,0.32447896,0.95146883
10.92000000,0.27681200,0.77783759,-0.22955322,-0.47560759,0.84737941,0.40015141,0.04635500,-0.61345997,-0.98380536,0.23337219,-0.51746784,-0.37739417,0.32457910,0.95050901
10.94000000,0.27681200,0.77784057,-0.22954429,-0.47561057,0.84737643,0.40014843,0.04635500,-0.61258677,-0.98368664,0.23337814,-0.51744702,-0.37775084,0.32466511,0.94951089
10.96000000,0.27681200,0.77784354,-0.22953537,-0.47561354,0.84737346,0.40014546,0.04635500,-0.61171357,-0.98356792,0.23338409,-0.51742620,-0.37810750,0.32475111,0.94851278
10.98000000,0.27681200,0.77784652,-0.22952645,-0.47561652,0.84737048,0.40014248,0.04635500,-0.61084038,-0.98344920,0.23339003,-0.51740538,-0.37846417,0.32483712,0.94751466
11.00000000,0.27680901,0.77784650,-0.22952350,-0.47561800,0.84737050,0.40014100,0.04635500,-0.60995195,-0.98330767,0.23338701,-0.51738602,-0.37881688,0.32492640,0.94647289
11.02000000,0.27680304,0.77784352,-0.22952648,-0.47561800,0.84737348,0.40014100,0.04635500,-0.60904838,-0.98314348,0.23337507,-0.51736811,-0.37916567,0.32501895,0.94538771
11.04000000,0.27679706,0.77784053,-0.22952947,-0.47561800,0.84737647,0.40014100,0.04635500,-0.60814480,-0.98297928,0.23336313,-0.51735019,-0.37951447,0.32511150,0.94430252
11.06000000,0.27679109,0.77783755,-0.22953245,-0.47561800,0.84737945,0.40014100,0.04635500,-0.60724123,-0.98281509,0.23335119,-0.51733228,-0.37986326,0.32520404,0.94321734
11.08000000,0.27679376,0.77783600,-0.22953544,-0.47561800,0.84738100,0.40014100,0.04635500,-0.60637492,-0.98265816,0.23334788,-0.51731293,-0.38022943,0.32529938,0.94213470
11.10000000,0.27680571,0.77783600,-0.22953843,-0.47561800,0.84738100,0.40014100,0.04635500,-0.60554868,-0.98250904,0.23335385,-0.51729201,-0.38061429,0.32539771,0.94105479
11.12000000,0.27681766,0.77783600,-0.22954141,-0.47561800,0.84738100,0.40014100,0.04635500,-0.60472244,-0.98235992,0.23335983,-0.51727110,-0.38099916,0.32549604,0.93997488
11.14000000,0.27682960,0.77783600,-0.22954440,-0.47561800,0.84738100,0.40014100,0.04635500,-0.60389620,-0.98221081,0.23336580,-0.51725019,-0.38138402,0.32559437,0.93889497
11.16000000,0.27683045,0.77783739,-0.22954461,-0.47561661,0.84737822,0.40014516,0.04635500,-0.60304910,-0.98206170,0.23337039,-0.51722651,-0.38183953,0.32568309,0.93781099
11.18000000,0.27681850,0.77784037,-0.22954163,-0.47561363,0.84737225,0.40015412,0.04635500,-0.60217798,-0.98191262,0.23337337,-0.51719963,-0.38237639,0.32576075,0.93672234
11.20000000,0.27680655,0.77784336,-0.22953864,-0.47561064,0.84736628,0.40016308,0.04635500,-0.60130685,-0.98176353,0.23337636,-0.51717275,-0.38291325,0.32583840,0.93563368
11.22000000,0.27679461,0.77784635,-0.22953565,-0.47560765,0.84736030,0.40017205,0.04635500,-0.60043573,-0.98161444,0.23337935,-0.51714586,-0.38345012,0.32591606,0.93454503
11.24000000,0.27678667,0.77784933,-0.22953800,-0.47560867,0.84735967,0.40017300,0.04635500,-0.59955695,-0.98144538,0.23337299,-0.51711766,-0.38400551,0.32599758,0.93340596
11.26000000,0.27678368,0.77785232,-0.22954696,-0.47561464,0.84736564,0.40016404,0.04635500,-0.59866868,-0.98125161,0.23335508,-0.51708781,-0.38458384,0.32608390,0.93220453
11.28000000,0.27678070,0.77785530,-0.22955591,-0.47562061,0.84737161,0.40015509,0.04635500,-0.59778042,-0.98105784,0.23333718,-0.51705796,-0.38516217,0.32617021,0.93100309
11.30000000,0.27677771,0.77785829,-0.22956487,-0.47562658,0.84737758,0.40014613,0.04635500,-0.59689215,-0.98086407,0.23331927,-0.51702811,-0.38574050,0.32625652,0.92980166
11.32000000,0.27677855,0.77785618,-0.22956618,-0.47562873,0.84738100,0.40014227,0.04635500,-0.59593151,-0.98067542,0.23329754,-0.51699964,-0.38630220,0.32633529,0.92860548
11.34000000,0.27678452,0.77784723,-0.22955723,-0.47562574,0.84738100,0.40014526,0.04635500,-0.59487367,-0.98049364,0.23327068,-0.51697304,-0.38684157,0.32640393,0.92741634
11.36000000,0.27679048,0.77783828,-0.22954828,-0.47562276,0.84738100,0.40014824,0.04635500,-0.59381583,-0.98031186,0.23324383,-0.51694643,-0.38738093,0.32647256,0.92622720
11.38000000,0.27679645,0.77782932,-0.22953932,-0.47561977,0.84738100,0.40015123,0.04635500,-0.59275799,-0.98013008,0.23321697,-0.51691982,-0.38792029,0.32654119,0.92503806
11.40000000,0.27680000,0.77782400,-0.22953279,-0.47561679,0.84737979,0.40015179,0.04635500,-0.59166838,-0.97991557,0.23318889,-0.51689432,-0.38849129,0.32661590,0.92386796
11.42000000,0.27680000,0.77782400,-0.22952980,-0.47561380,0.84737680,0.40014880,0.04635500,-0.59053216,-0.97965304,0.23315903,-0.51687043,-0.38910866,0.32669951,0.92272577
11.44000000,0.27680000,0.77782400,-0.22952682,-0.47561082,0.84737382,0.40014582,0.04635500,-0.58939594,-0.97939051,0.23312917,-0.51684654,-0.38972604,0.32678312,0.92158358
11.46000000,0.27680000,0.77782400,-0.22952383,-0.47560783,0.84737083,0.40014283,0.04635500,-0.58825973,-0.97912798,0.23309931,-0.51682265,-0.39034342,0.32686673,0.92044139
11.48000000,0.27679884,0.77782400,-0.22952316,-0.47560831,0.84736900,0.40013984,0.04635500,-0.58705154,-0.97885159,0.23308331,-0.51678950,-0.39095524,0.32696068,0.91927925
11.50000000,0.27679586,0.77782400,-0.22952614,-0.47561429,0.84736900,0.40013686,0.04635500,-0.58572925,-0.97855321,0.23308929,-0.51674168,-0.39155822,0.32707101,0.91808548
11.52000000,0.27679287,0.77782400,-0.22952913,-0.47562027,0.84736900,0.40013387,0.04635500,-0.58440695,-0.97825482,0.23309527,-0.51669386,-0.39216121,0.32718135,0.91689170
11.54000000,0.27678988,0.77782400,-0.22953212,-0.47562624,0.84736900,0.40013088,0.04635500,-0.58308466,-0.97795644,0.23310124,-0.51664604,-0.39276420,0.32729169,0.91569793
11.56000000,0.27679022,0.77782511,-0.22953400,-0.47562778,0.84736678,0.40013122,0.04635500,-0.58178353,-0.97763699,0.23310722,-0.51658378,-0.39337814,0.32740645,0.91450086
11.58000000,0.27679620,0.77782810,-0.22953400,-0.47562180,0.84736080,0.40013720,0.04635500,-0.58051816,-0.97728193,0.23311320,-0.51649713,-0.39401058,0.32752871,0.91329823
11.60000000,0.27680217,0.77783109,-0.22953400,-0.47561583,0.84735483,0.40014317,0.04635500,-0.57925278,-0.97692686,0.23311917,-0.51641049,-0.39464302,0.32765096,0.91209560
11.62000000,0.27680815,0.77783407,-0.22953400,-0.47560985,0.84734885,0.40014915,0.04635500,-0.57798741,-0.97657180,0.23312515,-0.51632384,-0.39527546,0.32777322,0.91089297
