gracetata/LocomotionHEC/legged_lab/Reference Data/ArmHack/StandPerturb/TestData/ArmOnly/trajectories/representative/representative_arm_trajectory_03_source_234_239s_025x_50hz.csv
time_s,left_shoulder_pitch_joint,left_shoulder_roll_joint,left_shoulder_yaw_joint,left_elbow_joint,left_wrist_roll_joint,left_wrist_pitch_joint,left_wrist_yaw_joint,right_shoulder_pitch_joint,right_shoulder_roll_joint,right_shoulder_yaw_joint,right_elbow_joint,right_wrist_roll_joint,right_wrist_pitch_joint,right_wrist_yaw_joint
0.00000000,0.27764709,0.77754800,-0.22960877,-0.47545923,0.84735700,0.40012900,0.04633100,0.12343129,-0.78905029,0.29249653,-0.43176672,-0.80092211,0.33758723,0.09152489
0.02000000,0.27765580,0.77754800,-0.22961176,-0.47545624,0.84735700,0.40012900,0.04633100,0.12141353,-0.78917539,0.29316406,-0.43106935,-0.80026925,0.33683017,0.09329220
0.04000000,0.27766450,0.77754800,-0.22961474,-0.47545326,0.84735700,0.40012900,0.04633100,0.11939578,-0.78930049,0.29383159,-0.43037197,-0.79961640,0.33607311,0.09505951
0.06000000,0.27767321,0.77754800,-0.22961773,-0.47545027,0.84735700,0.40012900,0.04633100,0.11737802,-0.78942559,0.29449912,-0.42967460,-0.79896354,0.33531604,0.09682682
0.08000000,0.27769547,0.77754554,-0.22962068,-0.47544195,0.84735432,0.40012632,0.04633100,0.11511907,-0.78963810,0.29529191,-0.42895134,-0.79827141,0.33446946,0.09868221
0.10000000,0.27771910,0.77754283,-0.22962364,-0.47543309,0.84735136,0.40012336,0.04633100,0.11283591,-0.78985937,0.29609726,-0.42822549,-0.79757534,0.33361389,0.10054645
0.12000000,0.27774273,0.77754012,-0.22962659,-0.47542423,0.84734841,0.40012041,0.04633100,0.11055276,-0.79008065,0.29690262,-0.42749964,-0.79687927,0.33275833,0.10241068
0.14000000,0.27776636,0.77753742,-0.22962955,-0.47541536,0.84734545,0.40011745,0.04633100,0.10826961,-0.79030192,0.29770798,-0.42677378,-0.79618320,0.33190276,0.10427491
0.16000000,0.27775737,0.77753700,-0.22962747,-0.47541653,0.84733995,0.40012205,0.04633353,0.10603641,-0.79046712,0.29852065,-0.42610468,-0.79537724,0.33107751,0.10618135
0.18000000,0.27774245,0.77753700,-0.22962449,-0.47541951,0.84733398,0.40012802,0.04633651,0.10381231,-0.79062211,0.29933466,-0.42544591,-0.79455129,0.33025777,0.10809547
0.20000000,0.27772752,0.77753700,-0.22962150,-0.47542250,0.84732801,0.40013399,0.04633950,0.10158821,-0.79077710,0.30014868,-0.42478713,-0.79372534,0.32943804,0.11000959
0.22000000,0.27771259,0.77753700,-0.22961852,-0.47542548,0.84732204,0.40013996,0.04634248,0.09936410,-0.79093209,0.30096269,-0.42412836,-0.79289939,0.32861831,0.11192371
0.24000000,0.27770507,0.77753926,-0.22962047,-0.47543340,0.84732840,0.40013607,0.04634053,0.09730020,-0.79110187,0.30182573,-0.42362713,-0.79215247,0.32777873,0.11376133
0.26000000,0.27769910,0.77754200,-0.22962345,-0.47544236,0.84733736,0.40013010,0.04633755,0.09526996,-0.79127474,0.30269907,-0.42315900,-0.79142216,0.32693499,0.11558288
0.28000000,0.27769313,0.77754473,-0.22962644,-0.47545131,0.84734631,0.40012413,0.04633456,0.09323971,-0.79144762,0.30357241,-0.42269086,-0.79069185,0.32609126,0.11740443
0.30000000,0.27768716,0.77754747,-0.22962942,-0.47546026,0.84735526,0.40011816,0.04633158,0.09120946,-0.79162050,0.30444575,-0.42222272,-0.78996153,0.32524752,0.11922598
0.32000000,0.27768839,0.77755039,-0.22962283,-0.47546200,0.84735939,0.40011700,0.04633339,0.08914462,-0.79181400,0.30534568,-0.42167590,-0.78937107,0.32429593,0.12111668
0.34000000,0.27769136,0.77755336,-0.22961393,-0.47546200,0.84736236,0.40011700,0.04633636,0.08707146,-0.79201247,0.30625201,-0.42111015,-0.78881422,0.32331842,0.12302399
0.36000000,0.27769432,0.77755632,-0.22960503,-0.47546200,0.84736532,0.40011700,0.04633932,0.08499830,-0.79221094,0.30715834,-0.42054441,-0.78825738,0.32234092,0.12493131
0.38000000,0.27769729,0.77755929,-0.22959613,-0.47546200,0.84736829,0.40011700,0.04634229,0.08292514,-0.79240941,0.30806466,-0.41997867,-0.78770053,0.32136341,0.12683863
0.40000000,0.27769800,0.77756000,-0.22959627,-0.47546880,0.84736673,0.40012154,0.04634300,0.08075393,-0.79262238,0.30908851,-0.41939901,-0.78708238,0.32042909,0.12883644
0.42000000,0.27769800,0.77756000,-0.22959925,-0.47547776,0.84736375,0.40012750,0.04634300,0.07855180,-0.79283994,0.31014942,-0.41881498,-0.78644488,0.31950841,0.13086279
0.44000000,0.27769800,0.77756000,-0.22960224,-0.47548671,0.84736076,0.40013347,0.04634300,0.07634966,-0.79305749,0.31121034,-0.41823094,-0.78580739,0.31858772,0.13288915
0.46000000,0.27769800,0.77756000,-0.22960522,-0.47549566,0.84735778,0.40013944,0.04634300,0.07414752,-0.79327504,0.31227125,-0.41764690,-0.78516990,0.31766704,0.13491550
0.48000000,0.27769581,0.77755580,-0.22960819,-0.47549800,0.84735919,0.40013881,0.04634300,0.07174405,-0.79345904,0.31333315,-0.41707999,-0.78446195,0.31677327,0.13693333
0.50000000,0.27769284,0.77755010,-0.22961116,-0.47549800,0.84736216,0.40013584,0.04634300,0.06926919,-0.79363113,0.31439540,-0.41651915,-0.78372903,0.31588905,0.13894814
0.52000000,0.27768986,0.77754441,-0.22961414,-0.47549800,0.84736514,0.40013286,0.04634300,0.06679432,-0.79380322,0.31545765,-0.41595831,-0.78299610,0.31500484,0.14096294
0.54000000,0.27768689,0.77753871,-0.22961711,-0.47549800,0.84736811,0.40012989,0.04634300,0.06431945,-0.79397530,0.31651990,-0.41539748,-0.78226317,0.31412062,0.14297775
0.56000000,0.27768392,0.77753891,-0.22962008,-0.47549800,0.84736484,0.40012692,0.04634092,0.06209863,-0.79409757,0.31749359,-0.41481145,-0.78157326,0.31323579,0.14492546
0.58000000,0.27768094,0.77754163,-0.22962306,-0.47549800,0.84735889,0.40012394,0.04633794,0.05998690,-0.79419845,0.31842924,-0.41421462,-0.78090182,0.31235069,0.14684436
0.60000000,0.27767797,0.77754436,-0.22962603,-0.47549800,0.84735294,0.40012097,0.04633497,0.05787516,-0.79429933,0.31936490,-0.41361778,-0.78023038,0.31146560,0.14876327
0.62000000,0.27767500,0.77754709,-0.22962900,-0.47549800,0.84734699,0.40011800,0.04633200,0.05576343,-0.79440021,0.32030056,-0.41302094,-0.77955893,0.31058051,0.15068217
0.64000000,0.27767400,0.77754800,-0.22963198,-0.47549602,0.84734895,0.40011700,0.04633298,0.05365386,-0.79450716,0.32121431,-0.41233901,-0.77893704,0.30967760,0.15262432
0.66000000,0.27767400,0.77754800,-0.22963495,-0.47549305,0.84735490,0.40011700,0.04633595,0.05154537,-0.79461718,0.32211702,-0.41161421,-0.77834010,0.30876571,0.15457818
0.68000000,0.27767400,0.77754800,-0.22963792,-0.47549008,0.84736085,0.40011700,0.04633892,0.04943689,-0.79472721,0.32301974,-0.41088941,-0.77774316,0.30785383,0.15653204
0.70000000,0.27767400,0.77754800,-0.22964090,-0.47548710,0.84736680,0.40011700,0.04634190,0.04732840,-0.79483723,0.32392245,-0.41016461,-0.77714622,0.30694194,0.15848590
0.72000000,0.27767588,0.77754988,-0.22964012,-0.47548224,0.84736900,0.40012076,0.04634300,0.04506433,-0.79498120,0.32478630,-0.40943435,-0.77642592,0.30602412,0.16054813
0.74000000,0.27767886,0.77755286,-0.22963714,-0.47547627,0.84736900,0.40012673,0.04634300,0.04270863,-0.79514516,0.32562727,-0.40870087,-0.77563298,0.30510279,0.16267418
0.76000000,0.27768185,0.77755585,-0.22963415,-0.47547030,0.84736900,0.40013270,0.04634300,0.04035294,-0.79530912,0.32646823,-0.40796739,-0.77484003,0.30418146,0.16480022
0.78000000,0.27768484,0.77755884,-0.22963116,-0.47546433,0.84736900,0.40013867,0.04634300,0.03799725,-0.79547309,0.32730919,-0.40723391,-0.77404709,0.30326013,0.16692627
0.80000000,0.27769875,0.77755818,-0.22963000,-0.47546382,0.84736718,0.40013736,0.04634300,0.03562567,-0.79565524,0.32818995,-0.40639687,-0.77330314,0.30232802,0.16901192
0.82000000,0.27771964,0.77755519,-0.22963000,-0.47546681,0.84736419,0.40013139,0.04634300,0.03324395,-0.79584901,0.32909612,-0.40549369,-0.77259049,0.30138901,0.17107177
0.84000000,0.27774054,0.77755221,-0.22963000,-0.47546979,0.84736121,0.40012542,0.04634300,0.03086223,-0.79604278,0.33000229,-0.40459050,-0.77187784,0.30045000,0.17313161
0.86000000,0.27776143,0.77754922,-0.22963000,-0.47547278,0.84735822,0.40011945,0.04634300,0.02848051,-0.79623655,0.33090847,-0.40368731,-0.77116519,0.29951099,0.17519146
0.88000000,0.27776119,0.77754800,-0.22963000,-0.47547576,0.84735700,0.40011876,0.04634300,0.02608610,-0.79644973,0.33179716,-0.40287192,-0.77047724,0.29854542,0.17725866
0.90000000,0.27774626,0.77754800,-0.22963000,-0.47547875,0.84735700,0.40012175,0.04634300,0.02368289,-0.79667639,0.33267370,-0.40211754,-0.76980646,0.29756140,0.17933096
0.92000000,0.27773134,0.77754800,-0.22963000,-0.47548173,0.84735700,0.40012473,0.04634300,0.02127967,-0.79690305,0.33355025,-0.40136316,-0.76913568,0.29657737,0.18140326
0.94000000,0.27771641,0.77754800,-0.22963000,-0.47548472,0.84735700,0.40012772,0.04634300,0.01887646,-0.79712972,0.33442679,-0.40060878,-0.76846490,0.29559334,0.18347557
0.96000000,0.27772532,0.77754800,-0.22962830,-0.47547919,0.84736211,0.40012730,0.04633960,0.01651743,-0.79734089,0.33540140,-0.39984815,-0.76781319,0.29467812,0.18550053
0.98000000,0.27775215,0.77754800,-0.22962532,-0.47546726,0.84737105,0.40012432,0.04633363,0.01419161,-0.79754043,0.33644976,-0.39908282,-0.76717583,0.29381464,0.18748989
1.00000000,0.27777899,0.77754800,-0.22962233,-0.47545534,0.84738000,0.40012133,0.04632767,0.01186580,-0.79773996,0.33749811,-0.39831749,-0.76653847,0.29295116,0.18947926
1.02000000,0.27780583,0.77754800,-0.22961935,-0.47544341,0.84738894,0.40011835,0.04632171,0.00953999,-0.79793949,0.33854647,-0.39755215,-0.76590111,0.29208768,0.19146862
1.04000000,0.27780658,0.77754800,-0.22962126,-0.47544126,0.84739137,0.40011700,0.04631900,0.00716040,-0.79813591,0.33952544,-0.39684826,-0.76519000,0.29118114,0.19351968
1.06000000,0.27778568,0.77754800,-0.22962723,-0.47544723,0.84738838,0.40011700,0.04631900,0.00473616,-0.79832974,0.34044681,-0.39619536,-0.76441767,0.29023887,0.19562194
1.08000000,0.27776478,0.77754800,-0.22963321,-0.47545321,0.84738540,0.40011700,0.04631900,0.00231193,-0.79852357,0.34136819,-0.39554246,-0.76364534,0.28929659,0.19772421
1.10000000,0.27774388,0.77754800,-0.22963918,-0.47545918,0.84738241,0.40011700,0.04631900,-0.00011231,-0.79871740,0.34228956,-0.39488956,-0.76287300,0.28835432,0.19982647
1.12000000,0.27773400,0.77755126,-0.22964200,-0.47546200,0.84737787,0.40011700,0.04632213,-0.00254541,-0.79893077,0.34324374,-0.39416694,-0.76209238,0.28737305,0.20198082
1.14000000,0.27773400,0.77755744,-0.22964200,-0.47546200,0.84737194,0.40011700,0.04632806,-0.00498645,-0.79916165,0.34422733,-0.39338185,-0.76130432,0.28635683,0.20418184
1.16000000,0.27773400,0.77756362,-0.22964200,-0.47546200,0.84736601,0.40011700,0.04633399,-0.00742749,-0.79939252,0.34521092,-0.39259677,-0.76051627,0.28534062,0.20638285
1.18000000,0.27773400,0.77756980,-0.22964200,-0.47546200,0.84736007,0.40011700,0.04633993,-0.00986854,-0.79962340,0.34619450,-0.39181168,-0.75972821,0.28432440,0.20858387
1.20000000,0.27772825,0.77757144,-0.22964056,-0.47546632,0.84735844,0.40011556,0.04634300,-0.01242324,-0.79985366,0.34720969,-0.39105588,-0.75892928,0.28333259,0.21071824
1.22000000,0.27771631,0.77756821,-0.22963758,-0.47547527,0.84736142,0.40011258,0.04634300,-0.01510009,-0.80008324,0.34825884,-0.39033158,-0.75811867,0.28236702,0.21278097
1.24000000,0.27770437,0.77756497,-0.22963459,-0.47548422,0.84736441,0.40010959,0.04634300,-0.01777694,-0.80031282,0.34930799,-0.38960727,-0.75730805,0.28140144,0.21484370
1.26000000,0.27769243,0.77756174,-0.22963161,-0.47549318,0.84736739,0.40010661,0.04634300,-0.02045378,-0.80054239,0.35035714,-0.38888297,-0.75649744,0.28043587,0.21690643
1.28000000,0.27768600,0.77755862,-0.22962862,-0.47549662,0.84737038,0.40010638,0.04634300,-0.02303821,-0.80083934,0.35145165,-0.38814771,-0.75563317,0.27941654,0.21904048
1.30000000,0.27768600,0.77755564,-0.22962564,-0.47549364,0.84737336,0.40010936,0.04634300,-0.02551483,-0.80121485,0.35259907,-0.38739967,-0.75470633,0.27833453,0.22125773
1.32000000,0.27768600,0.77755265,-0.22962265,-0.47549065,0.84737635,0.40011235,0.04634300,-0.02799146,-0.80159035,0.35374649,-0.38665164,-0.75377950,0.27725251,0.22347498
1.34000000,0.27768600,0.77754967,-0.22961967,-0.47548767,0.84737933,0.40011533,0.04634300,-0.03046808,-0.80196586,0.35489390,-0.38590360,-0.75285266,0.27617050,0.22569223
1.36000000,0.27768217,0.77754800,-0.22961931,-0.47548600,0.84737969,0.40011569,0.04634563,-0.03284226,-0.80227577,0.35598621,-0.38523169,-0.75201641,0.27513844,0.22782160
1.38000000,0.27767346,0.77754800,-0.22962230,-0.47548600,0.84737670,0.40011270,0.04635160,-0.03508625,-0.80250231,0.35700849,-0.38465652,-0.75129527,0.27416987,0.22983930
1.40000000,0.27766476,0.77754800,-0.22962528,-0.47548600,0.84737372,0.40010972,0.04635756,-0.03733024,-0.80272884,0.35803077,-0.38408135,-0.75057413,0.27320131,0.23185701
1.42000000,0.27765606,0.77754800,-0.22962827,-0.47548600,0.84737073,0.40010673,0.04636353,-0.03957424,-0.80295538,0.35905305,-0.38350618,-0.74985298,0.27223274,0.23387471
1.44000000,0.27765840,0.77754925,-0.22963000,-0.47548475,0.84736525,0.40010750,0.04636575,-0.04187850,-0.80318444,0.36008659,-0.38282725,-0.74909800,0.27129033,0.23598497
1.46000000,0.27767606,0.77755224,-0.22963000,-0.47548176,0.84735629,0.40011347,0.04636276,-0.04426632,-0.80341701,0.36113574,-0.38200444,-0.74829609,0.27038420,0.23822355
1.48000000,0.27769372,0.77755522,-0.22963000,-0.47547878,0.84734734,0.40011944,0.04635978,-0.04665414,-0.80364957,0.36218489,-0.38118164,-0.74749418,0.26947807,0.24046213
1.50000000,0.27771138,0.77755820,-0.22963000,-0.47547580,0.84733839,0.40012541,0.04635680,-0.04904196,-0.80388214,0.36323404,-0.38035883,-0.74669227,0.26857195,0.24270072
1.52000000,0.27771843,0.77755881,-0.22962881,-0.47547757,0.84733538,0.40012662,0.04635500,-0.05146101,-0.80411821,0.36423228,-0.37959303,-0.74592475,0.26763949,0.24489334
1.54000000,0.27770947,0.77755582,-0.22962582,-0.47548653,0.84734135,0.40012065,0.04635500,-0.05392717,-0.80435957,0.36515370,-0.37891322,-0.74520911,0.26666731,0.24701661
1.56000000,0.27770051,0.77755284,-0.22962284,-0.47549549,0.84734732,0.40011468,0.04635500,-0.05639333,-0.80460094,0.36607512,-0.37823342,-0.74449347,0.26569513,0.24913988
1.58000000,0.27769156,0.77754985,-0.22961985,-0.47550444,0.84735330,0.40010870,0.04635500,-0.05885949,-0.80484231,0.36699654,-0.37755362,-0.74377784,0.26472295,0.25126315
1.60000000,0.27768827,0.77754800,-0.22961687,-0.47550546,0.84735587,0.40010613,0.04635500,-0.06126432,-0.80510984,0.36790998,-0.37689642,-0.74306213,0.26377235,0.25340892
1.62000000,0.27769424,0.77754800,-0.22961388,-0.47549352,0.84735288,0.40010912,0.04635500,-0.06356901,-0.80542010,0.36881041,-0.37627615,-0.74234632,0.26285699,0.25559145
1.64000000,0.27770021,0.77754800,-0.22961089,-0.47548158,0.84734989,0.40011211,0.04635500,-0.06587370,-0.80573036,0.36971084,-0.37565588,-0.74163051,0.26194164,0.25777397
1.66000000,0.27770618,0.77754800,-0.22960791,-0.47546964,0.84734691,0.40011509,0.04635500,-0.06817838,-0.80604062,0.37061127,-0.37503560,-0.74091469,0.26102628,0.25995649
1.68000000,0.27771215,0.77754907,-0.22960600,-0.47546200,0.84734822,0.40011807,0.04635500,-0.07053383,-0.80633324,0.37155777,-0.37436684,-0.74021703,0.26006280,0.26210955
1.70000000,0.27771810,0.77755205,-0.22960600,-0.47546200,0.84735714,0.40012105,0.04635500,-0.07297928,-0.80659457,0.37258599,-0.37361211,-0.73955155,0.25901401,0.26421037
1.72000000,0.27772405,0.77755502,-0.22960600,-0.47546200,0.84736607,0.40012402,0.04635500,-0.07542474,-0.80685590,0.37361421,-0.37285737,-0.73888608,0.25796521,0.26631118
1.74000000,0.27773000,0.77755800,-0.22960600,-0.47546200,0.84737500,0.40012700,0.04635500,-0.07787019,-0.80711723,0.37464242,-0.37210264,-0.73822060,0.25691642,0.26841199
1.76000000,0.27773010,0.77755903,-0.22960795,-0.47546395,0.84737905,0.40012997,0.04635597,-0.08032616,-0.80735038,0.37564036,-0.37136160,-0.73752207,0.25588029,0.27051264
1.78000000,0.27771821,0.77755605,-0.22961390,-0.47546990,0.84737310,0.40013295,0.04635895,-0.08280372,-0.80752563,0.37657611,-0.37064869,-0.73675562,0.25487018,0.27261293
1.80000000,0.27770631,0.77755308,-0.22961985,-0.47547585,0.84736715,0.40013592,0.04636192,-0.08528129,-0.80770088,0.37751186,-0.36993579,-0.73598917,0.25386006,0.27471322
1.82000000,0.27769441,0.77755010,-0.22962580,-0.47548180,0.84736120,0.40013890,0.04636490,-0.08775886,-0.80787613,0.37844761,-0.36922288,-0.73522272,0.25284995,0.27681351
1.84000000,0.27768600,0.77754800,-0.22963000,-0.47548513,0.84735874,0.40014013,0.04636613,-0.09024187,-0.80803402,0.37938955,-0.36851333,-0.73446930,0.25186156,0.27890439
1.86000000,0.27768600,0.77754800,-0.22963000,-0.47548215,0.84736470,0.40013715,0.04636315,-0.09273803,-0.80815007,0.38034641,-0.36781187,-0.73374725,0.25092553,0.28097258
1.88000000,0.27768600,0.77754800,-0.22963000,-0.47547918,0.84737065,0.40013418,0.04636018,-0.09523419,-0.80826611,0.38130326,-0.36711041,-0.73302521,0.24998950,0.28304077
1.90000000,0.27768600,0.77754800,-0.22963000,-0.47547620,0.84737660,0.40013120,0.04635720,-0.09773034,-0.80838215,0.38226012,-0.36640894,-0.73230317,0.24905347,0.28510895
1.92000000,0.27768375,0.77754652,-0.22963000,-0.47547631,0.84738100,0.40012746,0.04635577,-0.10015300,-0.80850336,0.38318028,-0.36573625,-0.73160363,0.24813031,0.28716347
1.94000000,0.27767512,0.77754085,-0.22963000,-0.47548519,0.84738100,0.40012154,0.04635873,-0.10236667,-0.80863925,0.38399610,-0.36514534,-0.73096809,0.24724370,0.28917910
1.96000000,0.27766649,0.77753518,-0.22963000,-0.47549407,0.84738100,0.40011562,0.04636169,-0.10458034,-0.80877513,0.38481192,-0.36455444,-0.73033255,0.24635710,0.29119474
1.98000000,0.27765786,0.77752951,-0.22963000,-0.47550295,0.84738100,0.40010970,0.04636465,-0.10679402,-0.80891102,0.38562775,-0.36396353,-0.72969700,0.24547050,0.29321038
2.00000000,0.27765279,0.77752679,-0.22962694,-0.47550755,0.84738039,0.40010745,0.04636700,-0.10905853,-0.80907594,0.38647364,-0.36332261,-0.72904206,0.24455789,0.29524839
2.02000000,0.27766149,0.77753549,-0.22961202,-0.47549561,0.84737740,0.40011939,0.04636700,-0.11151975,-0.80935317,0.38743585,-0.36248820,-0.72831208,0.24354472,0.29737295
2.04000000,0.27767019,0.77754419,-0.22959710,-0.47548368,0.84737442,0.40013132,0.04636700,-0.11398096,-0.80963039,0.38839805,-0.36165379,-0.72758209,0.24253154,0.29949752
2.06000000,0.27767889,0.77755289,-0.22958218,-0.47547175,0.84737144,0.40014325,0.04636700,-0.11644217,-0.80990762,0.38936026,-0.36081938,-0.72685211,0.24151836,0.30162208
2.08000000,0.27768545,0.77755945,-0.22957219,-0.47546310,0.84736955,0.40015355,0.04636645,-0.11890977,-0.81018867,0.39035656,-0.35998594,-0.72611599,0.24052585,0.30372943
2.10000000,0.27768247,0.77755647,-0.22958413,-0.47546907,0.84737253,0.40015653,0.04636347,-0.12140579,-0.81048677,0.39150467,-0.35915684,-0.72535258,0.23962533,0.30576014
2.12000000,0.27767948,0.77755348,-0.22959608,-0.47547504,0.84737552,0.40015952,0.04636048,-0.12390181,-0.81078487,0.39265277,-0.35832774,-0.72458917,0.23872481,0.30779084
2.14000000,0.27767649,0.77755049,-0.22960802,-0.47548101,0.84737851,0.40016251,0.04635749,-0.12639783,-0.81108297,0.39380087,-0.35749863,-0.72382575,0.23782429,0.30982155
2.16000000,0.27767158,0.77754800,-0.22961800,-0.47548600,0.84738100,0.40016303,0.04635549,-0.12886923,-0.81136538,0.39492787,-0.35668134,-0.72306727,0.23690511,0.31185173
2.18000000,0.27765690,0.77754800,-0.22961800,-0.47548600,0.84738100,0.40015109,0.04635848,-0.13121572,-0.81156815,0.39594772,-0.35592397,-0.72233379,0.23589123,0.31387925
2.20000000,0.27764222,0.77754800,-0.22961800,-0.47548600,0.84738100,0.40013915,0.04636146,-0.13356221,-0.81177093,0.39696758,-0.35516661,-0.72160031,0.23487735,0.31590677
2.22000000,0.27762755,0.77754800,-0.22961800,-0.47548600,0.84738100,0.40012721,0.04636445,-0.13590869,-0.81197371,0.39798743,-0.35440924,-0.72086683,0.23386346,0.31793428
2.24000000,0.27761630,0.77754800,-0.22961800,-0.47548557,0.84738187,0.40011700,0.04636657,-0.13822147,-0.81216954,0.39898605,-0.35367226,-0.72012464,0.23286083,0.31997230
2.26000000,0.27762526,0.77754800,-0.22961800,-0.47548258,0.84738784,0.40011700,0.04636358,-0.14033610,-0.81232459,0.39985982,-0.35305507,-0.71933125,0.23192435,0.32207199
2.28000000,0.27763422,0.77754800,-0.22961800,-0.47547959,0.84739381,0.40011700,0.04636059,-0.14245072,-0.81247963,0.40073360,-0.35243788,-0.71853786,0.23098786,0.32417169
2.30000000,0.27764318,0.77754800,-0.22961800,-0.47547661,0.84739979,0.40011700,0.04635761,-0.14456535,-0.81263468,0.40160737,-0.35182068,-0.71774447,0.23005137,0.32627138
2.32000000,0.27765100,0.77754838,-0.22961800,-0.47547362,0.84740386,0.40011776,0.04635614,-0.14668484,-0.81279351,0.40247165,-0.35120121,-0.71694545,0.22912669,0.32836227
2.34000000,0.27765100,0.77755137,-0.22961800,-0.47547063,0.84739490,0.40012373,0.04636510,-0.14883765,-0.81297837,0.40327077,-0.35056604,-0.71610776,0.22828303,0.33039267
2.36000000,0.27765100,0.77755435,-0.22961800,-0.47546765,0.84738595,0.40012970,0.04637405,-0.15099046,-0.81316322,0.40406990,-0.34993087,-0.71527007,0.22743937,0.33242307
2.38000000,0.27765100,0.77755734,-0.22961800,-0.47546466,0.84737699,0.40013567,0.04638301,-0.15314326,-0.81334807,0.40486902,-0.34929570,-0.71443238,0.22659571,0.33445347
2.40000000,0.27765353,0.77756000,-0.22961768,-0.47546200,0.84736868,0.40014036,0.04639036,-0.15531514,-0.81354145,0.40569289,-0.34864048,-0.71360765,0.22575192,0.33648644
2.42000000,0.27767703,0.77756000,-0.22961471,-0.47546200,0.84736571,0.40013442,0.04638442,-0.15764485,-0.81380536,0.40672158,-0.34781931,-0.71289011,0.22490700,0.33854061
2.44000000,0.27770053,0.77756000,-0.22961174,-0.47546200,0.84736274,0.40012849,0.04637849,-0.15997455,-0.81406928,0.40775028,-0.34699813,-0.71217258,0.22406208,0.34059477
2.46000000,0.27772403,0.77756000,-0.22960878,-0.47546200,0.84735978,0.40012255,0.04637255,-0.16230426,-0.81433319,0.40877897,-0.34617696,-0.71145504,0.22321717,0.34264894
2.48000000,0.27774503,0.77756000,-0.22960619,-0.47546239,0.84735700,0.40011739,0.04636681,-0.16463348,-0.81459314,0.40979546,-0.34536535,-0.71074499,0.22236886,0.34469304
2.50000000,0.27773011,0.77756000,-0.22960918,-0.47546836,0.84735700,0.40012336,0.04636382,-0.16695563,-0.81479585,0.41063593,-0.34469179,-0.71014306,0.22147169,0.34659186
2.52000000,0.27771519,0.77756000,-0.22961216,-0.47547433,0.84735700,0.40012933,0.04636084,-0.16927779,-0.81499857,0.41147639,-0.34401822,-0.70954113,0.22057451,0.34849068
2.54000000,0.27770026,0.77756000,-0.22961515,-0.47548030,0.84735700,0.40013530,0.04635785,-0.17159995,-0.81520128,0.41231685,-0.34334466,-0.70893920,0.21967734,0.35038949
2.56000000,0.27768640,0.77755975,-0.22961813,-0.47548613,0.84735713,0.40014087,0.04635513,-0.17391349,-0.81540241,0.41316036,-0.34267904,-0.70833409,0.21878044,0.35228698
2.58000000,0.27769535,0.77755403,-0.22962112,-0.47548912,0.84736012,0.40013788,0.04635812,-0.17604156,-0.81556928,0.41406934,-0.34218438,-0.70766037,0.21788936,0.35415592
2.60000000,0.27770430,0.77754831,-0.22962410,-0.47549210,0.84736310,0.40013490,0.04636110,-0.17816964,-0.81573616,0.41497831,-0.34168973,-0.70698666,0.21699829,0.35602486
2.62000000,0.27771326,0.77754259,-0.22962709,-0.47549509,0.84736609,0.40013191,0.04636409,-0.18029772,-0.81590303,0.41588729,-0.34119508,-0.70631295,0.21610722,0.35789380
2.64000000,0.27772200,0.77753706,-0.22962979,-0.47549800,0.84736900,0.40012900,0.04636693,-0.18242739,-0.81606907,0.41679543,-0.34069951,-0.70563848,0.21521448,0.35976488
2.66000000,0.27772200,0.77753980,-0.22962084,-0.47549800,0.84736900,0.40012900,0.04636395,-0.18462353,-0.81620011,0.41766872,-0.34016589,-0.70493229,0.21425192,0.36172554
2.68000000,0.27772200,0.77754253,-0.22961189,-0.47549800,0.84736900,0.40012900,0.04636096,-0.18681967,-0.81633115,0.41854200,-0.33963228,-0.70422610,0.21328937,0.36368620
2.70000000,0.27772200,0.77754527,-0.22960294,-0.47549800,0.84736900,0.40012900,0.04635798,-0.18901581,-0.81646219,0.41941529,-0.33909866,-0.70351992,0.21232682,0.36564687
2.72000000,0.27772196,0.77754801,-0.22959401,-0.47549801,0.84736900,0.40012899,0.04635500,-0.19121188,-0.81659320,0.42028851,-0.33856508,-0.70281399,0.21136435,0.36760742
2.74000000,0.27770132,0.77755099,-0.22959998,-0.47550398,0.84736900,0.40012601,0.04635500,-0.19337024,-0.81670364,0.42112603,-0.33805541,-0.70225058,0.21044922,0.36950633
2.76000000,0.27768067,0.77755398,-0.22960595,-0.47550995,0.84736900,0.40012302,0.04635500,-0.19552859,-0.81681408,0.42196355,-0.33754573,-0.70168718,0.20953410,0.37140524
2.78000000,0.27766003,0.77755696,-0.22961192,-0.47551592,0.84736900,0.40012004,0.04635500,-0.19768694,-0.81692453,0.42280107,-0.33703605,-0.70112377,0.20861897,0.37330415
2.80000000,0.27763938,0.77755995,-0.22961789,-0.47552189,0.84736900,0.40011705,0.04635500,-0.19984529,-0.81703497,0.42363859,-0.33652638,-0.70056037,0.20770384,0.37520306
2.82000000,0.27765336,0.77755708,-0.22961800,-0.47551032,0.84736900,0.40012284,0.04635792,-0.20199406,-0.81714192,0.42449431,-0.33589261,-0.70000156,0.20688758,0.37705836
2.84000000,0.27766799,0.77755410,-0.22961800,-0.47549841,0.84736900,0.40012879,0.04636090,-0.20414266,-0.81724880,0.42535038,-0.33525651,-0.69944283,0.20607318,0.37891284
2.86000000,0.27768263,0.77755113,-0.22961800,-0.47548651,0.84736900,0.40013475,0.04636387,-0.20629125,-0.81735569,0.42620645,-0.33462041,-0.69888411,0.20525878,0.38076731
2.88000000,0.27769726,0.77754815,-0.22961800,-0.47547460,0.84736900,0.40014070,0.04636685,-0.20843985,-0.81746257,0.42706251,-0.33398431,-0.69832538,0.20444437,0.38262179
2.90000000,0.27768690,0.77754540,-0.22961800,-0.47547683,0.84736333,0.40014100,0.04636700,-0.21074546,-0.81762931,0.42799190,-0.33329542,-0.69769687,0.20365006,0.38441436
2.92000000,0.27767521,0.77754267,-0.22961800,-0.47547982,0.84735736,0.40014100,0.04636700,-0.21305947,-0.81779925,0.42892522,-0.33260371,-0.69706462,0.20285683,0.38620361
2.94000000,0.27766351,0.77753993,-0.22961800,-0.47548281,0.84735139,0.40014100,0.04636700,-0.21537347,-0.81796920,0.42985854,-0.33191200,-0.69643238,0.20206360,0.38799286
2.96000000,0.27765182,0.77753719,-0.22961800,-0.47548579,0.84734542,0.40014100,0.04636700,-0.21768748,-0.81813914,0.43079185,-0.33122028,-0.69580013,0.20127037,0.38978211
2.98000000,0.27765100,0.77754232,-0.22962078,-0.47548878,0.84735055,0.40013545,0.04636422,-0.21977618,-0.81837012,0.43167493,-0.33064792,-0.69515718,0.20041928,0.39155397
3.00000000,0.27765100,0.77754804,-0.22962376,-0.47549176,0.84735652,0.40012948,0.04636124,-0.22184796,-0.81860568,0.43255424,-0.33008452,-0.69451344,0.19956385,0.39332453
3.02000000,0.27765100,0.77755376,-0.22962675,-0.47549475,0.84736249,0.40012351,0.04635825,-0.22391975,-0.81884124,0.43343355,-0.32952111,-0.69386969,0.19870842,0.39509509
3.04000000,0.27765100,0.77755949,-0.22962973,-0.47549773,0.84736846,0.40011754,0.04635527,-0.22599154,-0.81907680,0.43431286,-0.32895771,-0.69322594,0.19785299,0.39686565
3.06000000,0.27765892,0.77755728,-0.22963000,-0.47549257,0.84736900,0.40012243,0.04635772,-0.22797356,-0.81923899,0.43510805,-0.32845687,-0.69271221,0.19706810,0.39858180
3.08000000,0.27766763,0.77755430,-0.22963000,-0.47548660,0.84736900,0.40012840,0.04636070,-0.22994670,-0.81939393,0.43589492,-0.32796221,-0.69221134,0.19629018,0.40029257
3.10000000,0.27767633,0.77755132,-0.22963000,-0.47548063,0.84736900,0.40013437,0.04636368,-0.23191984,-0.81954887,0.43668179,-0.32746756,-0.69171047,0.19551226,0.40200334
3.12000000,0.27768503,0.77754833,-0.22963000,-0.47547466,0.84736900,0.40014034,0.04636667,-0.23389298,-0.81970380,0.43746866,-0.32697291,-0.69120960,0.19473435,0.40371410
3.14000000,0.27768865,0.77754557,-0.22963000,-0.47548196,0.84736635,0.40013304,0.04636435,-0.23577932,-0.81985349,0.43822399,-0.32636923,-0.69066628,0.19397205,0.40536473
3.16000000,0.27769164,0.77754283,-0.22963000,-0.47549092,0.84736336,0.40012408,0.04636136,-0.23765481,-0.82000253,0.43897538,-0.32575194,-0.69011766,0.19321170,0.40700784
3.18000000,0.27769463,0.77754009,-0.22963000,-0.47549988,0.84736037,0.40011512,0.04635837,-0.23953031,-0.82015156,0.43972678,-0.32513466,-0.68956905,0.19245135,0.40865095
3.20000000,0.27769761,0.77753736,-0.22963000,-0.47550883,0.84735739,0.40010617,0.04635539,-0.24140581,-0.82030060,0.44047817,-0.32451737,-0.68902043,0.19169100,0.41029407
3.22000000,0.27769800,0.77754198,-0.22963000,-0.47550740,0.84735960,0.40011019,0.04635240,-0.24328658,-0.82046003,0.44130751,-0.32381717,-0.68847179,0.19092802,0.41197339
3.24000000,0.27769800,0.77754770,-0.22963000,-0.47550442,0.84736258,0.40011617,0.04634942,-0.24516815,-0.82062101,0.44214851,-0.32310455,-0.68792315,0.19016464,0.41365814
3.26000000,0.27769800,0.77755342,-0.22963000,-0.47550143,0.84736557,0.40012214,0.04634643,-0.24704971,-0.82078200,0.44298952,-0.32239194,-0.68737450,0.18940127,0.41534289
3.28000000,0.27769800,0.77755915,-0.22963000,-0.47549845,0.84736855,0.40012811,0.04634345,-0.24893127,-0.82094298,0.44383052,-0.32167932,-0.68682586,0.18863790,0.41702764
3.30000000,0.27769546,0.77756000,-0.22962746,-0.47550054,0.84736900,0.40012646,0.04634554,-0.25071853,-0.82108128,0.44448336,-0.32112161,-0.68620373,0.18794310,0.41861031
3.32000000,0.27769248,0.77756000,-0.22962448,-0.47550352,0.84736900,0.40012348,0.04634852,-0.25248925,-0.82121559,0.44510320,-0.32059107,-0.68556872,0.18726033,0.42017508
3.34000000,0.27768949,0.77756000,-0.22962149,-0.47550651,0.84736900,0.40012049,0.04635151,-0.25425997,-0.82134991,0.44572304,-0.32006052,-0.68493371,0.18657757,0.42173985
3.36000000,0.27768651,0.77756000,-0.22961851,-0.47550949,0.84736900,0.40011751,0.04635449,-0.25603069,-0.82148422,0.44634288,-0.31952998,-0.68429870,0.18589480,0.42330462
3.38000000,0.27768352,0.77756000,-0.22962048,-0.47550256,0.84736652,0.40011700,0.04635748,-0.25777401,-0.82167287,0.44706684,-0.31893497,-0.68365643,0.18522212,0.42488205
3.40000000,0.27768054,0.77756000,-0.22962346,-0.47549361,0.84736354,0.40011700,0.04636046,-0.25951173,-0.82187261,0.44781208,-0.31832679,-0.68301268,0.18455151,0.42646207
3.42000000,0.27767755,0.77756000,-0.22962645,-0.47548465,0.84736055,0.40011700,0.04636345,-0.26124946,-0.82207235,0.44855732,-0.31771861,-0.68236893,0.18388090,0.42804209
3.44000000,0.27767457,0.77756000,-0.22962943,-0.47547570,0.84735757,0.40011700,0.04636643,-0.26298718,-0.82227209,0.44930255,-0.31711043,-0.68172518,0.18321028,0.42962211
3.46000000,0.27767400,0.77755758,-0.22962274,-0.47547884,0.84735700,0.40011700,0.04636700,-0.26467735,-0.82244043,0.44997560,-0.31656742,-0.68119215,0.18256350,0.43112752
3.48000000,0.27767400,0.77755460,-0.22961379,-0.47548481,0.84735700,0.40011700,0.04636700,-0.26635637,-0.82260142,0.45063173,-0.31603968,-0.68068506,0.18192229,0.43261546
3.50000000,0.27767400,0.77755161,-0.22960483,-0.47549078,0.84735700,0.40011700,0.04636700,-0.26803540,-0.82276240,0.45128787,-0.31551194,-0.68017797,0.18128109,0.43410339
3.52000000,0.27767400,0.77754862,-0.22959587,-0.47549675,0.84735700,0.40011700,0.04636700,-0.26971442,-0.82292339,0.45194400,-0.31498419,-0.67967088,0.18063988,0.43559132
3.54000000,0.27767636,0.77754584,-0.22960108,-0.47549564,0.84735700,0.40011700,0.04636936,-0.27147975,-0.82313862,0.45267996,-0.31443993,-0.67907466,0.17988835,0.43718964
3.56000000,0.27767935,0.77754310,-0.22961004,-0.47549265,0.84735700,0.40011700,0.04637235,-0.27326787,-0.82336816,0.45343698,-0.31389131,-0.67845491,0.17910770,0.43881710
3.58000000,0.27768233,0.77754036,-0.22961899,-0.47548967,0.84735700,0.40011700,0.04637533,-0.27505598,-0.82359771,0.45419401,-0.31334269,-0.67783516,0.17832705,0.44044455
3.60000000,0.27768531,0.77753763,-0.22962794,-0.47548669,0.84735700,0.40011700,0.04637831,-0.27684409,-0.82382725,0.45495104,-0.31279407,-0.67721542,0.17754639,0.44207201
3.62000000,0.27769289,0.77754140,-0.22963000,-0.47549289,0.84736160,0.40011700,0.04637440,-0.27844847,-0.82398782,0.45562081,-0.31230548,-0.67660247,0.17681833,0.44349239
3.64000000,0.27770185,0.77754712,-0.22963000,-0.47550185,0.84736756,0.40011700,0.04636844,-0.27999802,-0.82412781,0.45626455,-0.31183479,-0.67599155,0.17610597,0.44485099
3.66000000,0.27771080,0.77755284,-0.22963000,-0.47551080,0.84737353,0.40011700,0.04636247,-0.28154758,-0.82426779,0.45690829,-0.31136411,-0.67538063,0.17539360,0.44620958
3.68000000,0.27771975,0.77755856,-0.22963000,-0.47551975,0.84737950,0.40011700,0.04635650,-0.28309713,-0.82440778,0.45755203,-0.31089342,-0.67476971,0.17468123,0.44756818
3.70000000,0.27771530,0.77755572,-0.22963000,-0.47551753,0.84737877,0.40012147,0.04635500,-0.28458226,-0.82449196,0.45821360,-0.31049616,-0.67420556,0.17407816,0.44889376
3.72000000,0.27770635,0.77755000,-0.22963000,-0.47551156,0.84737578,0.40012744,0.04635500,-0.28604572,-0.82455737,0.45888117,-0.31012358,-0.67365713,0.17351182,0.45020824
3.74000000,0.27769739,0.77754428,-0.22963000,-0.47550559,0.84737280,0.40013341,0.04635500,-0.28750918,-0.82462278,0.45954873,-0.30975100,-0.67310871,0.17294549,0.45152272
3.76000000,0.27768844,0.77753856,-0.22963000,-0.47549962,0.84736981,0.40013938,0.04635500,-0.28897265,-0.82468819,0.46021629,-0.30937842,-0.67256028,0.17237916,0.45283720
3.78000000,0.27768383,0.77753700,-0.22963000,-0.47550235,0.84736900,0.40013883,0.04635717,-0.29046256,-0.82478205,0.46081901,-0.30899705,-0.67211149,0.17176288,0.45418461
3.80000000,0.27768084,0.77753700,-0.22963000,-0.47550832,0.84736900,0.40013584,0.04636016,-0.29196236,-0.82488655,0.46139749,-0.30861240,-0.67169997,0.17112793,0.45554433
3.82000000,0.27767786,0.77753700,-0.22963000,-0.47551429,0.84736900,0.40013286,0.04636314,-0.29346216,-0.82499105,0.46197596,-0.30822774,-0.67128844,0.17049298,0.45690405
3.84000000,0.27767487,0.77753700,-0.22963000,-0.47552026,0.84736900,0.40012987,0.04636613,-0.29496196,-0.82509555,0.46255443,-0.30784309,-0.67087692,0.16985803,0.45826378
3.86000000,0.27767400,0.77754106,-0.22962788,-0.47551988,0.84736900,0.40012688,0.04636277,-0.29639852,-0.82521680,0.46309696,-0.30744361,-0.67050135,0.16921653,0.45959181
3.88000000,0.27767400,0.77754678,-0.22962490,-0.47551690,0.84736900,0.40012390,0.04635680,-0.29780907,-0.82534494,0.46362470,-0.30703804,-0.67014056,0.16857234,0.46090682
3.90000000,0.27767400,0.77755250,-0.22962191,-0.47551391,0.84736900,0.40012091,0.04635083,-0.29921962,-0.82547308,0.46415245,-0.30663246,-0.66977977,0.16792815,0.46222182
3.92000000,0.27767400,0.77755822,-0.22961893,-0.47551093,0.84736900,0.40011793,0.04634485,-0.30063017,-0.82560122,0.46468019,-0.30622689,-0.66941899,0.16728396,0.46353682
3.94000000,0.27767400,0.77755794,-0.22961594,-0.47551000,0.84737106,0.40011494,0.04634506,-0.30197904,-0.82570278,0.46521415,-0.30584600,-0.66901493,0.16668914,0.46474913
3.96000000,0.27767400,0.77755495,-0.22961295,-0.47551000,0.84737405,0.40011195,0.04634805,-0.30330014,-0.82579236,0.46575090,-0.30547622,-0.66859140,0.16611656,0.46591520
3.98000000,0.27767400,0.77755197,-0.22960997,-0.47551000,0.84737703,0.40010897,0.04635103,-0.30462125,-0.82588194,0.46628765,-0.30510644,-0.66816787,0.16554397,0.46708128
4.00000000,0.27767400,0.77754898,-0.22960698,-0.47551000,0.84738002,0.40010598,0.04635402,-0.30594236,-0.82597153,0.46682441,-0.30473666,-0.66774434,0.16497138,0.46824736
4.02000000,0.27767800,0.77754616,-0.22960600,-0.47551000,0.84737900,0.40011101,0.04635700,-0.30737681,-0.82605289,0.46746903,-0.30429113,-0.66729715,0.16446914,0.46943091
4.04000000,0.27768397,0.77754343,-0.22960600,-0.47551000,0.84737601,0.40011996,0.04635999,-0.30886684,-0.82613023,0.46816655,-0.30380846,-0.66683835,0.16400139,0.47062304
4.06000000,0.27768994,0.77754069,-0.22960600,-0.47551000,0.84737303,0.40012891,0.04636297,-0.31035687,-0.82620757,0.46886407,-0.30332579,-0.66637956,0.16353365,0.47181516
4.08000000,0.27769591,0.77753796,-0.22960600,-0.47551000,0.84737005,0.40013786,0.04636595,-0.31184689,-0.82628490,0.46956159,-0.30284313,-0.66592076,0.16306590,0.47300728
4.10000000,0.27769234,0.77753700,-0.22960988,-0.47551194,0.84736706,0.40013712,0.04636506,-0.31325598,-0.82635078,0.47020481,-0.30242030,-0.66550630,0.16258819,0.47415701
4.12000000,0.27768364,0.77753700,-0.22961585,-0.47551492,0.84736408,0.40013115,0.04636208,-0.31462140,-0.82641048,0.47081874,-0.30202975,-0.66511575,0.16210510,0.47528388
4.14000000,0.27767493,0.77753700,-0.22962182,-0.47551791,0.84736109,0.40012518,0.04635909,-0.31598682,-0.82647019,0.47143267,-0.30163921,-0.66472521,0.16162202,0.47641074
4.16000000,0.27766622,0.77753700,-0.22962779,-0.47552089,0.84735811,0.40011921,0.04635611,-0.31735225,-0.82652989,0.47204660,-0.30124866,-0.66433466,0.16113893,0.47753761
4.18000000,0.27765926,0.77754058,-0.22962813,-0.47552200,0.84735700,0.40011513,0.04635500,-0.31864414,-0.82658940,0.47262134,-0.30093960,-0.66394909,0.16064258,0.47868707
4.20000000,0.27765332,0.77754628,-0.22962516,-0.47552200,0.84735700,0.40011216,0.04635500,-0.31989278,-0.82664880,0.47317301,-0.30067849,-0.66356646,0.16013842,0.47984983
4.22000000,0.27764738,0.77755197,-0.22962219,-0.47552200,0.84735700,0.40010919,0.04635500,-0.32114142,-0.82670820,0.47372469,-0.30041738,-0.66318382,0.15963427,0.48101258
4.24000000,0.27764144,0.77755766,-0.22961922,-0.47552200,0.84735700,0.40010622,0.04635500,-0.32239006,-0.82676760,0.47427637,-0.30015627,-0.66280119,0.15913011,0.48217534
4.26000000,0.27764413,0.77755824,-0.22961800,-0.47552024,0.84736052,0.40010852,0.04635324,-0.32361110,-0.82682880,0.47487552,-0.29989081,-0.66243846,0.15862261,0.48329600
4.28000000,0.27765284,0.77755525,-0.22961800,-0.47551725,0.84736649,0.40011449,0.04635025,-0.32481289,-0.82689125,0.47550777,-0.29962234,-0.66208962,0.15811278,0.48438732
4.30000000,0.27766155,0.77755227,-0.22961800,-0.47551427,0.84737246,0.40012046,0.04634727,-0.32601468,-0.82695370,0.47614001,-0.29935387,-0.66174078,0.15760295,0.48547864
4.32000000,0.27767026,0.77754928,-0.22961800,-0.47551128,0.84737843,0.40012643,0.04634428,-0.32721647,-0.82701616,0.47677226,-0.29908539,-0.66139193,0.15709312,0.48656995
4.34000000,0.27766577,0.77754647,-0.22961967,-0.47551167,0.84737933,0.40012733,0.04634802,-0.32836984,-0.82706643,0.47728808,-0.29882467,-0.66104632,0.15658640,0.48756217
4.36000000,0.27765134,0.77754378,-0.22962261,-0.47551461,0.84737639,0.40012439,0.04635683,-0.32948671,-0.82710753,0.47771614,-0.29856979,-0.66070313,0.15608202,0.48847969
4.38000000,0.27763691,0.77754108,-0.22962554,-0.47551754,0.84737346,0.40012146,0.04636563,-0.33060359,-0.82714862,0.47814420,-0.29831491,-0.66035995,0.15557765,0.48939721
4.40000000,0.27762248,0.77753839,-0.22962848,-0.47552048,0.84737052,0.40011852,0.04637444,-0.33172046,-0.82718971,0.47857226,-0.29806003,-0.66001677,0.15507327,0.49031473
4.42000000,0.27761785,0.77753700,-0.22962573,-0.47551773,0.84736900,0.40011985,0.04637758,-0.33279106,-0.82723379,0.47897606,-0.29778427,-0.65969824,0.15459303,0.49121240
4.44000000,0.27762376,0.77753700,-0.22961686,-0.47550886,0.84736900,0.40012576,0.04637462,-0.33381194,-0.82728106,0.47935378,-0.29748609,-0.65940621,0.15413873,0.49208874
4.46000000,0.27762967,0.77753700,-0.22960800,-0.47550000,0.84736900,0.40013167,0.04637167,-0.33483283,-0.82732834,0.47973150,-0.29718790,-0.65911418,0.15368443,0.49296508
4.48000000,0.27763558,0.77753700,-0.22959913,-0.47549113,0.84736900,0.40013758,0.04636871,-0.33585371,-0.82737562,0.48010922,-0.29688971,-0.65882214,0.15323013,0.49384142
4.50000000,0.27764026,0.77753815,-0.22959651,-0.47548851,0.84736900,0.40013849,0.04636574,-0.33683262,-0.82743189,0.48045843,-0.29657150,-0.65853262,0.15282893,0.49471034
4.52000000,0.27764324,0.77754089,-0.22960248,-0.47549448,0.84736900,0.40013252,0.04636276,-0.33775376,-0.82750055,0.48076838,-0.29622573,-0.65824655,0.15250082,0.49556905
4.54000000,0.27764623,0.77754362,-0.22960845,-0.47550045,0.84736900,0.40012655,0.04635977,-0.33867491,-0.82756920,0.48107833,-0.29587996,-0.65796048,0.15217271,0.49642776
4.56000000,0.27764921,0.77754636,-0.22961442,-0.47550642,0.84736900,0.40012058,0.04635679,-0.33959605,-0.82763786,0.48138828,-0.29553419,-0.65767441,0.15184460,0.49728646
4.58000000,0.27764980,0.77754690,-0.22961680,-0.47551000,0.84736900,0.40011820,0.04635620,-0.34052090,-0.82771839,0.48170545,-0.29516204,-0.65738103,0.15153331,0.49813680
4.60000000,0.27764682,0.77754417,-0.22961382,-0.47551000,0.84736900,0.40012118,0.04635918,-0.34145127,-0.82781668,0.48203340,-0.29475048,-0.65707671,0.15124715,0.49897461
4.62000000,0.27764383,0.77754143,-0.22961083,-0.47551000,0.84736900,0.40012417,0.04636217,-0.34238165,-0.82791497,0.48236136,-0.29433891,-0.65677239,0.15096100,0.49981242
4.64000000,0.27764085,0.77753869,-0.22960785,-0.47551000,0.84736900,0.40012715,0.04636515,-0.34331203,-0.82801326,0.48268932,-0.29392735,-0.65646807,0.15067484,0.50065023
4.66000000,0.27764232,0.77753804,-0.22960600,-0.47551228,0.84736900,0.40012900,0.04636586,-0.34418922,-0.82811941,0.48300111,-0.29355829,-0.65618226,0.15038102,0.50144974
4.68000000,0.27765100,0.77754077,-0.22960600,-0.47551823,0.84736900,0.40012900,0.04636288,-0.34498036,-0.82823828,0.48328675,-0.29325802,-0.65592641,0.15007478,0.50218728
4.70000000,0.27765969,0.77754350,-0.22960600,-0.47552419,0.84736900,0.40012900,0.04635991,-0.34577151,-0.82835715,0.48357239,-0.29295774,-0.65567055,0.14976855,0.50292483
4.72000000,0.27766838,0.77754623,-0.22960600,-0.47553014,0.84736900,0.40012900,0.04635693,-0.34656265,-0.82847602,0.48385802,-0.29265746,-0.65541469,0.14946232,0.50366237
4.74000000,0.27767199,0.77754800,-0.22960810,-0.47553190,0.84737110,0.40013005,0.04635500,-0.34737960,-0.82858653,0.48415810,-0.29237401,-0.65515696,0.14912375,0.50441002
4.76000000,0.27766629,0.77754800,-0.22961404,-0.47552596,0.84737704,0.40013302,0.04635500,-0.34824395,-0.82868169,0.48448471,-0.29212150,-0.65489577,0.14872577,0.50517623
4.78000000,0.27766059,0.77754800,-0.22961999,-0.47552001,0.84738299,0.40013600,0.04635500,-0.34910830,-0.82877685,0.48481132,-0.29186898,-0.65463458,0.14832780,0.50594245
4.80000000,0.27765489,0.77754800,-0.22962594,-0.47551406,0.84738894,0.40013897,0.04635500,-0.34997265,-0.82887201,0.48513793,-0.29161647,-0.65437339,0.14792982,0.50670867
4.82000000,0.27765006,0.77754800,-0.22962906,-0.47551000,0.84739017,0.40014194,0.04635406,-0.35080560,-0.82894642,0.48545699,-0.29139039,-0.65412633,0.14754514,0.50743614
4.84000000,0.27764709,0.77754800,-0.22962609,-0.47551000,0.84738126,0.40014491,0.04635109,-0.35157088,-0.82897613,0.48575978,-0.29122129,-0.65390969,0.14718911,0.50808011
4.86000000,0.27764412,0.77754800,-0.22962312,-0.47551000,0.84737235,0.40014788,0.04634812,-0.35233617,-0.82900584,0.48606258,-0.29105219,-0.65369305,0.14683308,0.50872408
4.88000000,0.27764115,0.77754800,-0.22962015,-0.47551000,0.84736344,0.40015085,0.04634515,-0.35310146,-0.82903555,0.48636538,-0.29088309,-0.65347641,0.14647705,0.50936805
4.90000000,0.27763900,0.77754800,-0.22961800,-0.47550834,0.84735866,0.40015217,0.04634466,-0.35386148,-0.82906448,0.48667608,-0.29070790,-0.65327355,0.14613201,0.51000476
4.92000000,0.27763900,0.77754800,-0.22961800,-0.47550236,0.84736464,0.40014918,0.04635064,-0.35460782,-0.82909137,0.48700728,-0.29051690,-0.65310645,0.14581549,0.51062260
4.94000000,0.27763900,0.77754800,-0.22961800,-0.47549639,0.84737061,0.40014619,0.04635661,-0.35535416,-0.82911827,0.48733849,-0.29032589,-0.65293935,0.14549898,0.51124044
4.96000000,0.27763900,0.77754800,-0.22961800,-0.47549041,0.84737659,0.40014320,0.04636259,-0.35610050,-0.82914516,0.48766970,-0.29013489,-0.65277225,0.14518246,0.51185828
4.98000000,0.27763822,0.77754800,-0.22961878,-0.47548756,0.84737944,0.40014022,0.04636700,-0.35685221,-0.82916656,0.48797174,-0.28996048,-0.65260454,0.14487883,0.51246769
5.00000000,0.27763524,0.77754800,-0.22962176,-0.47549352,0.84737348,0.40013724,0.04636700,-0.35761902,-0.82917252,0.48819178,-0.28983272,-0.65243510,0.14461140,0.51305340
5.02000000,0.27763226,0.77754800,-0.22962474,-0.47549947,0.84736753,0.40013426,0.04636700,-0.35838582,-0.82917847,0.48841183,-0.28970496,-0.65226567,0.14434397,0.51363911
5.04000000,0.27762929,0.77754800,-0.22962771,-0.47550542,0.84736158,0.40013129,0.04636700,-0.35915263,-0.82918442,0.48863187,-0.28957720,-0.65209623,0.14407654,0.51422482
5.06000000,0.27762907,0.77754737,-0.22962931,-0.47551069,0.84735769,0.40012969,0.04636700,-0.35991039,-0.82919309,0.48883686,-0.28943761,-0.65192875,0.14381441,0.51479503
5.08000000,0.27763803,0.77754463,-0.22962632,-0.47551368,0.84736068,0.40013268,0.04636700,-0.36063807,-0.82921075,0.48899186,-0.28925874,-0.65176779,0.14356986,0.51531374
5.10000000,0.27764698,0.77754189,-0.22962334,-0.47551666,0.84736366,0.40013566,0.04636700,-0.36136575,-0.82922841,0.48914685,-0.28907986,-0.65160683,0.14332531,0.51583245
5.12000000,0.27765594,0.77753916,-0.22962035,-0.47551965,0.84736665,0.40013865,0.04636700,-0.36209344,-0.82924608,0.48930184,-0.28890099,-0.65144587,0.14308076,0.51635115
5.14000000,0.27766300,0.77753700,-0.22961800,-0.47552137,0.84736963,0.40014100,0.04636700,-0.36279889,-0.82927643,0.48945429,-0.28872655,-0.65129056,0.14285518,0.51686856
5.16000000,0.27766300,0.77753700,-0.22961800,-0.47551838,0.84737262,0.40014100,0.04636700,-0.36342163,-0.82935403,0.48959729,-0.28856863,-0.65115626,0.14270025,0.51738112
5.18000000,0.27766300,0.77753700,-0.22961800,-0.47551540,0.84737560,0.40014100,0.04636700,-0.36404436,-0.82943162,0.48974029,-0.28841071,-0.65102197,0.14254531,0.51789368
5.20000000,0.27766300,0.77753700,-0.22961800,-0.47551241,0.84737859,0.40014100,0.04636700,-0.36466709,-0.82950921,0.48988329,-0.28825279,-0.65088767,0.14239037,0.51840624
5.22000000,0.27766243,0.77753700,-0.22961686,-0.47551000,0.84738043,0.40014043,0.04636643,-0.36526715,-0.82959245,0.49002971,-0.28810792,-0.65075741,0.14223600,0.51889551
5.24000000,0.27765945,0.77753700,-0.22961089,-0.47551000,0.84737745,0.40013745,0.04636345,-0.36577108,-0.82969966,0.49019063,-0.28801837,-0.65064423,0.14208403,0.51928602
5.26000000,0.27765646,0.77753700,-0.22960492,-0.47551000,0.84737446,0.40013446,0.04636046,-0.36627501,-0.82980686,0.49035156,-0.28792883,-0.65053106,0.14193205,0.51967653
5.28000000,0.27765348,0.77753700,-0.22959895,-0.47551000,0.84737148,0.40013148,0.04635748,-0.36677894,-0.82991406,0.49051249,-0.28783929,-0.65041789,0.14178008,0.52006703
5.30000000,0.27765151,0.77753747,-0.22959400,-0.47551051,0.84736900,0.40012900,0.04635551,-0.36726200,-0.83001622,0.49067393,-0.28774521,-0.65030370,0.14162400,0.52046211
5.32000000,0.27765449,0.77754020,-0.22959400,-0.47551349,0.84736900,0.40012900,0.04635849,-0.36764348,-0.83009381,0.49083781,-0.28762908,-0.65018458,0.14144793,0.52087939
5.34000000,0.27765748,0.77754294,-0.22959400,-0.47551648,0.84736900,0.40012900,0.04636148,-0.36802496,-0.83017140,0.49100169,-0.28751294,-0.65006546,0.14127186,0.52129668
5.36000000,0.27766046,0.77754567,-0.22959400,-0.47551946,0.84736900,0.40012900,0.04636446,-0.36840644,-0.83024899,0.49116557,-0.28739681,-0.64994635,0.14109580,0.52171397
5.38000000,0.27766255,0.77754893,-0.22959445,-0.47552155,0.84736989,0.40012855,0.04636655,-0.36877099,-0.83032212,0.49133746,-0.28727889,-0.64982897,0.14092066,0.52211834
5.40000000,0.27765957,0.77755514,-0.22959743,-0.47551857,0.84737586,0.40012557,0.04636357,-0.36903905,-0.83036987,0.49155504,-0.28715084,-0.64972155,0.14075083,0.52244906
5.42000000,0.27765659,0.77756136,-0.22960041,-0.47551559,0.84738183,0.40012259,0.04636059,-0.36930710,-0.83041761,0.49177261,-0.28702278,-0.64961413,0.14058100,0.52277977
5.44000000,0.27765360,0.77756758,-0.22960340,-0.47551260,0.84738779,0.40011960,0.04635760,-0.36957515,-0.83046535,0.49199019,-0.28689472,-0.64950671,0.14041116,0.52311048
5.46000000,0.27765100,0.77757259,-0.22960676,-0.47551038,0.84739262,0.40011700,0.04635538,-0.36983563,-0.83050814,0.49220930,-0.28676929,-0.64939779,0.14024437,0.52343554
5.48000000,0.27765100,0.77756935,-0.22961273,-0.47551337,0.84738963,0.40011700,0.04635837,-0.37004436,-0.83051710,0.49243892,-0.28666181,-0.64927863,0.14009833,0.52372188
5.50000000,0.27765100,0.77756612,-0.22961870,-0.47551635,0.84738665,0.40011700,0.04636135,-0.37025309,-0.83052606,0.49266855,-0.28655434,-0.64915946,0.13995230,0.52400823
5.52000000,0.27765100,0.77756288,-0.22962467,-0.47551934,0.84738366,0.40011700,0.04636434,-0.37046182,-0.83053501,0.49289817,-0.28644687,-0.64904030,0.13980626,0.52429458
5.54000000,0.27765100,0.77756000,-0.22962968,-0.47552104,0.84738068,0.40011700,0.04636668,-0.37066435,-0.83054396,0.49311935,-0.28634075,-0.64892501,0.13966094,0.52457916
5.56000000,0.27765100,0.77756000,-0.22962671,-0.47551212,0.84737771,0.40011700,0.04636371,-0.37081570,-0.83055288,0.49327070,-0.28624588,-0.64884178,0.13952148,0.52484916
5.58000000,0.27765100,0.77756000,-0.22962373,-0.47550320,0.84737473,0.40011700,0.04636073,-0.37096705,-0.83056180,0.49342205,-0.28615101,-0.64875855,0.13938202,0.52511917
5.60000000,0.27765100,0.77756000,-0.22962076,-0.47549428,0.84737176,0.40011700,0.04635776,-0.37111840,-0.83057072,0.49357340,-0.28605614,-0.64867532,0.13924256,0.52538917
5.62000000,0.27765100,0.77755959,-0.22961800,-0.47548663,0.84736942,0.40011742,0.04635500,-0.37127083,-0.83057942,0.49372499,-0.28596080,-0.64859209,0.13910623,0.52565649
5.64000000,0.27765100,0.77755388,-0.22961800,-0.47549558,0.84737539,0.40012339,0.04635500,-0.37143752,-0.83058539,0.49387975,-0.28585945,-0.64850887,0.13901084,0.52588875
5.66000000,0.27765100,0.77754817,-0.22961800,-0.47550452,0.84738135,0.40012935,0.04635500,-0.37160420,-0.83059135,0.49403451,-0.28575810,-0.64842566,0.13891545,0.52612102
5.68000000,0.27765100,0.77754245,-0.22961800,-0.47551346,0.84738731,0.40013531,0.04635500,-0.37177088,-0.83059731,0.49418927,-0.28565675,-0.64834244,0.13882006,0.52635328
5.70000000,0.27765100,0.77753700,-0.22961814,-0.47552214,0.84739300,0.40014073,0.04635500,-0.37193678,-0.83060354,0.49434079,-0.28555756,-0.64826056,0.13872549,0.52658420
5.72000000,0.27765100,0.77753700,-0.22962112,-0.47552512,0.84739300,0.40013476,0.04635500,-0.37208602,-0.83061548,0.49442437,-0.28550383,-0.64820683,0.13864813,0.52678693
5.74000000,0.27765100,0.77753700,-0.22962411,-0.47552811,0.84739300,0.40012879,0.04635500,-0.37223527,-0.83062742,0.49450795,-0.28545010,-0.64815310,0.13857077,0.52698966
5.76000000,0.27765100,0.77753700,-0.22962709,-0.47553109,0.84739300,0.40012282,0.04635500,-0.37238451,-0.83063936,0.49459153,-0.28539637,-0.64809937,0.13849341,0.52719238
5.78000000,0.27765100,0.77753707,-0.22963000,-0.47553400,0.84739292,0.40011700,0.04635515,-0.37253390,-0.83065138,0.49467390,-0.28534288,-0.64804520,0.13841620,0.52739375
5.80000000,0.27765100,0.77753980,-0.22963000,-0.47553400,0.84738994,0.40011700,0.04636112,-0.37268884,-0.83066630,0.49470971,-0.28529836,-0.64797357,0.13834457,0.52754272
5.82000000,0.27765100,0.77754254,-0.22963000,-0.47553400,0.84738696,0.40011700,0.04636709,-0.37284378,-0.83068122,0.49474553,-0.28525385,-0.64790195,0.13827295,0.52769169
5.84000000,0.27765100,0.77754528,-0.22963000,-0.47553400,0.84738397,0.40011700,0.04637306,-0.37299871,-0.83069614,0.49478134,-0.28520933,-0.64783032,0.13820132,0.52784066
5.86000000,0.27765100,0.77754800,-0.22962999,-0.47553400,0.84738099,0.40011702,0.04637898,-0.37315363,-0.83071107,0.49481715,-0.28516494,-0.64775876,0.13812983,0.52798962
5.88000000,0.27765100,0.77754800,-0.22962702,-0.47553400,0.84737802,0.40012296,0.04637304,-0.37330468,-0.83072863,0.49485250,-0.28515011,-0.64770265,0.13808829,0.52813770
5.90000000,0.27765100,0.77754800,-0.22962405,-0.47553400,0.84737505,0.40012889,0.04636711,-0.37345572,-0.83074618,0.49488785,-0.28513527,-0.64764653,0.13804676,0.52828578
5.92000000,0.27765100,0.77754800,-0.22962109,-0.47553400,0.84737209,0.40013482,0.04636118,-0.37360676,-0.83076373,0.49492320,-0.28512044,-0.64759042,0.13800523,0.52843385
5.94000000,0.27765100,0.77754800,-0.22961812,-0.47553400,0.84736912,0.40014076,0.04635524,-0.37375781,-0.83078128,0.49495855,-0.28510561,-0.64753430,0.13796370,0.52858193
5.96000000,0.27765100,0.77754800,-0.22961514,-0.47552828,0.84737186,0.40013528,0.04635214,-0.37390970,-0.83079917,0.49498862,-0.28508497,-0.64750338,0.13792504,0.52871677
5.98000000,0.27765100,0.77754800,-0.22961215,-0.47552231,0.84737485,0.40012931,0.04634915,-0.37406163,-0.83081707,0.49501845,-0.28506408,-0.64747355,0.13788650,0.52885104
6.00000000,0.27765100,0.77754800,-0.22960917,-0.47551634,0.84737783,0.40012334,0.04634617,-0.37421356,-0.83083498,0.49504829,-0.28504319,-0.64744371,0.13784795,0.52898532
6.02000000,0.27765100,0.77754800,-0.22960619,-0.47551037,0.84738081,0.40011737,0.04634319,-0.37436549,-0.83085288,0.49507813,-0.28502231,-0.64741387,0.13780941,0.52911959
6.04000000,0.27765100,0.77754800,-0.22960321,-0.47551000,0.84738379,0.40011700,0.04634857,-0.37448647,-0.83086793,0.49508836,-0.28499871,-0.64736463,0.13777356,0.52920580
6.06000000,0.27765100,0.77754800,-0.22960024,-0.47551000,0.84738676,0.40011700,0.04635452,-0.37460538,-0.83088280,0.49509728,-0.28497492,-0.64731409,0.13773789,0.52928879
6.08000000,0.27765100,0.77754800,-0.22959727,-0.47551000,0.84738973,0.40011700,0.04636046,-0.37472429,-0.83089766,0.49510620,-0.28495114,-0.64726355,0.13770221,0.52937178
6.10000000,0.27765100,0.77754800,-0.22959429,-0.47551000,0.84739271,0.40011700,0.04636641,-0.37484320,-0.83091253,0.49511512,-0.28492736,-0.64721301,0.13766654,0.52945477
6.12000000,0.27765100,0.77754800,-0.22960207,-0.47551000,0.84738762,0.40011431,0.04636700,-0.37497310,-0.83093014,0.49514558,-0.28490349,-0.64718380,0.13764149,0.52952485
6.14000000,0.27765100,0.77754800,-0.22961102,-0.47551000,0.84738165,0.40011133,0.04636700,-0.37510421,-0.83094805,0.49517842,-0.28487960,-0.64715693,0.13761760,0.52959352
6.16000000,0.27765100,0.77754800,-0.22961998,-0.47551000,0.84737568,0.40010834,0.04636700,-0.37523532,-0.83096596,0.49521126,-0.28485572,-0.64713006,0.13759372,0.52966218
6.18000000,0.27765100,0.77754800,-0.22962894,-0.47551000,0.84736971,0.40010535,0.04636700,-0.37536642,-0.83098387,0.49524410,-0.28483184,-0.64710319,0.13756984,0.52973084
6.20000000,0.27764839,0.77754800,-0.22963000,-0.47551261,0.84736900,0.40010761,0.04636700,-0.37549938,-0.83098861,0.49525584,-0.28481071,-0.64707387,0.13755655,0.52978059
6.22000000,0.27764542,0.77754800,-0.22963000,-0.47551558,0.84736900,0.40011058,0.04636700,-0.37563258,-0.83099158,0.49526474,-0.28478995,-0.64704421,0.13754468,0.52982780
6.24000000,0.27764246,0.77754800,-0.22963000,-0.47551854,0.84736900,0.40011354,0.04636700,-0.37576579,-0.83099454,0.49527363,-0.28476919,-0.64701456,0.13753282,0.52987500
6.26000000,0.27763949,0.77754800,-0.22963000,-0.47552151,0.84736900,0.40011651,0.04636700,-0.37589899,-0.83099751,0.49528253,-0.28474843,-0.64698490,0.13752096,0.52992220
6.28000000,0.27764149,0.77754572,-0.22963000,-0.47552200,0.84736900,0.40011949,0.04637198,-0.37602564,-0.83100797,0.49529397,-0.28474251,-0.64697003,0.13749907,0.52994744
6.30000000,0.27764448,0.77754298,-0.22963000,-0.47552200,0.84736900,0.40012248,0.04637795,-0.37615099,-0.83101990,0.49530590,-0.28473952,-0.64695810,0.13747519,0.52996833
6.32000000,0.27764746,0.77754024,-0.22963000,-0.47552200,0.84736900,0.40012546,0.04638392,-0.37627634,-0.83103184,0.49531784,-0.28473654,-0.64694616,0.13745132,0.52998922
6.34000000,0.27765044,0.77753751,-0.22963000,-0.47552200,0.84736900,0.40012844,0.04638989,-0.37640169,-0.83104378,0.49532978,-0.28473356,-0.64693422,0.13742744,0.53001011
6.36000000,0.27764615,0.77753922,-0.22962273,-0.47552200,0.84737142,0.40012900,0.04638131,-0.37650720,-0.83105569,0.49533442,-0.28472815,-0.64692251,0.13742542,0.53001642
6.38000000,0.27764020,0.77754195,-0.22961380,-0.47552200,0.84737440,0.40012900,0.04636940,-0.37660817,-0.83106760,0.49533740,-0.28472220,-0.64691085,0.13742840,0.53001940
6.40000000,0.27763424,0.77754468,-0.22960487,-0.47552200,0.84737738,0.40012900,0.04635749,-0.37670915,-0.83107951,0.49534038,-0.28471624,-0.64689919,0.13743138,0.53002238
6.42000000,0.27762829,0.77754741,-0.22959593,-0.47552200,0.84738036,0.40012900,0.04634558,-0.37681013,-0.83109142,0.49534336,-0.28471029,-0.64688753,0.13743436,0.53002536
6.44000000,0.27763168,0.77754800,-0.22959868,-0.47551966,0.84738334,0.40012666,0.04634768,-0.37687879,-0.83110102,0.49534166,-0.28471368,-0.64688266,0.13742798,0.53003068
6.46000000,0.27763765,0.77754800,-0.22960465,-0.47551667,0.84738633,0.40012367,0.04635365,-0.37693852,-0.83110998,0.49533867,-0.28471965,-0.64687967,0.13741902,0.53003665
6.48000000,0.27764363,0.77754800,-0.22961063,-0.47551369,0.84738931,0.40012069,0.04635963,-0.37699826,-0.83111894,0.49533569,-0.28472563,-0.64687669,0.13741006,0.53004263
6.50000000,0.27764960,0.77754800,-0.22961660,-0.47551070,0.84739230,0.40011770,0.04636560,-0.37705799,-0.83112790,0.49533270,-0.28473160,-0.64687370,0.13740110,0.53004860
6.52000000,0.27765100,0.77754800,-0.22962028,-0.47551000,0.84738843,0.40011472,0.04636472,-0.37708114,-0.83113685,0.49532972,-0.28473072,-0.64686386,0.13739443,0.53006142
6.54000000,0.27765100,0.77754800,-0.22962327,-0.47551000,0.84738246,0.40011173,0.04636173,-0.37709308,-0.83114581,0.49532673,-0.28472773,-0.64685192,0.13738846,0.53007635
6.56000000,0.27765100,0.77754800,-0.22962626,-0.47551000,0.84737649,0.40010874,0.04635874,-0.37710502,-0.83115477,0.49532374,-0.28472474,-0.64683998,0.13738249,0.53009128
6.58000000,0.27765100,0.77754800,-0.22962924,-0.47551000,0.84737052,0.40010576,0.04635576,-0.37711696,-0.83116372,0.49532076,-0.28472176,-0.64682804,0.13737652,0.53010620
6.60000000,0.27765100,0.77754596,-0.22962777,-0.47551223,0.84736900,0.40011168,0.04635500,-0.37712223,-0.83117045,0.49532668,-0.28471209,-0.64682277,0.13736609,0.53011000
6.62000000,0.27765100,0.77754322,-0.22962479,-0.47551521,0.84736900,0.40012064,0.04635500,-0.37712521,-0.83117642,0.49533564,-0.28470015,-0.64681979,0.13735415,0.53011000
6.64000000,0.27765100,0.77754048,-0.22962180,-0.47551820,0.84736900,0.40012959,0.04635500,-0.37712820,-0.83118240,0.49534459,-0.28468821,-0.64681680,0.13734221,0.53011000
6.66000000,0.27765100,0.77753775,-0.22961882,-0.47552118,0.84736900,0.40013855,0.04635500,-0.37713118,-0.83118837,0.49535355,-0.28467626,-0.64681382,0.13733026,0.53011000
6.68000000,0.27764666,0.77753899,-0.22962017,-0.47552417,0.84737117,0.40014100,0.04635283,-0.37713200,-0.83119000,0.49536034,-0.28467300,-0.64680649,0.13732266,0.53011868
6.70000000,0.27764069,0.77754173,-0.22962316,-0.47552716,0.84737416,0.40014100,0.04634984,-0.37713200,-0.83119000,0.49536631,-0.28467300,-0.64679753,0.13731669,0.53013062
6.72000000,0.27763472,0.77754446,-0.22962614,-0.47553014,0.84737714,0.40014100,0.04634686,-0.37713200,-0.83119000,0.49537228,-0.28467300,-0.64678858,0.13731072,0.53014256
6.74000000,0.27762875,0.77754720,-0.22962913,-0.47553313,0.84738013,0.40014100,0.04634387,-0.37713200,-0.83119000,0.49537825,-0.28467300,-0.64677962,0.13730475,0.53015451
6.76000000,0.27762910,0.77754607,-0.22962369,-0.47553190,0.84737890,0.40013890,0.04634721,-0.37713200,-0.83119421,0.49538000,-0.28466879,-0.64677490,0.13730300,0.53016221
6.78000000,0.27763208,0.77754334,-0.22961476,-0.47552892,0.84737592,0.40013592,0.04635316,-0.37713200,-0.83120016,0.49538000,-0.28466284,-0.64677192,0.13730300,0.53016816
6.80000000,0.27763506,0.77754062,-0.22960583,-0.47552594,0.84737294,0.40013294,0.04635911,-0.37713200,-0.83120611,0.49538000,-0.28465689,-0.64676894,0.13730300,0.53017411
6.82000000,0.27763803,0.77753789,-0.22959691,-0.47552297,0.84736997,0.40012997,0.04636506,-0.37713200,-0.83121206,0.49538000,-0.28465094,-0.64676597,0.13730300,0.53018006
6.84000000,0.27764101,0.77754085,-0.22960003,-0.47552200,0.84737101,0.40013101,0.04636499,-0.37713602,-0.83121601,0.49538000,-0.28463895,-0.64677304,0.13729898,0.53018200
6.86000000,0.27764399,0.77754656,-0.22960897,-0.47552200,0.84737399,0.40013399,0.04636201,-0.37714198,-0.83121899,0.49538000,-0.28462405,-0.64678496,0.13729302,0.53018200
6.88000000,0.27764697,0.77755228,-0.22961791,-0.47552200,0.84737697,0.40013697,0.04635903,-0.37714794,-0.83122197,0.49538000,-0.28460915,-0.64679688,0.13728706,0.53018200
6.90000000,0.27764995,0.77755799,-0.22962685,-0.47552200,0.84737995,0.40013995,0.04635605,-0.37715390,-0.83122495,0.49538000,-0.28459425,-0.64680880,0.13728110,0.53018200
6.92000000,0.27764907,0.77755807,-0.22963000,-0.47552200,0.84738100,0.40013713,0.04635693,-0.37715987,-0.83122793,0.49538387,-0.28457176,-0.64680333,0.13727320,0.53018200
6.94000000,0.27764608,0.77755508,-0.22963000,-0.47552200,0.84738100,0.40013116,0.04635992,-0.37716584,-0.83123092,0.49538984,-0.28454514,-0.64678841,0.13726424,0.53018200
6.96000000,0.27764310,0.77755210,-0.22963000,-0.47552200,0.84738100,0.40012519,0.04636290,-0.37717181,-0.83123390,0.49539581,-0.28451853,-0.64677348,0.13725529,0.53018200
6.98000000,0.27764011,0.77754911,-0.22963000,-0.47552200,0.84738100,0.40011922,0.04636589,-0.37717778,-0.83123689,0.49540178,-0.28449191,-0.64675856,0.13724633,0.53018200
7.00000000,0.27764087,0.77754800,-0.22962813,-0.47552200,0.84737913,0.40011700,0.04636700,-0.37718922,-0.83123425,0.49540962,-0.28445389,-0.64675113,0.13723738,0.53018200
7.02000000,0.27764386,0.77754800,-0.22962514,-0.47552200,0.84737614,0.40011700,0.04636700,-0.37720390,-0.83122828,0.49541858,-0.28440909,-0.64674814,0.13722842,0.53018200
7.04000000,0.27764685,0.77754800,-0.22962215,-0.47552200,0.84737315,0.40011700,0.04636700,-0.37721858,-0.83122231,0.49542754,-0.28436429,-0.64674515,0.13721946,0.53018200
7.06000000,0.27764983,0.77754800,-0.22961917,-0.47552200,0.84737017,0.40011700,0.04636700,-0.37723326,-0.83121633,0.49543650,-0.28431950,-0.64674217,0.13721050,0.53018200
7.08000000,0.27764736,0.77754982,-0.22961800,-0.47552382,0.84737082,0.40011700,0.04636518,-0.37724810,-0.83121400,0.49544182,-0.28424560,-0.64675192,0.13719790,0.53018200
7.10000000,0.27764139,0.77755280,-0.22961800,-0.47552680,0.84737380,0.40011700,0.04636220,-0.37726302,-0.83121400,0.49544480,-0.28415306,-0.64676983,0.13718298,0.53018200
7.12000000,0.27763542,0.77755579,-0.22961800,-0.47552979,0.84737679,0.40011700,0.04635921,-0.37727795,-0.83121400,0.49544779,-0.28406051,-0.64678774,0.13716805,0.53018200
7.14000000,0.27762945,0.77755878,-0.22961800,-0.47553278,0.84737978,0.40011700,0.04635622,-0.37729288,-0.83121400,0.49545078,-0.28396796,-0.64680565,0.13715312,0.53018200
7.16000000,0.27763052,0.77755663,-0.22961976,-0.47553048,0.84738100,0.40011700,0.04635500,-0.37731837,-0.83121224,0.49546256,-0.28383507,-0.64681476,0.13713482,0.53018200
7.18000000,0.27763649,0.77755090,-0.22962275,-0.47552451,0.84738100,0.40011700,0.04635500,-0.37735121,-0.83120925,0.49548048,-0.28367410,-0.64681775,0.13711417,0.53018200
7.20000000,0.27764246,0.77754518,-0.22962573,-0.47551854,0.84738100,0.40011700,0.04635500,-0.37738405,-0.83120627,0.49549839,-0.28351314,-0.64682073,0.13709352,0.53018200
7.22000000,0.27764843,0.77753946,-0.22962872,-0.47551257,0.84738100,0.40011700,0.04635500,-0.37741689,-0.83120328,0.49551630,-0.28335218,-0.64682372,0.13707287,0.53018200
7.24000000,0.27765270,0.77753700,-0.22963170,-0.47551000,0.84738100,0.40011700,0.04635670,-0.37745306,-0.83120370,0.49552909,-0.28316774,-0.64682839,0.13705042,0.53018030
7.26000000,0.27765567,0.77753700,-0.22963467,-0.47551000,0.84738100,0.40011700,0.04635967,-0.37749175,-0.83120667,0.49553802,-0.28296560,-0.64683435,0.13702661,0.53017733
7.28000000,0.27765865,0.77753700,-0.22963765,-0.47551000,0.84738100,0.40011700,0.04636265,-0.37753045,-0.83120965,0.49554695,-0.28276345,-0.64684030,0.13700280,0.53017435
7.30000000,0.27766163,0.77753700,-0.22964063,-0.47551000,0.84738100,0.40011700,0.04636563,-0.37756914,-0.83121263,0.49555588,-0.28256131,-0.64684625,0.13697899,0.53017137
7.32000000,0.27766139,0.77753847,-0.22963879,-0.47551161,0.84738100,0.40012021,0.04636700,-0.37760950,-0.83120918,0.49557768,-0.28234923,-0.64684579,0.13695515,0.53016357
7.34000000,0.27765841,0.77754121,-0.22963282,-0.47551459,0.84738100,0.40012618,0.04636700,-0.37765128,-0.83120023,0.49561050,-0.28212862,-0.64683982,0.13693127,0.53015163
7.36000000,0.27765542,0.77754394,-0.22962685,-0.47551758,0.84738100,0.40013215,0.04636700,-0.37769306,-0.83119127,0.49564333,-0.28190802,-0.64683385,0.13690739,0.53013970
7.38000000,0.27765244,0.77754668,-0.22962088,-0.47552056,0.84738100,0.40013812,0.04636700,-0.37773484,-0.83118232,0.49567616,-0.28168742,-0.64682788,0.13688352,0.53012776
7.40000000,0.27765100,0.77754658,-0.22961955,-0.47552045,0.84738255,0.40014100,0.04636545,-0.37778578,-0.83117645,0.49570887,-0.28146535,-0.64683273,0.13685036,0.53011891
7.42000000,0.27765100,0.77754385,-0.22962253,-0.47551747,0.84738553,0.40014100,0.04636247,-0.37784524,-0.83117347,0.49574146,-0.28124193,-0.64684766,0.13680857,0.53011294
7.44000000,0.27765100,0.77754111,-0.22962552,-0.47551448,0.84738852,0.40014100,0.04635948,-0.37790471,-0.83117048,0.49577406,-0.28101850,-0.64686258,0.13676677,0.53010697
7.46000000,0.27765100,0.77753837,-0.22962850,-0.47551150,0.84739150,0.40014100,0.04635650,-0.37796417,-0.83116750,0.49580665,-0.28079507,-0.64687751,0.13672497,0.53010100
7.48000000,0.27765100,0.77753700,-0.22962851,-0.47551149,0.84739300,0.40013951,0.04635500,-0.37803268,-0.83116302,0.49584234,-0.28056410,-0.64688636,0.13668763,0.53008907
7.50000000,0.27765100,0.77753700,-0.22962553,-0.47551447,0.84739300,0.40013653,0.04635500,-0.37811029,-0.83115705,0.49588115,-0.28032555,-0.64688910,0.13665480,0.53007116
7.52000000,0.27765100,0.77753700,-0.22962254,-0.47551746,0.84739300,0.40013354,0.04635500,-0.37818791,-0.83115108,0.49591995,-0.28008699,-0.64689184,0.13662196,0.53005325
7.54000000,0.27765100,0.77753700,-0.22961956,-0.47552044,0.84739300,0.40013056,0.04635500,-0.37826552,-0.83114511,0.49595876,-0.27984843,-0.64689457,0.13658913,0.53003534
7.56000000,0.27765100,0.77753830,-0.22961942,-0.47552058,0.84739300,0.40012900,0.04635642,-0.37835012,-0.83113631,0.49600462,-0.27959462,-0.64689885,0.13653654,0.53000193
7.58000000,0.27765100,0.77754103,-0.22962240,-0.47551760,0.84739300,0.40012900,0.04635940,-0.37844233,-0.83112441,0.49605816,-0.27932417,-0.64690480,0.13646242,0.52995160
7.60000000,0.27765100,0.77754376,-0.22962537,-0.47551463,0.84739300,0.40012900,0.04636237,-0.37853455,-0.83111251,0.49611171,-0.27905371,-0.64691075,0.13638830,0.52990128
7.62000000,0.27765100,0.77754648,-0.22962835,-0.47551165,0.84739300,0.40012900,0.04636535,-0.37862676,-0.83110061,0.49616525,-0.27878326,-0.64691669,0.13631418,0.52985096
7.64000000,0.27765100,0.77754800,-0.22963000,-0.47551132,0.84739036,0.40012768,0.04636700,-0.37872537,-0.83108872,0.49622402,-0.27852375,-0.64693451,0.13624662,0.52981245
7.66000000,0.27765100,0.77754800,-0.22963000,-0.47551429,0.84738443,0.40012471,0.04636700,-0.37883197,-0.83107685,0.49628931,-0.27827790,-0.64696716,0.13618726,0.52978870
7.68000000,0.27765100,0.77754800,-0.22963000,-0.47551725,0.84737849,0.40012175,0.04636700,-0.37893857,-0.83106498,0.49635461,-0.27803206,-0.64699980,0.13612790,0.52976496
7.70000000,0.27765100,0.77754800,-0.22963000,-0.47552022,0.84737255,0.40011878,0.04636700,-0.37904517,-0.83105311,0.49641990,-0.27778621,-0.64703245,0.13606854,0.52974122
7.72000000,0.27765220,0.77754690,-0.22962880,-0.47552080,0.84736900,0.40011700,0.04636820,-0.37918070,-0.83103643,0.49649599,-0.27750149,-0.64705320,0.13599232,0.52969709
7.74000000,0.27765518,0.77754417,-0.22962582,-0.47551782,0.84736900,0.40011700,0.04637118,-0.37935940,-0.83101257,0.49658821,-0.27715875,-0.64705618,0.13589091,0.52962252
7.76000000,0.27765816,0.77754144,-0.22962284,-0.47551484,0.84736900,0.40011700,0.04637416,-0.37953811,-0.83098871,0.49668042,-0.27681600,-0.64705916,0.13578950,0.52954796
7.78000000,0.27766114,0.77753870,-0.22961986,-0.47551186,0.84736900,0.40011700,0.04637714,-0.37971681,-0.83096485,0.49677263,-0.27647326,-0.64706214,0.13568810,0.52947339
7.80000000,0.27766187,0.77753803,-0.22961800,-0.47551113,0.84737013,0.40011813,0.04637787,-0.37990685,-0.83092970,0.49686938,-0.27609676,-0.64707077,0.13559013,0.52939213
7.82000000,0.27765889,0.77754077,-0.22961800,-0.47551411,0.84737311,0.40012111,0.04637489,-0.38011556,-0.83087597,0.49697361,-0.27566467,-0.64708868,0.13549784,0.52929984
7.84000000,0.27765590,0.77754351,-0.22961800,-0.47551710,0.84737610,0.40012410,0.04637190,-0.38032426,-0.83082224,0.49707784,-0.27523258,-0.64710659,0.13540556,0.52920756
7.86000000,0.27765292,0.77754624,-0.22961800,-0.47552008,0.84737908,0.40012708,0.04636892,-0.38053297,-0.83076851,0.49718206,-0.27480049,-0.64712450,0.13531327,0.52911527
7.88000000,0.27764887,0.77754702,-0.22961800,-0.47552200,0.84737994,0.40012900,0.04636806,-0.38074991,-0.83069685,0.49727879,-0.27434547,-0.64714770,0.13522101,0.52901876
7.90000000,0.27764292,0.77754430,-0.22961800,-0.47552200,0.84737696,0.40012900,0.04637104,-0.38098163,-0.83059300,0.49736207,-0.27384932,-0.64718042,0.13512882,0.52891467
7.92000000,0.27763698,0.77754157,-0.22961800,-0.47552200,0.84737399,0.40012900,0.04637401,-0.38121336,-0.83048916,0.49744534,-0.27335316,-0.64721313,0.13503663,0.52881058
7.94000000,0.27763103,0.77753885,-0.22961800,-0.47552200,0.84737101,0.40012900,0.04637699,-0.38144508,-0.83038532,0.49752861,-0.27285700,-0.64724585,0.13494443,0.52870649
7.96000000,0.27762988,0.77753700,-0.22961800,-0.47552200,0.84736804,0.40012996,0.04637708,-0.38169698,-0.83027760,0.49763201,-0.27236075,-0.64728242,0.13485709,0.52859572
7.98000000,0.27763881,0.77753700,-0.22961800,-0.47552200,0.84736506,0.40013294,0.04637112,-0.38199123,-0.83016174,0.49777765,-0.27186429,-0.64732707,0.13477993,0.52847092
8.00000000,0.27764775,0.77753700,-0.22961800,-0.47552200,0.84736208,0.40013592,0.04636517,-0.38228548,-0.83004587,0.49792328,-0.27136784,-0.64737173,0.13470277,0.52834613
8.02000000,0.27765668,0.77753700,-0.22961800,-0.47552200,0.84735911,0.40013889,0.04635921,-0.38257973,-0.82993001,0.49806892,-0.27087139,-0.64741639,0.13462561,0.52822133
8.04000000,0.27766213,0.77753780,-0.22961800,-0.47552113,0.84735874,0.40014100,0.04635674,-0.38287902,-0.82979251,0.49821621,-0.27037783,-0.64745929,0.13453801,0.52809740
8.06000000,0.27765916,0.77754052,-0.22961800,-0.47551816,0.84736468,0.40014100,0.04636268,-0.38319051,-0.82960259,0.49836750,-0.26989127,-0.64749791,0.13442510,0.52797558
8.08000000,0.27765619,0.77754324,-0.22961800,-0.47551519,0.84737062,0.40014100,0.04636862,-0.38350201,-0.82941267,0.49851879,-0.26940472,-0.64753654,0.13431219,0.52785375
8.10000000,0.27765322,0.77754597,-0.22961800,-0.47551222,0.84737656,0.40014100,0.04637456,-0.38381350,-0.82922275,0.49867008,-0.26891816,-0.64757517,0.13419928,0.52773193
8.12000000,0.27764949,0.77754800,-0.22961875,-0.47551075,0.84738025,0.40013949,0.04637749,-0.38412215,-0.82901995,0.49881620,-0.26842912,-0.64762129,0.13407809,0.52760107
8.14000000,0.27764354,0.77754800,-0.22962173,-0.47551373,0.84737727,0.40013354,0.04637154,-0.38442240,-0.82877919,0.49894711,-0.26793274,-0.64768948,0.13393255,0.52744363
8.16000000,0.27763759,0.77754800,-0.22962471,-0.47551671,0.84737429,0.40012759,0.04636559,-0.38472266,-0.82853844,0.49907803,-0.26743636,-0.64775766,0.13378701,0.52728619
8.18000000,0.27763164,0.77754800,-0.22962768,-0.47551968,0.84737132,0.40012164,0.04635964,-0.38502292,-0.82829769,0.49920894,-0.26693998,-0.64782584,0.13364146,0.52712874
8.20000000,0.27762832,0.77754800,-0.22962868,-0.47552134,0.84736900,0.40011897,0.04635566,-0.38533256,-0.82804952,0.49934516,-0.26643802,-0.64789216,0.13349450,0.52696855
8.22000000,0.27763429,0.77754800,-0.22962271,-0.47551836,0.84736900,0.40012793,0.04635864,-0.38567538,-0.82777512,0.49950015,-0.26591633,-0.64795187,0.13334249,0.52679863
8.24000000,0.27764026,0.77754800,-0.22961674,-0.47551537,0.84736900,0.40013689,0.04636163,-0.38601820,-0.82750071,0.49965514,-0.26539463,-0.64801157,0.13319049,0.52662872
8.26000000,0.27764623,0.77754800,-0.22961077,-0.47551239,0.84736900,0.40014584,0.04636461,-0.38636102,-0.82722630,0.49981013,-0.26487294,-0.64807128,0.13303848,0.52645880
8.28000000,0.27764980,0.77754800,-0.22960720,-0.47551060,0.84736900,0.40015180,0.04636760,-0.38670317,-0.82695800,0.49996030,-0.26434417,-0.64812678,0.13287992,0.52628592
8.30000000,0.27764384,0.77754800,-0.22961316,-0.47551358,0.84736900,0.40014584,0.04637058,-0.38704265,-0.82671395,0.50009127,-0.26378723,-0.64816555,0.13269527,0.52610127
8.32000000,0.27763787,0.77754800,-0.22961913,-0.47551656,0.84736900,0.40013987,0.04637356,-0.38738213,-0.82646990,0.50022224,-0.26323029,-0.64820432,0.13251062,0.52591662
8.34000000,0.27763191,0.77754800,-0.22962509,-0.47551955,0.84736900,0.40013391,0.04637655,-0.38772161,-0.82622585,0.50035321,-0.26267336,-0.64824309,0.13232597,0.52573197
8.36000000,0.27762753,0.77754752,-0.22962947,-0.47552147,0.84736900,0.40012847,0.04637847,-0.38806300,-0.82598716,0.50048832,-0.26210832,-0.64829074,0.13214142,0.52554584
8.38000000,0.27763050,0.77754479,-0.22962650,-0.47551850,0.84736900,0.40012550,0.04637550,-0.38841328,-0.82577338,0.50064265,-0.26150562,-0.64837967,0.13195737,0.52535287
8.40000000,0.27763347,0.77754207,-0.22962353,-0.47551553,0.84736900,0.40012253,0.04637253,-0.38876355,-0.82555959,0.50079698,-0.26090291,-0.64846860,0.13177331,0.52515989
8.42000000,0.27763644,0.77753934,-0.22962056,-0.47551256,0.84736900,0.40011956,0.04636956,-0.38911383,-0.82534581,0.50095131,-0.26030021,-0.64855754,0.13158925,0.52496692
8.44000000,0.27763941,0.77753700,-0.22961800,-0.47551000,0.84736900,0.40011783,0.04636659,-0.38946474,-0.82512429,0.50111093,-0.25968549,-0.64864188,0.13140615,0.52477117
8.46000000,0.27764237,0.77753700,-0.22961800,-0.47551000,0.84736900,0.40012375,0.04636363,-0.38981954,-0.82485529,0.50130300,-0.25899709,-0.64869810,0.13122887,0.52455839
8.48000000,0.27764533,0.77753700,-0.22961800,-0.47551000,0.84736900,0.40012966,0.04636067,-0.39017434,-0.82458629,0.50149507,-0.25830869,-0.64875431,0.13105159,0.52434560
8.50000000,0.27764829,0.77753700,-0.22961800,-0.47551000,0.84736900,0.40013558,0.04635771,-0.39052914,-0.82431729,0.50168714,-0.25762030,-0.64881053,0.13087431,0.52413282
8.52000000,0.27765075,0.77753723,-0.22961825,-0.47551025,0.84736925,0.40014050,0.04635525,-0.39088066,-0.82404711,0.50187885,-0.25692232,-0.64886878,0.13069640,0.52391940
8.54000000,0.27764776,0.77753997,-0.22962124,-0.47551324,0.84737224,0.40013453,0.04635824,-0.39119653,-0.82376407,0.50206663,-0.25612045,-0.64894912,0.13051160,0.52369904
8.56000000,0.27764478,0.77754270,-0.22962422,-0.47551622,0.84737522,0.40012856,0.04636122,-0.39151241,-0.82348103,0.50225441,-0.25531858,-0.64902945,0.13032681,0.52347867
8.58000000,0.27764179,0.77754544,-0.22962721,-0.47551921,0.84737821,0.40012259,0.04636421,-0.39182828,-0.82319798,0.50244220,-0.25451671,-0.64910979,0.13014201,0.52325831
8.60000000,0.27763938,0.77754800,-0.22962962,-0.47552181,0.84738100,0.40011738,0.04636719,-0.39214816,-0.82290884,0.50263265,-0.25370951,-0.64918938,0.12995587,0.52303849
8.62000000,0.27764535,0.77754800,-0.22962365,-0.47551882,0.84738100,0.40012335,0.04637018,-0.39252680,-0.82253020,0.50286227,-0.25282410,-0.64925804,0.12975013,0.52282678
8.64000000,0.27765132,0.77754800,-0.22961768,-0.47551584,0.84738100,0.40012932,0.04637316,-0.39290545,-0.82215155,0.50309190,-0.25193869,-0.64932671,0.12954439,0.52261507
8.66000000,0.27765729,0.77754800,-0.22961171,-0.47551285,0.84738100,0.40013529,0.04637615,-0.39328409,-0.82177291,0.50332152,-0.25105328,-0.64939537,0.12933865,0.52240335
8.68000000,0.27766287,0.77754813,-0.22960600,-0.47551013,0.84738087,0.40014100,0.04637887,-0.39366339,-0.82139163,0.50355181,-0.25016642,-0.64946443,0.12913489,0.52219112
8.70000000,0.27765988,0.77755112,-0.22960600,-0.47551312,0.84737788,0.40014100,0.04637588,-0.39405689,-0.82095336,0.50379631,-0.24924835,-0.64954203,0.12897396,0.52196751
8.72000000,0.27765690,0.77755410,-0.22960600,-0.47551610,0.84737490,0.40014100,0.04637290,-0.39445038,-0.82051510,0.50404081,-0.24833029,-0.64961964,0.12881303,0.52174390
8.74000000,0.27765391,0.77755709,-0.22960600,-0.47551909,0.84737191,0.40014100,0.04636991,-0.39484387,-0.82007683,0.50428532,-0.24741222,-0.64969724,0.12865210,0.52152029
8.76000000,0.27765107,0.77755993,-0.22960614,-0.47552193,0.84736893,0.40014100,0.04636707,-0.39523999,-0.81963573,0.50453301,-0.24648889,-0.64977442,0.12848897,0.52129625
8.78000000,0.27765406,0.77755694,-0.22961211,-0.47551894,0.84736594,0.40014100,0.04637006,-0.39574382,-0.81907816,0.50491169,-0.24534986,-0.64983388,0.12823543,0.52105466
8.80000000,0.27765704,0.77755396,-0.22961808,-0.47551596,0.84736296,0.40014100,0.04637304,-0.39624765,-0.81852058,0.50529038,-0.24421083,-0.64989334,0.12798190,0.52081307
8.82000000,0.27766003,0.77755097,-0.22962406,-0.47551297,0.84735997,0.40014100,0.04637603,-0.39675149,-0.81796301,0.50566906,-0.24307179,-0.64995281,0.12772837,0.52057148
8.84000000,0.27766300,0.77754799,-0.22963000,-0.47551000,0.84735701,0.40014097,0.04637897,-0.39725550,-0.81740579,0.50604787,-0.24193316,-0.65001234,0.12747459,0.52032956
8.86000000,0.27766300,0.77754525,-0.22963000,-0.47551000,0.84736000,0.40013500,0.04637300,-0.39779806,-0.81692592,0.50645336,-0.24088062,-0.65008697,0.12716761,0.52001661
8.88000000,0.27766300,0.77754251,-0.22963000,-0.47551000,0.84736298,0.40012903,0.04636703,-0.39834062,-0.81644604,0.50685885,-0.23982808,-0.65016160,0.12686063,0.51970366
8.90000000,0.27766300,0.77753978,-0.22963000,-0.47551000,0.84736597,0.40012306,0.04636106,-0.39888319,-0.81596617,0.50726434,-0.23877554,-0.65023624,0.12655365,0.51939071
8.92000000,0.27766300,0.77753704,-0.22963000,-0.47551000,0.84736895,0.40011709,0.04635509,-0.39942575,-0.81548629,0.50766984,-0.23772300,-0.65031087,0.12624667,0.51907776
8.94000000,0.27765418,0.77754264,-0.22963000,-0.47551000,0.84736900,0.40011700,0.04636088,-0.39995955,-0.81504141,0.50805773,-0.23660592,-0.65041172,0.12592495,0.51877923
8.96000000,0.27764522,0.77754836,-0.22963000,-0.47551000,0.84736900,0.40011700,0.04636685,-0.40049321,-0.81459706,0.50844535,-0.23548784,-0.65051298,0.12560302,0.51848093
8.98000000,0.27763627,0.77755408,-0.22963000,-0.47551000,0.84736900,0.40011700,0.04637282,-0.40102687,-0.81415272,0.50883297,-0.23436976,-0.65061424,0.12528108,0.51818262
9.00000000,0.27762731,0.77755980,-0.22963000,-0.47551000,0.84736900,0.40011700,0.04637879,-0.40156054,-0.81370837,0.50922059,-0.23325169,-0.65071550,0.12495914,0.51788432
9.02000000,0.27762988,0.77755448,-0.22963000,-0.47550712,0.84737188,0.40012276,0.04637324,-0.40210020,-0.81330438,0.50950733,-0.23210190,-0.65077088,0.12467155,0.51756896
9.04000000,0.27763287,0.77754875,-0.22963000,-0.47550413,0.84737487,0.40012874,0.04636726,-0.40264008,-0.81290183,0.50979046,-0.23095099,-0.65082462,0.12438519,0.51725300
9.06000000,0.27763585,0.77754303,-0.22963000,-0.47550115,0.84737785,0.40013471,0.04636129,-0.40317996,-0.81249929,0.51007358,-0.22980007,-0.65087836,0.12409882,0.51693703
9.08000000,0.27763884,0.77753731,-0.22963000,-0.47549816,0.84738084,0.40014068,0.04635532,-0.40371985,-0.81209674,0.51035671,-0.22864915,-0.65093210,0.12381246,0.51662106
9.10000000,0.27764179,0.77753700,-0.22962721,-0.47550079,0.84738100,0.40013821,0.04635779,-0.40426788,-0.81159243,0.51059804,-0.22750454,-0.65106885,0.12361007,0.51629160
9.12000000,0.27764475,0.77753700,-0.22962425,-0.47550375,0.84738100,0.40013525,0.04636075,-0.40481638,-0.81108232,0.51083698,-0.22636029,-0.65121035,0.12341247,0.51596137
9.14000000,0.27764770,0.77753700,-0.22962130,-0.47550670,0.84738100,0.40013230,0.04636370,-0.40536489,-0.81057221,0.51107591,-0.22521604,-0.65135184,0.12321488,0.51563113
9.16000000,0.27765065,0.77753700,-0.22961835,-0.47550965,0.84738100,0.40012935,0.04636665,-0.40591339,-0.81006209,0.51131485,-0.22407179,-0.65149333,0.12301728,0.51530090
9.18000000,0.27765604,0.77753941,-0.22962063,-0.47551000,0.84737574,0.40013163,0.04636700,-0.40654017,-0.80950802,0.51160830,-0.22295692,-0.65159419,0.12278900,0.51491514
9.20000000,0.27766176,0.77754215,-0.22962361,-0.47551000,0.84736977,0.40013461,0.04636700,-0.40717741,-0.80894807,0.51190903,-0.22184598,-0.65168963,0.12255662,0.51452196
9.22000000,0.27766748,0.77754488,-0.22962660,-0.47551000,0.84736381,0.40013760,0.04636700,-0.40781465,-0.80838812,0.51220975,-0.22073503,-0.65178507,0.12232424,0.51412878
9.24000000,0.27767319,0.77754761,-0.22962958,-0.47551000,0.84735784,0.40014058,0.04636700,-0.40845189,-0.80782818,0.51251048,-0.21962409,-0.65188051,0.12209186,0.51373560
9.26000000,0.27766909,0.77754565,-0.22962744,-0.47551256,0.84735700,0.40013844,0.04636444,-0.40906183,-0.80728814,0.51284763,-0.21854785,-0.65198352,0.12176971,0.51335994
9.28000000,0.27766336,0.77754291,-0.22962445,-0.47551555,0.84735700,0.40013545,0.04636145,-0.40966726,-0.80675139,0.51319079,-0.21747733,-0.65208779,0.12143278,0.51298718
9.30000000,0.27765764,0.77754018,-0.22962146,-0.47551854,0.84735700,0.40013246,0.04635846,-0.41027270,-0.80621463,0.51353394,-0.21640681,-0.65219205,0.12109584,0.51261441
9.32000000,0.27765192,0.77753744,-0.22961848,-0.47552152,0.84735700,0.40012948,0.04635548,-0.41087813,-0.80567788,0.51387710,-0.21533628,-0.65229632,0.12075891,0.51224164
9.34000000,0.27764599,0.77753930,-0.22961800,-0.47551949,0.84735951,0.40012649,0.04635751,-0.41153604,-0.80497579,0.51423499,-0.21403058,-0.65241079,0.12040201,0.51183890
9.36000000,0.27764001,0.77754203,-0.22961800,-0.47551651,0.84736249,0.40012351,0.04636049,-0.41220396,-0.80424221,0.51459568,-0.21268008,-0.65252721,0.12004132,0.51143044
9.38000000,0.27763404,0.77754477,-0.22961800,-0.47551352,0.84736548,0.40012052,0.04636348,-0.41287187,-0.80350863,0.51495638,-0.21132959,-0.65264363,0.11968062,0.51102198
9.40000000,0.27762807,0.77754751,-0.22961800,-0.47551054,0.84736846,0.40011754,0.04636646,-0.41353978,-0.80277504,0.51531707,-0.20997909,-0.65276004,0.11931993,0.51061352
9.42000000,0.27762700,0.77755309,-0.22961556,-0.47551000,0.84736900,0.40012188,0.04636456,-0.41429611,-0.80203110,0.51565499,-0.20845118,-0.65286379,0.11901862,0.51026945
9.44000000,0.27762700,0.77755929,-0.22961258,-0.47551000,0.84736900,0.40012784,0.04636158,-0.41507184,-0.80128489,0.51598791,-0.20688432,-0.65296476,0.11873036,0.50993950
9.46000000,0.27762700,0.77756549,-0.22960961,-0.47551000,0.84736900,0.40013379,0.04635861,-0.41584758,-0.80053867,0.51632083,-0.20531746,-0.65306573,0.11844209,0.50960956
9.48000000,0.27762700,0.77757169,-0.22960663,-0.47551000,0.84736900,0.40013974,0.04635563,-0.41662332,-0.79979245,0.51665375,-0.20375061,-0.65316670,0.11815382,0.50927962
9.50000000,0.27762700,0.77756810,-0.22961071,-0.47550529,0.84736194,0.40013865,0.04635735,-0.41733480,-0.79895815,0.51693072,-0.20216966,-0.65330313,0.11791903,0.50890678
9.52000000,0.27762700,0.77756188,-0.22961667,-0.47549933,0.84735299,0.40013566,0.04636034,-0.41802909,-0.79810029,0.51719273,-0.20058494,-0.65344905,0.11769854,0.50852247
9.54000000,0.27762700,0.77755567,-0.22962264,-0.47549336,0.84734404,0.40013268,0.04636332,-0.41872338,-0.79724243,0.51745474,-0.19900022,-0.65359497,0.11747804,0.50813816
9.56000000,0.27762700,0.77754945,-0.22962861,-0.47548739,0.84733509,0.40012970,0.04636630,-0.41941767,-0.79638457,0.51771674,-0.19741551,-0.65374088,0.11725755,0.50775385
9.58000000,0.27763596,0.77754800,-0.22963000,-0.47548829,0.84733757,0.40013129,0.04636471,-0.42021939,-0.79561074,0.51812752,-0.19579328,-0.65387791,0.11697750,0.50735793
9.60000000,0.27764765,0.77754800,-0.22963000,-0.47549127,0.84734354,0.40013427,0.04636173,-0.42105388,-0.79486256,0.51858369,-0.19415962,-0.65401223,0.11667927,0.50695847
9.62000000,0.27765934,0.77754800,-0.22963000,-0.47549426,0.84734951,0.40013726,0.04635874,-0.42188838,-0.79411437,0.51903987,-0.19252595,-0.65414654,0.11638104,0.50655901
9.64000000,0.27767103,0.77754800,-0.22963000,-0.47549724,0.84735548,0.40014024,0.04635576,-0.42272287,-0.79336619,0.51949604,-0.19089228,-0.65428086,0.11608281,0.50615954
9.66000000,0.27767196,0.77754596,-0.22962777,-0.47549800,0.84735700,0.40014100,0.04635723,-0.42347071,-0.79269130,0.51988542,-0.18945010,-0.65438159,0.11576920,0.50578235
9.68000000,0.27766922,0.77754322,-0.22962479,-0.47549800,0.84735700,0.40014100,0.04636021,-0.42418901,-0.79204140,0.52025203,-0.18807319,-0.65447088,0.11545034,0.50541276
9.70000000,0.27766649,0.77754049,-0.22962180,-0.47549800,0.84735700,0.40014100,0.04636320,-0.42490731,-0.79139150,0.52061864,-0.18669628,-0.65456017,0.11513148,0.50504316
9.72000000,0.27766375,0.77753775,-0.22961882,-0.47549800,0.84735700,0.40014100,0.04636618,-0.42562561,-0.79074159,0.52098526,-0.18531937,-0.65464946,0.11481262,0.50467357
9.74000000,0.27765651,0.77753700,-0.22961800,-0.47549800,0.84735484,0.40013667,0.04636700,-0.42639378,-0.79002253,0.52132376,-0.18391832,-0.65477141,0.11448724,0.50424331
9.76000000,0.27764755,0.77753700,-0.22961800,-0.47549800,0.84735185,0.40013070,0.04636700,-0.42718084,-0.78927725,0.52165163,-0.18250812,-0.65490574,0.11415937,0.50379008
9.78000000,0.27763860,0.77753700,-0.22961800,-0.47549800,0.84734887,0.40012473,0.04636700,-0.42796791,-0.78853198,0.52197949,-0.18109793,-0.65504007,0.11383151,0.50333685
9.80000000,0.27762964,0.77753700,-0.22961800,-0.47549800,0.84734588,0.40011876,0.04636700,-0.42875497,-0.78778671,0.52230735,-0.17968773,-0.65517440,0.11350365,0.50288361
9.82000000,0.27762700,0.77753700,-0.22962221,-0.47550011,0.84734711,0.40011489,0.04636489,-0.42950435,-0.78715898,0.52266478,-0.17824993,-0.65530017,0.11307251,0.50240305
9.84000000,0.27762700,0.77753700,-0.22962818,-0.47550309,0.84735009,0.40011191,0.04636191,-0.43023798,-0.78658039,0.52303458,-0.17680060,-0.65542235,0.11259819,0.50191106
9.86000000,0.27762700,0.77753700,-0.22963416,-0.47550608,0.84735308,0.40010892,0.04635892,-0.43097160,-0.78600180,0.52340438,-0.17535126,-0.65554454,0.11212387,0.50141908
9.88000000,0.27762700,0.77753700,-0.22964013,-0.47550906,0.84735606,0.40010594,0.04635594,-0.43170523,-0.78542321,0.52377418,-0.17390193,-0.65566673,0.11164956,0.50092709
9.90000000,0.27762700,0.77753888,-0.22963995,-0.47550385,0.84735700,0.40010705,0.04635295,-0.43255352,-0.78483056,0.52423207,-0.17224393,-0.65582375,0.11120216,0.50048219
9.92000000,0.27762700,0.77754162,-0.22963696,-0.47549489,0.84735700,0.40011004,0.04634996,-0.43345411,-0.78423150,0.52473013,-0.17049077,-0.65599665,0.11076704,0.50005877
9.94000000,0.27762700,0.77754435,-0.22963398,-0.47548594,0.84735700,0.40011302,0.04634698,-0.43435470,-0.78363243,0.52522819,-0.16873761,-0.65616956,0.11033193,0.49963534
9.96000000,0.27762700,0.77754709,-0.22963099,-0.47547698,0.84735700,0.40011601,0.04634399,-0.43525528,-0.78303337,0.52572625,-0.16698445,-0.65634246,0.10989681,0.49921192
9.98000000,0.27762302,0.77754800,-0.22962602,-0.47547798,0.84735700,0.40011899,0.04634499,-0.43614173,-0.78231880,0.52617848,-0.16508413,-0.65654125,0.10953108,0.49874884
10.00000000,0.27761705,0.77754800,-0.22962005,-0.47548395,0.84735700,0.40012198,0.04634798,-0.43702113,-0.78154663,0.52660785,-0.16311040,-0.65675295,0.10919997,0.49826598
10.02000000,0.27761108,0.77754800,-0.22961408,-0.47548992,0.84735700,0.40012496,0.04635096,-0.43790053,-0.78077445,0.52703723,-0.16113667,-0.65696465,0.10886886,0.49778312
10.04000000,0.27760511,0.77754800,-0.22960811,-0.47549589,0.84735700,0.40012795,0.04635395,-0.43877992,-0.78000227,0.52746660,-0.15916294,-0.65717635,0.10853775,0.49730026
10.06000000,0.27761830,0.77754800,-0.22960793,-0.47549413,0.84735700,0.40013093,0.04635500,-0.43970586,-0.77916617,0.52790362,-0.15715812,-0.65738422,0.10822608,0.49678236
10.08000000,0.27764194,0.77754800,-0.22961092,-0.47548816,0.84735700,0.40013392,0.04635500,-0.44065714,-0.77829527,0.52834479,-0.15513637,-0.65759001,0.10792499,0.49624539
10.10000000,0.27766558,0.77754800,-0.22961391,-0.47548219,0.84735700,0.40013691,0.04635500,-0.44160842,-0.77742436,0.52878597,-0.15311462,-0.65779579,0.10762391,0.49570841
10.12000000,0.27768922,0.77754800,-0.22961689,-0.47547622,0.84735700,0.40013989,0.04635500,-0.44255969,-0.77655345,0.52922715,-0.15109288,-0.65800157,0.10732282,0.49517143
10.14000000,0.27769988,0.77754628,-0.22961988,-0.47547775,0.84735700,0.40013725,0.04635500,-0.44351464,-0.77572220,0.52967032,-0.14922505,-0.65818857,0.10698611,0.49470973
10.16000000,0.27770286,0.77754354,-0.22962286,-0.47548372,0.84735700,0.40013128,0.04635500,-0.44447175,-0.77491436,0.53011466,-0.14744817,-0.65836447,0.10662834,0.49429251
10.18000000,0.27770585,0.77754081,-0.22962585,-0.47548970,0.84735700,0.40012530,0.04635500,-0.44542885,-0.77410653,0.53055901,-0.14567129,-0.65854036,0.10627058,0.49387528
10.20000000,0.27770883,0.77753807,-0.22962883,-0.47549567,0.84735700,0.40011933,0.04635500,-0.44638596,-0.77329870,0.53100335,-0.14389441,-0.65871626,0.10591281,0.49345805
10.22000000,0.27770638,0.77754047,-0.22962819,-0.47549438,0.84735700,0.40012244,0.04635500,-0.44739330,-0.77242369,0.53145922,-0.14214314,-0.65888995,0.10547976,0.49298001
10.24000000,0.27770043,0.77754617,-0.22962521,-0.47548843,0.84735700,0.40013136,0.04635500,-0.44843286,-0.77150559,0.53192249,-0.14040831,-0.65906221,0.10499840,0.49246296
10.26000000,0.27769448,0.77755187,-0.22962224,-0.47548248,0.84735700,0.40014028,0.04635500,-0.44947242,-0.77058748,0.53238575,-0.13867348,-0.65923448,0.10451703,0.49194590
10.28000000,0.27768853,0.77755758,-0.22961926,-0.47547653,0.84735700,0.40014921,0.04635500,-0.45051198,-0.76966938,0.53284902,-0.13693865,-0.65940675,0.10403567,0.49142885
10.30000000,0.27768428,0.77755828,-0.22961628,-0.47547400,0.84735872,0.40014957,0.04635328,-0.45149197,-0.76878735,0.53334251,-0.13525515,-0.65954505,0.10353121,0.49088176
10.32000000,0.27768130,0.77755530,-0.22961330,-0.47547400,0.84736170,0.40014360,0.04635030,-0.45242790,-0.76793200,0.53385835,-0.13360963,-0.65965822,0.10300964,0.49031244
10.34000000,0.27767832,0.77755232,-0.22961032,-0.47547400,0.84736468,0.40013763,0.04634732,-0.45336383,-0.76707666,0.53437419,-0.13196410,-0.65977138,0.10248808,0.48974312
10.36000000,0.27767533,0.77754933,-0.22960733,-0.47547400,0.84736767,0.40013166,0.04634433,-0.45429976,-0.76622131,0.53489004,-0.13031858,-0.65988455,0.10196651,0.48917380
10.38000000,0.27766756,0.77754649,-0.22960929,-0.47547893,0.84737064,0.40012571,0.04634464,-0.45524540,-0.76538211,0.53541371,-0.12852669,-0.65999744,0.10141893,0.48862136
10.40000000,0.27765595,0.77754378,-0.22961522,-0.47548782,0.84737361,0.40011978,0.04634761,-0.45619885,-0.76455591,0.53594368,-0.12661707,-0.66011010,0.10085042,0.48808250
10.42000000,0.27764434,0.77754106,-0.22962115,-0.47549672,0.84737657,0.40011385,0.04635057,-0.45715231,-0.76372970,0.53647365,-0.12470745,-0.66022277,0.10028190,0.48754363
10.44000000,0.27763273,0.77753834,-0.22962708,-0.47550561,0.84737954,0.40010792,0.04635354,-0.45810576,-0.76290349,0.53700362,-0.12279783,-0.66033543,0.09971339,0.48700477
10.46000000,0.27763003,0.77753839,-0.22962546,-0.47550546,0.84737646,0.40010954,0.04635651,-0.45906113,-0.76195197,0.53750523,-0.12073755,-0.66049075,0.09920929,0.48647153
10.48000000,0.27763600,0.77754112,-0.22961650,-0.47549650,0.84736750,0.40011850,0.04635950,-0.46001839,-0.76087852,0.53797926,-0.11853068,-0.66068758,0.09876786,0.48594376
10.50000000,0.27764197,0.77754386,-0.22960754,-0.47548754,0.84735854,0.40012746,0.04636249,-0.46097564,-0.75980506,0.53845328,-0.11632380,-0.66088440,0.09832644,0.48541599
10.52000000,0.27764794,0.77754660,-0.22959859,-0.47547859,0.84734959,0.40013641,0.04636547,-0.46193289,-0.75873161,0.53892730,-0.11411692,-0.66108123,0.09788501,0.48488822
10.54000000,0.27765246,0.77754666,-0.22959691,-0.47547400,0.84734791,0.40013954,0.04636554,-0.46289874,-0.75769461,0.53941449,-0.11195844,-0.66129829,0.09750192,0.48437218
10.56000000,0.27765544,0.77754393,-0.22960288,-0.47547400,0.84735388,0.40013656,0.04636256,-0.46387361,-0.75669585,0.53991548,-0.10985073,-0.66153660,0.09718003,0.48386845
10.58000000,0.27765843,0.77754119,-0.22960885,-0.47547400,0.84735985,0.40013357,0.04635957,-0.46484849,-0.75569709,0.54041648,-0.10774301,-0.66177491,0.09685814,0.48336472
10.60000000,0.27766141,0.77753846,-0.22961482,-0.47547400,0.84736582,0.40013059,0.04635659,-0.46582337,-0.75469834,0.54091747,-0.10563530,-0.66201322,0.09653625,0.48286099
10.62000000,0.27767686,0.77753828,-0.22961940,-0.47547400,0.84736900,0.40012621,0.04635500,-0.46682491,-0.75369818,0.54144915,-0.10358743,-0.66224329,0.09616960,0.48233344
10.64000000,0.27770647,0.77754102,-0.22962238,-0.47547400,0.84736900,0.40012023,0.04635500,-0.46785675,-0.75269644,0.54201571,-0.10160759,-0.66246399,0.09575209,0.48177882
10.66000000,0.27773608,0.77754375,-0.22962537,-0.47547400,0.84736900,0.40011426,0.04635500,-0.46888860,-0.75169470,0.54258227,-0.09962774,-0.66268469,0.09533457,0.48122421
10.68000000,0.27776569,0.77754649,-0.22962835,-0.47547400,0.84736900,0.40010829,0.04635500,-0.46992045,-0.75069296,0.54314883,-0.09764790,-0.66290539,0.09491705,0.48066959
10.70000000,0.27777128,0.77754677,-0.22962866,-0.47547266,0.84736632,0.40010902,0.04635634,-0.47096533,-0.74967661,0.54379017,-0.09563102,-0.66310728,0.09446893,0.48006554
10.72000000,0.27774741,0.77754404,-0.22962568,-0.47546968,0.84736035,0.40011797,0.04635932,-0.47202621,-0.74864235,0.54452328,-0.09356870,-0.66328608,0.09398326,0.47940081
10.74000000,0.27772353,0.77754130,-0.22962269,-0.47546669,0.84735438,0.40012692,0.04636231,-0.47308709,-0.74760808,0.54525640,-0.09150638,-0.66346489,0.09349758,0.47873608
10.76000000,0.27769966,0.77753857,-0.22961971,-0.47546371,0.84734842,0.40013588,0.04636529,-0.47414797,-0.74657381,0.54598951,-0.08944406,-0.66364369,0.09301190,0.47807136
10.78000000,0.27767845,0.77753817,-0.22961928,-0.47546711,0.84734755,0.40014100,0.04636700,-0.47522040,-0.74568110,0.54675832,-0.08735224,-0.66380856,0.09246236,0.47741819
10.80000000,0.27766079,0.77754091,-0.22962226,-0.47547905,0.84735352,0.40014100,0.04636700,-0.47630830,-0.74497772,0.54757486,-0.08522097,-0.66395481,0.09182738,0.47678047
10.82000000,0.27764313,0.77754364,-0.22962525,-0.47549098,0.84735949,0.40014100,0.04636700,-0.47739620,-0.74427434,0.54839141,-0.08308969,-0.66410106,0.09119240,0.47614275
10.84000000,0.27762547,0.77754638,-0.22962823,-0.47550292,0.84736546,0.40014100,0.04636700,-0.47848409,-0.74357096,0.54920795,-0.08095842,-0.66424730,0.09055742,0.47550504
10.86000000,0.27761378,0.77754689,-0.22962514,-0.47550514,0.84736900,0.40013735,0.04636457,-0.47958176,-0.74279949,0.54994330,-0.07878705,-0.66442253,0.08994915,0.47489880
10.88000000,0.27761080,0.77754415,-0.22961320,-0.47549320,0.84736900,0.40012840,0.04635860,-0.48069364,-0.74192889,0.55056043,-0.07655731,-0.66463993,0.08937978,0.47433838
10.90000000,0.27760781,0.77754141,-0.22960126,-0.47548126,0.84736900,0.40011944,0.04635263,-0.48180553,-0.74105828,0.55117756,-0.07432757,-0.66485733,0.08881040,0.47377796
10.92000000,0.27760483,0.77753868,-0.22958932,-0.47546932,0.84736900,0.40011049,0.04634666,-0.48291741,-0.74018768,0.55179470,-0.07209783,-0.66507473,0.08824103,0.47321754
10.94000000,0.27760416,0.77753700,-0.22958662,-0.47546316,0.84736900,0.40010847,0.04634531,-0.48402621,-0.73926966,0.55236122,-0.06990443,-0.66530962,0.08774077,0.47263270
10.96000000,0.27760714,0.77753700,-0.22959857,-0.47546614,0.84736900,0.40011743,0.04635129,-0.48513010,-0.73827653,0.55284758,-0.06776857,-0.66557222,0.08734999,0.47200920
10.98000000,0.27761013,0.77753700,-0.22961052,-0.47546913,0.84736900,0.40012639,0.04635726,-0.48623399,-0.73728340,0.55333394,-0.06563272,-0.66583481,0.08695921,0.47138569
11.00000000,0.27761312,0.77753700,-0.22962247,-0.47547212,0.84736900,0.40013535,0.04636323,-0.48733789,-0.73629027,0.55382030,-0.06349687,-0.66609741,0.08656843,0.47076218
11.02000000,0.27761831,0.77753801,-0.22962890,-0.47547290,0.84736790,0.40013769,0.04636810,-0.48844935,-0.73528717,0.55431647,-0.06133254,-0.66635116,0.08613694,0.47010350
11.04000000,0.27762727,0.77754075,-0.22962591,-0.47546991,0.84736491,0.40012873,0.04637109,-0.48957373,-0.73426706,0.55482939,-0.05911961,-0.66658983,0.08563597,0.46938477
11.06000000,0.27763623,0.77754349,-0.22962292,-0.47546692,0.84736192,0.40011977,0.04637408,-0.49069812,-0.73324695,0.55534230,-0.05690668,-0.66682849,0.08513500,0.46866604
11.08000000,0.27764519,0.77754622,-0.22961994,-0.47546394,0.84735894,0.40011081,0.04637706,-0.49182250,-0.73222685,0.55585522,-0.05469375,-0.66706715,0.08463403,0.46794731
11.10000000,0.27765612,0.77754904,-0.22961696,-0.47546200,0.84735908,0.40010812,0.04637692,-0.49290653,-0.73115945,0.55636579,-0.05250304,-0.66729792,0.08412809,0.46727510
11.12000000,0.27767070,0.77755201,-0.22961399,-0.47546200,0.84736501,0.40011702,0.04637099,-0.49391602,-0.73000469,0.55687201,-0.05035337,-0.66751410,0.08361297,0.46668883
11.14000000,0.27768527,0.77755497,-0.22961103,-0.47546200,0.84737094,0.40012591,0.04636506,-0.49492551,-0.72884993,0.55737824,-0.04820370,-0.66773028,0.08309785,0.46610255
11.16000000,0.27769985,0.77755794,-0.22960806,-0.47546200,0.84737687,0.40013481,0.04635913,-0.49593499,-0.72769517,0.55788446,-0.04605403,-0.66794645,0.08258273,0.46551628
11.18000000,0.27770378,0.77755828,-0.22960780,-0.47546470,0.84738100,0.40013920,0.04635410,-0.49698208,-0.72658560,0.55842568,-0.04381584,-0.66816342,0.08200211,0.46493911
11.20000000,0.27768328,0.77755260,-0.22961373,-0.47547359,0.84738100,0.40013327,0.04635114,-0.49811541,-0.72557967,0.55904716,-0.04137461,-0.66838218,0.08127125,0.46438281
11.22000000,0.27766279,0.77754692,-0.22961965,-0.47548248,0.84738100,0.40012735,0.04634817,-0.49924875,-0.72457375,0.55966864,-0.03893337,-0.66860095,0.08054038,0.46382652
11.24000000,0.27764230,0.77754124,-0.22962558,-0.47549137,0.84738100,0.40012142,0.04634521,-0.50038208,-0.72356782,0.56029013,-0.03649214,-0.66881971,0.07980952,0.46327022
11.26000000,0.27762397,0.77753700,-0.22963000,-0.47549800,0.84737873,0.40011700,0.04634376,-0.50149333,-0.72255545,0.56089382,-0.03408125,-0.66904500,0.07914152,0.46272647
11.28000000,0.27761204,0.77753700,-0.22963000,-0.47549800,0.84736978,0.40011700,0.04634674,-0.50253959,-0.72152412,0.56144518,-0.03175969,-0.66928946,0.07865856,0.46221963
11.30000000,0.27760010,0.77753700,-0.22963000,-0.47549800,0.84736082,0.40011700,0.04634973,-0.50358585,-0.72049278,0.56199653,-0.02943813,-0.66953393,0.07817559,0.46171279
11.32000000,0.27758816,0.77753700,-0.22963000,-0.47549800,0.84735187,0.40011700,0.04635271,-0.50463210,-0.71946145,0.56254789,-0.02711657,-0.66977840,0.07769263,0.46120595
11.34000000,0.27758728,0.77753764,-0.22962722,-0.47549592,0.84734708,0.40011908,0.04635639,-0.50567912,-0.71843277,0.56309236,-0.02481684,-0.67002497,0.07723600,0.46065611
11.36000000,0.27762286,0.77754037,-0.22961528,-0.47548696,0.84735604,0.40012804,0.04636236,-0.50672863,-0.71741286,0.56361414,-0.02258918,-0.67027852,0.07686625,0.45996439
11.38000000,0.27765844,0.77754311,-0.22960334,-0.47547800,0.84736500,0.40013700,0.04636833,-0.50777815,-0.71639296,0.56413591,-0.02036151,-0.67053207,0.07649651,0.45927268
11.40000000,0.27769402,0.77754585,-0.22959139,-0.47546904,0.84737396,0.40014596,0.04637430,-0.50882766,-0.71537305,0.56465768,-0.01813384,-0.67078561,0.07612677,0.45858096
11.42000000,0.27772583,0.77754742,-0.22958455,-0.47546200,0.84738036,0.40015364,0.04637772,-0.50991154,-0.71429466,0.56519791,-0.01584718,-0.67102830,0.07574052,0.45789184
11.44000000,0.27774374,0.77754468,-0.22959649,-0.47546200,0.84737738,0.40015662,0.04637175,-0.51112193,-0.71300095,0.56580609,-0.01334332,-0.67123103,0.07529353,0.45721228
11.46000000,0.27776164,0.77754194,-0.22960843,-0.47546200,0.84737439,0.40015961,0.04636579,-0.51233231,-0.71170723,0.56641426,-0.01083947,-0.67143375,0.07484654,0.45653271
11.48000000,0.27777955,0.77753921,-0.22962037,-0.47546200,0.84737141,0.40016259,0.04635982,-0.51354270,-0.71041351,0.56702244,-0.00833561,-0.67163648,0.07439954,0.45585314
11.50000000,0.27778824,0.77753700,-0.22962942,-0.47546373,0.84736842,0.40016270,0.04635500,-0.51475256,-0.70916923,0.56764819,-0.00587873,-0.67182530,0.07393424,0.45517610
11.52000000,0.27775845,0.77753700,-0.22962645,-0.47547266,0.84736545,0.40015078,0.04635500,-0.51596024,-0.70813110,0.56834723,-0.00361779,-0.67195612,0.07339259,0.45450958
11.54000000,0.27772866,0.77753700,-0.22962347,-0.47548160,0.84736247,0.40013886,0.04635500,-0.51716792,-0.70709297,0.56904627,-0.00135684,-0.67208694,0.07285094,0.45384306
11.56000000,0.27769887,0.77753700,-0.22962049,-0.47549054,0.84735949,0.40012695,0.04635500,-0.51837559,-0.70605484,0.56974530,0.00090411,-0.67221776,0.07230928,0.45317654
11.58000000,0.27767209,0.77753700,-0.22961800,-0.47549849,0.84735846,0.40011602,0.04635451,-0.51958722,-0.70502524,0.57045472,0.00320914,-0.67236355,0.07175128,0.45251477
11.60000000,0.27766051,0.77753700,-0.22961800,-0.47550145,0.84736734,0.40011011,0.04635155,-0.52081886,-0.70403879,0.57121667,0.00573723,-0.67258509,0.07111057,0.45187702
11.62000000,0.27764892,0.77753700,-0.22961800,-0.47550440,0.84737621,0.40010420,0.04634860,-0.52205050,-0.70305234,0.57197863,0.00826532,-0.67280663,0.07046986,0.45123927
