gracetata/LocomotionHEC/legged_lab/Reference Data/ArmHack/StandPerturb/TestData/ArmOnly/trajectories/representative/representative_arm_trajectory_03_source_234_239s_1x_50hz.csv
time_s,left_shoulder_pitch_joint,left_shoulder_roll_joint,left_shoulder_yaw_joint,left_elbow_joint,left_wrist_roll_joint,left_wrist_pitch_joint,left_wrist_yaw_joint,right_shoulder_pitch_joint,right_shoulder_roll_joint,right_shoulder_yaw_joint,right_elbow_joint,right_wrist_roll_joint,right_wrist_pitch_joint,right_wrist_yaw_joint
0.00000000,0.27764709,0.77754800,-0.22960877,-0.47545923,0.84735700,0.40012900,0.04633100,0.12343129,-0.78905029,0.29249653,-0.43176672,-0.80092211,0.33758723,0.09152489
0.02000000,0.27769547,0.77754554,-0.22962068,-0.47544195,0.84735432,0.40012632,0.04633100,0.11511907,-0.78963810,0.29529191,-0.42895134,-0.79827141,0.33446946,0.09868221
0.04000000,0.27775737,0.77753700,-0.22962747,-0.47541653,0.84733995,0.40012205,0.04633353,0.10603641,-0.79046712,0.29852065,-0.42610468,-0.79537724,0.33107751,0.10618135
0.06000000,0.27770507,0.77753926,-0.22962047,-0.47543340,0.84732840,0.40013607,0.04634053,0.09730020,-0.79110187,0.30182573,-0.42362713,-0.79215247,0.32777873,0.11376133
0.08000000,0.27768839,0.77755039,-0.22962283,-0.47546200,0.84735939,0.40011700,0.04633339,0.08914462,-0.79181400,0.30534568,-0.42167590,-0.78937107,0.32429593,0.12111668
0.10000000,0.27769800,0.77756000,-0.22959627,-0.47546880,0.84736673,0.40012154,0.04634300,0.08075393,-0.79262238,0.30908851,-0.41939901,-0.78708238,0.32042909,0.12883644
0.12000000,0.27769581,0.77755580,-0.22960819,-0.47549800,0.84735919,0.40013881,0.04634300,0.07174405,-0.79345904,0.31333315,-0.41707999,-0.78446195,0.31677327,0.13693333
0.14000000,0.27768392,0.77753891,-0.22962008,-0.47549800,0.84736484,0.40012692,0.04634092,0.06209863,-0.79409757,0.31749359,-0.41481145,-0.78157326,0.31323579,0.14492546
0.16000000,0.27767400,0.77754800,-0.22963198,-0.47549602,0.84734895,0.40011700,0.04633298,0.05365386,-0.79450716,0.32121431,-0.41233901,-0.77893704,0.30967760,0.15262432
0.18000000,0.27767588,0.77754988,-0.22964012,-0.47548224,0.84736900,0.40012076,0.04634300,0.04506433,-0.79498120,0.32478630,-0.40943435,-0.77642592,0.30602412,0.16054813
0.20000000,0.27769875,0.77755818,-0.22963000,-0.47546382,0.84736718,0.40013736,0.04634300,0.03562567,-0.79565524,0.32818995,-0.40639687,-0.77330314,0.30232802,0.16901192
0.22000000,0.27776119,0.77754800,-0.22963000,-0.47547576,0.84735700,0.40011876,0.04634300,0.02608610,-0.79644973,0.33179716,-0.40287192,-0.77047724,0.29854542,0.17725866
0.24000000,0.27772532,0.77754800,-0.22962830,-0.47547919,0.84736211,0.40012730,0.04633960,0.01651743,-0.79734089,0.33540140,-0.39984815,-0.76781319,0.29467812,0.18550053
0.26000000,0.27780658,0.77754800,-0.22962126,-0.47544126,0.84739137,0.40011700,0.04631900,0.00716040,-0.79813591,0.33952544,-0.39684826,-0.76519000,0.29118114,0.19351968
0.28000000,0.27773400,0.77755126,-0.22964200,-0.47546200,0.84737787,0.40011700,0.04632213,-0.00254541,-0.79893077,0.34324374,-0.39416694,-0.76209238,0.28737305,0.20198082
0.30000000,0.27772825,0.77757144,-0.22964056,-0.47546632,0.84735844,0.40011556,0.04634300,-0.01242324,-0.79985366,0.34720969,-0.39105588,-0.75892928,0.28333259,0.21071824
0.32000000,0.27768600,0.77755862,-0.22962862,-0.47549662,0.84737038,0.40010638,0.04634300,-0.02303821,-0.80083934,0.35145165,-0.38814771,-0.75563317,0.27941654,0.21904048
0.34000000,0.27768217,0.77754800,-0.22961931,-0.47548600,0.84737969,0.40011569,0.04634563,-0.03284226,-0.80227577,0.35598621,-0.38523169,-0.75201641,0.27513844,0.22782160
0.36000000,0.27765840,0.77754925,-0.22963000,-0.47548475,0.84736525,0.40010750,0.04636575,-0.04187850,-0.80318444,0.36008659,-0.38282725,-0.74909800,0.27129033,0.23598497
0.38000000,0.27771843,0.77755881,-0.22962881,-0.47547757,0.84733538,0.40012662,0.04635500,-0.05146101,-0.80411821,0.36423228,-0.37959303,-0.74592475,0.26763949,0.24489334
0.40000000,0.27768827,0.77754800,-0.22961687,-0.47550546,0.84735587,0.40010613,0.04635500,-0.06126432,-0.80510984,0.36790998,-0.37689642,-0.74306213,0.26377235,0.25340892
0.42000000,0.27771215,0.77754907,-0.22960600,-0.47546200,0.84734822,0.40011807,0.04635500,-0.07053383,-0.80633324,0.37155777,-0.37436684,-0.74021703,0.26006280,0.26210955
0.44000000,0.27773010,0.77755903,-0.22960795,-0.47546395,0.84737905,0.40012997,0.04635597,-0.08032616,-0.80735038,0.37564036,-0.37136160,-0.73752207,0.25588029,0.27051264
0.46000000,0.27768600,0.77754800,-0.22963000,-0.47548513,0.84735874,0.40014013,0.04636613,-0.09024187,-0.80803402,0.37938955,-0.36851333,-0.73446930,0.25186156,0.27890439
0.48000000,0.27768375,0.77754652,-0.22963000,-0.47547631,0.84738100,0.40012746,0.04635577,-0.10015300,-0.80850336,0.38318028,-0.36573625,-0.73160363,0.24813031,0.28716347
0.50000000,0.27765279,0.77752679,-0.22962694,-0.47550755,0.84738039,0.40010745,0.04636700,-0.10905853,-0.80907594,0.38647364,-0.36332261,-0.72904206,0.24455789,0.29524839
0.52000000,0.27768545,0.77755945,-0.22957219,-0.47546310,0.84736955,0.40015355,0.04636645,-0.11890977,-0.81018867,0.39035656,-0.35998594,-0.72611599,0.24052585,0.30372943
0.54000000,0.27767158,0.77754800,-0.22961800,-0.47548600,0.84738100,0.40016303,0.04635549,-0.12886923,-0.81136538,0.39492787,-0.35668134,-0.72306727,0.23690511,0.31185173
0.56000000,0.27761630,0.77754800,-0.22961800,-0.47548557,0.84738187,0.40011700,0.04636657,-0.13822147,-0.81216954,0.39898605,-0.35367226,-0.72012464,0.23286083,0.31997230
0.58000000,0.27765100,0.77754838,-0.22961800,-0.47547362,0.84740386,0.40011776,0.04635614,-0.14668484,-0.81279351,0.40247165,-0.35120121,-0.71694545,0.22912669,0.32836227
0.60000000,0.27765353,0.77756000,-0.22961768,-0.47546200,0.84736868,0.40014036,0.04639036,-0.15531514,-0.81354145,0.40569289,-0.34864048,-0.71360765,0.22575192,0.33648644
0.62000000,0.27774503,0.77756000,-0.22960619,-0.47546239,0.84735700,0.40011739,0.04636681,-0.16463348,-0.81459314,0.40979546,-0.34536535,-0.71074499,0.22236886,0.34469304
0.64000000,0.27768640,0.77755975,-0.22961813,-0.47548613,0.84735713,0.40014087,0.04635513,-0.17391349,-0.81540241,0.41316036,-0.34267904,-0.70833409,0.21878044,0.35228698
0.66000000,0.27772200,0.77753706,-0.22962979,-0.47549800,0.84736900,0.40012900,0.04636693,-0.18242739,-0.81606907,0.41679543,-0.34069951,-0.70563848,0.21521448,0.35976488
0.68000000,0.27772196,0.77754801,-0.22959401,-0.47549801,0.84736900,0.40012899,0.04635500,-0.19121188,-0.81659320,0.42028851,-0.33856508,-0.70281399,0.21136435,0.36760742
0.70000000,0.27763938,0.77755995,-0.22961789,-0.47552189,0.84736900,0.40011705,0.04635500,-0.19984529,-0.81703497,0.42363859,-0.33652638,-0.70056037,0.20770384,0.37520306
0.72000000,0.27769726,0.77754815,-0.22961800,-0.47547460,0.84736900,0.40014070,0.04636685,-0.20843985,-0.81746257,0.42706251,-0.33398431,-0.69832538,0.20444437,0.38262179
0.74000000,0.27765182,0.77753719,-0.22961800,-0.47548579,0.84734542,0.40014100,0.04636700,-0.21768748,-0.81813914,0.43079185,-0.33122028,-0.69580013,0.20127037,0.38978211
0.76000000,0.27765100,0.77755949,-0.22962973,-0.47549773,0.84736846,0.40011754,0.04635527,-0.22599154,-0.81907680,0.43431286,-0.32895771,-0.69322594,0.19785299,0.39686565
0.78000000,0.27768503,0.77754833,-0.22963000,-0.47547466,0.84736900,0.40014034,0.04636667,-0.23389298,-0.81970380,0.43746866,-0.32697291,-0.69120960,0.19473435,0.40371410
0.80000000,0.27769761,0.77753736,-0.22963000,-0.47550883,0.84735739,0.40010617,0.04635539,-0.24140581,-0.82030060,0.44047817,-0.32451737,-0.68902043,0.19169100,0.41029407
0.82000000,0.27769800,0.77755915,-0.22963000,-0.47549845,0.84736855,0.40012811,0.04634345,-0.24893127,-0.82094298,0.44383052,-0.32167932,-0.68682586,0.18863790,0.41702764
0.84000000,0.27768651,0.77756000,-0.22961851,-0.47550949,0.84736900,0.40011751,0.04635449,-0.25603069,-0.82148422,0.44634288,-0.31952998,-0.68429870,0.18589480,0.42330462
0.86000000,0.27767457,0.77756000,-0.22962943,-0.47547570,0.84735757,0.40011700,0.04636643,-0.26298718,-0.82227209,0.44930255,-0.31711043,-0.68172518,0.18321028,0.42962211
0.88000000,0.27767400,0.77754862,-0.22959587,-0.47549675,0.84735700,0.40011700,0.04636700,-0.26971442,-0.82292339,0.45194400,-0.31498419,-0.67967088,0.18063988,0.43559132
0.90000000,0.27768531,0.77753763,-0.22962794,-0.47548669,0.84735700,0.40011700,0.04637831,-0.27684409,-0.82382725,0.45495104,-0.31279407,-0.67721542,0.17754639,0.44207201
0.92000000,0.27771975,0.77755856,-0.22963000,-0.47551975,0.84737950,0.40011700,0.04635650,-0.28309713,-0.82440778,0.45755203,-0.31089342,-0.67476971,0.17468123,0.44756818
0.94000000,0.27768844,0.77753856,-0.22963000,-0.47549962,0.84736981,0.40013938,0.04635500,-0.28897265,-0.82468819,0.46021629,-0.30937842,-0.67256028,0.17237916,0.45283720
0.96000000,0.27767487,0.77753700,-0.22963000,-0.47552026,0.84736900,0.40012987,0.04636613,-0.29496196,-0.82509555,0.46255443,-0.30784309,-0.67087692,0.16985803,0.45826378
0.98000000,0.27767400,0.77755822,-0.22961893,-0.47551093,0.84736900,0.40011793,0.04634485,-0.30063017,-0.82560122,0.46468019,-0.30622689,-0.66941899,0.16728396,0.46353682
1.00000000,0.27767400,0.77754898,-0.22960698,-0.47551000,0.84738002,0.40010598,0.04635402,-0.30594236,-0.82597153,0.46682441,-0.30473666,-0.66774434,0.16497138,0.46824736
1.02000000,0.27769591,0.77753796,-0.22960600,-0.47551000,0.84737005,0.40013786,0.04636595,-0.31184689,-0.82628490,0.46956159,-0.30284313,-0.66592076,0.16306590,0.47300728
1.04000000,0.27766622,0.77753700,-0.22962779,-0.47552089,0.84735811,0.40011921,0.04635611,-0.31735225,-0.82652989,0.47204660,-0.30124866,-0.66433466,0.16113893,0.47753761
1.06000000,0.27764144,0.77755766,-0.22961922,-0.47552200,0.84735700,0.40010622,0.04635500,-0.32239006,-0.82676760,0.47427637,-0.30015627,-0.66280119,0.15913011,0.48217534
1.08000000,0.27767026,0.77754928,-0.22961800,-0.47551128,0.84737843,0.40012643,0.04634428,-0.32721647,-0.82701616,0.47677226,-0.29908539,-0.66139193,0.15709312,0.48656995
1.10000000,0.27762248,0.77753839,-0.22962848,-0.47552048,0.84737052,0.40011852,0.04637444,-0.33172046,-0.82718971,0.47857226,-0.29806003,-0.66001677,0.15507327,0.49031473
1.12000000,0.27763558,0.77753700,-0.22959913,-0.47549113,0.84736900,0.40013758,0.04636871,-0.33585371,-0.82737562,0.48010922,-0.29688971,-0.65882214,0.15323013,0.49384142
1.14000000,0.27764921,0.77754636,-0.22961442,-0.47550642,0.84736900,0.40012058,0.04635679,-0.33959605,-0.82763786,0.48138828,-0.29553419,-0.65767441,0.15184460,0.49728646
1.16000000,0.27764085,0.77753869,-0.22960785,-0.47551000,0.84736900,0.40012715,0.04636515,-0.34331203,-0.82801326,0.48268932,-0.29392735,-0.65646807,0.15067484,0.50065023
1.18000000,0.27766838,0.77754623,-0.22960600,-0.47553014,0.84736900,0.40012900,0.04635693,-0.34656265,-0.82847602,0.48385802,-0.29265746,-0.65541469,0.14946232,0.50366237
1.20000000,0.27765489,0.77754800,-0.22962594,-0.47551406,0.84738894,0.40013897,0.04635500,-0.34997265,-0.82887201,0.48513793,-0.29161647,-0.65437339,0.14792982,0.50670867
1.22000000,0.27764115,0.77754800,-0.22962015,-0.47551000,0.84736344,0.40015085,0.04634515,-0.35310146,-0.82903555,0.48636538,-0.29088309,-0.65347641,0.14647705,0.50936805
1.24000000,0.27763900,0.77754800,-0.22961800,-0.47549041,0.84737659,0.40014320,0.04636259,-0.35610050,-0.82914516,0.48766970,-0.29013489,-0.65277225,0.14518246,0.51185828
1.26000000,0.27762929,0.77754800,-0.22962771,-0.47550542,0.84736158,0.40013129,0.04636700,-0.35915263,-0.82918442,0.48863187,-0.28957720,-0.65209623,0.14407654,0.51422482
1.28000000,0.27765594,0.77753916,-0.22962035,-0.47551965,0.84736665,0.40013865,0.04636700,-0.36209344,-0.82924608,0.48930184,-0.28890099,-0.65144587,0.14308076,0.51635115
1.30000000,0.27766300,0.77753700,-0.22961800,-0.47551241,0.84737859,0.40014100,0.04636700,-0.36466709,-0.82950921,0.48988329,-0.28825279,-0.65088767,0.14239037,0.51840624
1.32000000,0.27765348,0.77753700,-0.22959895,-0.47551000,0.84737148,0.40013148,0.04635748,-0.36677894,-0.82991406,0.49051249,-0.28783929,-0.65041789,0.14178008,0.52006703
1.34000000,0.27766046,0.77754567,-0.22959400,-0.47551946,0.84736900,0.40012900,0.04636446,-0.36840644,-0.83024899,0.49116557,-0.28739681,-0.64994635,0.14109580,0.52171397
1.36000000,0.27765360,0.77756758,-0.22960340,-0.47551260,0.84738779,0.40011960,0.04635760,-0.36957515,-0.83046535,0.49199019,-0.28689472,-0.64950671,0.14041116,0.52311048
1.38000000,0.27765100,0.77756288,-0.22962467,-0.47551934,0.84738366,0.40011700,0.04636434,-0.37046182,-0.83053501,0.49289817,-0.28644687,-0.64904030,0.13980626,0.52429458
1.40000000,0.27765100,0.77756000,-0.22962076,-0.47549428,0.84737176,0.40011700,0.04635776,-0.37111840,-0.83057072,0.49357340,-0.28605614,-0.64867532,0.13924256,0.52538917
1.42000000,0.27765100,0.77754245,-0.22961800,-0.47551346,0.84738731,0.40013531,0.04635500,-0.37177088,-0.83059731,0.49418927,-0.28565675,-0.64834244,0.13882006,0.52635328
1.44000000,0.27765100,0.77753700,-0.22962709,-0.47553109,0.84739300,0.40012282,0.04635500,-0.37238451,-0.83063936,0.49459153,-0.28539637,-0.64809937,0.13849341,0.52719238
1.46000000,0.27765100,0.77754528,-0.22963000,-0.47553400,0.84738397,0.40011700,0.04637306,-0.37299871,-0.83069614,0.49478134,-0.28520933,-0.64783032,0.13820132,0.52784066
1.48000000,0.27765100,0.77754800,-0.22962109,-0.47553400,0.84737209,0.40013482,0.04636118,-0.37360676,-0.83076373,0.49492320,-0.28512044,-0.64759042,0.13800523,0.52843385
1.50000000,0.27765100,0.77754800,-0.22960917,-0.47551634,0.84737783,0.40012334,0.04634617,-0.37421356,-0.83083498,0.49504829,-0.28504319,-0.64744371,0.13784795,0.52898532
1.52000000,0.27765100,0.77754800,-0.22959727,-0.47551000,0.84738973,0.40011700,0.04636046,-0.37472429,-0.83089766,0.49510620,-0.28495114,-0.64726355,0.13770221,0.52937178
1.54000000,0.27765100,0.77754800,-0.22961998,-0.47551000,0.84737568,0.40010834,0.04636700,-0.37523532,-0.83096596,0.49521126,-0.28485572,-0.64713006,0.13759372,0.52966218
1.56000000,0.27764246,0.77754800,-0.22963000,-0.47551854,0.84736900,0.40011354,0.04636700,-0.37576579,-0.83099454,0.49527363,-0.28476919,-0.64701456,0.13753282,0.52987500
1.58000000,0.27764746,0.77754024,-0.22963000,-0.47552200,0.84736900,0.40012546,0.04638392,-0.37627634,-0.83103184,0.49531784,-0.28473654,-0.64694616,0.13745132,0.52998922
1.60000000,0.27763424,0.77754468,-0.22960487,-0.47552200,0.84737738,0.40012900,0.04635749,-0.37670915,-0.83107951,0.49534038,-0.28471624,-0.64689919,0.13743138,0.53002238
1.62000000,0.27764363,0.77754800,-0.22961063,-0.47551369,0.84738931,0.40012069,0.04635963,-0.37699826,-0.83111894,0.49533569,-0.28472563,-0.64687669,0.13741006,0.53004263
1.64000000,0.27765100,0.77754800,-0.22962626,-0.47551000,0.84737649,0.40010874,0.04635874,-0.37710502,-0.83115477,0.49532374,-0.28472474,-0.64683998,0.13738249,0.53009128
1.66000000,0.27765100,0.77754048,-0.22962180,-0.47551820,0.84736900,0.40012959,0.04635500,-0.37712820,-0.83118240,0.49534459,-0.28468821,-0.64681680,0.13734221,0.53011000
1.68000000,0.27763472,0.77754446,-0.22962614,-0.47553014,0.84737714,0.40014100,0.04634686,-0.37713200,-0.83119000,0.49537228,-0.28467300,-0.64678858,0.13731072,0.53014256
1.70000000,0.27763506,0.77754062,-0.22960583,-0.47552594,0.84737294,0.40013294,0.04635911,-0.37713200,-0.83120611,0.49538000,-0.28465689,-0.64676894,0.13730300,0.53017411
1.72000000,0.27764697,0.77755228,-0.22961791,-0.47552200,0.84737697,0.40013697,0.04635903,-0.37714794,-0.83122197,0.49538000,-0.28460915,-0.64679688,0.13728706,0.53018200
1.74000000,0.27764310,0.77755210,-0.22963000,-0.47552200,0.84738100,0.40012519,0.04636290,-0.37717181,-0.83123390,0.49539581,-0.28451853,-0.64677348,0.13725529,0.53018200
1.76000000,0.27764685,0.77754800,-0.22962215,-0.47552200,0.84737315,0.40011700,0.04636700,-0.37721858,-0.83122231,0.49542754,-0.28436429,-0.64674515,0.13721946,0.53018200
1.78000000,0.27763542,0.77755579,-0.22961800,-0.47552979,0.84737679,0.40011700,0.04635921,-0.37727795,-0.83121400,0.49544779,-0.28406051,-0.64678774,0.13716805,0.53018200
1.80000000,0.27764246,0.77754518,-0.22962573,-0.47551854,0.84738100,0.40011700,0.04635500,-0.37738405,-0.83120627,0.49549839,-0.28351314,-0.64682073,0.13709352,0.53018200
1.82000000,0.27765865,0.77753700,-0.22963765,-0.47551000,0.84738100,0.40011700,0.04636265,-0.37753045,-0.83120965,0.49554695,-0.28276345,-0.64684030,0.13700280,0.53017435
1.84000000,0.27765542,0.77754394,-0.22962685,-0.47551758,0.84738100,0.40013215,0.04636700,-0.37769306,-0.83119127,0.49564333,-0.28190802,-0.64683385,0.13690739,0.53013970
1.86000000,0.27765100,0.77754111,-0.22962552,-0.47551448,0.84738852,0.40014100,0.04635948,-0.37790471,-0.83117048,0.49577406,-0.28101850,-0.64686258,0.13676677,0.53010697
1.88000000,0.27765100,0.77753700,-0.22962254,-0.47551746,0.84739300,0.40013354,0.04635500,-0.37818791,-0.83115108,0.49591995,-0.28008699,-0.64689184,0.13662196,0.53005325
1.90000000,0.27765100,0.77754376,-0.22962537,-0.47551463,0.84739300,0.40012900,0.04636237,-0.37853455,-0.83111251,0.49611171,-0.27905371,-0.64691075,0.13638830,0.52990128
1.92000000,0.27765100,0.77754800,-0.22963000,-0.47551725,0.84737849,0.40012175,0.04636700,-0.37893857,-0.83106498,0.49635461,-0.27803206,-0.64699980,0.13612790,0.52976496
1.94000000,0.27765816,0.77754144,-0.22962284,-0.47551484,0.84736900,0.40011700,0.04637416,-0.37953811,-0.83098871,0.49668042,-0.27681600,-0.64705916,0.13578950,0.52954796
1.96000000,0.27765590,0.77754351,-0.22961800,-0.47551710,0.84737610,0.40012410,0.04637190,-0.38032426,-0.83082224,0.49707784,-0.27523258,-0.64710659,0.13540556,0.52920756
1.98000000,0.27763698,0.77754157,-0.22961800,-0.47552200,0.84737399,0.40012900,0.04637401,-0.38121336,-0.83048916,0.49744534,-0.27335316,-0.64721313,0.13503663,0.52881058
2.00000000,0.27764775,0.77753700,-0.22961800,-0.47552200,0.84736208,0.40013592,0.04636517,-0.38228548,-0.83004587,0.49792328,-0.27136784,-0.64737173,0.13470277,0.52834613
2.02000000,0.27765619,0.77754324,-0.22961800,-0.47551519,0.84737062,0.40014100,0.04636862,-0.38350201,-0.82941267,0.49851879,-0.26940472,-0.64753654,0.13431219,0.52785375
2.04000000,0.27763759,0.77754800,-0.22962471,-0.47551671,0.84737429,0.40012759,0.04636559,-0.38472266,-0.82853844,0.49907803,-0.26743636,-0.64775766,0.13378701,0.52728619
2.06000000,0.27764026,0.77754800,-0.22961674,-0.47551537,0.84736900,0.40013689,0.04636163,-0.38601820,-0.82750071,0.49965514,-0.26539463,-0.64801157,0.13319049,0.52662872
2.08000000,0.27763787,0.77754800,-0.22961913,-0.47551656,0.84736900,0.40013987,0.04637356,-0.38738213,-0.82646990,0.50022224,-0.26323029,-0.64820432,0.13251062,0.52591662
2.10000000,0.27763347,0.77754207,-0.22962353,-0.47551553,0.84736900,0.40012253,0.04637253,-0.38876355,-0.82555959,0.50079698,-0.26090291,-0.64846860,0.13177331,0.52515989
2.12000000,0.27764533,0.77753700,-0.22961800,-0.47551000,0.84736900,0.40012966,0.04636067,-0.39017434,-0.82458629,0.50149507,-0.25830869,-0.64875431,0.13105159,0.52434560
2.14000000,0.27764478,0.77754270,-0.22962422,-0.47551622,0.84737522,0.40012856,0.04636122,-0.39151241,-0.82348103,0.50225441,-0.25531858,-0.64902945,0.13032681,0.52347867
2.16000000,0.27765132,0.77754800,-0.22961768,-0.47551584,0.84738100,0.40012932,0.04637316,-0.39290545,-0.82215155,0.50309190,-0.25193869,-0.64932671,0.12954439,0.52261507
2.18000000,0.27765690,0.77755410,-0.22960600,-0.47551610,0.84737490,0.40014100,0.04637290,-0.39445038,-0.82051510,0.50404081,-0.24833029,-0.64961964,0.12881303,0.52174390
2.20000000,0.27765704,0.77755396,-0.22961808,-0.47551596,0.84736296,0.40014100,0.04637304,-0.39624765,-0.81852058,0.50529038,-0.24421083,-0.64989334,0.12798190,0.52081307
2.22000000,0.27766300,0.77754251,-0.22963000,-0.47551000,0.84736298,0.40012903,0.04636703,-0.39834062,-0.81644604,0.50685885,-0.23982808,-0.65016160,0.12686063,0.51970366
2.24000000,0.27764522,0.77754836,-0.22963000,-0.47551000,0.84736900,0.40011700,0.04636685,-0.40049321,-0.81459706,0.50844535,-0.23548784,-0.65051298,0.12560302,0.51848093
2.26000000,0.27763287,0.77754875,-0.22963000,-0.47550413,0.84737487,0.40012874,0.04636726,-0.40264008,-0.81290183,0.50979046,-0.23095099,-0.65082462,0.12438519,0.51725300
2.28000000,0.27764475,0.77753700,-0.22962425,-0.47550375,0.84738100,0.40013525,0.04636075,-0.40481638,-0.81108232,0.51083698,-0.22636029,-0.65121035,0.12341247,0.51596137
2.30000000,0.27766176,0.77754215,-0.22962361,-0.47551000,0.84736977,0.40013461,0.04636700,-0.40717741,-0.80894807,0.51190903,-0.22184598,-0.65168963,0.12255662,0.51452196
2.32000000,0.27766336,0.77754291,-0.22962445,-0.47551555,0.84735700,0.40013545,0.04636145,-0.40966726,-0.80675139,0.51319079,-0.21747733,-0.65208779,0.12143278,0.51298718
2.34000000,0.27764001,0.77754203,-0.22961800,-0.47551651,0.84736249,0.40012351,0.04636049,-0.41220396,-0.80424221,0.51459568,-0.21268008,-0.65252721,0.12004132,0.51143044
2.36000000,0.27762700,0.77755929,-0.22961258,-0.47551000,0.84736900,0.40012784,0.04636158,-0.41507184,-0.80128489,0.51598791,-0.20688432,-0.65296476,0.11873036,0.50993950
2.38000000,0.27762700,0.77756188,-0.22961667,-0.47549933,0.84735299,0.40013566,0.04636034,-0.41802909,-0.79810029,0.51719273,-0.20058494,-0.65344905,0.11769854,0.50852247
2.40000000,0.27764765,0.77754800,-0.22963000,-0.47549127,0.84734354,0.40013427,0.04636173,-0.42105388,-0.79486256,0.51858369,-0.19415962,-0.65401223,0.11667927,0.50695847
2.42000000,0.27766922,0.77754322,-0.22962479,-0.47549800,0.84735700,0.40014100,0.04636021,-0.42418901,-0.79204140,0.52025203,-0.18807319,-0.65447088,0.11545034,0.50541276
2.44000000,0.27764755,0.77753700,-0.22961800,-0.47549800,0.84735185,0.40013070,0.04636700,-0.42718084,-0.78927725,0.52165163,-0.18250812,-0.65490574,0.11415937,0.50379008
2.46000000,0.27762700,0.77753700,-0.22962818,-0.47550309,0.84735009,0.40011191,0.04636191,-0.43023798,-0.78658039,0.52303458,-0.17680060,-0.65542235,0.11259819,0.50191106
2.48000000,0.27762700,0.77754162,-0.22963696,-0.47549489,0.84735700,0.40011004,0.04634996,-0.43345411,-0.78423150,0.52473013,-0.17049077,-0.65599665,0.11076704,0.50005877
2.50000000,0.27761705,0.77754800,-0.22962005,-0.47548395,0.84735700,0.40012198,0.04634798,-0.43702113,-0.78154663,0.52660785,-0.16311040,-0.65675295,0.10919997,0.49826598
2.52000000,0.27764194,0.77754800,-0.22961092,-0.47548816,0.84735700,0.40013392,0.04635500,-0.44065714,-0.77829527,0.52834479,-0.15513637,-0.65759001,0.10792499,0.49624539
2.54000000,0.27770286,0.77754354,-0.22962286,-0.47548372,0.84735700,0.40013128,0.04635500,-0.44447175,-0.77491436,0.53011466,-0.14744817,-0.65836447,0.10662834,0.49429251
2.56000000,0.27770043,0.77754617,-0.22962521,-0.47548843,0.84735700,0.40013136,0.04635500,-0.44843286,-0.77150559,0.53192249,-0.14040831,-0.65906221,0.10499840,0.49246296
2.58000000,0.27768130,0.77755530,-0.22961330,-0.47547400,0.84736170,0.40014360,0.04635030,-0.45242790,-0.76793200,0.53385835,-0.13360963,-0.65965822,0.10300964,0.49031244
2.60000000,0.27765595,0.77754378,-0.22961522,-0.47548782,0.84737361,0.40011978,0.04634761,-0.45619885,-0.76455591,0.53594368,-0.12661707,-0.66011010,0.10085042,0.48808250
2.62000000,0.27763600,0.77754112,-0.22961650,-0.47549650,0.84736750,0.40011850,0.04635950,-0.46001839,-0.76087852,0.53797926,-0.11853068,-0.66068758,0.09876786,0.48594376
2.64000000,0.27765544,0.77754393,-0.22960288,-0.47547400,0.84735388,0.40013656,0.04636256,-0.46387361,-0.75669585,0.53991548,-0.10985073,-0.66153660,0.09718003,0.48386845
2.66000000,0.27770647,0.77754102,-0.22962238,-0.47547400,0.84736900,0.40012023,0.04635500,-0.46785675,-0.75269644,0.54201571,-0.10160759,-0.66246399,0.09575209,0.48177882
2.68000000,0.27774741,0.77754404,-0.22962568,-0.47546968,0.84736035,0.40011797,0.04635932,-0.47202621,-0.74864235,0.54452328,-0.09356870,-0.66328608,0.09398326,0.47940081
2.70000000,0.27766079,0.77754091,-0.22962226,-0.47547905,0.84735352,0.40014100,0.04636700,-0.47630830,-0.74497772,0.54757486,-0.08522097,-0.66395481,0.09182738,0.47678047
2.72000000,0.27761080,0.77754415,-0.22961320,-0.47549320,0.84736900,0.40012840,0.04635860,-0.48069364,-0.74192889,0.55056043,-0.07655731,-0.66463993,0.08937978,0.47433838
2.74000000,0.27760714,0.77753700,-0.22959857,-0.47546614,0.84736900,0.40011743,0.04635129,-0.48513010,-0.73827653,0.55284758,-0.06776857,-0.66557222,0.08734999,0.47200920
2.76000000,0.27762727,0.77754075,-0.22962591,-0.47546991,0.84736491,0.40012873,0.04637109,-0.48957373,-0.73426706,0.55482939,-0.05911961,-0.66658983,0.08563597,0.46938477
2.78000000,0.27767070,0.77755201,-0.22961399,-0.47546200,0.84736501,0.40011702,0.04637099,-0.49391602,-0.73000469,0.55687201,-0.05035337,-0.66751410,0.08361297,0.46668883
2.80000000,0.27768328,0.77755260,-0.22961373,-0.47547359,0.84738100,0.40013327,0.04635114,-0.49811541,-0.72557967,0.55904716,-0.04137461,-0.66838218,0.08127125,0.46438281
2.82000000,0.27761204,0.77753700,-0.22963000,-0.47549800,0.84736978,0.40011700,0.04634674,-0.50253959,-0.72152412,0.56144518,-0.03175969,-0.66928946,0.07865856,0.46221963
2.84000000,0.27762286,0.77754037,-0.22961528,-0.47548696,0.84735604,0.40012804,0.04636236,-0.50672863,-0.71741286,0.56361414,-0.02258918,-0.67027852,0.07686625,0.45996439
2.86000000,0.27774374,0.77754468,-0.22959649,-0.47546200,0.84737738,0.40015662,0.04637175,-0.51112193,-0.71300095,0.56580609,-0.01334332,-0.67123103,0.07529353,0.45721228
2.88000000,0.27775845,0.77753700,-0.22962645,-0.47547266,0.84736545,0.40015078,0.04635500,-0.51596024,-0.70813110,0.56834723,-0.00361779,-0.67195612,0.07339259,0.45450958
2.90000000,0.27766051,0.77753700,-0.22961800,-0.47550145,0.84736734,0.40011011,0.04635155,-0.52081886,-0.70403879,0.57121667,0.00573723,-0.67258509,0.07111057,0.45187702
2.92000000,0.27760073,0.77754001,-0.22960815,-0.47549687,0.84738972,0.40010285,0.04634957,-0.52564441,-0.70017841,0.57395890,0.01545762,-0.67344242,0.06867669,0.44929409
2.94000000,0.27757508,0.77755117,-0.22958200,-0.47546833,0.84737783,0.40013217,0.04637017,-0.53033393,-0.69639876,0.57593099,0.02449462,-0.67421628,0.06655717,0.44661391
2.96000000,0.27769489,0.77755404,-0.22958511,-0.47548911,0.84737211,0.40013478,0.04637589,-0.53541857,-0.69191106,0.57805652,0.03457892,-0.67505126,0.06446478,0.44392919
2.98000000,0.27768905,0.77753700,-0.22959400,-0.47549190,0.84737795,0.40012005,0.04636090,-0.54053262,-0.68673756,0.58046990,0.04473741,-0.67610589,0.06246044,0.44138069
3.00000000,0.27769207,0.77754268,-0.22959400,-0.47547103,0.84736603,0.40013493,0.04634597,-0.54531714,-0.68212635,0.58309956,0.05428154,-0.67715006,0.05994658,0.43878729
3.02000000,0.27767141,0.77756000,-0.22958834,-0.47546483,0.84735700,0.40015300,0.04635783,-0.54998022,-0.67742427,0.58589085,0.06393059,-0.67835688,0.05746001,0.43582013
3.04000000,0.27764682,0.77756000,-0.22958079,-0.47547130,0.84735970,0.40014221,0.04636430,-0.55515007,-0.67260512,0.58928101,0.07392846,-0.67964858,0.05527145,0.43313450
3.06000000,0.27756318,0.77755515,-0.22962053,-0.47547211,0.84737659,0.40010753,0.04636006,-0.56070975,-0.66741864,0.59264977,0.08444705,-0.68079809,0.05301877,0.43025520
3.08000000,0.27747876,0.77754441,-0.22962259,-0.47550506,0.84740500,0.40011453,0.04637159,-0.56580787,-0.66296621,0.59520494,0.09411903,-0.68171533,0.05064258,0.42755888
3.10000000,0.27757847,0.77757044,-0.22959163,-0.47548363,0.84739790,0.40010973,0.04635010,-0.57019495,-0.65914045,0.59708931,0.10316184,-0.68249474,0.04844962,0.42484979
3.12000000,0.27767613,0.77755592,-0.22958626,-0.47547187,0.84736687,0.40013326,0.04637687,-0.57477063,-0.65517943,0.59921289,0.11302970,-0.68338277,0.04613327,0.42243649
3.14000000,0.27767413,0.77753884,-0.22960801,-0.47546401,0.84736101,0.40014899,0.04636901,-0.58022100,-0.65055323,0.60149163,0.12381871,-0.68467940,0.04394320,0.41986985
3.16000000,0.27762814,0.77754990,-0.22961230,-0.47547400,0.84737340,0.40012520,0.04637330,-0.58556016,-0.64580565,0.60344627,0.13372240,-0.68590026,0.04193088,0.41703097
3.18000000,0.27770895,0.77756000,-0.22958565,-0.47547035,0.84733848,0.40011230,0.04634665,-0.59039959,-0.64104194,0.60559572,0.14279613,-0.68695203,0.03952308,0.41416360
3.20000000,0.27773926,0.77755671,-0.22960600,-0.47546030,0.84736557,0.40014614,0.04636357,-0.59505541,-0.63614275,0.60819818,0.15220828,-0.68812028,0.03714766,0.41147989
3.22000000,0.27754675,0.77753851,-0.22960765,-0.47551540,0.84734830,0.40010500,0.04634630,-0.60017922,-0.63116556,0.61068818,0.16253586,-0.68909824,0.03468336,0.40862632
3.24000000,0.27749956,0.77754661,-0.22961648,-0.47547400,0.84736748,0.40010500,0.04636548,-0.60535069,-0.62665530,0.61357991,0.17187814,-0.69001004,0.03259657,0.40609590
3.26000000,0.27753606,0.77753816,-0.22960347,-0.47547273,0.84735827,0.40010880,0.04635500,-0.61000154,-0.62288020,0.61582465,0.18110460,-0.69096750,0.03039177,0.40342098
3.28000000,0.27757575,0.77754800,-0.22958417,-0.47546634,0.84736683,0.40013883,0.04635500,-0.61461866,-0.61854704,0.61827015,0.19088443,-0.69179047,0.02838370,0.40091080
3.30000000,0.27754970,0.77754896,-0.22960600,-0.47550713,0.84734213,0.40011700,0.04635596,-0.61915258,-0.61454459,0.62031428,0.20119603,-0.69258790,0.02647414,0.39831748
3.32000000,0.27762859,0.77756000,-0.22960600,-0.47547400,0.84731217,0.40011859,0.04636621,-0.62357576,-0.61062792,0.62267776,0.21083258,-0.69341379,0.02453346,0.39575522
3.34000000,0.27765556,0.77756000,-0.22960600,-0.47547532,0.84735766,0.40014034,0.04635500,-0.62772952,-0.60691885,0.62521906,0.21977289,-0.69406345,0.02222322,0.39289482
3.36000000,0.27773221,0.77755886,-0.22960600,-0.47549681,0.84736721,0.40012960,0.04635500,-0.63242132,-0.60216915,0.62807939,0.22984607,-0.69489386,0.01993843,0.39015057
3.38000000,0.27769800,0.77753802,-0.22960653,-0.47547293,0.84733247,0.40014100,0.04635500,-0.63704087,-0.59732777,0.63092262,0.23940668,-0.69587018,0.01815082,0.38759547
3.40000000,0.27769248,0.77755957,-0.22961757,-0.47545171,0.84732143,0.40013972,0.04635500,-0.64227622,-0.59252841,0.63359281,0.24788468,-0.69680830,0.01564446,0.38496762
3.42000000,0.27753826,0.77754800,-0.22960636,-0.47549909,0.84733373,0.40010500,0.04635573,-0.64777515,-0.58864847,0.63589146,0.25601177,-0.69773765,0.01344588,0.38257735
3.44000000,0.27738846,0.77754873,-0.22961727,-0.47553303,0.84735773,0.40010573,0.04637900,-0.65294255,-0.58536361,0.63772584,0.26437021,-0.69864021,0.01110632,0.38001713
3.46000000,0.27745874,0.77758361,-0.22958226,-0.47548626,0.84739287,0.40014087,0.04637874,-0.65731277,-0.58158990,0.63933065,0.27249338,-0.69962519,0.00922197,0.37753753
3.48000000,0.27743524,0.77754802,-0.22960604,-0.47550991,0.84738087,0.40012896,0.04635500,-0.66183758,-0.57794346,0.64120762,0.28198035,-0.70055170,0.00758289,0.37522139
3.50000000,0.27756659,0.77755996,-0.22962992,-0.47546215,0.84730923,0.40010508,0.04635500,-0.66647639,-0.57386584,0.64316284,0.29027986,-0.70147011,0.00590130,0.37272885
3.52000000,0.27762652,0.77754810,-0.22960619,-0.47546200,0.84736852,0.40014071,0.04635500,-0.67078256,-0.57024992,0.64501221,0.29751018,-0.70216247,0.00383950,0.36998694
3.54000000,0.27754445,0.77754800,-0.22960600,-0.47549738,0.84736900,0.40011741,0.04636679,-0.67582196,-0.56697117,0.64696982,0.30554174,-0.70272127,0.00167970,0.36777453
3.56000000,0.27758971,0.77755968,-0.22958265,-0.47546297,0.84735732,0.40015203,0.04634365,-0.68059845,-0.56306535,0.64883539,0.31412471,-0.70331389,-0.00010765,0.36559029
3.58000000,0.27751051,0.77756000,-0.22960500,-0.47549650,0.84735700,0.40011850,0.04634300,-0.68528729,-0.55897369,0.65060891,0.32297063,-0.70399597,-0.00139596,0.36346408
3.60000000,0.27755217,0.77756000,-0.22961729,-0.47552058,0.84735700,0.40009442,0.04635429,-0.68877869,-0.55520241,0.65240892,0.32971777,-0.70485970,-0.00272417,0.36112963
3.62000000,0.27761079,0.77754884,-0.22959568,-0.47547737,0.84733468,0.40013763,0.04635500,-0.69239464,-0.55173472,0.65426692,0.33665827,-0.70570328,-0.00458739,0.35851475
3.64000000,0.27751519,0.77754800,-0.22961618,-0.47551836,0.84735518,0.40010773,0.04637718,-0.69601869,-0.54915282,0.65621496,0.34317747,-0.70656054,-0.00668213,0.35620153
3.66000000,0.27761627,0.77755893,-0.22960707,-0.47546736,0.84735700,0.40014871,0.04636807,-0.69959134,-0.54672459,0.65814239,0.35019730,-0.70723701,-0.00850210,0.35448901
3.68000000,0.27762700,0.77757176,-0.22960600,-0.47547286,0.84736786,0.40015300,0.04637786,-0.70375344,-0.54369630,0.65978107,0.35816923,-0.70800189,-0.01008564,0.35250474
3.70000000,0.27758379,0.77754059,-0.22959520,-0.47550641,0.84736900,0.40010979,0.04637900,-0.70730806,-0.54057405,0.66125124,0.36511158,-0.70875573,-0.01117312,0.35041326
3.72000000,0.27764351,0.77755761,-0.22960475,-0.47546699,0.84735825,0.40013725,0.04635750,-0.71085645,-0.53769499,0.66276064,0.37119580,-0.70950744,-0.01232974,0.34845320
3.74000000,0.27761892,0.77756000,-0.22958461,-0.47547269,0.84736769,0.40014100,0.04635500,-0.71402644,-0.53441675,0.66398758,0.37747246,-0.71015193,-0.01360524,0.34661550
3.76000000,0.27758309,0.77754936,-0.22961391,-0.47550591,0.84736900,0.40011973,0.04636564,-0.71698085,-0.53145079,0.66590215,0.38374932,-0.71075190,-0.01468106,0.34486495
3.78000000,0.27761022,0.77755841,-0.22960759,-0.47551000,0.84737941,0.40011700,0.04632537,-0.72029857,-0.52905895,0.66786729,0.38993331,-0.71131955,-0.01645316,0.34316995
3.80000000,0.27759451,0.77756000,-0.22960600,-0.47551000,0.84738100,0.40013749,0.04634973,-0.72344544,-0.52673897,0.66947225,0.39584360,-0.71172292,-0.01823047,0.34145750
3.82000000,0.27759100,0.77756000,-0.22960600,-0.47549983,0.84737083,0.40012067,0.04636517,-0.72641437,-0.52428322,0.67091079,0.40168807,-0.71223558,-0.01956780,0.33977143
3.84000000,0.27761121,0.77756000,-0.22960600,-0.47548790,0.84735890,0.40013721,0.04637710,-0.72911744,-0.52171302,0.67220833,0.40705572,-0.71281305,-0.02060981,0.33815078
3.86000000,0.27763508,0.77754996,-0.22960600,-0.47548600,0.84736704,0.40013096,0.04635892,-0.73164526,-0.51930635,0.67351384,0.41215656,-0.71331684,-0.02154048,0.33680221
3.88000000,0.27762902,0.77755798,-0.22961598,-0.47549598,0.84736900,0.40011902,0.04636498,-0.73393010,-0.51680334,0.67452672,0.41711551,-0.71385534,-0.02248872,0.33544275
3.90000000,0.27760715,0.77755008,-0.22960808,-0.47550792,0.84737892,0.40012692,0.04638685,-0.73625140,-0.51413674,0.67544131,0.42215151,-0.71431515,-0.02335370,0.33400206
3.92000000,0.27758326,0.77755787,-0.22961587,-0.47551987,0.84740074,0.40011913,0.04636140,-0.73887588,-0.51207100,0.67671246,0.42703255,-0.71464775,-0.02448617,0.33281234
3.94000000,0.27758877,0.77756000,-0.22960823,-0.47549270,0.84738547,0.40011700,0.04635500,-0.74134508,-0.51038056,0.67790857,0.43154508,-0.71499602,-0.02573352,0.33167397
3.96000000,0.27759100,0.77757043,-0.22960600,-0.47550526,0.84736174,0.40012663,0.04636463,-0.74356949,-0.50898563,0.67890622,0.43585057,-0.71557258,-0.02709509,0.33039189
3.98000000,0.27761010,0.77756265,-0.22961555,-0.47550045,0.84738566,0.40012900,0.04637655,-0.74514015,-0.50755419,0.67967035,0.43978647,-0.71599333,-0.02822137,0.32911803
4.00000000,0.27763393,0.77755054,-0.22959907,-0.47548854,0.84737407,0.40012900,0.04636954,-0.74666906,-0.50608418,0.68036506,0.44333522,-0.71640020,-0.02900598,0.32783859
4.02000000,0.27761080,0.77755740,-0.22960340,-0.47548600,0.84736900,0.40013840,0.04636700,-0.74859663,-0.50457778,0.68119741,0.44686364,-0.71679841,-0.02974941,0.32685139
4.04000000,0.27759366,0.77756000,-0.22960600,-0.47550468,0.84737834,0.40014100,0.04635766,-0.75063282,-0.50299798,0.68207739,0.45031172,-0.71736035,-0.03047263,0.32616909
4.06000000,0.27761885,0.77755072,-0.22962457,-0.47550072,0.84739028,0.40012243,0.04637357,-0.75237576,-0.50152033,0.68294159,0.45348443,-0.71788510,-0.03104895,0.32551194
4.08000000,0.27762700,0.77755722,-0.22962078,-0.47549800,0.84738378,0.40012622,0.04636978,-0.75392284,-0.50010517,0.68358818,0.45638210,-0.71833027,-0.03162218,0.32474280
4.10000000,0.27762700,0.77756000,-0.22959974,-0.47548887,0.84737187,0.40013813,0.04635787,-0.75558832,-0.49881165,0.68421631,0.45925852,-0.71864914,-0.03210497,0.32405556
4.12000000,0.27760889,0.77756000,-0.22960305,-0.47548600,0.84736900,0.40015005,0.04635500,-0.75727606,-0.49745023,0.68478672,0.46222446,-0.71894434,-0.03253012,0.32334648
4.14000000,0.27762097,0.77756000,-0.22962397,-0.47549499,0.84737799,0.40014401,0.04635500,-0.75863316,-0.49612715,0.68528149,0.46482934,-0.71923294,-0.03299174,0.32266372
4.16000000,0.27761807,0.77756000,-0.22960322,-0.47550693,0.84737207,0.40013207,0.04636393,-0.75986698,-0.49477390,0.68586545,0.46721136,-0.71947461,-0.03345122,0.32180912
4.18000000,0.27760613,0.77755113,-0.22959400,-0.47549226,0.84736900,0.40012013,0.04637587,-0.76108679,-0.49368644,0.68643218,0.46938340,-0.71972809,-0.03396632,0.32098846
4.20000000,0.27760300,0.77754800,-0.22960281,-0.47549481,0.84737781,0.40012581,0.04637019,-0.76224153,-0.49279337,0.68695485,0.47127474,-0.71994605,-0.03444180,0.32032459
4.22000000,0.27761175,0.77755675,-0.22960600,-0.47550675,0.84738100,0.40012900,0.04636700,-0.76315610,-0.49204820,0.68742395,0.47287814,-0.72016634,-0.03480740,0.31974753
4.24000000,0.27762370,0.77756000,-0.22961470,-0.47551000,0.84738100,0.40013770,0.04637570,-0.76386059,-0.49141348,0.68783326,0.47432644,-0.72034975,-0.03504584,0.31923047
4.26000000,0.27760972,0.77756000,-0.22960936,-0.47550136,0.84737236,0.40013236,0.04637036,-0.76446526,-0.49089157,0.68814931,0.47563318,-0.72052557,-0.03533450,0.31879039
4.28000000,0.27759442,0.77756000,-0.22960600,-0.47550658,0.84736900,0.40012900,0.04637558,-0.76493820,-0.49045438,0.68841020,0.47674342,-0.72071258,-0.03566527,0.31844131
4.30000000,0.27759952,0.77756000,-0.22962305,-0.47550148,0.84736900,0.40012900,0.04637900,-0.76532455,-0.49001959,0.68860134,0.47767410,-0.72084372,-0.03594001,0.31811031
4.32000000,0.27760300,0.77756000,-0.22961306,-0.47548953,0.84736053,0.40013747,0.04637900,-0.76566910,-0.48956993,0.68876784,0.47845530,-0.72091734,-0.03616471,0.31779354
4.34000000,0.27759459,0.77756000,-0.22960600,-0.47548600,0.84737382,0.40014100,0.04636218,-0.76602029,-0.48917530,0.68902724,0.47911902,-0.72101910,-0.03632051,0.31758426
4.36000000,0.27759935,0.77756000,-0.22961435,-0.47548600,0.84738100,0.40013265,0.04636335,-0.76638627,-0.48886421,0.68921725,0.47972599,-0.72108006,-0.03645189,0.31739199
4.38000000,0.27759471,0.77756000,-0.22960971,-0.47548600,0.84737271,0.40012900,0.04635041,-0.76672296,-0.48866087,0.68937713,0.48030615,-0.72111588,-0.03656665,0.31721457
4.40000000,0.27759923,0.77754423,-0.22961423,-0.47550245,0.84737723,0.40012900,0.04635945,-0.76701153,-0.48847737,0.68951881,0.48079593,-0.72114345,-0.03664113,0.31712187
4.42000000,0.27759484,0.77754448,-0.22960984,-0.47550184,0.84738100,0.40014533,0.04635067,-0.76729394,-0.48831087,0.68964980,0.48127304,-0.72116733,-0.03671715,0.31704585
4.44000000,0.27759100,0.77755610,-0.22961410,-0.47550610,0.84737290,0.40014490,0.04635110,-0.76752378,-0.48814821,0.68975684,0.48168124,-0.72119121,-0.03679263,0.31698658
4.46000000,0.27759100,0.77756000,-0.22961800,-0.47551000,0.84736900,0.40013295,0.04636305,-0.76769393,-0.48802963,0.68986042,0.48198640,-0.72120705,-0.03683947,0.31696295
4.48000000,0.27759900,0.77754466,-0.22961000,-0.47551000,0.84736900,0.40013700,0.04636700,-0.76783302,-0.48793399,0.68994401,0.48215701,-0.72121900,-0.03689101,0.31692699
4.50000000,0.27759505,0.77754429,-0.22961395,-0.47549410,0.84737695,0.40014895,0.04637495,-0.76792469,-0.48789405,0.68998390,0.48226059,-0.72122300,-0.03693485,0.31690305
4.52000000,0.27759889,0.77755589,-0.22961800,-0.47548600,0.84737311,0.40014511,0.04636322,-0.76795689,-0.48785843,0.68999200,0.48233246,-0.72123878,-0.03697068,0.31689111
4.54000000,0.27760300,0.77755219,-0.22962581,-0.47549381,0.84736900,0.40014100,0.04635500,-0.76799224,-0.48784200,0.68998419,0.48239205,-0.72124700,-0.03700643,0.31688700
4.56000000,0.27760300,0.77755574,-0.22960678,-0.47550574,0.84737674,0.40014100,0.04635500,-0.76803222,-0.48781878,0.69002644,0.48242848,-0.72129344,-0.03701900,0.31687926
4.58000000,0.27759532,0.77756000,-0.22960936,-0.47549464,0.84737332,0.40013332,0.04636268,-0.76806804,-0.48780600,0.69005200,0.48248308,-0.72137980,-0.03701900,0.31686732
4.60000000,0.27761384,0.77756000,-0.22961039,-0.47548600,0.84736139,0.40012900,0.04636700,-0.76818760,-0.48793544,0.69002916,0.48261560,-0.72144446,-0.03698854,0.31683254
4.62000000,0.27761190,0.77756000,-0.22960600,-0.47549355,0.84737210,0.40012145,0.04636700,-0.76841445,-0.48820565,0.68999335,0.48284245,-0.72146955,-0.03694080,0.31677725
4.64000000,0.27760300,0.77756000,-0.22961349,-0.47549051,0.84737351,0.40013197,0.04636700,-0.76867672,-0.48849321,0.68998749,0.48308226,-0.72150395,-0.03688556,0.31676249
4.66000000,0.27759557,0.77756000,-0.22961057,-0.47548600,0.84736157,0.40014843,0.04636700,-0.76890237,-0.48876735,0.68997713,0.48322747,-0.72154430,-0.03684132,0.31672240
4.68000000,0.27761313,0.77755262,-0.22960600,-0.47550075,0.84736438,0.40013087,0.04636700,-0.76905377,-0.48895315,0.68994587,0.48331564,-0.72158013,-0.03680587,0.31665812
4.70000000,0.27760524,0.77755525,-0.22960600,-0.47549549,0.84737625,0.40012425,0.04635975,-0.76917193,-0.48909830,0.68989573,0.48334800,-0.72161576,-0.03677749,0.31659148
4.72000000,0.27759100,0.77756000,-0.22961314,-0.47549314,0.84736673,0.40012186,0.04636214,-0.76931176,-0.48915286,0.68985773,0.48336941,-0.72165141,-0.03676086,0.31650592
4.74000000,0.27759806,0.77756000,-0.22962506,-0.47550506,0.84737112,0.40013112,0.04636700,-0.76945267,-0.48919743,0.68984800,0.48339106,-0.72167306,-0.03674894,0.31641110
4.76000000,0.27759600,0.77755300,-0.22960899,-0.47551000,0.84737400,0.40012699,0.04633898,-0.76963307,-0.48921099,0.68981998,0.48338900,-0.72168500,-0.03672999,0.31635099
4.78000000,0.27759100,0.77755493,-0.22960785,-0.47550307,0.84737593,0.40013085,0.04635363,-0.76980612,-0.48920985,0.68979307,0.48338400,-0.72169000,-0.03670615,0.31630829
4.80000000,0.27759785,0.77756000,-0.22961115,-0.47550485,0.84736730,0.40014785,0.04637900,-0.76993495,-0.48919944,0.68974689,0.48339085,-0.72170370,-0.03669600,0.31626744
4.82000000,0.27760300,0.77756000,-0.22960600,-0.47551000,0.84737055,0.40014623,0.04637223,-0.77008084,-0.48919755,0.68970245,0.48339600,-0.72172077,-0.03669600,0.31621813
4.84000000,0.27758962,0.77756725,-0.22961269,-0.47549662,0.84736762,0.40014100,0.04636031,-0.77022089,-0.48920800,0.68963849,0.48339600,-0.72173269,-0.03668931,0.31616525
4.86000000,0.27759224,0.77756583,-0.22961800,-0.47548600,0.84737686,0.40014100,0.04636162,-0.77033357,-0.48921462,0.68958276,0.48339600,-0.72173800,-0.03668400,0.31610429
4.88000000,0.27758988,0.77756000,-0.22960488,-0.47548600,0.84737988,0.40014100,0.04637356,-0.77043449,-0.48921344,0.68956544,0.48339600,-0.72175112,-0.03667744,0.31604575
4.90000000,0.27759201,0.77756000,-0.22960701,-0.47549901,0.84736250,0.40012799,0.04637250,-0.77053002,-0.48922751,0.68953399,0.48339600,-0.72175550,-0.03666550,0.31600449
4.92000000,0.27759656,0.77754765,-0.22961156,-0.47549711,0.84736989,0.40012989,0.04636700,-0.77061910,-0.48922467,0.68949267,0.48339600,-0.72176289,-0.03666644,0.31596223
4.94000000,0.27759100,0.77754282,-0.22960600,-0.47549871,0.84737465,0.40014100,0.04636065,-0.77070830,-0.48920165,0.68945112,0.48339600,-0.72176765,-0.03666565,0.31594000
4.96000000,0.27759722,0.77755422,-0.22959978,-0.47549756,0.84737522,0.40014722,0.04636122,-0.77080900,-0.48921467,0.68942278,0.48339600,-0.72175578,-0.03666000,0.31592756
4.98000000,0.27760300,0.77755388,-0.22959400,-0.47549212,0.84737488,0.40014688,0.04636088,-0.77089160,-0.48923200,0.68941700,0.48339600,-0.72176224,-0.03663552,0.31587928
5.00000000,0.27760300,0.77755406,-0.22959400,-0.47549194,0.84737506,0.40014100,0.04636106,-0.77093311,-0.48923806,0.68940489,0.48339600,-0.72176189,-0.03660594,0.31581978
