gracetata/LocomotionHEC/legged_lab/Reference Data/ArmHack/StandPerturb/TestData/ArmOnly/trajectories/representative/representative_arm_trajectory_01_source_036_041s_1x_50hz.csv
time_s,left_shoulder_pitch_joint,left_shoulder_roll_joint,left_shoulder_yaw_joint,left_elbow_joint,left_wrist_roll_joint,left_wrist_pitch_joint,left_wrist_yaw_joint,right_shoulder_pitch_joint,right_shoulder_roll_joint,right_shoulder_yaw_joint,right_elbow_joint,right_wrist_roll_joint,right_wrist_pitch_joint,right_wrist_yaw_joint
0.00000000,0.00988991,1.04326463,-0.00073090,-0.92963741,0.69397586,0.71548688,-0.87259149,0.27902390,-0.77804000,0.22981467,-0.47601990,-0.84802110,0.40053190,-0.04662590
0.02000000,0.01133775,1.04185773,-0.00240243,-0.92827858,0.69509775,0.71355744,-0.86673220,0.27902215,-0.77804000,0.22981628,-0.47601815,-0.84802285,0.40054385,-0.04662415
0.04000000,0.01249351,1.04019938,-0.00411805,-0.92656399,0.69639544,0.71150810,-0.86132401,0.27901700,-0.77805352,0.22981480,-0.47601976,-0.84802800,0.40053548,-0.04661900
0.06000000,0.01381753,1.03848403,-0.00562983,-0.92442170,0.69781618,0.70935861,-0.85615612,0.27901033,-0.77805065,0.22981612,-0.47602500,-0.84802800,0.40050498,-0.04661900
0.08000000,0.01550690,1.03689148,-0.00708024,-0.92175998,0.69899951,0.70739478,-0.85005845,0.27901161,-0.77802677,0.22981494,-0.47601839,-0.84803461,0.40049561,-0.04662561
0.10000000,0.01743048,1.03535454,-0.00848846,-0.91877407,0.69989598,0.70560503,-0.84337467,0.27901700,-0.77802900,0.22981596,-0.47601950,-0.84802700,0.40051400,-0.04662450
0.12000000,0.01935157,1.03376914,-0.00998414,-0.91553846,0.70079441,0.70379479,-0.83740638,0.27901064,-0.77804636,0.22981517,-0.47602500,-0.84800964,0.40052500,-0.04661900
0.14000000,0.02134462,1.03189514,-0.01162270,-0.91191000,0.70173752,0.70186979,-0.83164177,0.27901748,-0.77804576,0.22981572,-0.47602500,-0.84802896,0.40052500,-0.04662524
0.16000000,0.02334752,1.02973824,-0.01330159,-0.90856247,0.70267784,0.69976424,-0.82498591,0.27903516,-0.77804000,0.22981535,-0.47601267,-0.84802119,0.40055581,-0.04662484
0.18000000,0.02528665,1.02765957,-0.01503228,-0.90561439,0.70371184,0.69721560,-0.81790115,0.27902878,-0.77804000,0.22981560,-0.47601933,-0.84801644,0.40055445,-0.04661900
0.20000000,0.02719381,1.02567343,-0.01693611,-0.90255480,0.70481509,0.69455307,-0.81122099,0.27901095,-0.77804605,0.22981545,-0.47603095,-0.84803395,0.40050685,-0.04661900
0.22000000,0.02894093,1.02354395,-0.01895170,-0.89927473,0.70593625,0.69210857,-0.80443367,0.27901698,-0.77804601,0.22981549,-0.47601901,-0.84801602,0.40053694,-0.04663098
0.24000000,0.03062849,1.02110062,-0.02077788,-0.89573308,0.70726474,0.68937973,-0.79711206,0.27902900,-0.77803407,0.22982100,-0.47601893,-0.84799807,0.40055533,-0.04663113
0.26000000,0.03231000,1.01863221,-0.02265035,-0.89224920,0.70848804,0.68665892,-0.78955324,0.27901734,-0.77802800,0.22981566,-0.47601917,-0.84801532,0.40049002,-0.04661900
0.28000000,0.03426579,1.01647401,-0.02469269,-0.88917898,0.70937403,0.68427968,-0.78179824,0.27900500,-0.77803941,0.22981000,-0.47602441,-0.84802859,0.40048154,-0.04662471
0.30000000,0.03652582,1.01427978,-0.02650724,-0.88631153,0.71027502,0.68189241,-0.77456662,0.27901063,-0.77805200,0.22981516,-0.47603137,-0.84801600,0.40050737,-0.04662537
0.32000000,0.03877066,1.01202819,-0.02821614,-0.88289502,0.71126197,0.67948995,-0.76764203,0.27901700,-0.77805200,0.22981597,-0.47602500,-0.84802149,0.40050649,-0.04661900
0.34000000,0.04125325,1.00981305,-0.03013499,-0.87854983,0.71231353,0.67695450,-0.75956454,0.27901169,-0.77804138,0.22981487,-0.47601969,-0.84802800,0.40050769,-0.04661900
0.36000000,0.04393294,1.00768193,-0.03201192,-0.87381623,0.71347463,0.67444900,-0.75142039,0.27901023,-0.77803323,0.22982100,-0.47601823,-0.84802800,0.40049054,-0.04662423
0.38000000,0.04704181,1.00578528,-0.03381775,-0.86904970,0.71483548,0.67210872,-0.74361889,0.27902217,-0.77804517,0.22981626,-0.47602500,-0.84802800,0.40050286,-0.04662583
0.40000000,0.05034186,1.00370341,-0.03576759,-0.86445649,0.71639789,0.66938083,-0.73539574,0.27902900,-0.77805200,0.22981000,-0.47601991,-0.84802291,0.40058279,-0.04661900
0.42000000,0.05280071,1.00125502,-0.03759097,-0.86044132,0.71816567,0.66629826,-0.72784376,0.27901899,-0.77805200,0.22981000,-0.47601300,-0.84801099,0.40062498,-0.04661900
0.44000000,0.05495686,0.99868681,-0.03942642,-0.85681328,0.71997614,0.66328729,-0.71973506,0.27900995,-0.77804705,0.22981454,-0.47602290,-0.84801886,0.40055738,-0.04661900
0.46000000,0.05721136,0.99648490,-0.04133182,-0.85335071,0.72148185,0.66041249,-0.71080719,0.27900724,-0.77804000,0.22981653,-0.47602724,-0.84804000,0.40052540,-0.04661900
0.48000000,0.05949993,0.99434484,-0.04329433,-0.84964601,0.72312097,0.65753480,-0.70194507,0.27900263,-0.77804963,0.22981000,-0.47601782,-0.84803518,0.40057063,-0.04661900
0.50000000,0.06160360,0.99173096,-0.04557948,-0.84576752,0.72475374,0.65464592,-0.69312371,0.27901226,-0.77805926,0.22981434,-0.47602500,-0.84803274,0.40057552,-0.04661900
0.52000000,0.06360571,0.98908447,-0.04807690,-0.84145758,0.72608231,0.65172745,-0.68466545,0.27900500,-0.77805200,0.22981675,-0.47602964,-0.84803073,0.40051927,-0.04661900
0.54000000,0.06613696,0.98676217,-0.05052225,-0.83647253,0.72737047,0.64832585,-0.67577135,0.27900500,-0.77804747,0.22981000,-0.47603247,-0.84802053,0.40045753,-0.04661900
0.56000000,0.06913744,0.98416669,-0.05299657,-0.83089245,0.72863372,0.64469353,-0.66613566,0.27900942,-0.77803558,0.22981000,-0.47602058,-0.84802358,0.40050474,-0.04661900
0.58000000,0.07184793,0.98108961,-0.05534254,-0.82595504,0.72984802,0.64188040,-0.65793370,0.27902131,-0.77803231,0.22981000,-0.47601300,-0.84802031,0.40055578,-0.04661900
0.60000000,0.07440477,0.97790493,-0.05771693,-0.82165496,0.73097019,0.63930293,-0.64953220,0.27902478,-0.77804000,0.22981000,-0.47601300,-0.84802378,0.40050813,-0.04661900
0.62000000,0.07710724,0.97513821,-0.06016389,-0.81753626,0.73216947,0.63647805,-0.64041688,0.27901285,-0.77804415,0.22981000,-0.47601715,-0.84802015,0.40050608,-0.04661900
0.64000000,0.07976786,0.97250054,-0.06257608,-0.81362328,0.73370571,0.63355182,-0.63100982,0.27899686,-0.77805200,0.22981000,-0.47602500,-0.84803614,0.40053658,-0.04661900
0.66000000,0.08266543,0.96989593,-0.06485980,-0.80941568,0.73562564,0.63034156,-0.62065811,0.27899288,-0.77804804,0.22981363,-0.47602104,-0.84804012,0.40049296,-0.04661900
0.68000000,0.08554154,0.96756347,-0.06697802,-0.80519608,0.73746978,0.62687574,-0.61204304,0.27901700,-0.77804390,0.22982100,-0.47602079,-0.84801990,0.40049710,-0.04661900
0.70000000,0.08850993,0.96550956,-0.06959624,-0.79976302,0.73921296,0.62311759,-0.60235480,0.27901700,-0.77805581,0.22981369,-0.47603319,-0.84802800,0.40050806,-0.04662281
0.72000000,0.09141522,0.96309995,-0.07227981,-0.79383153,0.74090477,0.61957127,-0.59281234,0.27901700,-0.77806034,0.22980166,-0.47602866,-0.84803166,0.40053802,-0.04663100
0.74000000,0.09433159,0.96030278,-0.07465453,-0.78886884,0.74264808,0.61639466,-0.58328272,0.27901700,-0.77805200,0.22981320,-0.47603003,-0.84804000,0.40051300,-0.04662054
0.76000000,0.09732105,0.95728660,-0.07692186,-0.78428607,0.74433885,0.61339291,-0.57359356,0.27901358,-0.77805542,0.22981787,-0.47600958,-0.84802975,0.40052325,-0.04660525
0.78000000,0.10041181,0.95464438,-0.07912472,-0.77957532,0.74609872,0.61010863,-0.56370538,0.27900831,-0.77806400,0.22981304,-0.47600100,-0.84800731,0.40056887,-0.04663100
0.80000000,0.10290735,0.95172587,-0.08130930,-0.77508887,0.74759135,0.60667483,-0.55369135,0.27901383,-0.77805765,0.22981809,-0.47600735,-0.84801600,0.40060830,-0.04662783
0.82000000,0.10503228,0.94915433,-0.08322660,-0.77126129,0.74883118,0.60324836,-0.54501229,0.27900500,-0.77804000,0.22981000,-0.47602500,-0.84801900,0.40054903,-0.04661900
0.84000000,0.10764948,0.94694295,-0.08558109,-0.76720312,0.75003044,0.59933591,-0.53485545,0.27900500,-0.77804000,0.22980716,-0.47602500,-0.84802516,0.40048837,-0.04661616
0.86000000,0.11026159,0.94427340,-0.08799884,-0.76218593,0.75134647,0.59601022,-0.52471830,0.27900500,-0.77804000,0.22980319,-0.47602771,-0.84801600,0.40051687,-0.04661242
0.88000000,0.11284048,0.94096950,-0.09062554,-0.75677343,0.75284114,0.59333926,-0.51472972,0.27900500,-0.77804530,0.22981857,-0.47603170,-0.84801335,0.40049430,-0.04662835
0.90000000,0.11566672,0.93751076,-0.09326931,-0.75087247,0.75470391,0.59046903,-0.50514726,0.27900758,-0.77806142,0.22981000,-0.47601558,-0.84800658,0.40051558,-0.04661642
0.92000000,0.11921241,0.93446652,-0.09612079,-0.74578803,0.75664190,0.58716650,-0.49522902,0.27901450,-0.77805200,0.22981000,-0.47602500,-0.84801850,0.40052999,-0.04660700
0.94000000,0.12288202,0.93116064,-0.09908710,-0.74127460,0.75810845,0.58363036,-0.48537423,0.27900984,-0.77805442,0.22981000,-0.47602500,-0.84803042,0.40055625,-0.04660942
0.96000000,0.12655850,0.92829919,-0.10182827,-0.73655625,0.75993975,0.57940751,-0.47517727,0.27902431,-0.77806400,0.22981000,-0.47602500,-0.84803765,0.40057092,-0.04661900
0.98000000,0.12952901,0.92588631,-0.10431271,-0.73250154,0.76145020,0.57594228,-0.46605519,0.27900273,-0.77805946,0.22981208,-0.47602273,-0.84802573,0.40052208,-0.04661900
1.00000000,0.13204378,0.92352937,-0.10650884,-0.72801654,0.76356717,0.57277255,-0.45659249,0.27899300,-0.77804215,0.22981903,-0.47601730,-0.84801815,0.40055885,-0.04661900
1.02000000,0.13454653,0.92100559,-0.10862415,-0.72272124,0.76594014,0.56909797,-0.44543542,0.27899917,-0.77805200,0.22981000,-0.47603494,-0.84802594,0.40053253,-0.04662106
1.04000000,0.13724611,0.91822605,-0.11061417,-0.71720262,0.76792052,0.56575925,-0.43466725,0.27902515,-0.77805393,0.22981000,-0.47602693,-0.84801600,0.40045878,-0.04662907
1.06000000,0.13997166,0.91578166,-0.11291155,-0.71175254,0.76893579,0.56284568,-0.42538090,0.27900844,-0.77806400,0.22981000,-0.47603184,-0.84801600,0.40050620,-0.04661900
1.08000000,0.14270918,0.91254614,-0.11540966,-0.70644060,0.77004283,0.55929335,-0.41652249,0.27902586,-0.77806400,0.22981000,-0.47600570,-0.84801757,0.40060430,-0.04662057
1.10000000,0.14572086,0.90944874,-0.11820905,-0.70165127,0.77120730,0.55551159,-0.40637783,0.27900786,-0.77806400,0.22981000,-0.47603700,-0.84802800,0.40055869,-0.04662957
1.12000000,0.14883144,0.90647556,-0.12083647,-0.69718352,0.77255864,0.55245697,-0.39627456,0.27902763,-0.77806400,0.22981000,-0.47603563,-0.84802663,0.40046394,-0.04661900
1.14000000,0.15168783,0.90354282,-0.12308185,-0.69237088,0.77439099,0.54933861,-0.38602121,0.27901823,-0.77806277,0.22981000,-0.47602377,-0.84801723,0.40055147,-0.04661900
1.16000000,0.15411934,0.90042860,-0.12497372,-0.68813061,0.77618280,0.54646335,-0.37677622,0.27902793,-0.77805307,0.22981000,-0.47601407,-0.84802800,0.40056872,-0.04661900
1.18000000,0.15645787,0.89793718,-0.12703776,-0.68332432,0.77804355,0.54297065,-0.36721883,0.27901700,-0.77806400,0.22981092,-0.47602400,-0.84802800,0.40051897,-0.04661900
1.20000000,0.15923715,0.89528355,-0.12950409,-0.67760400,0.77977814,0.53850725,-0.35646651,0.27901418,-0.77806306,0.22982100,-0.47601394,-0.84802612,0.40045864,-0.04661994
1.22000000,0.16232660,0.89227976,-0.13187798,-0.67223184,0.78131010,0.53503184,-0.34673319,0.27898535,-0.77805200,0.22981933,-0.47602413,-0.84800574,0.40052500,-0.04663013
1.24000000,0.16557650,0.88947196,-0.13502201,-0.66767770,0.78292494,0.53252473,-0.33790682,0.27903969,-0.77805265,0.22979865,-0.47601365,-0.84802800,0.40052696,-0.04661900
1.26000000,0.16888911,0.88713094,-0.13840071,-0.66291062,0.78480153,0.52955766,-0.32954465,0.27901748,-0.77806400,0.22981000,-0.47602452,-0.84802800,0.40056148,-0.04661900
1.28000000,0.17234014,0.88470057,-0.14151294,-0.65824279,0.78692544,0.52595396,-0.31888061,0.27902859,-0.77806441,0.22981000,-0.47601300,-0.84802717,0.40057051,-0.04661983
1.30000000,0.17529521,0.88200323,-0.14331122,-0.65440226,0.78811273,0.52291524,-0.30939374,0.27901757,-0.77807543,0.22981000,-0.47601300,-0.84800400,0.40050213,-0.04664272
1.32000000,0.17839645,0.87949014,-0.14501045,-0.65052405,0.78936692,0.51967577,-0.29970689,0.27904056,-0.77805200,0.22981000,-0.47601278,-0.84800489,0.40054922,-0.04663100
1.34000000,0.18028197,0.87715653,-0.14700163,-0.64584564,0.79074469,0.51604771,-0.29044679,0.27901698,-0.77805200,0.22981000,-0.47600102,-0.84805196,0.40056081,-0.04663098
1.36000000,0.18197653,0.87460224,-0.14850592,-0.64106979,0.79171202,0.51302719,-0.28175482,0.27900502,-0.77805200,0.22981000,-0.47601298,-0.84802805,0.40045322,-0.04661902
1.38000000,0.18442134,0.87154855,-0.15059264,-0.63552251,0.79364263,0.50993678,-0.27148475,0.27900500,-0.77804008,0.22982093,-0.47603685,-0.84802800,0.40046492,-0.04661900
1.40000000,0.18700645,0.86932704,-0.15241677,-0.63108307,0.79474462,0.50753722,-0.26368793,0.27902871,-0.77806371,0.22981013,-0.47601329,-0.84802800,0.40050056,-0.04660715
1.42000000,0.18992346,0.86677915,-0.15501882,-0.62611801,0.79650147,0.50466971,-0.25415922,0.27901721,-0.77806400,0.22981000,-0.47601300,-0.84802800,0.40059535,-0.04661879
1.44000000,0.19248371,0.86367443,-0.15758545,-0.62213877,0.79817285,0.50144201,-0.24537489,0.27902874,-0.77806400,0.22982076,-0.47600126,-0.84801626,0.40058526,-0.04661900
1.46000000,0.19457104,0.86074558,-0.15974321,-0.61847915,0.79931907,0.49824159,-0.23720792,0.27900561,-0.77804061,0.22982100,-0.47601270,-0.84802770,0.40053822,-0.04663070
1.48000000,0.19724982,0.85831184,-0.16193608,-0.61496992,0.80059109,0.49476719,-0.22787752,0.27900500,-0.77806327,0.22982100,-0.47603627,-0.84801636,0.40047882,-0.04663100
1.50000000,0.20027169,0.85589996,-0.16385431,-0.61098558,0.80236639,0.49111965,-0.21954840,0.27902818,-0.77806400,0.22981038,-0.47601382,-0.84800441,0.40054653,-0.04660782
1.52000000,0.20288784,0.85335205,-0.16589311,-0.60642142,0.80403367,0.48837881,-0.21053614,0.27899455,-0.77805252,0.22981000,-0.47602448,-0.84803845,0.40052603,-0.04661848
1.54000000,0.20542936,0.85101722,-0.16771478,-0.60207133,0.80565608,0.48615141,-0.20324425,0.27902726,-0.77804058,0.22982047,-0.47602500,-0.84802858,0.40050216,-0.04663042
1.56000000,0.20802761,0.84898625,-0.16965351,-0.59686627,0.80719912,0.48335441,-0.19435829,0.27902900,-0.77806273,0.22981058,-0.47601364,-0.84801664,0.40054646,-0.04661964
1.58000000,0.21073461,0.84692633,-0.17182106,-0.59227915,0.80849323,0.48080295,-0.18553489,0.27901777,-0.77807523,0.22981000,-0.47602423,-0.84799353,0.40058270,-0.04664147
1.60000000,0.21288212,0.84495265,-0.17375872,-0.58854333,0.80962113,0.47824337,-0.17845154,0.27901700,-0.77804328,0.22981000,-0.47600319,-0.84801381,0.40059591,-0.04661028
1.62000000,0.21526404,0.84272385,-0.17644794,-0.58461780,0.81076477,0.47551482,-0.16970804,0.27900617,-0.77801834,0.22981000,-0.47601183,-0.84800517,0.40051036,-0.04661783
1.64000000,0.21750098,0.84060975,-0.17851620,-0.58143376,0.81207094,0.47265344,-0.16217485,0.27902654,-0.77805909,0.22981000,-0.47600223,-0.84801477,0.40056563,-0.04661900
1.66000000,0.21961352,0.83871312,-0.18067965,-0.57760408,0.81335200,0.46921148,-0.15447990,0.27901828,-0.77802113,0.22981982,-0.47601172,-0.84800528,0.40055156,-0.04662972
1.68000000,0.22202207,0.83668003,-0.18255397,-0.57444627,0.81443743,0.46696037,-0.14668302,0.27900633,-0.77805867,0.22981122,-0.47600233,-0.84802533,0.40048500,-0.04663100
1.70000000,0.22419174,0.83412029,-0.18408300,-0.57124475,0.81583758,0.46454378,-0.13964716,0.27902621,-0.77803218,0.22981000,-0.47600100,-0.84802800,0.40055124,-0.04659918
1.72000000,0.22593001,0.83208339,-0.18566285,-0.56721782,0.81702318,0.46207470,-0.13286784,0.27900799,-0.77803850,0.22981963,-0.47601150,-0.84800699,0.40055050,-0.04662651
1.74000000,0.22781180,0.83037614,-0.18735520,-0.56344285,0.81801335,0.45983389,-0.12523608,0.27901545,-0.77807134,0.22981142,-0.47603389,-0.84800400,0.40049676,-0.04662055
1.76000000,0.22936835,0.82837324,-0.18891654,-0.55935542,0.81912589,0.45740772,-0.11826853,0.27901700,-0.77806560,0.22981000,-0.47600581,-0.84801440,0.40054099,-0.04661900
1.78000000,0.23118072,0.82605293,-0.19047604,-0.55562941,0.82015532,0.45514669,-0.11133890,0.27900666,-0.77803297,0.22981000,-0.47603203,-0.84802634,0.40052832,-0.04662934
1.80000000,0.23309357,0.82363921,-0.19165917,-0.55287147,0.82094326,0.45277178,-0.10477517,0.27904615,-0.77802800,0.22981000,-0.47603700,-0.84801771,0.40054558,-0.04662071
1.82000000,0.23512778,0.82124649,-0.19329205,-0.54974575,0.82220646,0.44988156,-0.09811607,0.27901204,-0.77803824,0.22981000,-0.47601652,-0.84801600,0.40052852,-0.04661900
1.84000000,0.23711786,0.81947190,-0.19497913,-0.54673060,0.82358540,0.44734966,-0.09209811,0.27899482,-0.77807055,0.22981000,-0.47600282,-0.84802618,0.40051482,-0.04661900
1.86000000,0.23934253,0.81767884,-0.19644977,-0.54396910,0.82487899,0.44534560,-0.08552063,0.27902341,-0.77804559,0.22981929,-0.47600100,-0.84802800,0.40049273,-0.04662914
1.88000000,0.24150962,0.81581517,-0.19780084,-0.54115737,0.82595456,0.44359544,-0.07870585,0.27901891,-0.77805009,0.22981176,-0.47601109,-0.84802800,0.40052934,-0.04661083
1.90000000,0.24374913,0.81400855,-0.19916273,-0.53816051,0.82703819,0.44178442,-0.07317138,0.27900701,-0.77805200,0.22980001,-0.47601300,-0.84802800,0.40056696,-0.04660700
1.92000000,0.24551415,0.81240020,-0.20080685,-0.53580957,0.82765766,0.44022958,-0.06826362,0.27901490,-0.77803221,0.22981697,-0.47601300,-0.84799831,0.40058290,-0.04661690
1.94000000,0.24702848,0.81097096,-0.20249369,-0.53361272,0.82860955,0.43856853,-0.06246063,0.27902678,-0.77803778,0.22981204,-0.47601300,-0.84804088,0.40057522,-0.04662878
1.96000000,0.24828458,0.80958719,-0.20390200,-0.53125524,0.82941871,0.43667871,-0.05650211,0.27900980,-0.77804000,0.22981000,-0.47603220,-0.84803280,0.40048658,-0.04663100
1.98000000,0.24972132,0.80836025,-0.20490382,-0.52846016,0.83043347,0.43480942,-0.05097974,0.27900500,-0.77804000,0.22981869,-0.47603700,-0.84800905,0.40049343,-0.04661205
2.00000000,0.25111571,0.80726569,-0.20579107,-0.52544779,0.83139279,0.43311425,-0.04585053,0.27902375,-0.77803062,0.22981241,-0.47601825,-0.84800400,0.40051038,-0.04661638
2.02000000,0.25238446,0.80612698,-0.20688724,-0.52187383,0.83236026,0.43127085,-0.04034537,0.27902900,-0.77803732,0.22981000,-0.47601300,-0.84803195,0.40054095,-0.04661900
2.04000000,0.25371965,0.80459044,-0.20805653,-0.51841209,0.83354393,0.42934777,-0.03506743,0.27901061,-0.77802161,0.22981000,-0.47602219,-0.84802161,0.40052142,-0.04661900
2.06000000,0.25521816,0.80296170,-0.20918150,-0.51584220,0.83428534,0.42748737,-0.03097107,0.27902326,-0.77804339,0.22981837,-0.47601587,-0.84800687,0.40051300,-0.04661900
2.08000000,0.25666309,0.80159568,-0.21059546,-0.51374951,0.83485046,0.42564522,-0.02731243,0.27901995,-0.77804295,0.22981271,-0.47600395,-0.84802209,0.40055824,-0.04662805
2.10000000,0.25764209,0.80042507,-0.21224415,-0.51172306,0.83538352,0.42401267,-0.02286006,0.27902598,-0.77804000,0.22981000,-0.47600100,-0.84801902,0.40056402,-0.04663100
2.12000000,0.25852940,0.79922102,-0.21346510,-0.50972366,0.83594340,0.42246886,-0.01797949,0.27902008,-0.77803108,0.22981818,-0.47600100,-0.84802492,0.40052532,-0.04661316
2.14000000,0.25944192,0.79794336,-0.21433848,-0.50786098,0.83662943,0.42109370,-0.01336508,0.27901700,-0.77801917,0.22981291,-0.47602748,-0.84802800,0.40045121,-0.04661583
2.16000000,0.26045057,0.79677328,-0.21519609,-0.50641213,0.83719623,0.42000424,-0.00971447,0.27901700,-0.77803339,0.22981000,-0.47601961,-0.84802800,0.40053336,-0.04661900
2.18000000,0.26172668,0.79575686,-0.21619464,-0.50493157,0.83781797,0.41895219,-0.00627259,0.27899983,-0.77804000,0.22981787,-0.47601300,-0.84802800,0.40053008,-0.04661900
2.20000000,0.26308311,0.79467310,-0.21723114,-0.50321899,0.83833014,0.41788345,-0.00263404,0.27900147,-0.77802306,0.22981324,-0.47603841,-0.84802800,0.40047912,-0.04661900
2.22000000,0.26435761,0.79360884,-0.21818319,-0.50121418,0.83894194,0.41682844,0.00107405,0.27901340,-0.77803279,0.22981000,-0.47601541,-0.84799441,0.40051538,-0.04661900
2.24000000,0.26542013,0.79276501,-0.21926513,-0.49925388,0.83942945,0.41576502,0.00509715,0.27901700,-0.77804831,0.22981000,-0.47600931,-0.84801323,0.40056192,-0.04661900
2.26000000,0.26624153,0.79204624,-0.22029422,-0.49785349,0.83985749,0.41468053,0.00837638,0.27901700,-0.77803561,0.22981000,-0.47601300,-0.84803619,0.40058119,-0.04661900
2.28000000,0.26675623,0.79120746,-0.22108292,-0.49685437,0.84030561,0.41342505,0.01077934,0.27900081,-0.77802800,0.22980191,-0.47602109,-0.84804000,0.40056072,-0.04661900
2.30000000,0.26713727,0.79038970,-0.22165763,-0.49588080,0.84075045,0.41225055,0.01272765,0.27900103,-0.77803603,0.22980603,-0.47602500,-0.84804000,0.40052491,-0.04662703
2.32000000,0.26765785,0.78969429,-0.22220194,-0.49479945,0.84145426,0.41120121,0.01508152,0.27900500,-0.77803203,0.22981000,-0.47602500,-0.84803203,0.40051300,-0.04663100
2.34000000,0.26832510,0.78896734,-0.22275492,-0.49364702,0.84206761,0.41028605,0.01775621,0.27901291,-0.77803591,0.22981000,-0.47601709,-0.84802800,0.40052091,-0.04662309
2.36000000,0.26910701,0.78815714,-0.22335056,-0.49228273,0.84249806,0.40931034,0.02082349,0.27901700,-0.77804000,0.22981000,-0.47602085,-0.84803585,0.40052500,-0.04661900
2.38000000,0.26987574,0.78724392,-0.22396298,-0.49099399,0.84289944,0.40842048,0.02362932,0.27902480,-0.77804000,0.22981000,-0.47600941,-0.84803220,0.40052500,-0.04661900
2.40000000,0.27066924,0.78625161,-0.22449359,-0.48979381,0.84320449,0.40758629,0.02617749,0.27902900,-0.77804774,0.22981000,-0.47600874,-0.84802026,0.40051726,-0.04661900
2.42000000,0.27146094,0.78536138,-0.22502084,-0.48864361,0.84350110,0.40674004,0.02842506,0.27902133,-0.77804433,0.22981000,-0.47601300,-0.84801600,0.40052834,-0.04661900
2.44000000,0.27214344,0.78462363,-0.22552282,-0.48747964,0.84383737,0.40590259,0.03028770,0.27902459,-0.77803241,0.22981000,-0.47602817,-0.84801600,0.40052183,-0.04661900
2.46000000,0.27264674,0.78397838,-0.22603555,-0.48634280,0.84410736,0.40518252,0.03167216,0.27902151,-0.77803549,0.22981687,-0.47602951,-0.84801600,0.40054297,-0.04661900
2.48000000,0.27300047,0.78340477,-0.22654091,-0.48528248,0.84431860,0.40458838,0.03280385,0.27902439,-0.77803261,0.22982100,-0.47602500,-0.84802339,0.40056100,-0.04660422
2.50000000,0.27327256,0.78288849,-0.22691101,-0.48432322,0.84459981,0.40412500,0.03385616,0.27902900,-0.77803526,0.22981434,-0.47602500,-0.84803526,0.40056100,-0.04660953
2.52000000,0.27354430,0.78246744,-0.22719412,-0.48335654,0.84486841,0.40377794,0.03501562,0.27902900,-0.77803282,0.22981000,-0.47601782,-0.84802564,0.40053228,-0.04661900
2.54000000,0.27383687,0.78217662,-0.22741148,-0.48242020,0.84504518,0.40351103,0.03625156,0.27903610,-0.77803510,0.22981000,-0.47601300,-0.84803020,0.40052010,-0.04662610
2.56000000,0.27416169,0.78196717,-0.22758926,-0.48150901,0.84514594,0.40326623,0.03732795,0.27902702,-0.77804000,0.22981641,-0.47601300,-0.84804000,0.40053199,-0.04662401
2.58000000,0.27454708,0.78174261,-0.22775338,-0.48067266,0.84524418,0.40306531,0.03820497,0.27901012,-0.77804688,0.22981470,-0.47600612,-0.84804000,0.40052325,-0.04661900
2.60000000,0.27495606,0.78151997,-0.22798239,-0.48004228,0.84540326,0.40287220,0.03901932,0.27901853,-0.77803847,0.22981000,-0.47600100,-0.84802647,0.40051977,-0.04662577
2.62000000,0.27526117,0.78131777,-0.22828816,-0.47957829,0.84560079,0.40264413,0.03981451,0.27902231,-0.77802800,0.22981000,-0.47600769,-0.84802939,0.40051831,-0.04663100
2.64000000,0.27546772,0.78108187,-0.22851735,-0.47925351,0.84575078,0.40243172,0.04063669,0.27903693,-0.77802800,0.22981000,-0.47600636,-0.84804000,0.40051300,-0.04662436
2.66000000,0.27564426,0.78089882,-0.22866522,-0.47904377,0.84588319,0.40224225,0.04153640,0.27903996,-0.77802800,0.22981598,-0.47600752,-0.84804000,0.40051952,-0.04661900
2.68000000,0.27581018,0.78080578,-0.22875648,-0.47888556,0.84599222,0.40209130,0.04240800,0.27902900,-0.77803437,0.22981516,-0.47600663,-0.84803363,0.40052500,-0.04662537
2.70000000,0.27598257,0.78072834,-0.22879771,-0.47878057,0.84609462,0.40196638,0.04313856,0.27901652,-0.77804000,0.22981000,-0.47601348,-0.84802800,0.40053124,-0.04662476
2.72000000,0.27610584,0.78066958,-0.22885184,-0.47869073,0.84618256,0.40185387,0.04370011,0.27902342,-0.77804000,0.22981000,-0.47601886,-0.84802800,0.40052472,-0.04661900
2.74000000,0.27618308,0.78063375,-0.22889917,-0.47858933,0.84623033,0.40176441,0.04404350,0.27902883,-0.77804000,0.22981000,-0.47601300,-0.84803408,0.40052517,-0.04661900
2.76000000,0.27627216,0.78058640,-0.22894110,-0.47849986,0.84627206,0.40169892,0.04424631,0.27901098,-0.77804000,0.22981552,-0.47601300,-0.84803398,0.40053098,-0.04661900
2.78000000,0.27637937,0.78050950,-0.22900662,-0.47842238,0.84632562,0.40164531,0.04443650,0.27900500,-0.77804594,0.22981556,-0.47601300,-0.84802206,0.40051906,-0.04661900
2.80000000,0.27645757,0.78044928,-0.22907180,-0.47836843,0.84639715,0.40159157,0.04459158,0.27901086,-0.77804614,0.22981000,-0.47601300,-0.84802186,0.40052472,-0.04662486
2.82000000,0.27649338,0.78041962,-0.22912518,-0.47833262,0.84642241,0.40154382,0.04468197,0.27901700,-0.77804000,0.22981000,-0.47601300,-0.84802800,0.40053121,-0.04663100
2.84000000,0.27652905,0.78040668,-0.22916705,-0.47830832,0.84642137,0.40150242,0.04474142,0.27901132,-0.77802863,0.22979863,-0.47601300,-0.84801663,0.40052500,-0.04662532
2.86000000,0.27655357,0.78038514,-0.22919715,-0.47828528,0.84645072,0.40146728,0.04478415,0.27901057,-0.77803272,0.22979715,-0.47601300,-0.84800400,0.40052500,-0.04661900
2.88000000,0.27656000,0.78031992,-0.22920449,-0.47825497,0.84645897,0.40143146,0.04482457,0.27901700,-0.77804649,0.22980449,-0.47601851,-0.84800400,0.40052500,-0.04660797
2.90000000,0.27657090,0.78028645,-0.22919255,-0.47823701,0.84645145,0.40141200,0.04487334,0.27901700,-0.77804000,0.22980844,-0.47602500,-0.84801490,0.40053045,-0.04660590
2.92000000,0.27658400,0.78028762,-0.22917523,-0.47822562,0.84646338,0.40139046,0.04489300,0.27901162,-0.77804000,0.22981606,-0.47601962,-0.84802262,0.40053162,-0.04662438
2.94000000,0.27659465,0.78028100,-0.22918330,-0.47821368,0.84647532,0.40136400,0.04489300,0.27901032,-0.77803468,0.22981488,-0.47601300,-0.84802132,0.40053032,-0.04662568
2.96000000,0.27660800,0.78028627,-0.22919945,-0.47820173,0.84648200,0.40135873,0.04490882,0.27902227,-0.77803327,0.22981617,-0.47601300,-0.84802273,0.40052645,-0.04661373
2.98000000,0.27661323,0.78028777,-0.22918077,-0.47819500,0.84647677,0.40134677,0.04492377,0.27902900,-0.77804523,0.22981479,-0.47601300,-0.84802123,0.40051823,-0.04661223
3.00000000,0.27663035,0.78028618,-0.22918435,-0.47819500,0.84647000,0.40134000,0.04492218,0.27902900,-0.77804682,0.22981625,-0.47601300,-0.84802800,0.40051982,-0.04662418
3.02000000,0.27665425,0.78028275,-0.22919800,-0.47818475,0.84647512,0.40134000,0.04493925,0.27902388,-0.77803488,0.22981000,-0.47601812,-0.84802288,0.40050788,-0.04662588
3.04000000,0.27666293,0.78026900,-0.22919800,-0.47816593,0.84647693,0.40133493,0.04495300,0.27901700,-0.77803307,0.22981000,-0.47601993,-0.84801093,0.40049593,-0.04662407
3.06000000,0.27666605,0.78026900,-0.22919800,-0.47815398,0.84647000,0.40131795,0.04495802,0.27901700,-0.77804000,0.22981000,-0.47601300,-0.84800902,0.40049905,-0.04662598
3.08000000,0.27667005,0.78025905,-0.22920297,-0.47812711,0.84647497,0.40129903,0.04496500,0.27901700,-0.77804995,0.22981456,-0.47602295,-0.84801600,0.40051300,-0.04661900
3.10000000,0.27665600,0.78025978,-0.22921000,-0.47805959,0.84648693,0.40127722,0.04496500,0.27901700,-0.77804922,0.22981648,-0.47603207,-0.84802093,0.40051300,-0.04661407
3.12000000,0.27664624,0.78028100,-0.22920512,-0.47792493,0.84648912,0.40120720,0.04496500,0.27901700,-0.77802800,0.22981447,-0.47602012,-0.84802312,0.40051300,-0.04661188
3.14000000,0.27662717,0.78028100,-0.22920283,-0.47771928,0.84648683,0.40108773,0.04496500,0.27902183,-0.77803283,0.22982100,-0.47601783,-0.84801600,0.40051783,-0.04661900
3.16000000,0.27661523,0.78026668,-0.22919568,-0.47745925,0.84649400,0.40091573,0.04496023,0.27902900,-0.77803523,0.22981662,-0.47602023,-0.84802077,0.40052500,-0.04661900
3.18000000,0.27659384,0.78025916,-0.22917400,-0.47713035,0.84648928,0.40064163,0.04495300,0.27902428,-0.77803272,0.22981000,-0.47601300,-0.84802328,0.40052500,-0.04661900
3.20000000,0.27654866,0.78025766,-0.22916466,-0.47670699,0.84648667,0.40030362,0.04494366,0.27901700,-0.77803533,0.22981000,-0.47601300,-0.84802534,0.40052500,-0.04661433
3.22000000,0.27648430,0.78022562,-0.22914077,-0.47612227,0.84650323,0.39988012,0.04492438,0.27901700,-0.77802800,0.22981423,-0.47601300,-0.84803077,0.40052500,-0.04661162
3.24000000,0.27636312,0.78022848,-0.22911696,-0.47535414,0.84653609,0.39940652,0.04491248,0.27902152,-0.77802800,0.22981685,-0.47600848,-0.84801600,0.40052500,-0.04661900
3.26000000,0.27614134,0.78021236,-0.22909336,-0.47439064,0.84656600,0.39892000,0.04488772,0.27902468,-0.77802800,0.22981000,-0.47600100,-0.84801600,0.40052500,-0.04661900
3.28000000,0.27581653,0.78018876,-0.22906187,-0.47332187,0.84657012,0.39834523,0.04483229,0.27901700,-0.77803212,0.22981000,-0.47601335,-0.84802012,0.40052500,-0.04662312
3.30000000,0.27531850,0.78016083,-0.22899042,-0.47225342,0.84658206,0.39770910,0.04476471,0.27902106,-0.77803594,0.22981000,-0.47603294,-0.84803206,0.40052500,-0.04662694
3.32000000,0.27465847,0.78012501,-0.22883104,-0.47119986,0.84659800,0.39695349,0.04470101,0.27903300,-0.77803200,0.22981366,-0.47602500,-0.84803600,0.40052900,-0.04661900
3.34000000,0.27378060,0.78008523,-0.22854880,-0.47004320,0.84662188,0.39597589,0.04462147,0.27903312,-0.77804000,0.22981739,-0.47602500,-0.84802800,0.40053306,-0.04661900
3.36000000,0.27273527,0.78004521,-0.22810856,-0.46881020,0.84664189,0.39487081,0.04450282,0.27901311,-0.77804000,0.22981000,-0.47602111,-0.84802800,0.40052111,-0.04662289
3.38000000,0.27157628,0.78001761,-0.22751484,-0.46743534,0.84668006,0.39363331,0.04431784,0.27901260,-0.77804380,0.22981000,-0.47601680,-0.84803180,0.40051680,-0.04662720
3.40000000,0.27026235,0.77998582,-0.22685581,-0.46578374,0.84675937,0.39216192,0.04407579,0.27902541,-0.77805200,0.22981000,-0.47602500,-0.84804000,0.40052141,-0.04661900
3.42000000,0.26884503,0.77995205,-0.22610010,-0.46381590,0.84681673,0.39046690,0.04373190,0.27901700,-0.77804861,0.22981000,-0.47602161,-0.84804000,0.40051300,-0.04662578
3.44000000,0.26742028,0.77989257,-0.22532077,-0.46157121,0.84689672,0.38861465,0.04316750,0.27902029,-0.77804329,0.22981000,-0.47601300,-0.84803014,0.40051629,-0.04663971
3.46000000,0.26597982,0.77983330,-0.22444157,-0.45943972,0.84693942,0.38645681,0.04239838,0.27902581,-0.77804561,0.22981000,-0.47601939,-0.84801039,0.40052819,-0.04662781
3.48000000,0.26471401,0.77978060,-0.22356378,-0.45771943,0.84693180,0.38416920,0.04148959,0.27901387,-0.77803113,0.22981000,-0.47602760,-0.84802800,0.40053387,-0.04661900
3.50000000,0.26307039,0.77973239,-0.22262500,-0.45567304,0.84699426,0.38164991,0.04046665,0.27900500,-0.77804000,0.22981000,-0.47600100,-0.84803109,0.40052809,-0.04661900
3.52000000,0.26107277,0.77964561,-0.22179525,-0.45303940,0.84705149,0.37963769,0.03950513,0.27901110,-0.77804000,0.22981000,-0.47600405,-0.84804000,0.40053700,-0.04662205
3.54000000,0.25860939,0.77953809,-0.22095102,-0.44985428,0.84714998,0.37767214,0.03848195,0.27902601,-0.77804000,0.22981274,-0.47601001,-0.84803102,0.40053401,-0.04662502
3.56000000,0.25619305,0.77940066,-0.21974697,-0.44643689,0.84718580,0.37554991,0.03748781,0.27901993,-0.77804293,0.22981831,-0.47600980,-0.84800107,0.40052793,-0.04661287
3.58000000,0.25390313,0.77927534,-0.21830276,-0.44281669,0.84723611,0.37323480,0.03658618,0.27902611,-0.77804911,0.22981000,-0.47602833,-0.84800067,0.40053122,-0.04662811
3.60000000,0.25134515,0.77913782,-0.21657126,-0.43844540,0.84732036,0.37050606,0.03546037,0.27901984,-0.77804000,0.22981000,-0.47600668,-0.84802516,0.40052152,-0.04661900
3.62000000,0.24854621,0.77902746,-0.21489656,-0.43426171,0.84738469,0.36753881,0.03438682,0.27902900,-0.77804279,0.22981000,-0.47601942,-0.84802158,0.40055738,-0.04661621
3.64000000,0.24559195,0.77891911,-0.21323577,-0.43034691,0.84748423,0.36421388,0.03331278,0.27902626,-0.77804926,0.22981251,-0.47600374,-0.84804000,0.40056854,-0.04660974
3.66000000,0.24291901,0.77873869,-0.21142835,-0.42692016,0.84753085,0.36091847,0.03238744,0.27902238,-0.77804269,0.22981853,-0.47601300,-0.84803731,0.40052108,-0.04661900
3.68000000,0.23994919,0.77857159,-0.20965211,-0.42343495,0.84760919,0.35795313,0.03152215,0.27903308,-0.77804936,0.22981000,-0.47601300,-0.84802800,0.40055692,-0.04661900
3.70000000,0.23659074,0.77833904,-0.20773248,-0.41918312,0.84768701,0.35494452,0.03051630,0.27901017,-0.77804258,0.22981237,-0.47601300,-0.84802542,0.40056949,-0.04661900
3.72000000,0.23288475,0.77816468,-0.20571772,-0.41478126,0.84781274,0.35162503,0.02952609,0.27902900,-0.77804945,0.22982100,-0.47601300,-0.84802110,0.40052574,-0.04661645
3.74000000,0.22864321,0.77795902,-0.20366385,-0.40983353,0.84788998,0.34792148,0.02848454,0.27902400,-0.77804000,0.22982100,-0.47601550,-0.84803750,0.40056051,-0.04660700
3.76000000,0.22450041,0.77777331,-0.20150748,-0.40448826,0.84802603,0.34377278,0.02732111,0.27900990,-0.77804490,0.22982100,-0.47602010,-0.84802066,0.40050566,-0.04661190
3.78000000,0.22080067,0.77768026,-0.19916156,-0.39884861,0.84813816,0.33929137,0.02583420,0.27903140,-0.77805681,0.22982100,-0.47600100,-0.84799679,0.40049617,-0.04662860
3.80000000,0.21707121,0.77748783,-0.19696121,-0.39303241,0.84824534,0.33524324,0.02404511,0.27903632,-0.77803034,0.22981885,-0.47600100,-0.84802068,0.40056363,-0.04661666
3.82000000,0.21336755,0.77723529,-0.19491300,-0.38761097,0.84828889,0.33112755,0.02208263,0.27902378,-0.77804226,0.22981207,-0.47600100,-0.84803548,0.40053630,-0.04660926
3.84000000,0.20939026,0.77695983,-0.19287157,-0.38227901,0.84844376,0.32687300,0.01992552,0.27905081,-0.77804981,0.22982100,-0.47600100,-0.84801819,0.40057843,-0.04662119
3.86000000,0.20513664,0.77663516,-0.19045199,-0.37693497,0.84852325,0.32211972,0.01763760,0.27904524,-0.77804212,0.22982100,-0.47600100,-0.84802588,0.40055324,-0.04662888
3.88000000,0.20056743,0.77635272,-0.18806249,-0.37093516,0.84875010,0.31707351,0.01568083,0.27905471,-0.77804994,0.22981911,-0.47600100,-0.84801600,0.40058123,-0.04661900
3.90000000,0.19512047,0.77610029,-0.18557730,-0.36386989,0.84895876,0.31226200,0.01351163,0.27900898,-0.77803801,0.22981183,-0.47600299,-0.84801799,0.40059908,-0.04661701
3.92000000,0.18985623,0.77589246,-0.18299559,-0.35692919,0.84908112,0.30749935,0.01156496,0.27903285,-0.77803185,0.22982100,-0.47601107,-0.84802607,0.40049863,-0.04660700
3.94000000,0.18447861,0.77566867,-0.18030442,-0.35006535,0.84923735,0.30252738,0.01016247,0.27905300,-0.77805014,0.22981743,-0.47601030,-0.84801414,0.40054342,-0.04661072
3.96000000,0.18005401,0.77552369,-0.17726325,-0.34373430,0.84945152,0.29723739,0.00875876,0.27905659,-0.77803821,0.22979979,-0.47605562,-0.84800400,0.40052555,-0.04662921
3.98000000,0.17557908,0.77534784,-0.17437685,-0.33744267,0.84961023,0.29169297,0.00725510,0.27908393,-0.77803146,0.22981000,-0.47602327,-0.84800227,0.40059873,-0.04661727
4.00000000,0.17076910,0.77504689,-0.17168447,-0.33093915,0.84985173,0.28620520,0.00580575,0.27911498,-0.77804866,0.22981000,-0.47601467,-0.84799033,0.40059898,-0.04660867
4.02000000,0.16499680,0.77473729,-0.16883786,-0.32341028,0.85004771,0.28063717,0.00381057,0.27905300,-0.77803285,0.22981148,-0.47602985,-0.84798808,0.40051437,-0.04661900
4.04000000,0.15976711,0.77452307,-0.16538939,-0.31560248,0.85028365,0.27510087,0.00139753,0.27906851,-0.77805780,0.22982255,-0.47605480,-0.84803380,0.40039537,-0.04661745
4.06000000,0.15396877,0.77438228,-0.16181470,-0.30754603,0.85057221,0.26917464,-0.00113084,0.27917733,-0.77802045,0.22982867,-0.47601003,-0.84799497,0.40058636,-0.04660848
4.08000000,0.14795755,0.77417591,-0.15866597,-0.30001308,0.85080192,0.26350242,-0.00368805,0.27920527,-0.77805058,0.22979942,-0.47599327,-0.84801458,0.40066675,-0.04661900
4.10000000,0.14191019,0.77400651,-0.15548948,-0.29255851,0.85104462,0.25730071,-0.00636054,0.27918500,-0.77803725,0.22981126,-0.47602363,-0.84800263,0.40055138,-0.04661900
4.12000000,0.13574979,0.77365959,-0.15218885,-0.28417561,0.85123677,0.25029924,-0.00890649,0.27917711,-0.77801600,0.22981979,-0.47601958,-0.84799332,0.40046648,-0.04662032
4.14000000,0.12992814,0.77348626,-0.14870221,-0.27545234,0.85152924,0.24403678,-0.01114810,0.27912175,-0.77801725,0.22980875,-0.47606800,-0.84800275,0.40039224,-0.04662975
4.16000000,0.12415296,0.77326299,-0.14508471,-0.26702514,0.85176926,0.23836859,-0.01291798,0.27920759,-0.77802800,0.22979800,-0.47602262,-0.84799200,0.40050445,-0.04661781
4.18000000,0.11827690,0.77308106,-0.14176536,-0.25843819,0.85192828,0.23195954,-0.01496583,0.27931078,-0.77802913,0.22979687,-0.47599987,-0.84799087,0.40064613,-0.04661039
4.20000000,0.11172775,0.77295531,-0.13863813,-0.25007095,0.85223897,0.22504800,-0.01715512,0.27936742,-0.77803893,0.22978815,-0.47599007,-0.84798107,0.40065164,-0.04663978
4.22000000,0.10394470,0.77251885,-0.13544620,-0.24062576,0.85255910,0.21817651,-0.02000531,0.27927396,-0.77802699,0.22981092,-0.47600704,-0.84799099,0.40057887,-0.04660901
4.24000000,0.09728380,0.77215223,-0.13172846,-0.23197828,0.85285403,0.21102176,-0.02276368,0.27921326,-0.77801688,0.22982100,-0.47607300,-0.84798263,0.40038188,-0.04663100
4.26000000,0.09124128,0.77193072,-0.12732630,-0.22372264,0.85313715,0.20400275,-0.02592057,0.27928294,-0.77802800,0.22982033,-0.47607080,-0.84801453,0.40040401,-0.04663027
4.28000000,0.08528175,0.77159455,-0.12298608,-0.21571928,0.85340099,0.19806694,-0.02897296,0.27932681,-0.77802859,0.22980762,-0.47603522,-0.84799259,0.40057835,-0.04661959
4.30000000,0.07832363,0.77140607,-0.11898148,-0.20615451,0.85372239,0.19112310,-0.03150573,0.27930453,-0.77803947,0.22976360,-0.47600260,-0.84800453,0.40067460,-0.04663153
4.32000000,0.07097068,0.77125325,-0.11527493,-0.19654235,0.85403762,0.18359742,-0.03362542,0.27931741,-0.77802894,0.22979890,-0.47603794,-0.84801600,0.40053372,-0.04664253
4.34000000,0.06369091,0.77115095,-0.11158421,-0.18713087,0.85418682,0.17655264,-0.03570605,0.27935160,-0.77805240,0.22982023,-0.47605979,-0.84801600,0.40045702,-0.04663140
4.36000000,0.05755017,0.77085555,-0.10803416,-0.17860710,0.85450277,0.16955380,-0.03797219,0.27933981,-0.77806362,0.22979781,-0.47602481,-0.84801562,0.40057357,-0.04664281
4.38000000,0.05084791,0.77051021,-0.10399797,-0.16911629,0.85474071,0.16201330,-0.04064298,0.27932763,-0.77803988,0.22978612,-0.47601337,-0.84799200,0.40060753,-0.04663100
4.40000000,0.04372042,0.77014065,-0.10038454,-0.15929350,0.85490804,0.15482304,-0.04337484,0.27929200,-0.77802806,0.22979800,-0.47604882,-0.84799212,0.40046475,-0.04663100
4.42000000,0.03719965,0.76987903,-0.09660538,-0.14987594,0.85510998,0.14764672,-0.04645069,0.27929200,-0.77804000,0.22979800,-0.47601300,-0.84801600,0.40041700,-0.04663100
4.44000000,0.02981717,0.76973570,-0.09270511,-0.14025017,0.85536077,0.13991787,-0.05024342,0.27935171,-0.77805194,0.22978606,-0.47601300,-0.84800406,0.40057224,-0.04661906
4.46000000,0.02296807,0.76930715,-0.08780731,-0.13006729,0.85556404,0.13267487,-0.05309849,0.27938765,-0.77802823,0.22978600,-0.47600112,-0.84802777,0.40062054,-0.04664277
4.48000000,0.01567028,0.76880783,-0.08386751,-0.11982234,0.85575501,0.12518427,-0.05545027,0.27931712,-0.77803981,0.22978600,-0.47601281,-0.84803981,0.40052649,-0.04663119
4.50000000,0.00840591,0.76843657,-0.07962605,-0.11025883,0.85598037,0.11742515,-0.05775281,0.27926898,-0.77802824,0.22982029,-0.47603651,-0.84799298,0.40046622,-0.04661924
4.52000000,0.00146927,0.76828982,-0.07571746,-0.10145728,0.85617057,0.11035069,-0.06046368,0.27933759,-0.77802800,0.22979877,-0.47602540,-0.84799200,0.40054619,-0.04661900
4.54000000,-0.00661561,0.76807755,-0.07154446,-0.09106487,0.85636140,0.10246885,-0.06334125,0.27948983,-0.77806258,0.22978647,-0.47597890,-0.84800353,0.40073340,-0.04661900
4.56000000,-0.01450389,0.76773665,-0.06756642,-0.08075953,0.85654091,0.09488612,-0.06621512,0.27938139,-0.77802962,0.22979746,-0.47599992,-0.84801546,0.40050033,-0.04663046
4.58000000,-0.02189877,0.76749388,-0.06348132,-0.07110378,0.85666208,0.08757365,-0.06954461,0.27935319,-0.77805081,0.22981986,-0.47602381,-0.84801600,0.40040918,-0.04663100
4.60000000,-0.02883337,0.76729058,-0.05931822,-0.06191913,0.85680312,0.07993326,-0.07278219,0.27938578,-0.77800696,0.22982100,-0.47600248,-0.84801600,0.40046130,-0.04661974
4.62000000,-0.03603968,0.76711066,-0.05486880,-0.05178789,0.85707975,0.07225824,-0.07555739,0.27941031,-0.77802631,0.22978846,-0.47598984,-0.84801600,0.40059888,-0.04663016
4.64000000,-0.04318074,0.76674549,-0.05095599,-0.04077398,0.85722149,0.06479718,-0.07795820,0.27937887,-0.77806113,0.22978600,-0.47601109,-0.84801600,0.40058691,-0.04664204
4.66000000,-0.05043284,0.76631072,-0.04712028,-0.03087052,0.85736221,0.05724881,-0.08022231,0.27940878,-0.77805307,0.22980785,-0.47602393,-0.84802693,0.40050851,-0.04662115
4.68000000,-0.05743451,0.76546910,-0.04097154,-0.02148087,0.85762480,0.04858230,-0.08414678,0.27947717,-0.77804114,0.22979914,-0.47603586,-0.84800628,0.40051186,-0.04661900
4.70000000,-0.06680833,0.76476909,-0.03523669,-0.01108197,0.85804000,0.03880976,-0.08838916,0.27941917,-0.77804000,0.22978719,-0.47598297,-0.84801481,0.40067508,-0.04661900
4.72000000,-0.07617076,0.76422922,-0.03079732,-0.00096520,0.85832918,0.02896031,-0.09196883,0.27936903,-0.77805074,0.22978600,-0.47605220,-0.84799451,0.40056409,-0.04665123
4.74000000,-0.08563539,0.76394968,-0.02620478,0.00848037,0.85856096,0.02056231,-0.09543218,0.27939605,-0.77804132,0.22979668,-0.47607168,-0.84801336,0.40048491,-0.04663364
4.76000000,-0.09412848,0.76373278,-0.02204513,0.01741561,0.85895476,0.01227088,-0.09826066,0.27941056,-0.77805056,0.22978744,-0.47600963,-0.84799488,0.40052981,-0.04663100
4.78000000,-0.10227732,0.76350856,-0.01758439,0.02703456,0.85915122,0.00474602,-0.10035734,0.27933889,-0.77802067,0.22978600,-0.47604278,-0.84800244,0.40045345,-0.04663100
4.80000000,-0.10979822,0.76325137,-0.01362521,0.03666647,0.85943167,-0.00244524,-0.10252125,0.27926592,-0.77802635,0.22980669,-0.47605935,-0.84802469,0.40038927,-0.04664135
4.82000000,-0.11733658,0.76298978,-0.00935158,0.04670513,0.85974960,-0.01044912,-0.10529815,0.27932793,-0.77802800,0.22981000,-0.47604045,-0.84800745,0.40047349,-0.04661217
4.84000000,-0.12416939,0.76280904,-0.00521651,0.05635374,0.85997981,-0.01732555,-0.10834415,0.27937063,-0.77804842,0.22978958,-0.47602679,-0.84801421,0.40055027,-0.04660700
4.86000000,-0.13095319,0.76250994,-0.00103324,0.06671878,0.86020486,-0.02411235,-0.11106519,0.27934555,-0.77803170,0.22979615,-0.47602500,-0.84801600,0.40054070,-0.04661715
4.88000000,-0.13725577,0.76221870,0.00288087,0.07695128,0.86051157,-0.03188727,-0.11420782,0.27930973,-0.77804818,0.22978791,-0.47604518,-0.84803618,0.40049664,-0.04662909
4.90000000,-0.14372728,0.76198318,0.00645285,0.08697134,0.86093265,-0.03851823,-0.11723927,0.27933397,-0.77802203,0.22978600,-0.47600904,-0.84802002,0.40051897,-0.04663100
4.92000000,-0.15004504,0.76170895,0.00993451,0.09600604,0.86130124,-0.04521447,-0.11970962,0.27935967,-0.77801600,0.22978600,-0.47602067,-0.84801600,0.40056434,-0.04662116
4.94000000,-0.15657254,0.76138555,0.01342466,0.10652813,0.86161881,-0.05254927,-0.12174395,0.27935428,-0.77804517,0.22977628,-0.47600555,-0.84800628,0.40060217,-0.04658983
4.96000000,-0.16320865,0.76107204,0.01639796,0.11688908,0.86183182,-0.05972859,-0.12392403,0.27936161,-0.77803277,0.22978361,-0.47602984,-0.84801361,0.40056093,-0.04660223
4.98000000,-0.16995650,0.76067678,0.01986722,0.12664453,0.86205053,-0.06654087,-0.12646916,0.27932583,-0.77802800,0.22978600,-0.47603700,-0.84801600,0.40048220,-0.04661654
5.00000000,-0.17589794,0.76030641,0.02371110,0.13513547,0.86226776,-0.07302358,-0.12898929,0.27937292,-0.77803749,0.22978600,-0.47602751,-0.84802549,0.40055986,-0.04661900
