gracetata/LocomotionHEC/legged_lab/Reference Data/ArmHack/StandPerturb/TestData/ArmOnly/trajectories/representative/representative_arm_trajectory_04_source_385_390s_1x_50hz.csv
time_s,left_shoulder_pitch_joint,left_shoulder_roll_joint,left_shoulder_yaw_joint,left_elbow_joint,left_wrist_roll_joint,left_wrist_pitch_joint,left_wrist_yaw_joint,right_shoulder_pitch_joint,right_shoulder_roll_joint,right_shoulder_yaw_joint,right_elbow_joint,right_wrist_roll_joint,right_wrist_pitch_joint,right_wrist_yaw_joint
0.00000000,0.27729100,0.77772800,-0.22960308,-0.47562708,0.84737354,0.40012900,0.04637446,-0.92155100,-0.68531373,0.55933614,0.04091604,-0.54053893,0.17223632,0.79725261
0.02000000,0.27729831,0.77772800,-0.22959400,-0.47563261,0.84736900,0.40013631,0.04637900,-0.92153639,-0.68569050,0.55910726,0.04016586,-0.54032149,0.17244782,0.79752396
0.04000000,0.27729578,0.77772078,-0.22959400,-0.47563478,0.84737622,0.40014100,0.04637178,-0.92152700,-0.68612644,0.55871594,0.03918955,-0.53997721,0.17273846,0.79788414
0.06000000,0.27729100,0.77772307,-0.22960813,-0.47563000,0.84737393,0.40014100,0.04636700,-0.92150580,-0.68663747,0.55820053,0.03804233,-0.53959359,0.17302746,0.79833821
0.08000000,0.27729790,0.77772800,-0.22961800,-0.47563000,0.84737590,0.40013410,0.04636010,-0.92147719,-0.68724318,0.55747744,0.03665236,-0.53914277,0.17334314,0.79884132
0.10000000,0.27730300,0.77772800,-0.22960442,-0.47563679,0.84737421,0.40012900,0.04636179,-0.92144663,-0.68793668,0.55659546,0.03499029,-0.53860662,0.17370595,0.79939898
0.12000000,0.27730300,0.77772800,-0.22959400,-0.47564200,0.84738241,0.40012900,0.04637370,-0.92141759,-0.68864889,0.55553700,0.03307054,-0.53801232,0.17410829,0.80005389
0.14000000,0.27729637,0.77772137,-0.22958737,-0.47564863,0.84738637,0.40012237,0.04637237,-0.92138047,-0.68957719,0.55429126,0.03086123,-0.53728824,0.17457034,0.80080313
0.16000000,0.27729757,0.77772257,-0.22957543,-0.47564086,0.84736786,0.40012357,0.04637357,-0.92129987,-0.69088297,0.55299201,0.02818450,-0.53647624,0.17510479,0.80159662
0.18000000,0.27730300,0.77773451,-0.22958302,-0.47563000,0.84737002,0.40012900,0.04637900,-0.92112784,-0.69242783,0.55154922,0.02523909,-0.53565332,0.17568998,0.80245425
0.20000000,0.27729658,0.77773358,-0.22959400,-0.47564283,0.84738100,0.40012900,0.04637258,-0.92077377,-0.69409676,0.54988246,0.02203925,-0.53483335,0.17634844,0.80346076
0.22000000,0.27728469,0.77772800,-0.22959400,-0.47564769,0.84737469,0.40012900,0.04637331,-0.92017162,-0.69612124,0.54799220,0.01841645,-0.53392580,0.17715572,0.80466073
0.24000000,0.27727900,0.77772180,-0.22959400,-0.47564200,0.84736900,0.40013520,0.04637900,-0.91928019,-0.69832675,0.54571855,0.01483278,-0.53296449,0.17804669,0.80600470
0.26000000,0.27727288,0.77771600,-0.22959400,-0.47564200,0.84737512,0.40014712,0.04637900,-0.91822111,-0.70031601,0.54308646,0.01161334,-0.53203661,0.17898808,0.80732363
0.28000000,0.27726094,0.77772206,-0.22959400,-0.47564200,0.84738100,0.40013482,0.04636688,-0.91694168,-0.70249178,0.54007682,0.00819085,-0.53091245,0.18027479,0.80873929
0.30000000,0.27726699,0.77772200,-0.22958800,-0.47564200,0.84737500,0.40013499,0.04636699,-0.91529550,-0.70518720,0.53689985,0.00408822,-0.52929003,0.18183058,0.81036054
0.32000000,0.27729083,0.77772191,-0.22958200,-0.47563017,0.84736309,0.40014709,0.04637900,-0.91351620,-0.70771294,0.53406576,-0.00022106,-0.52769276,0.18325941,0.81196776
0.34000000,0.27729138,0.77772800,-0.22958781,-0.47563543,0.84737443,0.40014100,0.04637319,-0.91127660,-0.70970073,0.53117450,-0.00498360,-0.52617781,0.18457791,0.81373306
0.36000000,0.27726755,0.77772227,-0.22959400,-0.47565400,0.84737582,0.40014100,0.04637273,-0.90848127,-0.71165351,0.52835536,-0.01061397,-0.52441060,0.18577881,0.81559502
0.38000000,0.27723243,0.77771600,-0.22959400,-0.47565964,0.84736264,0.40012971,0.04637900,-0.90556429,-0.71392743,0.52600874,-0.01659035,-0.52249130,0.18687247,0.81736503
0.40000000,0.27717939,0.77771600,-0.22959952,-0.47566048,0.84739109,0.40012805,0.04637900,-0.90218200,-0.71657806,0.52337056,-0.02279458,-0.52016039,0.18804842,0.81931361
0.42000000,0.27714700,0.77771058,-0.22961142,-0.47565400,0.84739531,0.40013016,0.04637358,-0.89857221,-0.71982045,0.52045945,-0.02891300,-0.51751340,0.18946948,0.82155134
0.44000000,0.27711482,0.77770936,-0.22960727,-0.47566473,0.84737973,0.40012236,0.04636700,-0.89512910,-0.72385684,0.51746144,-0.03466038,-0.51512362,0.19113496,0.82403081
0.46000000,0.27711741,0.77771600,-0.22958870,-0.47567270,0.84738240,0.40012370,0.04636700,-0.89137604,-0.72826430,0.51379212,-0.04048512,-0.51318789,0.19303595,0.82660870
0.48000000,0.27717624,0.77771600,-0.22958200,-0.47565029,0.84737424,0.40013271,0.04636176,-0.88762081,-0.73257238,0.50969364,-0.04680482,-0.51120099,0.19509271,0.82921430
0.50000000,0.27718300,0.77771600,-0.22959752,-0.47564552,0.84738100,0.40014265,0.04636017,-0.88426150,-0.73685301,0.50552799,-0.05384526,-0.50874539,0.19697387,0.83207646
0.52000000,0.27717789,0.77771600,-0.22959755,-0.47566089,0.84737589,0.40013411,0.04637211,-0.88095706,-0.74105550,0.50118276,-0.06133738,-0.50616069,0.19883045,0.83508983
0.54000000,0.27717100,0.77772608,-0.22957000,-0.47565904,0.84737404,0.40014100,0.04637396,-0.87769196,-0.74518318,0.49674185,-0.06906029,-0.50389061,0.20081571,0.83778618
0.56000000,0.27714155,0.77773018,-0.22958473,-0.47566600,0.84737118,0.40013609,0.04637191,-0.87457335,-0.74906778,0.49174862,-0.07670288,-0.50157522,0.20303773,0.84039854
0.58000000,0.27709900,0.77771600,-0.22960600,-0.47567077,0.84736177,0.40011946,0.04637423,-0.87133344,-0.75269730,0.48623465,-0.08458251,-0.49895630,0.20537819,0.84308845
0.60000000,0.27710841,0.77772541,-0.22959659,-0.47566389,0.84737370,0.40011441,0.04636700,-0.86801528,-0.75703143,0.48109716,-0.09330375,-0.49618860,0.20747180,0.84607011
0.62000000,0.27709530,0.77772615,-0.22958662,-0.47566047,0.84737638,0.40012438,0.04637162,-0.86463668,-0.76191621,0.47641014,-0.10214491,-0.49364933,0.20950194,0.84926456
0.64000000,0.27706909,0.77770852,-0.22958495,-0.47568548,0.84736900,0.40012605,0.04637900,-0.86073089,-0.76723436,0.47149007,-0.11112211,-0.49093243,0.21167331,0.85251389
0.66000000,0.27709013,0.77772487,-0.22959218,-0.47567356,0.84737344,0.40013213,0.04637900,-0.85676162,-0.77213101,0.46611005,-0.11932219,-0.48788574,0.21406189,0.85586623
0.68000000,0.27686405,0.77770981,-0.22965156,-0.47570050,0.84737669,0.40008681,0.04637900,-0.85154750,-0.77746532,0.45913190,-0.12846647,-0.48386785,0.21711145,0.85962641
0.70000000,0.27656825,0.77766445,-0.22966044,-0.47574933,0.84737322,0.40005834,0.04637900,-0.84474707,-0.78437155,0.45141674,-0.13914632,-0.47888143,0.22069146,0.86443260
0.72000000,0.27682388,0.77774244,-0.22955605,-0.47568021,0.84737268,0.40013830,0.04637900,-0.83859242,-0.79117943,0.44531019,-0.14860112,-0.47471202,0.22387923,0.86895370
0.74000000,0.27702700,0.77784364,-0.22948245,-0.47562263,0.84736109,0.40018055,0.04638309,-0.83329487,-0.79691495,0.43953033,-0.15709656,-0.47165393,0.22712752,0.87275852
0.76000000,0.27700698,0.77779999,-0.22952600,-0.47566999,0.84737300,0.40013299,0.04637899,-0.82836731,-0.80249769,0.43399430,-0.16605725,-0.46862601,0.22998198,0.87645584
0.78000000,0.27699462,0.77779178,-0.22952611,-0.47564216,0.84737705,0.40013673,0.04636289,-0.82297434,-0.80839113,0.42860901,-0.17658864,-0.46523853,0.23238050,0.88024543
0.80000000,0.27701211,0.77780845,-0.22952167,-0.47562189,0.84738844,0.40016922,0.04637511,-0.81768644,-0.81369300,0.42288400,-0.18755456,-0.46188134,0.23446788,0.88389144
0.82000000,0.27686619,0.77778749,-0.22954983,-0.47564149,0.84741368,0.40013768,0.04637083,-0.81321827,-0.81846128,0.41694802,-0.19788560,-0.45848405,0.23673903,0.88754896
0.84000000,0.27669411,0.77781200,-0.22955423,-0.47565847,0.84738100,0.40010500,0.04637900,-0.80878854,-0.82309575,0.41121644,-0.20801153,-0.45543451,0.23941917,0.89083540
0.86000000,0.27667515,0.77781200,-0.22953865,-0.47564200,0.84738100,0.40011603,0.04637900,-0.80404289,-0.82881822,0.40533573,-0.21883888,-0.45239555,0.24212095,0.89462414
0.88000000,0.27678923,0.77781200,-0.22952559,-0.47564559,0.84739536,0.40013741,0.04637541,-0.79953210,-0.83416551,0.39950700,-0.22898665,-0.44908274,0.24483535,0.89825157
0.90000000,0.27673573,0.77781200,-0.22954107,-0.47565753,0.84741840,0.40011486,0.04637053,-0.79540441,-0.83967209,0.39408424,-0.23819729,-0.44563404,0.24773689,0.90181484
0.92000000,0.27665064,0.77780506,-0.22955106,-0.47565906,0.84738953,0.40008794,0.04637553,-0.79061190,-0.84516303,0.38805986,-0.24789957,-0.44221018,0.25058720,0.90528351
0.94000000,0.27664897,0.77779141,-0.22953400,-0.47564200,0.84738100,0.40011524,0.04636700,-0.78512434,-0.85128137,0.38170088,-0.25801489,-0.43838042,0.25306141,0.90903868
0.96000000,0.27676878,0.77780671,-0.22952729,-0.47564200,0.84737764,0.40014436,0.04637036,-0.77992962,-0.85746858,0.37588252,-0.26799562,-0.43503400,0.25543180,0.91276752
0.98000000,0.27675596,0.77782070,-0.22951659,-0.47565189,0.84737230,0.40014311,0.04637900,-0.77520078,-0.86282298,0.37011575,-0.27740554,-0.43188954,0.25796690,0.91669058
1.00000000,0.27660478,0.77780556,-0.22953400,-0.47566190,0.84738422,0.40012022,0.04637900,-0.77035450,-0.86782965,0.36423470,-0.28691457,-0.42865470,0.26104926,0.92026285
1.02000000,0.27663331,0.77779111,-0.22953400,-0.47562733,0.84738989,0.40012589,0.04638211,-0.76557861,-0.87278105,0.35848859,-0.29678298,-0.42554894,0.26381573,0.92382763
1.04000000,0.27674305,0.77780914,-0.22953400,-0.47564791,0.84739319,0.40012309,0.04638795,-0.76079647,-0.87831845,0.35333994,-0.30688567,-0.42230482,0.26626058,0.92735197
1.06000000,0.27671622,0.77783302,-0.22953698,-0.47564491,0.84742304,0.40013802,0.04638198,-0.75669352,-0.88372662,0.34845628,-0.31632564,-0.41899719,0.26892186,0.93079393
1.08000000,0.27662548,0.77782109,-0.22954309,-0.47567834,0.84740209,0.40012317,0.04638517,-0.75260990,-0.88875996,0.34247994,-0.32655589,-0.41620946,0.27152982,0.93440224
1.10000000,0.27669695,0.77781200,-0.22953965,-0.47563918,0.84739018,0.40011065,0.04636982,-0.74838221,-0.89385178,0.33656916,-0.33682567,-0.41358173,0.27381504,0.93754901
1.12000000,0.27677689,0.77781200,-0.22955247,-0.47562723,0.84738377,0.40013177,0.04637900,-0.74411075,-0.89948237,0.33085008,-0.34700809,-0.41068058,0.27574566,0.94075723
1.14000000,0.27685192,0.77781739,-0.22953400,-0.47561531,0.84739569,0.40014908,0.04637900,-0.74009287,-0.90437996,0.32551892,-0.35626996,-0.40767708,0.27790078,0.94415642
1.16000000,0.27679807,0.77783081,-0.22953400,-0.47561637,0.84739981,0.40016922,0.04637641,-0.73651857,-0.90828012,0.32052199,-0.36540323,-0.40473212,0.28025867,0.94729742
1.18000000,0.27672421,0.77780695,-0.22953147,-0.47565147,0.84738100,0.40014100,0.04636953,-0.73234268,-0.91241507,0.31560119,-0.37558111,-0.40143515,0.28280363,0.95028336
1.20000000,0.27677526,0.77780037,-0.22952942,-0.47564695,0.84738100,0.40014595,0.04637653,-0.72818181,-0.91697330,0.31090002,-0.38538680,-0.39742943,0.28480492,0.95393039
1.22000000,0.27666059,0.77784072,-0.22955800,-0.47566115,0.84738100,0.40015530,0.04636457,-0.72410645,-0.92129989,0.30664011,-0.39350969,-0.39466660,0.28674657,0.95706664
1.24000000,0.27661688,0.77782374,-0.22955800,-0.47563730,0.84737865,0.40012170,0.04635265,-0.71994073,-0.92572060,0.30218651,-0.40131219,-0.39225173,0.28909406,0.95999409
1.26000000,0.27674759,0.77786539,-0.22955800,-0.47562241,0.84737781,0.40013880,0.04634741,-0.71631571,-0.93001970,0.29771503,-0.40851972,-0.38979741,0.29157510,0.96275773
1.28000000,0.27673631,0.77783808,-0.22955384,-0.47563784,0.84741077,0.40013108,0.04636700,-0.71226132,-0.93485196,0.29281021,-0.41654245,-0.38731967,0.29372668,0.96571046
1.30000000,0.27677994,0.77784997,-0.22953203,-0.47561800,0.84738100,0.40014691,0.04636700,-0.70874683,-0.93940263,0.28876943,-0.42381119,-0.38508642,0.29539950,0.96836013
1.32000000,0.27680189,0.77785622,-0.22952389,-0.47561989,0.84738100,0.40017133,0.04636511,-0.70540477,-0.94361817,0.28472617,-0.43015147,-0.38296314,0.29710131,0.97063769
1.34000000,0.27682665,0.77783600,-0.22953400,-0.47562634,0.84737551,0.40014466,0.04635683,-0.70204050,-0.94686035,0.28051311,-0.43644287,-0.38078937,0.29899221,0.97310448
1.36000000,0.27689914,0.77783954,-0.22953223,-0.47560954,0.84734854,0.40015968,0.04636700,-0.69893026,-0.94982345,0.27679173,-0.44349345,-0.37849934,0.30082201,0.97540267
1.38000000,0.27683793,0.77786000,-0.22952368,-0.47563000,0.84736900,0.40013068,0.04636700,-0.69608495,-0.95236280,0.27372263,-0.45020370,-0.37643380,0.30247670,0.97753699
1.40000000,0.27677600,0.77785717,-0.22953400,-0.47562858,0.84737042,0.40014242,0.04636983,-0.69276800,-0.95511174,0.27046847,-0.45714836,-0.37448829,0.30408111,0.97965069
1.42000000,0.27677600,0.77783849,-0.22953649,-0.47561800,0.84738100,0.40015176,0.04638727,-0.69007896,-0.95843646,0.26717244,-0.46310619,-0.37252557,0.30542014,0.98210192
1.44000000,0.27677823,0.77785888,-0.22955577,-0.47561800,0.84738100,0.40013988,0.04635500,-0.68778833,-0.96239493,0.26408726,-0.46783262,-0.37055916,0.30671823,0.98411207
1.46000000,0.27680203,0.77784699,-0.22953400,-0.47561699,0.84738100,0.40013103,0.04635804,-0.68516564,-0.96605627,0.26034264,-0.47183328,-0.36876262,0.30819867,0.98615682
1.48000000,0.27682495,0.77783600,-0.22953590,-0.47560695,0.84738100,0.40015205,0.04638815,-0.68297519,-0.96906306,0.25721243,-0.47584493,-0.36742612,0.30974318,0.98783578
1.50000000,0.27683772,0.77783772,-0.22955800,-0.47561800,0.84738100,0.40014272,0.04635672,-0.68110206,-0.97153152,0.25418275,-0.48023487,-0.36581426,0.31108126,0.98947662
1.52000000,0.27685681,0.77785840,-0.22955640,-0.47561800,0.84738100,0.40016420,0.04637820,-0.67930008,-0.97379897,0.25167040,-0.48509989,-0.36440610,0.31231676,0.99095481
1.54000000,0.27681000,0.77783600,-0.22953533,-0.47561800,0.84738100,0.40015233,0.04636633,-0.67732733,-0.97621634,0.24938064,-0.48988964,-0.36264098,0.31330132,0.99241798
1.56000000,0.27677722,0.77783600,-0.22955800,-0.47561800,0.84738100,0.40014039,0.04635500,-0.67566662,-0.97803167,0.24726844,-0.49372461,-0.36071718,0.31391193,0.99376083
1.58000000,0.27680110,0.77783710,-0.22955690,-0.47561800,0.84738045,0.40012955,0.04635500,-0.67395431,-0.97988454,0.24560291,-0.49741949,-0.35961991,0.31478255,0.99480370
1.60000000,0.27682302,0.77785951,-0.22953400,-0.47561800,0.84736949,0.40014149,0.04635598,-0.67234163,-0.98158081,0.24427374,-0.50005876,-0.35852068,0.31540839,0.99594761
1.62000000,0.27680000,0.77784757,-0.22953443,-0.47561800,0.84738100,0.40015257,0.04637900,-0.67095064,-0.98304215,0.24338572,-0.50220704,-0.35766792,0.31616908,0.99707909
1.64000000,0.27680001,0.77783600,-0.22954601,-0.47561799,0.84738099,0.40014100,0.04637899,-0.66968903,-0.98402560,0.24234418,-0.50405848,-0.35698546,0.31685137,0.99814248
1.66000000,0.27681195,0.77783600,-0.22955795,-0.47560605,0.84736905,0.40014100,0.04636705,-0.66840154,-0.98482456,0.24124672,-0.50602554,-0.35627008,0.31733990,0.99878623
1.68000000,0.27681200,0.77784789,-0.22953422,-0.47561789,0.84739278,0.40012911,0.04636700,-0.66710189,-0.98557613,0.24020949,-0.50789787,-0.35534051,0.31785330,0.99940633
1.70000000,0.27681200,0.77785975,-0.22953400,-0.47561800,0.84738125,0.40014075,0.04637875,-0.66623291,-0.98611097,0.23924887,-0.50955866,-0.35473350,0.31820965,1.00007025
1.72000000,0.27681200,0.77783662,-0.22955738,-0.47561800,0.84736931,0.40015269,0.04636731,-0.66544434,-0.98675236,0.23839989,-0.51123954,-0.35419586,0.31853267,1.00078451
1.74000000,0.27681200,0.77784763,-0.22953475,-0.47561800,0.84736900,0.40015300,0.04636700,-0.66500640,-0.98744240,0.23772786,-0.51258329,-0.35384482,0.31886559,1.00138338
1.76000000,0.27680041,0.77781324,-0.22955717,-0.47562959,0.84736900,0.40017617,0.04636700,-0.66463385,-0.98814659,0.23708234,-0.51365515,-0.35355691,0.31918881,1.00188763
1.78000000,0.27681145,0.77784636,-0.22955800,-0.47561855,0.84736900,0.40014264,0.04636700,-0.66438144,-0.98875415,0.23654557,-0.51451567,-0.35331794,0.31937180,1.00216842
1.80000000,0.27681200,0.77783664,-0.22953528,-0.47560664,0.84736900,0.40017507,0.04634428,-0.66424507,-0.98930445,0.23596448,-0.51533773,-0.35319342,0.31958349,1.00243087
1.82000000,0.27680070,0.77784730,-0.22955659,-0.47561730,0.84736900,0.40015441,0.04638819,-0.66415892,-0.98962677,0.23541429,-0.51594589,-0.35302885,0.31976445,1.00257962
1.84000000,0.27681124,0.77784800,-0.22955800,-0.47561800,0.84738024,0.40015300,0.04635729,-0.66409781,-0.98982481,0.23491093,-0.51649702,-0.35291786,0.31985367,1.00277905
1.86000000,0.27681200,0.77785913,-0.22953575,-0.47561800,0.84735875,0.40011962,0.04635500,-0.66403837,-0.98994826,0.23446734,-0.51699836,-0.35281179,0.31990350,1.00283650
1.88000000,0.27681200,0.77784898,-0.22953400,-0.47561800,0.84736802,0.40013904,0.04636602,-0.66400095,-0.99003412,0.23423760,-0.51738757,-0.35275993,0.31997311,1.00290611
1.90000000,0.27681200,0.77785886,-0.22953400,-0.47561800,0.84739072,0.40014100,0.04635614,-0.66399800,-0.99006272,0.23411141,-0.51766877,-0.35269084,0.31998986,1.00296630
1.92000000,0.27681200,0.77783843,-0.22954478,-0.47561800,0.84737143,0.40013022,0.04635500,-0.66396565,-0.99008657,0.23407843,-0.51786663,-0.35263009,0.31998022,1.00302591
1.94000000,0.27681200,0.77784671,-0.22953529,-0.47562871,0.84736900,0.40015043,0.04635500,-0.66391914,-0.99008900,0.23406529,-0.51791814,-0.35254900,0.31998971,1.00307486
1.96000000,0.27682262,0.77783738,-0.22953400,-0.47561938,0.84737962,0.40015300,0.04635500,-0.66393524,-0.99008900,0.23407462,-0.51793262,-0.35252938,0.32001224,1.00311186
1.98000000,0.27680296,0.77785704,-0.22953400,-0.47560748,0.84738100,0.40015300,0.04636552,-0.66389592,-0.99008900,0.23406548,-0.51794452,-0.35250696,0.32002552,1.00312652
2.00000000,0.27680000,0.77786000,-0.22953400,-0.47561635,0.84737065,0.40014265,0.04635665,-0.66389000,-0.99010971,0.23406400,-0.51795635,-0.35249365,0.32002700,1.00314871
2.02000000,0.27681023,0.77783954,-0.22953400,-0.47560777,0.84736900,0.40014100,0.04635500,-0.66386954,-0.99011300,0.23405377,-0.51795800,-0.35248177,0.32007815,1.00315200
2.04000000,0.27681200,0.77783600,-0.22953400,-0.47561608,0.84736900,0.40012085,0.04635500,-0.66384585,-0.99012308,0.23403185,-0.51795800,-0.35248000,0.32008700,1.00316208
2.06000000,0.27681200,0.77784596,-0.22954396,-0.47562796,0.84735904,0.40012696,0.04635500,-0.66382209,-0.99012500,0.23402800,-0.51795800,-0.35248000,0.32008700,1.00315404
2.08000000,0.27680219,0.77785781,-0.22953619,-0.47562019,0.84736681,0.40012900,0.04635500,-0.66377875,-0.99012500,0.23402800,-0.51796781,-0.35248981,0.32011644,1.00314219
2.10000000,0.27680971,0.77784057,-0.22956314,-0.47560829,0.84737871,0.40014843,0.04635500,-0.66371172,-0.99012500,0.23404743,-0.51796029,-0.35252114,0.32012300,1.00316833
2.12000000,0.27681200,0.77784565,-0.22955071,-0.47563494,0.84737135,0.40013371,0.04637429,-0.66361119,-0.99011535,0.23403271,-0.51796765,-0.35250871,0.32013265,1.00314687
2.14000000,0.27681200,0.77783842,-0.22953642,-0.47562283,0.84735942,0.40016733,0.04636942,-0.66346622,-0.99012258,0.23400883,-0.51798917,-0.35251358,0.32013500,1.00312083
2.16000000,0.27681200,0.77785504,-0.22955304,-0.47561800,0.84735700,0.40014844,0.04637652,-0.66322556,-0.99012500,0.23400400,-0.51799400,-0.35253504,0.32016356,1.00302080
2.18000000,0.27681200,0.77785054,-0.22953908,-0.47560854,0.84736646,0.40014100,0.04636954,-0.66282174,-0.99012500,0.23399454,-0.51800346,-0.35255892,0.32015208,1.00289193
2.20000000,0.27681200,0.77783869,-0.22955263,-0.47562463,0.84736900,0.40014100,0.04636700,-0.66229020,-0.99012500,0.23397337,-0.51800600,-0.35258263,0.32014700,1.00268702
2.22000000,0.27681200,0.77785446,-0.22955800,-0.47562077,0.84735977,0.40014100,0.04635777,-0.66169404,-0.99011577,0.23396800,-0.51802446,-0.35267107,0.32016546,1.00239679
2.24000000,0.27681200,0.77784166,-0.22954883,-0.47559966,0.84736617,0.40015017,0.04636417,-0.66098519,-0.99012217,0.23396800,-0.51803917,-0.35281522,0.32022526,1.00192149
2.26000000,0.27680293,0.77785415,-0.22953693,-0.47560307,0.84736900,0.40016207,0.04635793,-0.66015743,-0.99009778,0.23398615,-0.51802385,-0.35305995,0.32027830,1.00123517
2.28000000,0.27680889,0.77786000,-0.22954289,-0.47560600,0.84736900,0.40016500,0.04635500,-0.65935208,-0.99008900,0.23397422,-0.51801800,-0.35333148,0.32033445,1.00038795
2.30000000,0.27681200,0.77786000,-0.22954600,-0.47560600,0.84737779,0.40014742,0.04635500,-0.65852938,-0.99006263,0.23396800,-0.51801800,-0.35369236,0.32041154,0.99929497
2.32000000,0.27681200,0.77784259,-0.22955470,-0.47561470,0.84737230,0.40014100,0.04635500,-0.65757525,-0.99003559,0.23395059,-0.51801800,-0.35409396,0.32045141,0.99827664
2.34000000,0.27681200,0.77784464,-0.22955800,-0.47561800,0.84739491,0.40016691,0.04635500,-0.65631597,-0.99002900,0.23388355,-0.51801800,-0.35451616,0.32050981,0.99721696
2.36000000,0.27682057,0.77783943,-0.22954087,-0.47561800,0.84738787,0.40015987,0.04635500,-0.65478648,-0.99001187,0.23385143,-0.51801800,-0.35499680,0.32059853,0.99608631
2.38000000,0.27681550,0.77785300,-0.22954250,-0.47561800,0.84737250,0.40013600,0.04637200,-0.65329972,-0.98996249,0.23385650,-0.51800100,-0.35551436,0.32071102,0.99493376
2.40000000,0.27681200,0.77784312,-0.22955444,-0.47561800,0.84736900,0.40014588,0.04636212,-0.65200822,-0.98989435,0.23386000,-0.51798556,-0.35609782,0.32082197,0.99378531
2.42000000,0.27681200,0.77784438,-0.22954125,-0.47561800,0.84736900,0.40014462,0.04636338,-0.65073034,-0.98983112,0.23386000,-0.51798200,-0.35683116,0.32096220,0.99236481
2.44000000,0.27681200,0.77784800,-0.22953400,-0.47561800,0.84737732,0.40014932,0.04635868,-0.64951358,-0.98978804,0.23385168,-0.51796536,-0.35761019,0.32113382,0.99065189
2.46000000,0.27681200,0.77784800,-0.22955053,-0.47561800,0.84736447,0.40014474,0.04635500,-0.64815890,-0.98971915,0.23381494,-0.51796626,-0.35846818,0.32127165,0.98859059
2.48000000,0.27680379,0.77784800,-0.22954157,-0.47561800,0.84735700,0.40013279,0.04637143,-0.64653042,-0.98959445,0.23377536,-0.51797000,-0.35936327,0.32142398,0.98639070
2.50000000,0.27680816,0.77784800,-0.22955032,-0.47560984,0.84737332,0.40014532,0.04636268,-0.64485339,-0.98945994,0.23376400,-0.51795368,-0.36022486,0.32158305,0.98426470
2.52000000,0.27681200,0.77784800,-0.22954990,-0.47561410,0.84737290,0.40014490,0.04636310,-0.64322726,-0.98927212,0.23378021,-0.51791358,-0.36109605,0.32177010,0.98221729
2.54000000,0.27682810,0.77784800,-0.22955405,-0.47561800,0.84736095,0.40013295,0.04636700,-0.64152822,-0.98894444,0.23377190,-0.51791410,-0.36229284,0.32192454,0.97965113
2.56000000,0.27682800,0.77784000,-0.22954199,-0.47561000,0.84736500,0.40013700,0.04635900,-0.63982541,-0.98847449,0.23374799,-0.51789799,-0.36371418,0.32208806,0.97694908
2.58000000,0.27680014,0.77783600,-0.22953400,-0.47561395,0.84738491,0.40014895,0.04636295,-0.63805520,-0.98796956,0.23368432,-0.51787805,-0.36537632,0.32222755,0.97428777
2.60000000,0.27678800,0.77784392,-0.22953400,-0.47561800,0.84737717,0.40014508,0.04636700,-0.63582028,-0.98745963,0.23352209,-0.51787400,-0.36704129,0.32241048,0.97157230
2.62000000,0.27678800,0.77784013,-0.22954974,-0.47561800,0.84738474,0.40014100,0.04635913,-0.63311338,-0.98687538,0.23344513,-0.51786613,-0.36859028,0.32266437,0.96862571
2.64000000,0.27679582,0.77784382,-0.22955800,-0.47561018,0.84737736,0.40014100,0.04635500,-0.63006252,-0.98626287,0.23340972,-0.51784636,-0.37009791,0.32293884,0.96557872
2.66000000,0.27680777,0.77784023,-0.22954247,-0.47561377,0.84736900,0.40014877,0.04636277,-0.62619482,-0.98558463,0.23339300,-0.51779916,-0.37174892,0.32322076,0.96231917
2.68000000,0.27679657,0.77783600,-0.22953400,-0.47561800,0.84737671,0.40014529,0.04635157,-0.62217071,-0.98499222,0.23340071,-0.51772464,-0.37345611,0.32353799,0.95909677
2.70000000,0.27679567,0.77783600,-0.22953400,-0.47561033,0.84738867,0.40015635,0.04635067,-0.61883197,-0.98452773,0.23342035,-0.51761058,-0.37499898,0.32391829,0.95589383
2.72000000,0.27680763,0.77783600,-0.22954926,-0.47560600,0.84738537,0.40015737,0.04635500,-0.61531651,-0.98405226,0.23339086,-0.51750960,-0.37659200,0.32436249,0.95238442
2.74000000,0.27681200,0.77784354,-0.22953537,-0.47561354,0.84737346,0.40014546,0.04635500,-0.61171357,-0.98356792,0.23338409,-0.51742620,-0.37810750,0.32475111,0.94851278
2.76000000,0.27679706,0.77784053,-0.22952947,-0.47561800,0.84737647,0.40014100,0.04635500,-0.60814480,-0.98297928,0.23336313,-0.51735019,-0.37951447,0.32511150,0.94430252
2.78000000,0.27681766,0.77783600,-0.22954141,-0.47561800,0.84738100,0.40014100,0.04635500,-0.60472244,-0.98235992,0.23335983,-0.51727110,-0.38099916,0.32549604,0.93997488
2.80000000,0.27680655,0.77784336,-0.22953864,-0.47561064,0.84736628,0.40016308,0.04635500,-0.60130685,-0.98176353,0.23337636,-0.51717275,-0.38291325,0.32583840,0.93563368
2.82000000,0.27678070,0.77785530,-0.22955591,-0.47562061,0.84737161,0.40015509,0.04635500,-0.59778042,-0.98105784,0.23333718,-0.51705796,-0.38516217,0.32617021,0.93100309
2.84000000,0.27679048,0.77783828,-0.22954828,-0.47562276,0.84738100,0.40014824,0.04635500,-0.59381583,-0.98031186,0.23324383,-0.51694643,-0.38738093,0.32647256,0.92622720
2.86000000,0.27680000,0.77782400,-0.22952682,-0.47561082,0.84737382,0.40014582,0.04635500,-0.58939594,-0.97939051,0.23312917,-0.51684654,-0.38972604,0.32678312,0.92158358
2.88000000,0.27679287,0.77782400,-0.22952913,-0.47562027,0.84736900,0.40013387,0.04635500,-0.58440695,-0.97825482,0.23309527,-0.51669386,-0.39216121,0.32718135,0.91689170
2.90000000,0.27680217,0.77783109,-0.22953400,-0.47561583,0.84735483,0.40014317,0.04635500,-0.57925278,-0.97692686,0.23311917,-0.51641049,-0.39464302,0.32765096,0.91209560
2.92000000,0.27681200,0.77783600,-0.22953400,-0.47561303,0.84736609,0.40015300,0.04635500,-0.57414561,-0.97550042,0.23313603,-0.51605765,-0.39692578,0.32814028,0.90680333
2.94000000,0.27681200,0.77783600,-0.22954795,-0.47560405,0.84738100,0.40014603,0.04635500,-0.56869861,-0.97414533,0.23314100,-0.51575555,-0.39908562,0.32857359,0.90127119
2.96000000,0.27679814,0.77783600,-0.22954414,-0.47560786,0.84736714,0.40015486,0.04636193,-0.56331866,-0.97285094,0.23317564,-0.51552780,-0.40162841,0.32894684,0.89592874
2.98000000,0.27679488,0.77784288,-0.22953400,-0.47560423,0.84735700,0.40015123,0.04636700,-0.55857421,-0.97152029,0.23318035,-0.51524923,-0.40473885,0.32938070,0.89030985
3.00000000,0.27682046,0.77783436,-0.22954764,-0.47559400,0.84735018,0.40014100,0.04636018,-0.55395534,-0.97026405,0.23311045,-0.51493552,-0.40801470,0.32988947,0.88454284
3.02000000,0.27681574,0.77782400,-0.22955125,-0.47560075,0.84734500,0.40014100,0.04635500,-0.54882444,-0.96925290,0.23298122,-0.51476549,-0.41117707,0.33036683,0.87822456
3.04000000,0.27680000,0.77783071,-0.22953929,-0.47560600,0.84735171,0.40014100,0.04636171,-0.54315282,-0.96811370,0.23289286,-0.51455331,-0.41432172,0.33082896,0.87177926
3.06000000,0.27679334,0.77782934,-0.22954066,-0.47560600,0.84736366,0.40015432,0.04636034,-0.53727500,-0.96676401,0.23288366,-0.51422455,-0.41721701,0.33128637,0.86560187
3.08000000,0.27678800,0.77782400,-0.22953940,-0.47561260,0.84736240,0.40015180,0.04635500,-0.53154922,-0.96534536,0.23290220,-0.51385777,-0.41956367,0.33178703,0.85936820
3.10000000,0.27679455,0.77783055,-0.22954710,-0.47561145,0.84737010,0.40014755,0.04636155,-0.52571587,-0.96394277,0.23295231,-0.51347690,-0.42204651,0.33230306,0.85334370
3.12000000,0.27678049,0.77782950,-0.22955800,-0.47561250,0.84736799,0.40014650,0.04636050,-0.51978505,-0.96283427,0.23300451,-0.51316546,-0.42504577,0.33280565,0.84660918
3.14000000,0.27678337,0.77782400,-0.22954509,-0.47560509,0.84735700,0.40015391,0.04634854,-0.51383841,-0.96187567,0.23298871,-0.51287711,-0.42835845,0.33337078,0.83940874
3.16000000,0.27680000,0.77781758,-0.22953400,-0.47559400,0.84735700,0.40016500,0.04634942,-0.50765221,-0.96087235,0.23294174,-0.51251529,-0.43195803,0.33398625,0.83247526
3.18000000,0.27679365,0.77782471,-0.22953400,-0.47560035,0.84736971,0.40015865,0.04635500,-0.50122064,-0.95963639,0.23288741,-0.51211636,-0.43571449,0.33456769,0.82523208
3.20000000,0.27680056,0.77784228,-0.22954656,-0.47560600,0.84738100,0.40015300,0.04635500,-0.49483755,-0.95795639,0.23285400,-0.51171069,-0.43901331,0.33517192,0.81814315
3.22000000,0.27679331,0.77783554,-0.22955177,-0.47559977,0.84737477,0.40014054,0.04635500,-0.48818644,-0.95585340,0.23287840,-0.51136148,-0.44220108,0.33575389,0.81077685
3.24000000,0.27676365,0.77782400,-0.22955218,-0.47560018,0.84736900,0.40012900,0.04636118,-0.48140590,-0.95348300,0.23291953,-0.51109948,-0.44581448,0.33622382,0.80336932
3.26000000,0.27676426,0.77782400,-0.22955800,-0.47561213,0.84736900,0.40014126,0.04635474,-0.47448598,-0.95133611,0.23294926,-0.51084257,-0.44957491,0.33667811,0.79623721
3.28000000,0.27677600,0.77783008,-0.22955800,-0.47560583,0.84737508,0.40014083,0.04634908,-0.46723800,-0.94958238,0.23296708,-0.51051330,-0.45369431,0.33724713,0.78840217
3.30000000,0.27678202,0.77782998,-0.22955198,-0.47559400,0.84738702,0.40013502,0.04635500,-0.46003778,-0.94796117,0.23292483,-0.51008968,-0.45742539,0.33795685,0.78024874
3.32000000,0.27678800,0.77782400,-0.22954600,-0.47559400,0.84737511,0.40014100,0.04635500,-0.45261978,-0.94646433,0.23289489,-0.50973774,-0.46059178,0.33870820,0.77187104
3.34000000,0.27676434,0.77782991,-0.22955191,-0.47560583,0.84736883,0.40014100,0.04635500,-0.44503344,-0.94490824,0.23294257,-0.50940456,-0.46457712,0.33937725,0.76356516
3.36000000,0.27674000,0.77781843,-0.22955800,-0.47561800,0.84736929,0.40012929,0.04635500,-0.43698206,-0.94306216,0.23294371,-0.50908643,-0.46977307,0.34003780,0.75499105
3.38000000,0.27677478,0.77777681,-0.22955800,-0.47561220,0.84735700,0.40012859,0.04635500,-0.42786896,-0.94148847,0.23287291,-0.50864627,-0.47510291,0.34086947,0.74530885
3.40000000,0.27684068,0.77778642,-0.22954653,-0.47560600,0.84736847,0.40015247,0.04636074,-0.41857225,-0.94032085,0.23281279,-0.50806376,-0.47969473,0.34174859,0.73485440
3.42000000,0.27686632,0.77781832,-0.22953400,-0.47559465,0.84736397,0.40016500,0.04636132,-0.40937459,-0.93874843,0.23281103,-0.50757023,-0.48399679,0.34244600,0.72478568
3.44000000,0.27686560,0.77782879,-0.22954519,-0.47559319,0.84735619,0.40014821,0.04635500,-0.40021836,-0.93672139,0.23292465,-0.50702390,-0.48824110,0.34300591,0.71544519
3.46000000,0.27685547,0.77783147,-0.22955800,-0.47560049,0.84736900,0.40012349,0.04635500,-0.39135938,-0.93449155,0.23308258,-0.50655174,-0.49257765,0.34355295,0.70579117
3.48000000,0.27683600,0.77782290,-0.22954710,-0.47558855,0.84736355,0.40013335,0.04635500,-0.38268135,-0.93238673,0.23314645,-0.50616127,-0.49679432,0.34415617,0.69620119
3.50000000,0.27682520,0.77783060,-0.22953940,-0.47559820,0.84736240,0.40014760,0.04636040,-0.37457445,-0.93072052,0.23312599,-0.50581257,-0.50052718,0.34480342,0.68672173
3.52000000,0.27680131,0.77782400,-0.22955134,-0.47560731,0.84737434,0.40013566,0.04635631,-0.36666252,-0.92886211,0.23307697,-0.50553017,-0.50445407,0.34557260,0.67756194
3.54000000,0.27679328,0.77782400,-0.22955272,-0.47559928,0.84737044,0.40013428,0.04635884,-0.35847378,-0.92660030,0.23306228,-0.50517150,-0.50873586,0.34653118,0.66857678
3.56000000,0.27678955,0.77780311,-0.22954600,-0.47561645,0.84737267,0.40013055,0.04637378,-0.35028332,-0.92452682,0.23307422,-0.50484421,-0.51314964,0.34740881,0.65927706
3.58000000,0.27677600,0.77778117,-0.22954083,-0.47561966,0.84737748,0.40012217,0.04635666,-0.34209624,-0.92297874,0.23306031,-0.50456600,-0.51744777,0.34816225,0.65030336
3.60000000,0.27677600,0.77780324,-0.22954416,-0.47561108,0.84736208,0.40013916,0.04634808,-0.33336094,-0.92157754,0.23303300,-0.50420583,-0.52217490,0.34888944,0.64070750
3.62000000,0.27677600,0.77781904,-0.22955800,-0.47560808,0.84736900,0.40014804,0.04635500,-0.32460554,-0.91992749,0.23303300,-0.50376180,-0.52739766,0.34959622,0.63092029
3.64000000,0.27680041,0.77781688,-0.22955800,-0.47559400,0.84736412,0.40014100,0.04636477,-0.31620439,-0.91781663,0.23303300,-0.50323545,-0.53214238,0.35028890,0.62172361
3.66000000,0.27683600,0.77781440,-0.22955800,-0.47559880,0.84735700,0.40014100,0.04637900,-0.30779578,-0.91535537,0.23303300,-0.50275283,-0.53657213,0.35098155,0.61255764
3.68000000,0.27682192,0.77780469,-0.22955800,-0.47560600,0.84737108,0.40013631,0.04637431,-0.29951901,-0.91290119,0.23307055,-0.50237904,-0.54060431,0.35166177,0.60323810
3.70000000,0.27678156,0.77781661,-0.22955800,-0.47559678,0.84738378,0.40013822,0.04636239,-0.29102576,-0.91038204,0.23312439,-0.50207274,-0.54487969,0.35229749,0.59326486
3.72000000,0.27678362,0.77781045,-0.22955348,-0.47560910,0.84737803,0.40013945,0.04635952,-0.28235101,-0.90781350,0.23309893,-0.50172942,-0.54923248,0.35291243,0.58332413
3.74000000,0.27683161,0.77778800,-0.22954161,-0.47564523,0.84738423,0.40012577,0.04635823,-0.27373561,-0.90551587,0.23311725,-0.50139642,-0.55363041,0.35353380,0.57417523
3.76000000,0.27680276,0.77779650,-0.22953400,-0.47562575,0.84735625,0.40014100,0.04635150,-0.26490975,-0.90386303,0.23319675,-0.50105365,-0.55834818,0.35423180,0.56467148
3.78000000,0.27677653,0.77781618,-0.22953400,-0.47561800,0.84734135,0.40014100,0.04636700,-0.25588803,-0.90257744,0.23320570,-0.50067798,-0.56362228,0.35497747,0.55440821
3.80000000,0.27680409,0.77783219,-0.22954219,-0.47561391,0.84735700,0.40014100,0.04636291,-0.24703793,-0.90122945,0.23322881,-0.50014021,-0.56875930,0.35586694,0.54416576
3.82000000,0.27683623,0.77783992,-0.22955800,-0.47560196,0.84736104,0.40014504,0.04635500,-0.23821791,-0.89961827,0.23317666,-0.49950445,-0.57348214,0.35680165,0.53473401
3.84000000,0.27689194,0.77782003,-0.22955006,-0.47559400,0.84736503,0.40016094,0.04635897,-0.22944005,-0.89788658,0.23310897,-0.49894855,-0.57758119,0.35766387,0.52527258
3.86000000,0.27687686,0.77781589,-0.22954179,-0.47559789,0.84736089,0.40016532,0.04636311,-0.22064484,-0.89599207,0.23312868,-0.49855793,-0.58192842,0.35835856,0.51541390
3.88000000,0.27683502,0.77782016,-0.22955416,-0.47560216,0.84737284,0.40015251,0.04635500,-0.21155840,-0.89384194,0.23319136,-0.49822051,-0.58649899,0.35904218,0.50499380
3.90000000,0.27689156,0.77781578,-0.22954222,-0.47560156,0.84738100,0.40016944,0.04635878,-0.20270477,-0.89160787,0.23325409,-0.49766173,-0.59106211,0.35977562,0.49520650
3.92000000,0.27690053,0.77782027,-0.22953773,-0.47561427,0.84737727,0.40014553,0.04636327,-0.19376986,-0.88931587,0.23322047,-0.49718766,-0.59570515,0.36061059,0.48548742
3.94000000,0.27687662,0.77781200,-0.22954600,-0.47560231,0.84736531,0.40014375,0.04635500,-0.18489717,-0.88695785,0.23324806,-0.49675906,-0.60035780,0.36139644,0.47571341
3.96000000,0.27687457,0.77780107,-0.22954964,-0.47560493,0.84736429,0.40016971,0.04636229,-0.17598117,-0.88458560,0.23328393,-0.49644179,-0.60568395,0.36200622,0.46572044
3.98000000,0.27690441,0.77778678,-0.22955441,-0.47562281,0.84738100,0.40015300,0.04637181,-0.16704786,-0.88258911,0.23332338,-0.49616277,-0.61061175,0.36260159,0.45567543
4.00000000,0.27689954,0.77781200,-0.22954246,-0.47561307,0.84738100,0.40014946,0.04635854,-0.15815290,-0.88063537,0.23330394,-0.49584501,-0.61513455,0.36326057,0.44539862
4.02000000,0.27690800,0.77781200,-0.22953400,-0.47562652,0.84738100,0.40013752,0.04637048,-0.14907817,-0.87847452,0.23318396,-0.49557053,-0.61893314,0.36397373,0.43575363
4.04000000,0.27691458,0.77780513,-0.22954087,-0.47561800,0.84737413,0.40013243,0.04637900,-0.14012451,-0.87633387,0.23321473,-0.49523587,-0.62355492,0.36460454,0.42609055
4.06000000,0.27691773,0.77779139,-0.22955800,-0.47561461,0.84736378,0.40014439,0.04637900,-0.13115590,-0.87386703,0.23328288,-0.49486754,-0.62843314,0.36529155,0.41642425
4.08000000,0.27687733,0.77780334,-0.22955466,-0.47560266,0.84737433,0.40015634,0.04637233,-0.12204006,-0.87162093,0.23335899,-0.49444423,-0.63311921,0.36607196,0.40636260
4.10000000,0.27686329,0.77781200,-0.22954600,-0.47560386,0.84736357,0.40015843,0.04635829,-0.11330893,-0.86958438,0.23332971,-0.49406187,-0.63748638,0.36692824,0.39644257
4.12000000,0.27687200,0.77780876,-0.22954600,-0.47562676,0.84738100,0.40014100,0.04637024,-0.10478226,-0.86731701,0.23332748,-0.49357497,-0.64207895,0.36790081,0.38679024
4.14000000,0.27688769,0.77780319,-0.22954281,-0.47561800,0.84737781,0.40014100,0.04637900,-0.09610510,-0.86528554,0.23337053,-0.49304927,-0.64681782,0.36891647,0.37721546
4.16000000,0.27692497,0.77780885,-0.22953715,-0.47562429,0.84736900,0.40014100,0.04637900,-0.08800871,-0.86383577,0.23343156,-0.49246921,-0.65131182,0.36980433,0.36787512
4.18000000,0.27691394,0.77780620,-0.22953980,-0.47563580,0.84736900,0.40014410,0.04637900,-0.07959629,-0.86239170,0.23340190,-0.49179269,-0.65537256,0.37056019,0.35811527
4.20000000,0.27692517,0.77781791,-0.22952504,-0.47562409,0.84737204,0.40015909,0.04637596,-0.07088837,-0.86058179,0.23335952,-0.49108464,-0.65958987,0.37120219,0.34842799
4.22000000,0.27692566,0.77780000,-0.22953400,-0.47563603,0.84737503,0.40016805,0.04636998,-0.06243298,-0.85856345,0.23327592,-0.49066744,-0.66422904,0.37183110,0.33850854
4.24000000,0.27697314,0.77780293,-0.22953400,-0.47561507,0.84735700,0.40014686,0.04637900,-0.05430094,-0.85696316,0.23333566,-0.49029190,-0.66860882,0.37237608,0.32944387
4.26000000,0.27693792,0.77780911,-0.22953400,-0.47561755,0.84735989,0.40016211,0.04637611,-0.04597179,-0.85518301,0.23338677,-0.48987838,-0.67307575,0.37302930,0.32005808
4.28000000,0.27689510,0.77780283,-0.22952833,-0.47565400,0.84737183,0.40015017,0.04636417,-0.03766713,-0.85350022,0.23340783,-0.48960225,-0.67723179,0.37368681,0.31006571
4.30000000,0.27693655,0.77781200,-0.22951278,-0.47565122,0.84738100,0.40014378,0.04635778,-0.02869398,-0.85173502,0.23341145,-0.48927524,-0.68218578,0.37427461,0.30127015
4.32000000,0.27697139,0.77781200,-0.22952200,-0.47564200,0.84737827,0.40015027,0.04636973,-0.02104194,-0.84998863,0.23338754,-0.48899914,-0.68631133,0.37493695,0.29288222
4.34000000,0.27703237,0.77781200,-0.22952468,-0.47563395,0.84736900,0.40014100,0.04637900,-0.01245934,-0.84751979,0.23338510,-0.48859526,-0.69119198,0.37580161,0.28332031
4.36000000,0.27703517,0.77780936,-0.22953928,-0.47561919,0.84737164,0.40013572,0.04638164,-0.00500553,-0.84526744,0.23344100,-0.48834935,-0.69441702,0.37655930,0.27468185
4.38000000,0.27697384,0.77780516,-0.22955025,-0.47566084,0.84737842,0.40011700,0.04638584,0.00336687,-0.84361332,0.23344358,-0.48818299,-0.69822702,0.37720880,0.26564875
4.40000000,0.27695250,0.77782400,-0.22952200,-0.47563700,0.84737150,0.40012450,0.04636700,0.01184911,-0.84190489,0.23345050,-0.48791095,-0.70250247,0.37803621,0.25665719
4.42000000,0.27696262,0.77781664,-0.22952445,-0.47562045,0.84737610,0.40015300,0.04636945,0.01945127,-0.84002306,0.23344100,-0.48754284,-0.70655741,0.37895644,0.24824523
4.44000000,0.27703659,0.77779041,-0.22953400,-0.47562759,0.84735941,0.40015059,0.04637659,0.02718237,-0.83794090,0.23345063,-0.48711787,-0.71104318,0.37975382,0.23967613
4.46000000,0.27701517,0.77779763,-0.22953400,-0.47562037,0.84737137,0.40014100,0.04636937,0.03472686,-0.83597900,0.23348900,-0.48666790,-0.71490284,0.38037979,0.23060815
4.48000000,0.27696700,0.77779263,-0.22953400,-0.47563000,0.84738100,0.40013637,0.04637668,0.04300668,-0.83424220,0.23348900,-0.48641116,-0.71946697,0.38093860,0.22156030
4.50000000,0.27697602,0.77780975,-0.22952949,-0.47563225,0.84738325,0.40012376,0.04636700,0.05060429,-0.83275301,0.23348900,-0.48607932,-0.72364749,0.38152776,0.21336333
4.52000000,0.27701065,0.77780218,-0.22951435,-0.47563982,0.84739300,0.40014430,0.04636918,0.05754192,-0.83151531,0.23348682,-0.48576045,-0.72763936,0.38209575,0.20555866
4.54000000,0.27698898,0.77781402,-0.22953400,-0.47562596,0.84739098,0.40011106,0.04637698,0.06462033,-0.82996023,0.23347498,-0.48543242,-0.73156033,0.38269097,0.19748706
4.56000000,0.27697702,0.77782202,-0.22953400,-0.47560798,0.84737902,0.40014100,0.04636700,0.07151319,-0.82810475,0.23346698,-0.48502641,-0.73456797,0.38320941,0.18910180
4.58000000,0.27696508,0.77781200,-0.22953592,-0.47561992,0.84737668,0.40014100,0.04636700,0.07885928,-0.82645197,0.23347316,-0.48473799,-0.73825996,0.38351853,0.18126687
4.60000000,0.27695126,0.77781200,-0.22954600,-0.47562813,0.84741139,0.40013913,0.04636887,0.08662604,-0.82506588,0.23345487,-0.48445250,-0.74213962,0.38390563,0.17294043
4.62000000,0.27693464,0.77781382,-0.22954418,-0.47561800,0.84737918,0.40013082,0.04637900,0.09351073,-0.82397500,0.23346864,-0.48420726,-0.74571707,0.38440455,0.16575232
4.64000000,0.27696033,0.77782400,-0.22953578,-0.47561978,0.84736722,0.40014100,0.04637900,0.10014448,-0.82275068,0.23349433,-0.48379605,-0.74900926,0.38501831,0.15834774
4.66000000,0.27698752,0.77782400,-0.22954426,-0.47563174,0.84735700,0.40014100,0.04637900,0.10656093,-0.82122025,0.23351630,-0.48345389,-0.75233287,0.38558197,0.15091451
4.68000000,0.27696021,0.77782230,-0.22953400,-0.47564200,0.84736039,0.40013930,0.04637730,0.11297474,-0.81936880,0.23346670,-0.48327455,-0.75600393,0.38607804,0.14350062
4.70000000,0.27692066,0.77781034,-0.22953400,-0.47563869,0.84737934,0.40013066,0.04636534,0.11905445,-0.81775233,0.23347866,-0.48309351,-0.75996745,0.38654854,0.13662453
4.72000000,0.27693261,0.77779839,-0.22953400,-0.47561800,0.84737061,0.40014100,0.04635500,0.12563800,-0.81628541,0.23348739,-0.48288780,-0.76377376,0.38705708,0.12945159
4.74000000,0.27694457,0.77779114,-0.22953400,-0.47561643,0.84738257,0.40014100,0.04635657,0.13206444,-0.81502183,0.23348170,-0.48259763,-0.76745982,0.38760601,0.12220244
4.76000000,0.27696108,0.77781352,-0.22953400,-0.47560600,0.84739148,0.40014100,0.04636548,0.13828699,-0.81398114,0.23351300,-0.48235250,-0.77040673,0.38815787,0.11531589
4.78000000,0.27699566,0.77782107,-0.22953547,-0.47560747,0.84737953,0.40014247,0.04635647,0.14394800,-0.81274697,0.23351007,-0.48206884,-0.77278090,0.38873923,0.10886731
4.80000000,0.27694158,0.77780142,-0.22954742,-0.47561800,0.84736758,0.40015016,0.04636842,0.14907141,-0.81137227,0.23348900,-0.48181529,-0.77534203,0.38938026,0.10245154
4.82000000,0.27693239,0.77781200,-0.22955382,-0.47561939,0.84735561,0.40013039,0.04637900,0.15489533,-0.80990346,0.23348622,-0.48164182,-0.77860380,0.38997316,0.09549008
4.84000000,0.27693908,0.77781334,-0.22952334,-0.47562866,0.84734769,0.40014100,0.04637766,0.16046694,-0.80855693,0.23346769,-0.48157375,-0.78137769,0.39045571,0.08951315
4.86000000,0.27691048,0.77782271,-0.22953400,-0.47561800,0.84736771,0.40014100,0.04636700,0.16617885,-0.80733189,0.23348900,-0.48127318,-0.78414240,0.39104650,0.08346477
4.88000000,0.27693472,0.77781324,-0.22953400,-0.47561800,0.84735700,0.40014100,0.04636824,0.17167155,-0.80614776,0.23348900,-0.48114344,-0.78723752,0.39138914,0.07743208
4.90000000,0.27696700,0.77782281,-0.22953281,-0.47561800,0.84735819,0.40014100,0.04637900,0.17727331,-0.80503152,0.23348900,-0.48090209,-0.79000634,0.39171205,0.07142021
4.92000000,0.27696584,0.77781200,-0.22952548,-0.47561684,0.84737016,0.40014100,0.04637668,0.18252359,-0.80383963,0.23349364,-0.48051373,-0.79228688,0.39214206,0.06617182
4.94000000,0.27695500,0.77781310,-0.22955579,-0.47560710,0.84737659,0.40014100,0.04635610,0.18702147,-0.80244739,0.23353479,-0.47998851,-0.79505455,0.39245058,0.06079216
4.96000000,0.27695500,0.77782096,-0.22953400,-0.47561800,0.84733401,0.40013999,0.04636801,0.19162518,-0.80098975,0.23351098,-0.47970384,-0.79845867,0.39275236,0.05522819
4.98000000,0.27695405,0.77779085,-0.22953400,-0.47561800,0.84734690,0.40012900,0.04637805,0.19616494,-0.79971145,0.23348900,-0.47954863,-0.80124795,0.39310327,0.05004506
5.00000000,0.27694656,0.77782311,-0.22953400,-0.47561711,0.84736811,0.40012900,0.04636789,0.20119166,-0.79839784,0.23349078,-0.47938808,-0.80388346,0.39349937,0.04478611
