gracetata/LocomotionHEC/legged_lab/Reference Data/ArmHack/StandPerturb/VisualizationSuite/all_deterministic_sequence_seed20260714_50hz.csv
time_s,left_shoulder_pitch_joint,left_shoulder_roll_joint,left_shoulder_yaw_joint,left_elbow_joint,left_wrist_roll_joint,left_wrist_pitch_joint,left_wrist_yaw_joint,right_shoulder_pitch_joint,right_shoulder_roll_joint,right_shoulder_yaw_joint,right_elbow_joint,right_wrist_roll_joint,right_wrist_pitch_joint,right_wrist_yaw_joint
0.00000000,0.27744700,0.77759600,-0.22961800,-0.47545000,0.84738100,0.40014100,0.04635500,0.27819000,-0.77841100,0.22883900,-0.47379600,-0.84847100,0.40059700,-0.04655900
0.02000000,0.27744700,0.77759600,-0.22961800,-0.47545000,0.84738100,0.40014100,0.04635500,0.27819000,-0.77841100,0.22883900,-0.47379600,-0.84847100,0.40059700,-0.04655900
0.04000000,0.27744700,0.77759600,-0.22961800,-0.47545000,0.84738100,0.40014100,0.04635500,0.27819000,-0.77841100,0.22883900,-0.47379600,-0.84847100,0.40059700,-0.04655900
0.06000000,0.27744700,0.77759600,-0.22961800,-0.47545000,0.84738100,0.40014100,0.04635500,0.27819000,-0.77841100,0.22883900,-0.47379600,-0.84847100,0.40059700,-0.04655900
0.08000000,0.27744700,0.77759600,-0.22961800,-0.47545000,0.84738100,0.40014100,0.04635500,0.27819000,-0.77841100,0.22883900,-0.47379600,-0.84847100,0.40059700,-0.04655900
0.10000000,0.27744700,0.77759600,-0.22961800,-0.47545000,0.84738100,0.40014100,0.04635500,0.27819000,-0.77841100,0.22883900,-0.47379600,-0.84847100,0.40059700,-0.04655900
0.12000000,0.27744700,0.77759600,-0.22961800,-0.47545000,0.84738100,0.40014100,0.04635500,0.27819000,-0.77841100,0.22883900,-0.47379600,-0.84847100,0.40059700,-0.04655900
0.14000000,0.27744700,0.77759600,-0.22961800,-0.47545000,0.84738100,0.40014100,0.04635500,0.27819000,-0.77841100,0.22883900,-0.47379600,-0.84847100,0.40059700,-0.04655900
0.16000000,0.27744700,0.77759600,-0.22961800,-0.47545000,0.84738100,0.40014100,0.04635500,0.27819000,-0.77841100,0.22883900,-0.47379600,-0.84847100,0.40059700,-0.04655900
0.18000000,0.27744700,0.77759600,-0.22961800,-0.47545000,0.84738100,0.40014100,0.04635500,0.27819000,-0.77841100,0.22883900,-0.47379600,-0.84847100,0.40059700,-0.04655900
0.20000000,0.27744700,0.77759600,-0.22961800,-0.47545000,0.84738100,0.40014100,0.04635500,0.27819000,-0.77841100,0.22883900,-0.47379600,-0.84847100,0.40059700,-0.04655900
0.22000000,0.27744700,0.77759600,-0.22961800,-0.47545000,0.84738100,0.40014100,0.04635500,0.27819000,-0.77841100,0.22883900,-0.47379600,-0.84847100,0.40059700,-0.04655900
0.24000000,0.27744700,0.77759600,-0.22961800,-0.47545000,0.84738100,0.40014100,0.04635500,0.27819000,-0.77841100,0.22883900,-0.47379600,-0.84847100,0.40059700,-0.04655900
0.26000000,0.27744700,0.77759600,-0.22961800,-0.47545000,0.84738100,0.40014100,0.04635500,0.27819000,-0.77841100,0.22883900,-0.47379600,-0.84847100,0.40059700,-0.04655900
0.28000000,0.27744700,0.77759600,-0.22961800,-0.47545000,0.84738100,0.40014100,0.04635500,0.27819000,-0.77841100,0.22883900,-0.47379600,-0.84847100,0.40059700,-0.04655900
0.30000000,0.27744700,0.77759600,-0.22961800,-0.47545000,0.84738100,0.40014100,0.04635500,0.27819000,-0.77841100,0.22883900,-0.47379600,-0.84847100,0.40059700,-0.04655900
0.32000000,0.27744700,0.77759600,-0.22961800,-0.47545000,0.84738100,0.40014100,0.04635500,0.27819000,-0.77841100,0.22883900,-0.47379600,-0.84847100,0.40059700,-0.04655900
0.34000000,0.27744700,0.77759600,-0.22961800,-0.47545000,0.84738100,0.40014100,0.04635500,0.27819000,-0.77841100,0.22883900,-0.47379600,-0.84847100,0.40059700,-0.04655900
0.36000000,0.27744700,0.77759600,-0.22961800,-0.47545000,0.84738100,0.40014100,0.04635500,0.27819000,-0.77841100,0.22883900,-0.47379600,-0.84847100,0.40059700,-0.04655900
0.38000000,0.27744700,0.77759600,-0.22961800,-0.47545000,0.84738100,0.40014100,0.04635500,0.27819000,-0.77841100,0.22883900,-0.47379600,-0.84847100,0.40059700,-0.04655900
0.40000000,0.27744700,0.77759600,-0.22961800,-0.47545000,0.84738100,0.40014100,0.04635500,0.27819000,-0.77841100,0.22883900,-0.47379600,-0.84847100,0.40059700,-0.04655900
0.42000000,0.27744700,0.77759600,-0.22961800,-0.47545000,0.84738100,0.40014100,0.04635500,0.27819000,-0.77841100,0.22883900,-0.47379600,-0.84847100,0.40059700,-0.04655900
0.44000000,0.27744700,0.77759600,-0.22961800,-0.47545000,0.84738100,0.40014100,0.04635500,0.27819000,-0.77841100,0.22883900,-0.47379600,-0.84847100,0.40059700,-0.04655900
0.46000000,0.27744700,0.77759600,-0.22961800,-0.47545000,0.84738100,0.40014100,0.04635500,0.27819000,-0.77841100,0.22883900,-0.47379600,-0.84847100,0.40059700,-0.04655900
0.48000000,0.27744700,0.77759600,-0.22961800,-0.47545000,0.84738100,0.40014100,0.04635500,0.27819000,-0.77841100,0.22883900,-0.47379600,-0.84847100,0.40059700,-0.04655900
0.50000000,0.27744700,0.77759600,-0.22961800,-0.47545000,0.84738100,0.40014100,0.04635500,0.27819000,-0.77841100,0.22883900,-0.47379600,-0.84847100,0.40059700,-0.04655900
0.52000000,0.27744700,0.77759600,-0.22961800,-0.47545000,0.84738100,0.40014100,0.04635500,0.27819000,-0.77841100,0.22883900,-0.47379600,-0.84847100,0.40059700,-0.04655900
0.54000000,0.27744700,0.77759600,-0.22961800,-0.47545000,0.84738100,0.40014100,0.04635500,0.27819000,-0.77841100,0.22883900,-0.47379600,-0.84847100,0.40059700,-0.04655900
0.56000000,0.27744700,0.77759600,-0.22961800,-0.47545000,0.84738100,0.40014100,0.04635500,0.27819000,-0.77841100,0.22883900,-0.47379600,-0.84847100,0.40059700,-0.04655900
0.58000000,0.27744700,0.77759600,-0.22961800,-0.47545000,0.84738100,0.40014100,0.04635500,0.27819000,-0.77841100,0.22883900,-0.47379600,-0.84847100,0.40059700,-0.04655900
0.60000000,0.27744700,0.77759600,-0.22961800,-0.47545000,0.84738100,0.40014100,0.04635500,0.27819000,-0.77841100,0.22883900,-0.47379600,-0.84847100,0.40059700,-0.04655900
0.62000000,0.27744700,0.77759600,-0.22961800,-0.47545000,0.84738100,0.40014100,0.04635500,0.27819000,-0.77841100,0.22883900,-0.47379600,-0.84847100,0.40059700,-0.04655900
0.64000000,0.27744700,0.77759600,-0.22961800,-0.47545000,0.84738100,0.40014100,0.04635500,0.27819000,-0.77841100,0.22883900,-0.47379600,-0.84847100,0.40059700,-0.04655900
0.66000000,0.27744700,0.77759600,-0.22961800,-0.47545000,0.84738100,0.40014100,0.04635500,0.27819000,-0.77841100,0.22883900,-0.47379600,-0.84847100,0.40059700,-0.04655900
0.68000000,0.27744700,0.77759600,-0.22961800,-0.47545000,0.84738100,0.40014100,0.04635500,0.27819000,-0.77841100,0.22883900,-0.47379600,-0.84847100,0.40059700,-0.04655900
0.70000000,0.27744700,0.77759600,-0.22961800,-0.47545000,0.84738100,0.40014100,0.04635500,0.27819000,-0.77841100,0.22883900,-0.47379600,-0.84847100,0.40059700,-0.04655900
0.72000000,0.27744700,0.77759600,-0.22961800,-0.47545000,0.84738100,0.40014100,0.04635500,0.27819000,-0.77841100,0.22883900,-0.47379600,-0.84847100,0.40059700,-0.04655900
0.74000000,0.27744700,0.77759600,-0.22961800,-0.47545000,0.84738100,0.40014100,0.04635500,0.27819000,-0.77841100,0.22883900,-0.47379600,-0.84847100,0.40059700,-0.04655900
0.76000000,0.27744700,0.77759600,-0.22961800,-0.47545000,0.84738100,0.40014100,0.04635500,0.27819000,-0.77841100,0.22883900,-0.47379600,-0.84847100,0.40059700,-0.04655900
0.78000000,0.27744700,0.77759600,-0.22961800,-0.47545000,0.84738100,0.40014100,0.04635500,0.27819000,-0.77841100,0.22883900,-0.47379600,-0.84847100,0.40059700,-0.04655900
0.80000000,0.27744700,0.77759600,-0.22961800,-0.47545000,0.84738100,0.40014100,0.04635500,0.27819000,-0.77841100,0.22883900,-0.47379600,-0.84847100,0.40059700,-0.04655900
0.82000000,0.27744700,0.77759600,-0.22961800,-0.47545000,0.84738100,0.40014100,0.04635500,0.27819000,-0.77841100,0.22883900,-0.47379600,-0.84847100,0.40059700,-0.04655900
0.84000000,0.27744700,0.77759600,-0.22961800,-0.47545000,0.84738100,0.40014100,0.04635500,0.27819000,-0.77841100,0.22883900,-0.47379600,-0.84847100,0.40059700,-0.04655900
0.86000000,0.27744700,0.77759600,-0.22961800,-0.47545000,0.84738100,0.40014100,0.04635500,0.27819000,-0.77841100,0.22883900,-0.47379600,-0.84847100,0.40059700,-0.04655900
0.88000000,0.27744700,0.77759600,-0.22961800,-0.47545000,0.84738100,0.40014100,0.04635500,0.27819000,-0.77841100,0.22883900,-0.47379600,-0.84847100,0.40059700,-0.04655900
0.90000000,0.27744700,0.77759600,-0.22961800,-0.47545000,0.84738100,0.40014100,0.04635500,0.27819000,-0.77841100,0.22883900,-0.47379600,-0.84847100,0.40059700,-0.04655900
0.92000000,0.27744700,0.77759600,-0.22961800,-0.47545000,0.84738100,0.40014100,0.04635500,0.27819000,-0.77841100,0.22883900,-0.47379600,-0.84847100,0.40059700,-0.04655900
0.94000000,0.27744700,0.77759600,-0.22961800,-0.47545000,0.84738100,0.40014100,0.04635500,0.27819000,-0.77841100,0.22883900,-0.47379600,-0.84847100,0.40059700,-0.04655900
0.96000000,0.27744700,0.77759600,-0.22961800,-0.47545000,0.84738100,0.40014100,0.04635500,0.27819000,-0.77841100,0.22883900,-0.47379600,-0.84847100,0.40059700,-0.04655900
0.98000000,0.27744700,0.77759600,-0.22961800,-0.47545000,0.84738100,0.40014100,0.04635500,0.27819000,-0.77841100,0.22883900,-0.47379600,-0.84847100,0.40059700,-0.04655900
1.00000000,0.27744700,0.77759600,-0.22961800,-0.47545000,0.84738100,0.40014100,0.04635500,0.27819000,-0.77841100,0.22883900,-0.47379600,-0.84847100,0.40059700,-0.04655900
1.02000000,0.27744700,0.77759600,-0.22961800,-0.47545000,0.84738100,0.40014100,0.04635500,0.27819000,-0.77841100,0.22883900,-0.47379600,-0.84847100,0.40059700,-0.04655900
1.04000000,0.27744700,0.77759600,-0.22961800,-0.47545000,0.84738100,0.40014100,0.04635500,0.27819000,-0.77841100,0.22883900,-0.47379600,-0.84847100,0.40059700,-0.04655900
1.06000000,0.27744700,0.77759600,-0.22961800,-0.47545000,0.84738100,0.40014100,0.04635500,0.27819000,-0.77841100,0.22883900,-0.47379600,-0.84847100,0.40059700,-0.04655900
1.08000000,0.27744700,0.77759600,-0.22961800,-0.47545000,0.84738100,0.40014100,0.04635500,0.27819000,-0.77841100,0.22883900,-0.47379600,-0.84847100,0.40059700,-0.04655900
1.10000000,0.27744700,0.77759600,-0.22961800,-0.47545000,0.84738100,0.40014100,0.04635500,0.27819000,-0.77841100,0.22883900,-0.47379600,-0.84847100,0.40059700,-0.04655900
1.12000000,0.27744700,0.77759600,-0.22961800,-0.47545000,0.84738100,0.40014100,0.04635500,0.27819000,-0.77841100,0.22883900,-0.47379600,-0.84847100,0.40059700,-0.04655900
1.14000000,0.27744700,0.77759600,-0.22961800,-0.47545000,0.84738100,0.40014100,0.04635500,0.27819000,-0.77841100,0.22883900,-0.47379600,-0.84847100,0.40059700,-0.04655900
1.16000000,0.27744700,0.77759600,-0.22961800,-0.47545000,0.84738100,0.40014100,0.04635500,0.27819000,-0.77841100,0.22883900,-0.47379600,-0.84847100,0.40059700,-0.04655900
1.18000000,0.27744700,0.77759600,-0.22961800,-0.47545000,0.84738100,0.40014100,0.04635500,0.27819000,-0.77841100,0.22883900,-0.47379600,-0.84847100,0.40059700,-0.04655900
1.20000000,0.27744700,0.77759600,-0.22961800,-0.47545000,0.84738100,0.40014100,0.04635500,0.27819000,-0.77841100,0.22883900,-0.47379600,-0.84847100,0.40059700,-0.04655900
1.22000000,0.27744700,0.77759600,-0.22961800,-0.47545000,0.84738100,0.40014100,0.04635500,0.27819000,-0.77841100,0.22883900,-0.47379600,-0.84847100,0.40059700,-0.04655900
1.24000000,0.27744700,0.77759600,-0.22961800,-0.47545000,0.84738100,0.40014100,0.04635500,0.27819000,-0.77841100,0.22883900,-0.47379600,-0.84847100,0.40059700,-0.04655900
1.26000000,0.27744700,0.77759600,-0.22961800,-0.47545000,0.84738100,0.40014100,0.04635500,0.27819000,-0.77841100,0.22883900,-0.47379600,-0.84847100,0.40059700,-0.04655900
1.28000000,0.27744700,0.77759600,-0.22961800,-0.47545000,0.84738100,0.40014100,0.04635500,0.27819000,-0.77841100,0.22883900,-0.47379600,-0.84847100,0.40059700,-0.04655900
1.30000000,0.27744700,0.77759600,-0.22961800,-0.47545000,0.84738100,0.40014100,0.04635500,0.27819000,-0.77841100,0.22883900,-0.47379600,-0.84847100,0.40059700,-0.04655900
1.32000000,0.27744700,0.77759600,-0.22961800,-0.47545000,0.84738100,0.40014100,0.04635500,0.27819000,-0.77841100,0.22883900,-0.47379600,-0.84847100,0.40059700,-0.04655900
1.34000000,0.27744700,0.77759600,-0.22961800,-0.47545000,0.84738100,0.40014100,0.04635500,0.27819000,-0.77841100,0.22883900,-0.47379600,-0.84847100,0.40059700,-0.04655900
1.36000000,0.27744700,0.77759600,-0.22961800,-0.47545000,0.84738100,0.40014100,0.04635500,0.27819000,-0.77841100,0.22883900,-0.47379600,-0.84847100,0.40059700,-0.04655900
1.38000000,0.27744700,0.77759600,-0.22961800,-0.47545000,0.84738100,0.40014100,0.04635500,0.27819000,-0.77841100,0.22883900,-0.47379600,-0.84847100,0.40059700,-0.04655900
1.40000000,0.27744700,0.77759600,-0.22961800,-0.47545000,0.84738100,0.40014100,0.04635500,0.27819000,-0.77841100,0.22883900,-0.47379600,-0.84847100,0.40059700,-0.04655900
1.42000000,0.27744700,0.77759600,-0.22961800,-0.47545000,0.84738100,0.40014100,0.04635500,0.27819000,-0.77841100,0.22883900,-0.47379600,-0.84847100,0.40059700,-0.04655900
1.44000000,0.27744700,0.77759600,-0.22961800,-0.47545000,0.84738100,0.40014100,0.04635500,0.27819000,-0.77841100,0.22883900,-0.47379600,-0.84847100,0.40059700,-0.04655900
1.46000000,0.27744700,0.77759600,-0.22961800,-0.47545000,0.84738100,0.40014100,0.04635500,0.27819000,-0.77841100,0.22883900,-0.47379600,-0.84847100,0.40059700,-0.04655900
1.48000000,0.27744700,0.77759600,-0.22961800,-0.47545000,0.84738100,0.40014100,0.04635500,0.27819000,-0.77841100,0.22883900,-0.47379600,-0.84847100,0.40059700,-0.04655900
1.50000000,0.27744700,0.77759600,-0.22961800,-0.47545000,0.84738100,0.40014100,0.04635500,0.27819000,-0.77841100,0.22883900,-0.47379600,-0.84847100,0.40059700,-0.04655900
1.52000000,0.27744700,0.77759600,-0.22961800,-0.47545000,0.84738100,0.40014100,0.04635500,0.27819000,-0.77841100,0.22883900,-0.47379600,-0.84847100,0.40059700,-0.04655900
1.54000000,0.27744700,0.77759600,-0.22961800,-0.47545000,0.84738100,0.40014100,0.04635500,0.27819000,-0.77841100,0.22883900,-0.47379600,-0.84847100,0.40059700,-0.04655900
1.56000000,0.27744700,0.77759600,-0.22961800,-0.47545000,0.84738100,0.40014100,0.04635500,0.27819000,-0.77841100,0.22883900,-0.47379600,-0.84847100,0.40059700,-0.04655900
1.58000000,0.27744700,0.77759600,-0.22961800,-0.47545000,0.84738100,0.40014100,0.04635500,0.27819000,-0.77841100,0.22883900,-0.47379600,-0.84847100,0.40059700,-0.04655900
1.60000000,0.27744700,0.77759600,-0.22961800,-0.47545000,0.84738100,0.40014100,0.04635500,0.27819000,-0.77841100,0.22883900,-0.47379600,-0.84847100,0.40059700,-0.04655900
1.62000000,0.27744700,0.77759600,-0.22961800,-0.47545000,0.84738100,0.40014100,0.04635500,0.27819000,-0.77841100,0.22883900,-0.47379600,-0.84847100,0.40059700,-0.04655900
1.64000000,0.27744700,0.77759600,-0.22961800,-0.47545000,0.84738100,0.40014100,0.04635500,0.27819000,-0.77841100,0.22883900,-0.47379600,-0.84847100,0.40059700,-0.04655900
1.66000000,0.27744700,0.77759600,-0.22961800,-0.47545000,0.84738100,0.40014100,0.04635500,0.27819000,-0.77841100,0.22883900,-0.47379600,-0.84847100,0.40059700,-0.04655900
1.68000000,0.27744700,0.77759600,-0.22961800,-0.47545000,0.84738100,0.40014100,0.04635500,0.27819000,-0.77841100,0.22883900,-0.47379600,-0.84847100,0.40059700,-0.04655900
1.70000000,0.27744700,0.77759600,-0.22961800,-0.47545000,0.84738100,0.40014100,0.04635500,0.27819000,-0.77841100,0.22883900,-0.47379600,-0.84847100,0.40059700,-0.04655900
1.72000000,0.27744700,0.77759600,-0.22961800,-0.47545000,0.84738100,0.40014100,0.04635500,0.27819000,-0.77841100,0.22883900,-0.47379600,-0.84847100,0.40059700,-0.04655900
1.74000000,0.27744700,0.77759600,-0.22961800,-0.47545000,0.84738100,0.40014100,0.04635500,0.27819000,-0.77841100,0.22883900,-0.47379600,-0.84847100,0.40059700,-0.04655900
1.76000000,0.27744700,0.77759600,-0.22961800,-0.47545000,0.84738100,0.40014100,0.04635500,0.27819000,-0.77841100,0.22883900,-0.47379600,-0.84847100,0.40059700,-0.04655900
1.78000000,0.27744700,0.77759600,-0.22961800,-0.47545000,0.84738100,0.40014100,0.04635500,0.27819000,-0.77841100,0.22883900,-0.47379600,-0.84847100,0.40059700,-0.04655900
1.80000000,0.27744700,0.77759600,-0.22961800,-0.47545000,0.84738100,0.40014100,0.04635500,0.27819000,-0.77841100,0.22883900,-0.47379600,-0.84847100,0.40059700,-0.04655900
1.82000000,0.27744700,0.77759600,-0.22961800,-0.47545000,0.84738100,0.40014100,0.04635500,0.27819000,-0.77841100,0.22883900,-0.47379600,-0.84847100,0.40059700,-0.04655900
1.84000000,0.27744700,0.77759600,-0.22961800,-0.47545000,0.84738100,0.40014100,0.04635500,0.27819000,-0.77841100,0.22883900,-0.47379600,-0.84847100,0.40059700,-0.04655900
1.86000000,0.27744700,0.77759600,-0.22961800,-0.47545000,0.84738100,0.40014100,0.04635500,0.27819000,-0.77841100,0.22883900,-0.47379600,-0.84847100,0.40059700,-0.04655900
1.88000000,0.27744700,0.77759600,-0.22961800,-0.47545000,0.84738100,0.40014100,0.04635500,0.27819000,-0.77841100,0.22883900,-0.47379600,-0.84847100,0.40059700,-0.04655900
1.90000000,0.27744700,0.77759600,-0.22961800,-0.47545000,0.84738100,0.40014100,0.04635500,0.27819000,-0.77841100,0.22883900,-0.47379600,-0.84847100,0.40059700,-0.04655900
1.92000000,0.27744700,0.77759600,-0.22961800,-0.47545000,0.84738100,0.40014100,0.04635500,0.27819000,-0.77841100,0.22883900,-0.47379600,-0.84847100,0.40059700,-0.04655900
1.94000000,0.27744700,0.77759600,-0.22961800,-0.47545000,0.84738100,0.40014100,0.04635500,0.27819000,-0.77841100,0.22883900,-0.47379600,-0.84847100,0.40059700,-0.04655900
1.96000000,0.27744700,0.77759600,-0.22961800,-0.47545000,0.84738100,0.40014100,0.04635500,0.27819000,-0.77841100,0.22883900,-0.47379600,-0.84847100,0.40059700,-0.04655900
1.98000000,0.27744700,0.77759600,-0.22961800,-0.47545000,0.84738100,0.40014100,0.04635500,0.27819000,-0.77841100,0.22883900,-0.47379600,-0.84847100,0.40059700,-0.04655900
2.00000000,0.27744700,0.77759600,-0.22961800,-0.47545000,0.84738100,0.40014100,0.04635500,0.27819000,-0.77841100,0.22883900,-0.47379600,-0.84847100,0.40059700,-0.04655900
2.02000000,0.27744700,0.77759600,-0.22961800,-0.47545000,0.84738100,0.40014100,0.04635500,0.27819000,-0.77841100,0.22883900,-0.47379600,-0.84847100,0.40059700,-0.04655900
2.04000000,0.27744700,0.77759600,-0.22961800,-0.47545000,0.84738100,0.40014100,0.04635500,0.27819000,-0.77841100,0.22883900,-0.47379600,-0.84847100,0.40059700,-0.04655900
2.06000000,0.27744700,0.77759600,-0.22961800,-0.47545000,0.84738100,0.40014100,0.04635500,0.27819000,-0.77841100,0.22883900,-0.47379600,-0.84847100,0.40059700,-0.04655900
2.08000000,0.27744700,0.77759600,-0.22961800,-0.47545000,0.84738100,0.40014100,0.04635500,0.27819000,-0.77841100,0.22883900,-0.47379600,-0.84847100,0.40059700,-0.04655900
2.10000000,0.27744700,0.77759600,-0.22961800,-0.47545000,0.84738100,0.40014100,0.04635500,0.27819000,-0.77841100,0.22883900,-0.47379600,-0.84847100,0.40059700,-0.04655900
2.12000000,0.27744700,0.77759600,-0.22961800,-0.47545000,0.84738100,0.40014100,0.04635500,0.27819000,-0.77841100,0.22883900,-0.47379600,-0.84847100,0.40059700,-0.04655900
2.14000000,0.27744700,0.77759600,-0.22961800,-0.47545000,0.84738100,0.40014100,0.04635500,0.27819000,-0.77841100,0.22883900,-0.47379600,-0.84847100,0.40059700,-0.04655900
2.16000000,0.27744700,0.77759600,-0.22961800,-0.47545000,0.84738100,0.40014100,0.04635500,0.27819000,-0.77841100,0.22883900,-0.47379600,-0.84847100,0.40059700,-0.04655900
2.18000000,0.27744700,0.77759600,-0.22961800,-0.47545000,0.84738100,0.40014100,0.04635500,0.27819000,-0.77841100,0.22883900,-0.47379600,-0.84847100,0.40059700,-0.04655900
2.20000000,0.27744700,0.77759600,-0.22961800,-0.47545000,0.84738100,0.40014100,0.04635500,0.27819000,-0.77841100,0.22883900,-0.47379600,-0.84847100,0.40059700,-0.04655900
2.22000000,0.27744700,0.77759600,-0.22961800,-0.47545000,0.84738100,0.40014100,0.04635500,0.27819000,-0.77841100,0.22883900,-0.47379600,-0.84847100,0.40059700,-0.04655900
2.24000000,0.27744700,0.77759600,-0.22961800,-0.47545000,0.84738100,0.40014100,0.04635500,0.27819000,-0.77841100,0.22883900,-0.47379600,-0.84847100,0.40059700,-0.04655900
2.26000000,0.27744700,0.77759600,-0.22961800,-0.47545000,0.84738100,0.40014100,0.04635500,0.27819000,-0.77841100,0.22883900,-0.47379600,-0.84847100,0.40059700,-0.04655900
2.28000000,0.27744700,0.77759600,-0.22961800,-0.47545000,0.84738100,0.40014100,0.04635500,0.27819000,-0.77841100,0.22883900,-0.47379600,-0.84847100,0.40059700,-0.04655900
2.30000000,0.27744700,0.77759600,-0.22961800,-0.47545000,0.84738100,0.40014100,0.04635500,0.27819000,-0.77841100,0.22883900,-0.47379600,-0.84847100,0.40059700,-0.04655900
2.32000000,0.27744700,0.77759600,-0.22961800,-0.47545000,0.84738100,0.40014100,0.04635500,0.27819000,-0.77841100,0.22883900,-0.47379600,-0.84847100,0.40059700,-0.04655900
2.34000000,0.27744700,0.77759600,-0.22961800,-0.47545000,0.84738100,0.40014100,0.04635500,0.27819000,-0.77841100,0.22883900,-0.47379600,-0.84847100,0.40059700,-0.04655900
2.36000000,0.27744700,0.77759600,-0.22961800,-0.47545000,0.84738100,0.40014100,0.04635500,0.27819000,-0.77841100,0.22883900,-0.47379600,-0.84847100,0.40059700,-0.04655900
2.38000000,0.27744700,0.77759600,-0.22961800,-0.47545000,0.84738100,0.40014100,0.04635500,0.27819000,-0.77841100,0.22883900,-0.47379600,-0.84847100,0.40059700,-0.04655900
2.40000000,0.27744700,0.77759600,-0.22961800,-0.47545000,0.84738100,0.40014100,0.04635500,0.27819000,-0.77841100,0.22883900,-0.47379600,-0.84847100,0.40059700,-0.04655900
2.42000000,0.27744700,0.77759600,-0.22961800,-0.47545000,0.84738100,0.40014100,0.04635500,0.27819000,-0.77841100,0.22883900,-0.47379600,-0.84847100,0.40059700,-0.04655900
2.44000000,0.27744700,0.77759600,-0.22961800,-0.47545000,0.84738100,0.40014100,0.04635500,0.27819000,-0.77841100,0.22883900,-0.47379600,-0.84847100,0.40059700,-0.04655900
2.46000000,0.27744700,0.77759600,-0.22961800,-0.47545000,0.84738100,0.40014100,0.04635500,0.27819000,-0.77841100,0.22883900,-0.47379600,-0.84847100,0.40059700,-0.04655900
2.48000000,0.27744700,0.77759600,-0.22961800,-0.47545000,0.84738100,0.40014100,0.04635500,0.27819000,-0.77841100,0.22883900,-0.47379600,-0.84847100,0.40059700,-0.04655900
2.50000000,0.27744700,0.77759600,-0.22961800,-0.47545000,0.84738100,0.40014100,0.04635500,0.27819000,-0.77841100,0.22883900,-0.47379600,-0.84847100,0.40059700,-0.04655900
2.52000000,0.27744700,0.77759600,-0.22961800,-0.47545000,0.84738100,0.40014100,0.04635500,0.27819000,-0.77841100,0.22883900,-0.47379600,-0.84847100,0.40059700,-0.04655900
2.54000000,0.27744700,0.77759600,-0.22961800,-0.47545000,0.84738100,0.40014100,0.04635500,0.27819000,-0.77841100,0.22883900,-0.47379600,-0.84847100,0.40059700,-0.04655900
2.56000000,0.27744700,0.77759600,-0.22961800,-0.47545000,0.84738100,0.40014100,0.04635500,0.27819000,-0.77841100,0.22883900,-0.47379600,-0.84847100,0.40059700,-0.04655900
2.58000000,0.27744700,0.77759600,-0.22961800,-0.47545000,0.84738100,0.40014100,0.04635500,0.27819000,-0.77841100,0.22883900,-0.47379600,-0.84847100,0.40059700,-0.04655900
2.60000000,0.27744700,0.77759600,-0.22961800,-0.47545000,0.84738100,0.40014100,0.04635500,0.27819000,-0.77841100,0.22883900,-0.47379600,-0.84847100,0.40059700,-0.04655900
2.62000000,0.27744700,0.77759600,-0.22961800,-0.47545000,0.84738100,0.40014100,0.04635500,0.27819000,-0.77841100,0.22883900,-0.47379600,-0.84847100,0.40059700,-0.04655900
2.64000000,0.27744700,0.77759600,-0.22961800,-0.47545000,0.84738100,0.40014100,0.04635500,0.27819000,-0.77841100,0.22883900,-0.47379600,-0.84847100,0.40059700,-0.04655900
2.66000000,0.27744700,0.77759600,-0.22961800,-0.47545000,0.84738100,0.40014100,0.04635500,0.27819000,-0.77841100,0.22883900,-0.47379600,-0.84847100,0.40059700,-0.04655900
2.68000000,0.27744700,0.77759600,-0.22961800,-0.47545000,0.84738100,0.40014100,0.04635500,0.27819000,-0.77841100,0.22883900,-0.47379600,-0.84847100,0.40059700,-0.04655900
2.70000000,0.27744700,0.77759600,-0.22961800,-0.47545000,0.84738100,0.40014100,0.04635500,0.27819000,-0.77841100,0.22883900,-0.47379600,-0.84847100,0.40059700,-0.04655900
2.72000000,0.27744700,0.77759600,-0.22961800,-0.47545000,0.84738100,0.40014100,0.04635500,0.27819000,-0.77841100,0.22883900,-0.47379600,-0.84847100,0.40059700,-0.04655900
2.74000000,0.27744700,0.77759600,-0.22961800,-0.47545000,0.84738100,0.40014100,0.04635500,0.27819000,-0.77841100,0.22883900,-0.47379600,-0.84847100,0.40059700,-0.04655900
2.76000000,0.27744700,0.77759600,-0.22961800,-0.47545000,0.84738100,0.40014100,0.04635500,0.27819000,-0.77841100,0.22883900,-0.47379600,-0.84847100,0.40059700,-0.04655900
2.78000000,0.27744700,0.77759600,-0.22961800,-0.47545000,0.84738100,0.40014100,0.04635500,0.27819000,-0.77841100,0.22883900,-0.47379600,-0.84847100,0.40059700,-0.04655900
2.80000000,0.27744700,0.77759600,-0.22961800,-0.47545000,0.84738100,0.40014100,0.04635500,0.27819000,-0.77841100,0.22883900,-0.47379600,-0.84847100,0.40059700,-0.04655900
2.82000000,0.27744700,0.77759600,-0.22961800,-0.47545000,0.84738100,0.40014100,0.04635500,0.27819000,-0.77841100,0.22883900,-0.47379600,-0.84847100,0.40059700,-0.04655900
2.84000000,0.27744700,0.77759600,-0.22961800,-0.47545000,0.84738100,0.40014100,0.04635500,0.27819000,-0.77841100,0.22883900,-0.47379600,-0.84847100,0.40059700,-0.04655900
2.86000000,0.27744700,0.77759600,-0.22961800,-0.47545000,0.84738100,0.40014100,0.04635500,0.27819000,-0.77841100,0.22883900,-0.47379600,-0.84847100,0.40059700,-0.04655900
2.88000000,0.27744700,0.77759600,-0.22961800,-0.47545000,0.84738100,0.40014100,0.04635500,0.27819000,-0.77841100,0.22883900,-0.47379600,-0.84847100,0.40059700,-0.04655900
2.90000000,0.27744700,0.77759600,-0.22961800,-0.47545000,0.84738100,0.40014100,0.04635500,0.27819000,-0.77841100,0.22883900,-0.47379600,-0.84847100,0.40059700,-0.04655900
2.92000000,0.27744700,0.77759600,-0.22961800,-0.47545000,0.84738100,0.40014100,0.04635500,0.27819000,-0.77841100,0.22883900,-0.47379600,-0.84847100,0.40059700,-0.04655900
2.94000000,0.27744700,0.77759600,-0.22961800,-0.47545000,0.84738100,0.40014100,0.04635500,0.27819000,-0.77841100,0.22883900,-0.47379600,-0.84847100,0.40059700,-0.04655900
2.96000000,0.27744700,0.77759600,-0.22961800,-0.47545000,0.84738100,0.40014100,0.04635500,0.27819000,-0.77841100,0.22883900,-0.47379600,-0.84847100,0.40059700,-0.04655900
2.98000000,0.27744700,0.77759600,-0.22961800,-0.47545000,0.84738100,0.40014100,0.04635500,0.27819000,-0.77841100,0.22883900,-0.47379600,-0.84847100,0.40059700,-0.04655900
3.00000000,0.27744700,0.77759600,-0.22961800,-0.47545000,0.84738100,0.40014100,0.04635500,0.27819000,-0.77841100,0.22883900,-0.47379600,-0.84847100,0.40059700,-0.04655900
3.02000000,0.27744700,0.77759600,-0.22961800,-0.47545000,0.84738100,0.40014100,0.04635500,0.27819000,-0.77841100,0.22883900,-0.47379600,-0.84847100,0.40059700,-0.04655900
3.04000000,0.27744700,0.77759600,-0.22961800,-0.47545000,0.84738100,0.40014100,0.04635500,0.27819000,-0.77841100,0.22883900,-0.47379600,-0.84847100,0.40059700,-0.04655900
3.06000000,0.27744700,0.77759600,-0.22961800,-0.47545000,0.84738100,0.40014100,0.04635500,0.27819000,-0.77841100,0.22883900,-0.47379600,-0.84847100,0.40059700,-0.04655900
3.08000000,0.27744700,0.77759600,-0.22961800,-0.47545000,0.84738100,0.40014100,0.04635500,0.27819000,-0.77841100,0.22883900,-0.47379600,-0.84847100,0.40059700,-0.04655900
3.10000000,0.27744700,0.77759600,-0.22961800,-0.47545000,0.84738100,0.40014100,0.04635500,0.27819000,-0.77841100,0.22883900,-0.47379600,-0.84847100,0.40059700,-0.04655900
3.12000000,0.27744700,0.77759600,-0.22961800,-0.47545000,0.84738100,0.40014100,0.04635500,0.27819000,-0.77841100,0.22883900,-0.47379600,-0.84847100,0.40059700,-0.04655900
3.14000000,0.27744700,0.77759600,-0.22961800,-0.47545000,0.84738100,0.40014100,0.04635500,0.27819000,-0.77841100,0.22883900,-0.47379600,-0.84847100,0.40059700,-0.04655900
3.16000000,0.27744700,0.77759600,-0.22961800,-0.47545000,0.84738100,0.40014100,0.04635500,0.27819000,-0.77841100,0.22883900,-0.47379600,-0.84847100,0.40059700,-0.04655900
3.18000000,0.27744700,0.77759600,-0.22961800,-0.47545000,0.84738100,0.40014100,0.04635500,0.27819000,-0.77841100,0.22883900,-0.47379600,-0.84847100,0.40059700,-0.04655900
3.20000000,0.27744700,0.77759600,-0.22961800,-0.47545000,0.84738100,0.40014100,0.04635500,0.27819000,-0.77841100,0.22883900,-0.47379600,-0.84847100,0.40059700,-0.04655900
3.22000000,0.27744700,0.77759600,-0.22961800,-0.47545000,0.84738100,0.40014100,0.04635500,0.27819000,-0.77841100,0.22883900,-0.47379600,-0.84847100,0.40059700,-0.04655900
3.24000000,0.27744700,0.77759600,-0.22961800,-0.47545000,0.84738100,0.40014100,0.04635500,0.27819000,-0.77841100,0.22883900,-0.47379600,-0.84847100,0.40059700,-0.04655900
3.26000000,0.27744700,0.77759600,-0.22961800,-0.47545000,0.84738100,0.40014100,0.04635500,0.27819000,-0.77841100,0.22883900,-0.47379600,-0.84847100,0.40059700,-0.04655900
3.28000000,0.27744700,0.77759600,-0.22961800,-0.47545000,0.84738100,0.40014100,0.04635500,0.27819000,-0.77841100,0.22883900,-0.47379600,-0.84847100,0.40059700,-0.04655900
3.30000000,0.27744700,0.77759600,-0.22961800,-0.47545000,0.84738100,0.40014100,0.04635500,0.27819000,-0.77841100,0.22883900,-0.47379600,-0.84847100,0.40059700,-0.04655900
3.32000000,0.27744700,0.77759600,-0.22961800,-0.47545000,0.84738100,0.40014100,0.04635500,0.27819000,-0.77841100,0.22883900,-0.47379600,-0.84847100,0.40059700,-0.04655900
3.34000000,0.27744700,0.77759600,-0.22961800,-0.47545000,0.84738100,0.40014100,0.04635500,0.27819000,-0.77841100,0.22883900,-0.47379600,-0.84847100,0.40059700,-0.04655900
3.36000000,0.27744700,0.77759600,-0.22961800,-0.47545000,0.84738100,0.40014100,0.04635500,0.27819000,-0.77841100,0.22883900,-0.47379600,-0.84847100,0.40059700,-0.04655900
3.38000000,0.27744700,0.77759600,-0.22961800,-0.47545000,0.84738100,0.40014100,0.04635500,0.27819000,-0.77841100,0.22883900,-0.47379600,-0.84847100,0.40059700,-0.04655900
3.40000000,0.27744700,0.77759600,-0.22961800,-0.47545000,0.84738100,0.40014100,0.04635500,0.27819000,-0.77841100,0.22883900,-0.47379600,-0.84847100,0.40059700,-0.04655900
3.42000000,0.27744700,0.77759600,-0.22961800,-0.47545000,0.84738100,0.40014100,0.04635500,0.27819000,-0.77841100,0.22883900,-0.47379600,-0.84847100,0.40059700,-0.04655900
3.44000000,0.27744700,0.77759600,-0.22961800,-0.47545000,0.84738100,0.40014100,0.04635500,0.27819000,-0.77841100,0.22883900,-0.47379600,-0.84847100,0.40059700,-0.04655900
3.46000000,0.27744700,0.77759600,-0.22961800,-0.47545000,0.84738100,0.40014100,0.04635500,0.27819000,-0.77841100,0.22883900,-0.47379600,-0.84847100,0.40059700,-0.04655900
3.48000000,0.27744700,0.77759600,-0.22961800,-0.47545000,0.84738100,0.40014100,0.04635500,0.27819000,-0.77841100,0.22883900,-0.47379600,-0.84847100,0.40059700,-0.04655900
3.50000000,0.27744700,0.77759600,-0.22961800,-0.47545000,0.84738100,0.40014100,0.04635500,0.27819000,-0.77841100,0.22883900,-0.47379600,-0.84847100,0.40059700,-0.04655900
3.52000000,0.27744700,0.77759600,-0.22961800,-0.47545000,0.84738100,0.40014100,0.04635500,0.27819000,-0.77841100,0.22883900,-0.47379600,-0.84847100,0.40059700,-0.04655900
3.54000000,0.27744700,0.77759600,-0.22961800,-0.47545000,0.84738100,0.40014100,0.04635500,0.27819000,-0.77841100,0.22883900,-0.47379600,-0.84847100,0.40059700,-0.04655900
3.56000000,0.27744700,0.77759600,-0.22961800,-0.47545000,0.84738100,0.40014100,0.04635500,0.27819000,-0.77841100,0.22883900,-0.47379600,-0.84847100,0.40059700,-0.04655900
3.58000000,0.27744700,0.77759600,-0.22961800,-0.47545000,0.84738100,0.40014100,0.04635500,0.27819000,-0.77841100,0.22883900,-0.47379600,-0.84847100,0.40059700,-0.04655900
3.60000000,0.27744700,0.77759600,-0.22961800,-0.47545000,0.84738100,0.40014100,0.04635500,0.27819000,-0.77841100,0.22883900,-0.47379600,-0.84847100,0.40059700,-0.04655900
3.62000000,0.27744700,0.77759600,-0.22961800,-0.47545000,0.84738100,0.40014100,0.04635500,0.27819000,-0.77841100,0.22883900,-0.47379600,-0.84847100,0.40059700,-0.04655900
3.64000000,0.27744700,0.77759600,-0.22961800,-0.47545000,0.84738100,0.40014100,0.04635500,0.27819000,-0.77841100,0.22883900,-0.47379600,-0.84847100,0.40059700,-0.04655900
3.66000000,0.27744700,0.77759600,-0.22961800,-0.47545000,0.84738100,0.40014100,0.04635500,0.27819000,-0.77841100,0.22883900,-0.47379600,-0.84847100,0.40059700,-0.04655900
3.68000000,0.27744700,0.77759600,-0.22961800,-0.47545000,0.84738100,0.40014100,0.04635500,0.27819000,-0.77841100,0.22883900,-0.47379600,-0.84847100,0.40059700,-0.04655900
3.70000000,0.27744700,0.77759600,-0.22961800,-0.47545000,0.84738100,0.40014100,0.04635500,0.27819000,-0.77841100,0.22883900,-0.47379600,-0.84847100,0.40059700,-0.04655900
3.72000000,0.27744700,0.77759600,-0.22961800,-0.47545000,0.84738100,0.40014100,0.04635500,0.27819000,-0.77841100,0.22883900,-0.47379600,-0.84847100,0.40059700,-0.04655900
3.74000000,0.27744700,0.77759600,-0.22961800,-0.47545000,0.84738100,0.40014100,0.04635500,0.27819000,-0.77841100,0.22883900,-0.47379600,-0.84847100,0.40059700,-0.04655900
3.76000000,0.27744700,0.77759600,-0.22961800,-0.47545000,0.84738100,0.40014100,0.04635500,0.27819000,-0.77841100,0.22883900,-0.47379600,-0.84847100,0.40059700,-0.04655900
3.78000000,0.27744700,0.77759600,-0.22961800,-0.47545000,0.84738100,0.40014100,0.04635500,0.27819000,-0.77841100,0.22883900,-0.47379600,-0.84847100,0.40059700,-0.04655900
3.80000000,0.27744700,0.77759600,-0.22961800,-0.47545000,0.84738100,0.40014100,0.04635500,0.27819000,-0.77841100,0.22883900,-0.47379600,-0.84847100,0.40059700,-0.04655900
3.82000000,0.27744700,0.77759600,-0.22961800,-0.47545000,0.84738100,0.40014100,0.04635500,0.27819000,-0.77841100,0.22883900,-0.47379600,-0.84847100,0.40059700,-0.04655900
3.84000000,0.27744700,0.77759600,-0.22961800,-0.47545000,0.84738100,0.40014100,0.04635500,0.27819000,-0.77841100,0.22883900,-0.47379600,-0.84847100,0.40059700,-0.04655900
3.86000000,0.27744700,0.77759600,-0.22961800,-0.47545000,0.84738100,0.40014100,0.04635500,0.27819000,-0.77841100,0.22883900,-0.47379600,-0.84847100,0.40059700,-0.04655900
3.88000000,0.27744700,0.77759600,-0.22961800,-0.47545000,0.84738100,0.40014100,0.04635500,0.27819000,-0.77841100,0.22883900,-0.47379600,-0.84847100,0.40059700,-0.04655900
3.90000000,0.27744700,0.77759600,-0.22961800,-0.47545000,0.84738100,0.40014100,0.04635500,0.27819000,-0.77841100,0.22883900,-0.47379600,-0.84847100,0.40059700,-0.04655900
3.92000000,0.27744700,0.77759600,-0.22961800,-0.47545000,0.84738100,0.40014100,0.04635500,0.27819000,-0.77841100,0.22883900,-0.47379600,-0.84847100,0.40059700,-0.04655900
3.94000000,0.27744700,0.77759600,-0.22961800,-0.47545000,0.84738100,0.40014100,0.04635500,0.27819000,-0.77841100,0.22883900,-0.47379600,-0.84847100,0.40059700,-0.04655900
3.96000000,0.27744700,0.77759600,-0.22961800,-0.47545000,0.84738100,0.40014100,0.04635500,0.27819000,-0.77841100,0.22883900,-0.47379600,-0.84847100,0.40059700,-0.04655900
3.98000000,0.27744700,0.77759600,-0.22961800,-0.47545000,0.84738100,0.40014100,0.04635500,0.27819000,-0.77841100,0.22883900,-0.47379600,-0.84847100,0.40059700,-0.04655900
4.00000000,0.27744666,0.77759151,-0.22961679,-0.47543806,0.84737331,0.40013755,0.04635461,0.27818975,-0.77840643,0.22883786,-0.47378445,-0.84846331,0.40059355,-0.04655856
4.02000000,0.27744434,0.77756063,-0.22960849,-0.47535594,0.84732038,0.40011380,0.04635191,0.27818800,-0.77837503,0.22883004,-0.47370499,-0.84841041,0.40056980,-0.04655551
4.04000000,0.27743816,0.77747845,-0.22958638,-0.47513737,0.84717951,0.40005059,0.04634474,0.27818335,-0.77829143,0.22880923,-0.47349348,-0.84826962,0.40050659,-0.04654739
4.06000000,0.27742637,0.77732161,-0.22954420,-0.47472026,0.84691068,0.39992996,0.04633105,0.27817448,-0.77813190,0.22876952,-0.47308986,-0.84800093,0.40038596,-0.04653189
4.08000000,0.27740732,0.77706831,-0.22947607,-0.47404663,0.84647652,0.39973514,0.04630895,0.27816016,-0.77787426,0.22870538,-0.47243802,-0.84756700,0.40019114,-0.04650687
4.10000000,0.27737949,0.77669827,-0.22937654,-0.47306251,0.84584225,0.39945054,0.04627665,0.27813923,-0.77749787,0.22861169,-0.47148572,-0.84693307,0.39990653,-0.04647031
4.12000000,0.27734147,0.77619266,-0.22924055,-0.47171786,0.84497561,0.39906166,0.04623253,0.27811064,-0.77698359,0.22848366,-0.47018456,-0.84606690,0.39951766,-0.04642036
4.14000000,0.27729195,0.77553411,-0.22906342,-0.46996647,0.84384683,0.39855516,0.04617506,0.27807340,-0.77631375,0.22831691,-0.46848981,-0.84493873,0.39901115,-0.04635530
4.16000000,0.27722973,0.77470666,-0.22884087,-0.46776588,0.84242854,0.39791875,0.04610285,0.27802661,-0.77547211,0.22810739,-0.46636039,-0.84352120,0.39837474,-0.04627356
4.18000000,0.27715371,0.77369572,-0.22856896,-0.46507733,0.84069574,0.39714122,0.04601462,0.27796944,-0.77444383,0.22785142,-0.46375878,-0.84178934,0.39759721,-0.04617369
4.20000000,0.27706290,0.77248806,-0.22824414,-0.46186558,0.83862575,0.39621238,0.04590923,0.27790115,-0.77321546,0.22754562,-0.46065090,-0.83972046,0.39666837,-0.04605438
4.22000000,0.27695639,0.77107174,-0.22786320,-0.45809892,0.83619811,0.39512306,0.04578562,0.27782106,-0.77177485,0.22718700,-0.45700606,-0.83729413,0.39557904,-0.04591446
4.24000000,0.27683340,0.76943611,-0.22742328,-0.45374903,0.83339458,0.39386507,0.04564288,0.27772857,-0.77011118,0.22677285,-0.45279685,-0.83449210,0.39432105,-0.04575288
4.26000000,0.27669320,0.76757179,-0.22692184,-0.44879090,0.83019903,0.39243117,0.04548018,0.27762314,-0.76821488,0.22630078,-0.44799907,-0.83129827,0.39288715,-0.04556870
4.28000000,0.27653520,0.76547057,-0.22635669,-0.44320277,0.82659744,0.39081508,0.04529681,0.27750432,-0.76607762,0.22576873,-0.44259166,-0.82769862,0.39127105,-0.04536112
4.30000000,0.27635885,0.76312545,-0.22572593,-0.43696599,0.82257780,0.38901140,0.04509215,0.27737170,-0.76369228,0.22517493,-0.43655658,-0.82368114,0.38946737,-0.04512944
4.32000000,0.27616372,0.76053057,-0.22502800,-0.43006499,0.81813006,0.38701563,0.04486569,0.27722497,-0.76105290,0.22451788,-0.42987876,-0.81923579,0.38747159,-0.04487309
4.34000000,0.27594946,0.75768119,-0.22426162,-0.42248715,0.81324609,0.38482411,0.04461702,0.27706384,-0.75815466,0.22379640,-0.42254600,-0.81435445,0.38528007,-0.04459160
4.36000000,0.27571578,0.75457365,-0.22342580,-0.41422273,0.80791962,0.38243404,0.04434582,0.27688811,-0.75499382,0.22300954,-0.41454886,-0.80903084,0.38288999,-0.04428461
4.38000000,0.27546249,0.75120533,-0.22251985,-0.40526480,0.80214618,0.37984340,0.04405187,0.27669763,-0.75156774,0.22215665,-0.40588063,-0.80326050,0.38029934,-0.04395185
4.40000000,0.27518947,0.74757465,-0.22154332,-0.39560911,0.79592302,0.37705097,0.04373502,0.27649232,-0.74787480,0.22123733,-0.39653721,-0.79704069,0.37750690,-0.04359317
4.42000000,0.27489668,0.74368099,-0.22049607,-0.38525405,0.78924911,0.37405628,0.04339522,0.27627214,-0.74391437,0.22025143,-0.38651703,-0.79037037,0.37451220,-0.04320851
4.44000000,0.27458413,0.73952470,-0.21937817,-0.37420051,0.78212504,0.37085959,0.04303249,0.27603710,-0.73968680,0.21919902,-0.37582098,-0.78325013,0.37131551,-0.04279791
4.46000000,0.27425194,0.73510703,-0.21818998,-0.36245186,0.77455295,0.36746187,0.04264696,0.27578729,-0.73519337,0.21808043,-0.36445228,-0.77568212,0.36791778,-0.04236148
4.48000000,0.27390024,0.73043014,-0.21693206,-0.35001380,0.76653654,0.36386478,0.04223880,0.27552282,-0.73043627,0.21689620,-0.35241648,-0.76767002,0.36432067,-0.04189945
4.50000000,0.27352929,0.72549702,-0.21560522,-0.33689431,0.75808094,0.36007061,0.04180829,0.27524385,-0.72541855,0.21564709,-0.33972127,-0.75921896,0.36052650,-0.04141210
4.52000000,0.27313935,0.72031148,-0.21421050,-0.32310354,0.74919269,0.35608231,0.04135574,0.27495062,-0.72014408,0.21433406,-0.32637650,-0.75033550,0.35653819,-0.04089982
4.54000000,0.27273077,0.71487815,-0.21274912,-0.30865374,0.73987970,0.35190342,0.04088157,0.27464337,-0.71461757,0.21295830,-0.31239402,-0.74102752,0.35235928,-0.04036306
4.56000000,0.27230397,0.70920237,-0.21122254,-0.29355917,0.73015116,0.34753807,0.04038624,0.27432241,-0.70884445,0.21152114,-0.29778762,-0.73130420,0.34799391,-0.03980234
4.58000000,0.27185939,0.70329023,-0.20963238,-0.27783602,0.72001748,0.34299092,0.03987029,0.27398808,-0.70283092,0.21002413,-0.28257296,-0.72117597,0.34344676,-0.03921828
4.60000000,0.27139755,0.69714850,-0.20798048,-0.26150228,0.70949027,0.33826719,0.03933429,0.27364077,-0.69658387,0.20846900,-0.26676746,-0.71065443,0.33872302,-0.03861153
4.62000000,0.27091900,0.69078462,-0.20626882,-0.24457771,0.69858228,0.33337260,0.03877891,0.27328090,-0.69011084,0.20685760,-0.25039024,-0.69975230,0.33382841,-0.03798284
4.64000000,0.27042435,0.68420662,-0.20449957,-0.22708373,0.68730729,0.32831333,0.03820485,0.27290892,-0.68342004,0.20519200,-0.23346202,-0.68848337,0.32876912,-0.03733300
4.66000000,0.26991425,0.67742316,-0.20267506,-0.20904331,0.67568012,0.32309603,0.03761285,0.27252532,-0.67652024,0.20347437,-0.21600504,-0.67686246,0.32355181,-0.03666285
4.68000000,0.26938939,0.67044343,-0.20079776,-0.19048092,0.66371654,0.31772777,0.03700372,0.27213063,-0.66942081,0.20170704,-0.19804298,-0.66490531,0.31818354,-0.03597332
4.70000000,0.26885051,0.66327715,-0.19887028,-0.17142243,0.65143322,0.31221605,0.03637832,0.27172538,-0.66213164,0.19989248,-0.17960084,-0.65262859,0.31267180,-0.03526536
4.72000000,0.26829836,0.65593455,-0.19689538,-0.15189500,0.63884766,0.30656870,0.03573753,0.27131016,-0.65466312,0.19803327,-0.16070494,-0.64004980,0.30702444,-0.03453998
4.74000000,0.26773376,0.64842630,-0.19487593,-0.13192702,0.62597816,0.30079395,0.03508228,0.27088558,-0.64702610,0.19613211,-0.14138274,-0.62718723,0.30124967,-0.03379823
4.76000000,0.26715753,0.64076349,-0.19281491,-0.11154803,0.61284377,0.29490033,0.03441354,0.27045225,-0.63923188,0.19419182,-0.12166281,-0.61405990,0.29535603,-0.03304122
4.78000000,0.26657055,0.63295764,-0.19071541,-0.09078859,0.59946417,0.28889669,0.03373232,0.27001084,-0.63129216,0.19221531,-0.10157474,-0.60068749,0.28935237,-0.03227007
4.80000000,0.26597371,0.62502059,-0.18858062,-0.06968023,0.58585969,0.28279214,0.03303964,0.26956201,-0.62321899,0.19020558,-0.08114904,-0.58709033,0.28324781,-0.03148597
4.82000000,0.26536791,0.61696452,-0.18641383,-0.04825537,0.57205123,0.27659606,0.03233659,0.26910645,-0.61502477,0.18816572,-0.06041707,-0.57328929,0.27705171,-0.03069010
4.84000000,0.26475410,0.60880192,-0.18421838,-0.02654718,0.55806016,0.27031804,0.03162423,0.26864486,-0.60672219,0.18609888,-0.03941094,-0.55930575,0.27077367,-0.02988371
4.86000000,0.26413324,0.60054553,-0.18199770,-0.00458956,0.54390833,0.26396788,0.03090369,0.26817797,-0.59832421,0.18400829,-0.01816344,-0.54516153,0.26442349,-0.02906806
4.88000000,0.26350631,0.59220833,-0.17975529,0.01758298,0.52961797,0.25755557,0.03017610,0.26770651,-0.58984402,0.18189723,0.00329203,-0.53087886,0.25801116,-0.02824442
4.90000000,0.26287428,0.58380348,-0.17749468,0.03993544,0.51521166,0.25109122,0.02944260,0.26723122,-0.58129503,0.17976905,0.02492160,-0.51648030,0.25154680,-0.02741410
4.92000000,0.26223817,0.57534431,-0.17521947,0.06243235,0.50071226,0.24458510,0.02870436,0.26675286,-0.57269079,0.17762712,0.04669095,-0.50198869,0.24504066,-0.02657841
4.94000000,0.26159899,0.56684428,-0.17293326,0.08503791,0.48614283,0.23804756,0.02796256,0.26627219,-0.56404500,0.17547484,0.06856543,-0.48742709,0.23850310,-0.02573869
4.96000000,0.26095776,0.55831697,-0.17063972,0.10771604,0.47152662,0.23148904,0.02721838,0.26578998,-0.55537145,0.17331565,0.09051014,-0.47281875,0.23194455,-0.02489627
4.98000000,0.26031550,0.54977600,-0.16834250,0.13043050,0.45688700,0.22492000,0.02647300,0.26530700,-0.54668400,0.17115300,0.11249000,-0.45818700,0.22537550,-0.02405250
5.00000000,0.25967324,0.54123503,-0.16604528,0.15314496,0.44224738,0.21835096,0.02572762,0.26482402,-0.53799655,0.16899035,0.13446986,-0.44355525,0.21880645,-0.02320873
5.02000000,0.25903201,0.53270772,-0.16375174,0.17582309,0.42763117,0.21179244,0.02498344,0.26434181,-0.52932300,0.16683116,0.15641457,-0.42894691,0.21224790,-0.02236631
5.04000000,0.25839283,0.52420769,-0.16146553,0.19842865,0.41306174,0.20525490,0.02424164,0.26386114,-0.52067721,0.16467888,0.17828905,-0.41438531,0.20571034,-0.02152659
5.06000000,0.25775672,0.51574852,-0.15919032,0.22092556,0.39856234,0.19874878,0.02350340,0.26338278,-0.51207297,0.16253695,0.20005840,-0.39989370,0.19920420,-0.02069090
5.08000000,0.25712469,0.50734367,-0.15692971,0.24327802,0.38415603,0.19228443,0.02276990,0.26290749,-0.50352398,0.16040877,0.22168797,-0.38549514,0.19273984,-0.01986058
5.10000000,0.25649776,0.49900647,-0.15468730,0.26545056,0.36986567,0.18587212,0.02204231,0.26243603,-0.49504379,0.15829771,0.24314344,-0.37121247,0.18632751,-0.01903694
5.12000000,0.25587690,0.49075008,-0.15246662,0.28740818,0.35571384,0.17952196,0.02132177,0.26196914,-0.48664581,0.15620712,0.26439094,-0.35706825,0.17997733,-0.01822129
5.14000000,0.25526309,0.48258748,-0.15027117,0.30911637,0.34172277,0.17324394,0.02060941,0.26150755,-0.47834323,0.15414028,0.28539707,-0.34308471,0.17369929,-0.01741490
5.16000000,0.25465729,0.47453141,-0.14810438,0.33054123,0.32791431,0.16704786,0.01990636,0.26105199,-0.47014901,0.15210042,0.30612904,-0.32928367,0.16750319,-0.01661903
5.18000000,0.25406045,0.46659436,-0.14596959,0.35164959,0.31430983,0.16094331,0.01921368,0.26060316,-0.46207584,0.15009069,0.32655474,-0.31568651,0.16139863,-0.01583493
5.20000000,0.25347347,0.45878851,-0.14387009,0.37240903,0.30093023,0.15493967,0.01853246,0.26016175,-0.45413612,0.14811418,0.34664281,-0.30231410,0.15539497,-0.01506378
5.22000000,0.25289724,0.45112570,-0.14180907,0.39278802,0.28779584,0.14904605,0.01786372,0.25972842,-0.44634190,0.14617389,0.36636274,-0.28918677,0.14950133,-0.01430677
5.24000000,0.25233264,0.44361745,-0.13978962,0.41275600,0.27492634,0.14327130,0.01720847,0.25930384,-0.43870488,0.14427273,0.38568494,-0.27632420,0.14372656,-0.01356502
5.26000000,0.25178049,0.43627485,-0.13781472,0.43228343,0.26234078,0.13762395,0.01656768,0.25888862,-0.43123636,0.14241352,0.40458084,-0.26374541,0.13807920,-0.01283964
5.28000000,0.25124161,0.42910857,-0.13588724,0.45134192,0.25005746,0.13211223,0.01594228,0.25848337,-0.42394719,0.14059896,0.42302298,-0.25146869,0.13256746,-0.01213168
5.30000000,0.25071675,0.42212884,-0.13400994,0.46990431,0.23809388,0.12674397,0.01533315,0.25808868,-0.41684776,0.13883163,0.44098504,-0.23951154,0.12719919,-0.01144215
5.32000000,0.25020665,0.41534538,-0.13218543,0.48794473,0.22646671,0.12152667,0.01474115,0.25770508,-0.40994796,0.13711400,0.45844202,-0.22789063,0.12198188,-0.01077200
5.34000000,0.24971200,0.40876738,-0.13041618,0.50543871,0.21519172,0.11646740,0.01416709,0.25733310,-0.40325716,0.13544840,0.47537024,-0.21662170,0.11692259,-0.01012216
5.36000000,0.24923345,0.40240350,-0.12870452,0.52236328,0.20428373,0.11157281,0.01361171,0.25697323,-0.39678413,0.13383700,0.49174746,-0.20571957,0.11202798,-0.00949347
5.38000000,0.24877161,0.39626177,-0.12705262,0.53869702,0.19375652,0.10684908,0.01307571,0.25662592,-0.39053708,0.13228187,0.50755296,-0.19519803,0.10730424,-0.00888672
5.40000000,0.24832703,0.39034963,-0.12546246,0.55442017,0.18362284,0.10230193,0.01255976,0.25629159,-0.38452355,0.13078486,0.52276762,-0.18506980,0.10275709,-0.00830266
5.42000000,0.24790023,0.38467385,-0.12393588,0.56951474,0.17389430,0.09793658,0.01206443,0.25597063,-0.37875043,0.12934770,0.53737402,-0.17534648,0.09839172,-0.00774194
5.44000000,0.24749165,0.37924052,-0.12247450,0.58396454,0.16458131,0.09375769,0.01159026,0.25566338,-0.37322392,0.12797194,0.55135650,-0.16603850,0.09421281,-0.00720518
5.46000000,0.24710171,0.37405498,-0.12107978,0.59775531,0.15569306,0.08976939,0.01113771,0.25537015,-0.36794945,0.12665891,0.56470127,-0.15715504,0.09022450,-0.00669290
5.48000000,0.24673076,0.36912186,-0.11975294,0.61087480,0.14723746,0.08597522,0.01070720,0.25509118,-0.36293173,0.12540980,0.57739648,-0.14870398,0.08643033,-0.00620555
5.50000000,0.24637906,0.36444497,-0.11849502,0.62331286,0.13922105,0.08237813,0.01029904,0.25482671,-0.35817463,0.12422557,0.58943228,-0.14069188,0.08283322,-0.00574352
5.52000000,0.24604687,0.36002730,-0.11730683,0.63506151,0.13164896,0.07898041,0.00991351,0.25457690,-0.35368120,0.12310698,0.60080098,-0.13312387,0.07943549,-0.00530709
5.54000000,0.24573432,0.35587101,-0.11618893,0.64611505,0.12452489,0.07578372,0.00955078,0.25434186,-0.34945363,0.12205457,0.61149703,-0.12600363,0.07623880,-0.00489649
5.56000000,0.24544153,0.35197735,-0.11514168,0.65647011,0.11785098,0.07278903,0.00921098,0.25412168,-0.34549320,0.12106867,0.62151721,-0.11933331,0.07324410,-0.00451183
5.58000000,0.24516851,0.34834667,-0.11416515,0.66612580,0.11162782,0.06999660,0.00889413,0.25391637,-0.34180026,0.12014935,0.63086063,-0.11311350,0.07045166,-0.00415315
5.60000000,0.24491522,0.34497835,-0.11325920,0.67508373,0.10585438,0.06740596,0.00860018,0.25372589,-0.33837418,0.11929646,0.63952886,-0.10734316,0.06786101,-0.00382039
5.62000000,0.24468154,0.34187081,-0.11242338,0.68334815,0.10052791,0.06501589,0.00832898,0.25355016,-0.33521334,0.11850960,0.64752600,-0.10201955,0.06547093,-0.00351340
5.64000000,0.24446728,0.33902143,-0.11165700,0.69092599,0.09564394,0.06282437,0.00808031,0.25338903,-0.33231510,0.11778812,0.65485876,-0.09713821,0.06327941,-0.00323191
5.66000000,0.24427215,0.33642655,-0.11095907,0.69782699,0.09119620,0.06082860,0.00785385,0.25324230,-0.32967572,0.11713107,0.66153658,-0.09269286,0.06128363,-0.00297556
5.68000000,0.24409580,0.33408143,-0.11032831,0.70406377,0.08717656,0.05902492,0.00764919,0.25310968,-0.32729038,0.11653727,0.66757166,-0.08867538,0.05947995,-0.00274388
5.70000000,0.24393780,0.33198021,-0.10976316,0.70965190,0.08357497,0.05740883,0.00746582,0.25299086,-0.32515312,0.11600522,0.67297907,-0.08507573,0.05786385,-0.00253630
5.72000000,0.24379760,0.33011589,-0.10926172,0.71461003,0.08037942,0.05597493,0.00730312,0.25288543,-0.32325682,0.11553315,0.67777685,-0.08188190,0.05642995,-0.00235212
5.74000000,0.24367461,0.32848026,-0.10882180,0.71895992,0.07757589,0.05471694,0.00716038,0.25279294,-0.32159315,0.11511900,0.68198606,-0.07907987,0.05517196,-0.00219054
5.76000000,0.24356810,0.32706394,-0.10844086,0.72272658,0.07514825,0.05362762,0.00703677,0.25271285,-0.32015254,0.11476038,0.68563090,-0.07665354,0.05408263,-0.00205062
5.78000000,0.24347729,0.32585628,-0.10811604,0.72593833,0.07307826,0.05269878,0.00693138,0.25264456,-0.31892417,0.11445458,0.68873878,-0.07458466,0.05315379,-0.00193131
5.80000000,0.24340127,0.32484534,-0.10784413,0.72862688,0.07134546,0.05192125,0.00684315,0.25258739,-0.31789589,0.11419861,0.69134039,-0.07285280,0.05237626,-0.00183144
5.82000000,0.24333905,0.32401789,-0.10762158,0.73082747,0.06992717,0.05128484,0.00677094,0.25254060,-0.31705425,0.11398909,0.69346981,-0.07143527,0.05173985,-0.00174970
5.84000000,0.24328953,0.32335934,-0.10744445,0.73257886,0.06879839,0.05077834,0.00671347,0.25250336,-0.31638441,0.11382234,0.69516456,-0.07030710,0.05123334,-0.00168464
5.86000000,0.24325151,0.32285373,-0.10730846,0.73392351,0.06793175,0.05038946,0.00666935,0.25247477,-0.31587013,0.11369431,0.69646572,-0.06944093,0.05084447,-0.00163469
5.88000000,0.24322368,0.32248369,-0.10720893,0.73490763,0.06729748,0.05010486,0.00663705,0.25245384,-0.31549374,0.11360062,0.69741802,-0.06880700,0.05055986,-0.00159813
5.90000000,0.24320463,0.32223039,-0.10714080,0.73558126,0.06686332,0.04991004,0.00661495,0.25243952,-0.31523610,0.11353648,0.69806986,-0.06837307,0.05036504,-0.00157311
5.92000000,0.24319284,0.32207355,-0.10709862,0.73599837,0.06659449,0.04978941,0.00660126,0.25243065,-0.31507657,0.11349677,0.69847348,-0.06810438,0.05024441,-0.00155761
5.94000000,0.24318666,0.32199137,-0.10707651,0.73621694,0.06645362,0.04972620,0.00659409,0.25242600,-0.31499297,0.11347596,0.69868499,-0.06796359,0.05018120,-0.00154949
5.96000000,0.24318434,0.32196049,-0.10706821,0.73629906,0.06640069,0.04970245,0.00659139,0.25242425,-0.31496157,0.11346814,0.69876445,-0.06791069,0.05015745,-0.00154644
5.98000000,0.24318400,0.32195600,-0.10706700,0.73631100,0.06639300,0.04969900,0.00659100,0.25242400,-0.31495700,0.11346700,0.69877600,-0.06790300,0.05015400,-0.00154600
6.00000000,0.24318400,0.32195600,-0.10706700,0.73631100,0.06639300,0.04969900,0.00659100,0.25242400,-0.31495700,0.11346700,0.69877600,-0.06790300,0.05015400,-0.00154600
6.02000000,0.24318400,0.32195600,-0.10706700,0.73631100,0.06639300,0.04969900,0.00659100,0.25242400,-0.31495700,0.11346700,0.69877600,-0.06790300,0.05015400,-0.00154600
6.04000000,0.24318400,0.32195600,-0.10706700,0.73631100,0.06639300,0.04969900,0.00659100,0.25242400,-0.31495700,0.11346700,0.69877600,-0.06790300,0.05015400,-0.00154600
6.06000000,0.24318400,0.32195600,-0.10706700,0.73631100,0.06639300,0.04969900,0.00659100,0.25242400,-0.31495700,0.11346700,0.69877600,-0.06790300,0.05015400,-0.00154600
6.08000000,0.24318400,0.32195600,-0.10706700,0.73631100,0.06639300,0.04969900,0.00659100,0.25242400,-0.31495700,0.11346700,0.69877600,-0.06790300,0.05015400,-0.00154600
6.10000000,0.24318400,0.32195600,-0.10706700,0.73631100,0.06639300,0.04969900,0.00659100,0.25242400,-0.31495700,0.11346700,0.69877600,-0.06790300,0.05015400,-0.00154600
6.12000000,0.24318400,0.32195600,-0.10706700,0.73631100,0.06639300,0.04969900,0.00659100,0.25242400,-0.31495700,0.11346700,0.69877600,-0.06790300,0.05015400,-0.00154600
6.14000000,0.24318400,0.32195600,-0.10706700,0.73631100,0.06639300,0.04969900,0.00659100,0.25242400,-0.31495700,0.11346700,0.69877600,-0.06790300,0.05015400,-0.00154600
6.16000000,0.24318400,0.32195600,-0.10706700,0.73631100,0.06639300,0.04969900,0.00659100,0.25242400,-0.31495700,0.11346700,0.69877600,-0.06790300,0.05015400,-0.00154600
6.18000000,0.24318400,0.32195600,-0.10706700,0.73631100,0.06639300,0.04969900,0.00659100,0.25242400,-0.31495700,0.11346700,0.69877600,-0.06790300,0.05015400,-0.00154600
6.20000000,0.24318400,0.32195600,-0.10706700,0.73631100,0.06639300,0.04969900,0.00659100,0.25242400,-0.31495700,0.11346700,0.69877600,-0.06790300,0.05015400,-0.00154600
6.22000000,0.24318400,0.32195600,-0.10706700,0.73631100,0.06639300,0.04969900,0.00659100,0.25242400,-0.31495700,0.11346700,0.69877600,-0.06790300,0.05015400,-0.00154600
6.24000000,0.24318400,0.32195600,-0.10706700,0.73631100,0.06639300,0.04969900,0.00659100,0.25242400,-0.31495700,0.11346700,0.69877600,-0.06790300,0.05015400,-0.00154600
6.26000000,0.24318400,0.32195600,-0.10706700,0.73631100,0.06639300,0.04969900,0.00659100,0.25242400,-0.31495700,0.11346700,0.69877600,-0.06790300,0.05015400,-0.00154600
6.28000000,0.24318400,0.32195600,-0.10706700,0.73631100,0.06639300,0.04969900,0.00659100,0.25242400,-0.31495700,0.11346700,0.69877600,-0.06790300,0.05015400,-0.00154600
6.30000000,0.24318400,0.32195600,-0.10706700,0.73631100,0.06639300,0.04969900,0.00659100,0.25242400,-0.31495700,0.11346700,0.69877600,-0.06790300,0.05015400,-0.00154600
6.32000000,0.24318400,0.32195600,-0.10706700,0.73631100,0.06639300,0.04969900,0.00659100,0.25242400,-0.31495700,0.11346700,0.69877600,-0.06790300,0.05015400,-0.00154600
6.34000000,0.24318400,0.32195600,-0.10706700,0.73631100,0.06639300,0.04969900,0.00659100,0.25242400,-0.31495700,0.11346700,0.69877600,-0.06790300,0.05015400,-0.00154600
6.36000000,0.24318400,0.32195600,-0.10706700,0.73631100,0.06639300,0.04969900,0.00659100,0.25242400,-0.31495700,0.11346700,0.69877600,-0.06790300,0.05015400,-0.00154600
6.38000000,0.24318400,0.32195600,-0.10706700,0.73631100,0.06639300,0.04969900,0.00659100,0.25242400,-0.31495700,0.11346700,0.69877600,-0.06790300,0.05015400,-0.00154600
6.40000000,0.24318400,0.32195600,-0.10706700,0.73631100,0.06639300,0.04969900,0.00659100,0.25242400,-0.31495700,0.11346700,0.69877600,-0.06790300,0.05015400,-0.00154600
6.42000000,0.24318400,0.32195600,-0.10706700,0.73631100,0.06639300,0.04969900,0.00659100,0.25242400,-0.31495700,0.11346700,0.69877600,-0.06790300,0.05015400,-0.00154600
6.44000000,0.24318400,0.32195600,-0.10706700,0.73631100,0.06639300,0.04969900,0.00659100,0.25242400,-0.31495700,0.11346700,0.69877600,-0.06790300,0.05015400,-0.00154600
6.46000000,0.24318400,0.32195600,-0.10706700,0.73631100,0.06639300,0.04969900,0.00659100,0.25242400,-0.31495700,0.11346700,0.69877600,-0.06790300,0.05015400,-0.00154600
6.48000000,0.24318400,0.32195600,-0.10706700,0.73631100,0.06639300,0.04969900,0.00659100,0.25242400,-0.31495700,0.11346700,0.69877600,-0.06790300,0.05015400,-0.00154600
6.50000000,0.24318400,0.32195600,-0.10706700,0.73631100,0.06639300,0.04969900,0.00659100,0.25242400,-0.31495700,0.11346700,0.69877600,-0.06790300,0.05015400,-0.00154600
6.52000000,0.24318400,0.32195600,-0.10706700,0.73631100,0.06639300,0.04969900,0.00659100,0.25242400,-0.31495700,0.11346700,0.69877600,-0.06790300,0.05015400,-0.00154600
6.54000000,0.24318400,0.32195600,-0.10706700,0.73631100,0.06639300,0.04969900,0.00659100,0.25242400,-0.31495700,0.11346700,0.69877600,-0.06790300,0.05015400,-0.00154600
6.56000000,0.24318400,0.32195600,-0.10706700,0.73631100,0.06639300,0.04969900,0.00659100,0.25242400,-0.31495700,0.11346700,0.69877600,-0.06790300,0.05015400,-0.00154600
6.58000000,0.24318400,0.32195600,-0.10706700,0.73631100,0.06639300,0.04969900,0.00659100,0.25242400,-0.31495700,0.11346700,0.69877600,-0.06790300,0.05015400,-0.00154600
6.60000000,0.24318400,0.32195600,-0.10706700,0.73631100,0.06639300,0.04969900,0.00659100,0.25242400,-0.31495700,0.11346700,0.69877600,-0.06790300,0.05015400,-0.00154600
6.62000000,0.24318400,0.32195600,-0.10706700,0.73631100,0.06639300,0.04969900,0.00659100,0.25242400,-0.31495700,0.11346700,0.69877600,-0.06790300,0.05015400,-0.00154600
6.64000000,0.24318400,0.32195600,-0.10706700,0.73631100,0.06639300,0.04969900,0.00659100,0.25242400,-0.31495700,0.11346700,0.69877600,-0.06790300,0.05015400,-0.00154600
6.66000000,0.24318400,0.32195600,-0.10706700,0.73631100,0.06639300,0.04969900,0.00659100,0.25242400,-0.31495700,0.11346700,0.69877600,-0.06790300,0.05015400,-0.00154600
6.68000000,0.24318400,0.32195600,-0.10706700,0.73631100,0.06639300,0.04969900,0.00659100,0.25242400,-0.31495700,0.11346700,0.69877600,-0.06790300,0.05015400,-0.00154600
6.70000000,0.24318400,0.32195600,-0.10706700,0.73631100,0.06639300,0.04969900,0.00659100,0.25242400,-0.31495700,0.11346700,0.69877600,-0.06790300,0.05015400,-0.00154600
6.72000000,0.24318400,0.32195600,-0.10706700,0.73631100,0.06639300,0.04969900,0.00659100,0.25242400,-0.31495700,0.11346700,0.69877600,-0.06790300,0.05015400,-0.00154600
6.74000000,0.24318400,0.32195600,-0.10706700,0.73631100,0.06639300,0.04969900,0.00659100,0.25242400,-0.31495700,0.11346700,0.69877600,-0.06790300,0.05015400,-0.00154600
6.76000000,0.24318400,0.32195600,-0.10706700,0.73631100,0.06639300,0.04969900,0.00659100,0.25242400,-0.31495700,0.11346700,0.69877600,-0.06790300,0.05015400,-0.00154600
6.78000000,0.24318400,0.32195600,-0.10706700,0.73631100,0.06639300,0.04969900,0.00659100,0.25242400,-0.31495700,0.11346700,0.69877600,-0.06790300,0.05015400,-0.00154600
6.80000000,0.24318400,0.32195600,-0.10706700,0.73631100,0.06639300,0.04969900,0.00659100,0.25242400,-0.31495700,0.11346700,0.69877600,-0.06790300,0.05015400,-0.00154600
6.82000000,0.24318400,0.32195600,-0.10706700,0.73631100,0.06639300,0.04969900,0.00659100,0.25242400,-0.31495700,0.11346700,0.69877600,-0.06790300,0.05015400,-0.00154600
6.84000000,0.24318400,0.32195600,-0.10706700,0.73631100,0.06639300,0.04969900,0.00659100,0.25242400,-0.31495700,0.11346700,0.69877600,-0.06790300,0.05015400,-0.00154600
6.86000000,0.24318400,0.32195600,-0.10706700,0.73631100,0.06639300,0.04969900,0.00659100,0.25242400,-0.31495700,0.11346700,0.69877600,-0.06790300,0.05015400,-0.00154600
6.88000000,0.24318400,0.32195600,-0.10706700,0.73631100,0.06639300,0.04969900,0.00659100,0.25242400,-0.31495700,0.11346700,0.69877600,-0.06790300,0.05015400,-0.00154600
6.90000000,0.24318400,0.32195600,-0.10706700,0.73631100,0.06639300,0.04969900,0.00659100,0.25242400,-0.31495700,0.11346700,0.69877600,-0.06790300,0.05015400,-0.00154600
6.92000000,0.24318400,0.32195600,-0.10706700,0.73631100,0.06639300,0.04969900,0.00659100,0.25242400,-0.31495700,0.11346700,0.69877600,-0.06790300,0.05015400,-0.00154600
6.94000000,0.24318400,0.32195600,-0.10706700,0.73631100,0.06639300,0.04969900,0.00659100,0.25242400,-0.31495700,0.11346700,0.69877600,-0.06790300,0.05015400,-0.00154600
6.96000000,0.24318400,0.32195600,-0.10706700,0.73631100,0.06639300,0.04969900,0.00659100,0.25242400,-0.31495700,0.11346700,0.69877600,-0.06790300,0.05015400,-0.00154600
6.98000000,0.24318400,0.32195600,-0.10706700,0.73631100,0.06639300,0.04969900,0.00659100,0.25242400,-0.31495700,0.11346700,0.69877600,-0.06790300,0.05015400,-0.00154600
7.00000000,0.24318400,0.32195600,-0.10706700,0.73631100,0.06639300,0.04969900,0.00659100,0.25242400,-0.31495700,0.11346700,0.69877600,-0.06790300,0.05015400,-0.00154600
7.02000000,0.24318400,0.32195600,-0.10706700,0.73631100,0.06639300,0.04969900,0.00659100,0.25242400,-0.31495700,0.11346700,0.69877600,-0.06790300,0.05015400,-0.00154600
7.04000000,0.24318400,0.32195600,-0.10706700,0.73631100,0.06639300,0.04969900,0.00659100,0.25242400,-0.31495700,0.11346700,0.69877600,-0.06790300,0.05015400,-0.00154600
7.06000000,0.24318400,0.32195600,-0.10706700,0.73631100,0.06639300,0.04969900,0.00659100,0.25242400,-0.31495700,0.11346700,0.69877600,-0.06790300,0.05015400,-0.00154600
7.08000000,0.24318400,0.32195600,-0.10706700,0.73631100,0.06639300,0.04969900,0.00659100,0.25242400,-0.31495700,0.11346700,0.69877600,-0.06790300,0.05015400,-0.00154600
7.10000000,0.24318400,0.32195600,-0.10706700,0.73631100,0.06639300,0.04969900,0.00659100,0.25242400,-0.31495700,0.11346700,0.69877600,-0.06790300,0.05015400,-0.00154600
7.12000000,0.24318400,0.32195600,-0.10706700,0.73631100,0.06639300,0.04969900,0.00659100,0.25242400,-0.31495700,0.11346700,0.69877600,-0.06790300,0.05015400,-0.00154600
7.14000000,0.24318400,0.32195600,-0.10706700,0.73631100,0.06639300,0.04969900,0.00659100,0.25242400,-0.31495700,0.11346700,0.69877600,-0.06790300,0.05015400,-0.00154600
7.16000000,0.24318400,0.32195600,-0.10706700,0.73631100,0.06639300,0.04969900,0.00659100,0.25242400,-0.31495700,0.11346700,0.69877600,-0.06790300,0.05015400,-0.00154600
7.18000000,0.24318400,0.32195600,-0.10706700,0.73631100,0.06639300,0.04969900,0.00659100,0.25242400,-0.31495700,0.11346700,0.69877600,-0.06790300,0.05015400,-0.00154600
7.20000000,0.24318400,0.32195600,-0.10706700,0.73631100,0.06639300,0.04969900,0.00659100,0.25242400,-0.31495700,0.11346700,0.69877600,-0.06790300,0.05015400,-0.00154600
7.22000000,0.24318400,0.32195600,-0.10706700,0.73631100,0.06639300,0.04969900,0.00659100,0.25242400,-0.31495700,0.11346700,0.69877600,-0.06790300,0.05015400,-0.00154600
7.24000000,0.24318400,0.32195600,-0.10706700,0.73631100,0.06639300,0.04969900,0.00659100,0.25242400,-0.31495700,0.11346700,0.69877600,-0.06790300,0.05015400,-0.00154600
7.26000000,0.24318400,0.32195600,-0.10706700,0.73631100,0.06639300,0.04969900,0.00659100,0.25242400,-0.31495700,0.11346700,0.69877600,-0.06790300,0.05015400,-0.00154600
7.28000000,0.24318400,0.32195600,-0.10706700,0.73631100,0.06639300,0.04969900,0.00659100,0.25242400,-0.31495700,0.11346700,0.69877600,-0.06790300,0.05015400,-0.00154600
7.30000000,0.24318400,0.32195600,-0.10706700,0.73631100,0.06639300,0.04969900,0.00659100,0.25242400,-0.31495700,0.11346700,0.69877600,-0.06790300,0.05015400,-0.00154600
7.32000000,0.24318400,0.32195600,-0.10706700,0.73631100,0.06639300,0.04969900,0.00659100,0.25242400,-0.31495700,0.11346700,0.69877600,-0.06790300,0.05015400,-0.00154600
7.34000000,0.24318400,0.32195600,-0.10706700,0.73631100,0.06639300,0.04969900,0.00659100,0.25242400,-0.31495700,0.11346700,0.69877600,-0.06790300,0.05015400,-0.00154600
7.36000000,0.24318400,0.32195600,-0.10706700,0.73631100,0.06639300,0.04969900,0.00659100,0.25242400,-0.31495700,0.11346700,0.69877600,-0.06790300,0.05015400,-0.00154600
7.38000000,0.24318400,0.32195600,-0.10706700,0.73631100,0.06639300,0.04969900,0.00659100,0.25242400,-0.31495700,0.11346700,0.69877600,-0.06790300,0.05015400,-0.00154600
7.40000000,0.24318400,0.32195600,-0.10706700,0.73631100,0.06639300,0.04969900,0.00659100,0.25242400,-0.31495700,0.11346700,0.69877600,-0.06790300,0.05015400,-0.00154600
7.42000000,0.24318400,0.32195600,-0.10706700,0.73631100,0.06639300,0.04969900,0.00659100,0.25242400,-0.31495700,0.11346700,0.69877600,-0.06790300,0.05015400,-0.00154600
7.44000000,0.24318400,0.32195600,-0.10706700,0.73631100,0.06639300,0.04969900,0.00659100,0.25242400,-0.31495700,0.11346700,0.69877600,-0.06790300,0.05015400,-0.00154600
7.46000000,0.24318400,0.32195600,-0.10706700,0.73631100,0.06639300,0.04969900,0.00659100,0.25242400,-0.31495700,0.11346700,0.69877600,-0.06790300,0.05015400,-0.00154600
7.48000000,0.24318400,0.32195600,-0.10706700,0.73631100,0.06639300,0.04969900,0.00659100,0.25242400,-0.31495700,0.11346700,0.69877600,-0.06790300,0.05015400,-0.00154600
7.50000000,0.24318400,0.32195600,-0.10706700,0.73631100,0.06639300,0.04969900,0.00659100,0.25242400,-0.31495700,0.11346700,0.69877600,-0.06790300,0.05015400,-0.00154600
7.52000000,0.24318400,0.32195600,-0.10706700,0.73631100,0.06639300,0.04969900,0.00659100,0.25242400,-0.31495700,0.11346700,0.69877600,-0.06790300,0.05015400,-0.00154600
7.54000000,0.24318400,0.32195600,-0.10706700,0.73631100,0.06639300,0.04969900,0.00659100,0.25242400,-0.31495700,0.11346700,0.69877600,-0.06790300,0.05015400,-0.00154600
7.56000000,0.24318400,0.32195600,-0.10706700,0.73631100,0.06639300,0.04969900,0.00659100,0.25242400,-0.31495700,0.11346700,0.69877600,-0.06790300,0.05015400,-0.00154600
7.58000000,0.24318400,0.32195600,-0.10706700,0.73631100,0.06639300,0.04969900,0.00659100,0.25242400,-0.31495700,0.11346700,0.69877600,-0.06790300,0.05015400,-0.00154600
7.60000000,0.24318400,0.32195600,-0.10706700,0.73631100,0.06639300,0.04969900,0.00659100,0.25242400,-0.31495700,0.11346700,0.69877600,-0.06790300,0.05015400,-0.00154600
7.62000000,0.24318400,0.32195600,-0.10706700,0.73631100,0.06639300,0.04969900,0.00659100,0.25242400,-0.31495700,0.11346700,0.69877600,-0.06790300,0.05015400,-0.00154600
7.64000000,0.24318400,0.32195600,-0.10706700,0.73631100,0.06639300,0.04969900,0.00659100,0.25242400,-0.31495700,0.11346700,0.69877600,-0.06790300,0.05015400,-0.00154600
7.66000000,0.24318400,0.32195600,-0.10706700,0.73631100,0.06639300,0.04969900,0.00659100,0.25242400,-0.31495700,0.11346700,0.69877600,-0.06790300,0.05015400,-0.00154600
7.68000000,0.24318400,0.32195600,-0.10706700,0.73631100,0.06639300,0.04969900,0.00659100,0.25242400,-0.31495700,0.11346700,0.69877600,-0.06790300,0.05015400,-0.00154600
7.70000000,0.24318400,0.32195600,-0.10706700,0.73631100,0.06639300,0.04969900,0.00659100,0.25242400,-0.31495700,0.11346700,0.69877600,-0.06790300,0.05015400,-0.00154600
7.72000000,0.24318400,0.32195600,-0.10706700,0.73631100,0.06639300,0.04969900,0.00659100,0.25242400,-0.31495700,0.11346700,0.69877600,-0.06790300,0.05015400,-0.00154600
7.74000000,0.24318400,0.32195600,-0.10706700,0.73631100,0.06639300,0.04969900,0.00659100,0.25242400,-0.31495700,0.11346700,0.69877600,-0.06790300,0.05015400,-0.00154600
7.76000000,0.24318400,0.32195600,-0.10706700,0.73631100,0.06639300,0.04969900,0.00659100,0.25242400,-0.31495700,0.11346700,0.69877600,-0.06790300,0.05015400,-0.00154600
7.78000000,0.24318400,0.32195600,-0.10706700,0.73631100,0.06639300,0.04969900,0.00659100,0.25242400,-0.31495700,0.11346700,0.69877600,-0.06790300,0.05015400,-0.00154600
7.80000000,0.24318400,0.32195600,-0.10706700,0.73631100,0.06639300,0.04969900,0.00659100,0.25242400,-0.31495700,0.11346700,0.69877600,-0.06790300,0.05015400,-0.00154600
7.82000000,0.24318400,0.32195600,-0.10706700,0.73631100,0.06639300,0.04969900,0.00659100,0.25242400,-0.31495700,0.11346700,0.69877600,-0.06790300,0.05015400,-0.00154600
7.84000000,0.24318400,0.32195600,-0.10706700,0.73631100,0.06639300,0.04969900,0.00659100,0.25242400,-0.31495700,0.11346700,0.69877600,-0.06790300,0.05015400,-0.00154600
7.86000000,0.24318400,0.32195600,-0.10706700,0.73631100,0.06639300,0.04969900,0.00659100,0.25242400,-0.31495700,0.11346700,0.69877600,-0.06790300,0.05015400,-0.00154600
7.88000000,0.24318400,0.32195600,-0.10706700,0.73631100,0.06639300,0.04969900,0.00659100,0.25242400,-0.31495700,0.11346700,0.69877600,-0.06790300,0.05015400,-0.00154600
7.90000000,0.24318400,0.32195600,-0.10706700,0.73631100,0.06639300,0.04969900,0.00659100,0.25242400,-0.31495700,0.11346700,0.69877600,-0.06790300,0.05015400,-0.00154600
7.92000000,0.24318400,0.32195600,-0.10706700,0.73631100,0.06639300,0.04969900,0.00659100,0.25242400,-0.31495700,0.11346700,0.69877600,-0.06790300,0.05015400,-0.00154600
7.94000000,0.24318400,0.32195600,-0.10706700,0.73631100,0.06639300,0.04969900,0.00659100,0.25242400,-0.31495700,0.11346700,0.69877600,-0.06790300,0.05015400,-0.00154600
7.96000000,0.24318400,0.32195600,-0.10706700,0.73631100,0.06639300,0.04969900,0.00659100,0.25242400,-0.31495700,0.11346700,0.69877600,-0.06790300,0.05015400,-0.00154600
7.98000000,0.24318400,0.32195600,-0.10706700,0.73631100,0.06639300,0.04969900,0.00659100,0.25242400,-0.31495700,0.11346700,0.69877600,-0.06790300,0.05015400,-0.00154600
8.00000000,0.24318400,0.32195600,-0.10706700,0.73631100,0.06639300,0.04969900,0.00659100,0.25242400,-0.31495700,0.11346700,0.69877600,-0.06790300,0.05015400,-0.00154600
8.02000000,0.24318400,0.32195600,-0.10706700,0.73631100,0.06639300,0.04969900,0.00659100,0.25242400,-0.31495700,0.11346700,0.69877600,-0.06790300,0.05015400,-0.00154600
8.04000000,0.24318400,0.32195600,-0.10706700,0.73631100,0.06639300,0.04969900,0.00659100,0.25242400,-0.31495700,0.11346700,0.69877600,-0.06790300,0.05015400,-0.00154600
8.06000000,0.24318400,0.32195600,-0.10706700,0.73631100,0.06639300,0.04969900,0.00659100,0.25242400,-0.31495700,0.11346700,0.69877600,-0.06790300,0.05015400,-0.00154600
8.08000000,0.24318400,0.32195600,-0.10706700,0.73631100,0.06639300,0.04969900,0.00659100,0.25242400,-0.31495700,0.11346700,0.69877600,-0.06790300,0.05015400,-0.00154600
8.10000000,0.24318400,0.32195600,-0.10706700,0.73631100,0.06639300,0.04969900,0.00659100,0.25242400,-0.31495700,0.11346700,0.69877600,-0.06790300,0.05015400,-0.00154600
8.12000000,0.24318400,0.32195600,-0.10706700,0.73631100,0.06639300,0.04969900,0.00659100,0.25242400,-0.31495700,0.11346700,0.69877600,-0.06790300,0.05015400,-0.00154600
8.14000000,0.24318400,0.32195600,-0.10706700,0.73631100,0.06639300,0.04969900,0.00659100,0.25242400,-0.31495700,0.11346700,0.69877600,-0.06790300,0.05015400,-0.00154600
8.16000000,0.24318400,0.32195600,-0.10706700,0.73631100,0.06639300,0.04969900,0.00659100,0.25242400,-0.31495700,0.11346700,0.69877600,-0.06790300,0.05015400,-0.00154600
8.18000000,0.24318400,0.32195600,-0.10706700,0.73631100,0.06639300,0.04969900,0.00659100,0.25242400,-0.31495700,0.11346700,0.69877600,-0.06790300,0.05015400,-0.00154600
8.20000000,0.24318400,0.32195600,-0.10706700,0.73631100,0.06639300,0.04969900,0.00659100,0.25242400,-0.31495700,0.11346700,0.69877600,-0.06790300,0.05015400,-0.00154600
8.22000000,0.24318400,0.32195600,-0.10706700,0.73631100,0.06639300,0.04969900,0.00659100,0.25242400,-0.31495700,0.11346700,0.69877600,-0.06790300,0.05015400,-0.00154600
8.24000000,0.24318400,0.32195600,-0.10706700,0.73631100,0.06639300,0.04969900,0.00659100,0.25242400,-0.31495700,0.11346700,0.69877600,-0.06790300,0.05015400,-0.00154600
8.26000000,0.24318400,0.32195600,-0.10706700,0.73631100,0.06639300,0.04969900,0.00659100,0.25242400,-0.31495700,0.11346700,0.69877600,-0.06790300,0.05015400,-0.00154600
8.28000000,0.24318400,0.32195600,-0.10706700,0.73631100,0.06639300,0.04969900,0.00659100,0.25242400,-0.31495700,0.11346700,0.69877600,-0.06790300,0.05015400,-0.00154600
8.30000000,0.24318400,0.32195600,-0.10706700,0.73631100,0.06639300,0.04969900,0.00659100,0.25242400,-0.31495700,0.11346700,0.69877600,-0.06790300,0.05015400,-0.00154600
8.32000000,0.24318400,0.32195600,-0.10706700,0.73631100,0.06639300,0.04969900,0.00659100,0.25242400,-0.31495700,0.11346700,0.69877600,-0.06790300,0.05015400,-0.00154600
8.34000000,0.24318400,0.32195600,-0.10706700,0.73631100,0.06639300,0.04969900,0.00659100,0.25242400,-0.31495700,0.11346700,0.69877600,-0.06790300,0.05015400,-0.00154600
8.36000000,0.24318400,0.32195600,-0.10706700,0.73631100,0.06639300,0.04969900,0.00659100,0.25242400,-0.31495700,0.11346700,0.69877600,-0.06790300,0.05015400,-0.00154600
8.38000000,0.24318400,0.32195600,-0.10706700,0.73631100,0.06639300,0.04969900,0.00659100,0.25242400,-0.31495700,0.11346700,0.69877600,-0.06790300,0.05015400,-0.00154600
8.40000000,0.24318400,0.32195600,-0.10706700,0.73631100,0.06639300,0.04969900,0.00659100,0.25242400,-0.31495700,0.11346700,0.69877600,-0.06790300,0.05015400,-0.00154600
8.42000000,0.24318400,0.32195600,-0.10706700,0.73631100,0.06639300,0.04969900,0.00659100,0.25242400,-0.31495700,0.11346700,0.69877600,-0.06790300,0.05015400,-0.00154600
8.44000000,0.24318400,0.32195600,-0.10706700,0.73631100,0.06639300,0.04969900,0.00659100,0.25242400,-0.31495700,0.11346700,0.69877600,-0.06790300,0.05015400,-0.00154600
8.46000000,0.24318400,0.32195600,-0.10706700,0.73631100,0.06639300,0.04969900,0.00659100,0.25242400,-0.31495700,0.11346700,0.69877600,-0.06790300,0.05015400,-0.00154600
8.48000000,0.24318400,0.32195600,-0.10706700,0.73631100,0.06639300,0.04969900,0.00659100,0.25242400,-0.31495700,0.11346700,0.69877600,-0.06790300,0.05015400,-0.00154600
8.50000000,0.24318400,0.32195600,-0.10706700,0.73631100,0.06639300,0.04969900,0.00659100,0.25242400,-0.31495700,0.11346700,0.69877600,-0.06790300,0.05015400,-0.00154600
8.52000000,0.24318400,0.32195600,-0.10706700,0.73631100,0.06639300,0.04969900,0.00659100,0.25242400,-0.31495700,0.11346700,0.69877600,-0.06790300,0.05015400,-0.00154600
8.54000000,0.24318400,0.32195600,-0.10706700,0.73631100,0.06639300,0.04969900,0.00659100,0.25242400,-0.31495700,0.11346700,0.69877600,-0.06790300,0.05015400,-0.00154600
8.56000000,0.24318400,0.32195600,-0.10706700,0.73631100,0.06639300,0.04969900,0.00659100,0.25242400,-0.31495700,0.11346700,0.69877600,-0.06790300,0.05015400,-0.00154600
8.58000000,0.24318400,0.32195600,-0.10706700,0.73631100,0.06639300,0.04969900,0.00659100,0.25242400,-0.31495700,0.11346700,0.69877600,-0.06790300,0.05015400,-0.00154600
8.60000000,0.24318400,0.32195600,-0.10706700,0.73631100,0.06639300,0.04969900,0.00659100,0.25242400,-0.31495700,0.11346700,0.69877600,-0.06790300,0.05015400,-0.00154600
8.62000000,0.24318400,0.32195600,-0.10706700,0.73631100,0.06639300,0.04969900,0.00659100,0.25242400,-0.31495700,0.11346700,0.69877600,-0.06790300,0.05015400,-0.00154600
8.64000000,0.24318400,0.32195600,-0.10706700,0.73631100,0.06639300,0.04969900,0.00659100,0.25242400,-0.31495700,0.11346700,0.69877600,-0.06790300,0.05015400,-0.00154600
8.66000000,0.24318400,0.32195600,-0.10706700,0.73631100,0.06639300,0.04969900,0.00659100,0.25242400,-0.31495700,0.11346700,0.69877600,-0.06790300,0.05015400,-0.00154600
8.68000000,0.24318400,0.32195600,-0.10706700,0.73631100,0.06639300,0.04969900,0.00659100,0.25242400,-0.31495700,0.11346700,0.69877600,-0.06790300,0.05015400,-0.00154600
8.70000000,0.24318400,0.32195600,-0.10706700,0.73631100,0.06639300,0.04969900,0.00659100,0.25242400,-0.31495700,0.11346700,0.69877600,-0.06790300,0.05015400,-0.00154600
8.72000000,0.24318400,0.32195600,-0.10706700,0.73631100,0.06639300,0.04969900,0.00659100,0.25242400,-0.31495700,0.11346700,0.69877600,-0.06790300,0.05015400,-0.00154600
8.74000000,0.24318400,0.32195600,-0.10706700,0.73631100,0.06639300,0.04969900,0.00659100,0.25242400,-0.31495700,0.11346700,0.69877600,-0.06790300,0.05015400,-0.00154600
8.76000000,0.24318400,0.32195600,-0.10706700,0.73631100,0.06639300,0.04969900,0.00659100,0.25242400,-0.31495700,0.11346700,0.69877600,-0.06790300,0.05015400,-0.00154600
8.78000000,0.24318400,0.32195600,-0.10706700,0.73631100,0.06639300,0.04969900,0.00659100,0.25242400,-0.31495700,0.11346700,0.69877600,-0.06790300,0.05015400,-0.00154600
8.80000000,0.24318400,0.32195600,-0.10706700,0.73631100,0.06639300,0.04969900,0.00659100,0.25242400,-0.31495700,0.11346700,0.69877600,-0.06790300,0.05015400,-0.00154600
8.82000000,0.24318400,0.32195600,-0.10706700,0.73631100,0.06639300,0.04969900,0.00659100,0.25242400,-0.31495700,0.11346700,0.69877600,-0.06790300,0.05015400,-0.00154600
8.84000000,0.24318400,0.32195600,-0.10706700,0.73631100,0.06639300,0.04969900,0.00659100,0.25242400,-0.31495700,0.11346700,0.69877600,-0.06790300,0.05015400,-0.00154600
8.86000000,0.24318400,0.32195600,-0.10706700,0.73631100,0.06639300,0.04969900,0.00659100,0.25242400,-0.31495700,0.11346700,0.69877600,-0.06790300,0.05015400,-0.00154600
8.88000000,0.24318400,0.32195600,-0.10706700,0.73631100,0.06639300,0.04969900,0.00659100,0.25242400,-0.31495700,0.11346700,0.69877600,-0.06790300,0.05015400,-0.00154600
8.90000000,0.24318400,0.32195600,-0.10706700,0.73631100,0.06639300,0.04969900,0.00659100,0.25242400,-0.31495700,0.11346700,0.69877600,-0.06790300,0.05015400,-0.00154600
8.92000000,0.24318400,0.32195600,-0.10706700,0.73631100,0.06639300,0.04969900,0.00659100,0.25242400,-0.31495700,0.11346700,0.69877600,-0.06790300,0.05015400,-0.00154600
8.94000000,0.24318400,0.32195600,-0.10706700,0.73631100,0.06639300,0.04969900,0.00659100,0.25242400,-0.31495700,0.11346700,0.69877600,-0.06790300,0.05015400,-0.00154600
8.96000000,0.24318400,0.32195600,-0.10706700,0.73631100,0.06639300,0.04969900,0.00659100,0.25242400,-0.31495700,0.11346700,0.69877600,-0.06790300,0.05015400,-0.00154600
8.98000000,0.24318400,0.32195600,-0.10706700,0.73631100,0.06639300,0.04969900,0.00659100,0.25242400,-0.31495700,0.11346700,0.69877600,-0.06790300,0.05015400,-0.00154600
9.00000000,0.24318400,0.32195600,-0.10706700,0.73631100,0.06639300,0.04969900,0.00659100,0.25242400,-0.31495700,0.11346700,0.69877600,-0.06790300,0.05015400,-0.00154600
9.02000000,0.24318400,0.32195600,-0.10706700,0.73631100,0.06639300,0.04969900,0.00659100,0.25242400,-0.31495700,0.11346700,0.69877600,-0.06790300,0.05015400,-0.00154600
9.04000000,0.24318400,0.32195600,-0.10706700,0.73631100,0.06639300,0.04969900,0.00659100,0.25242400,-0.31495700,0.11346700,0.69877600,-0.06790300,0.05015400,-0.00154600
9.06000000,0.24318400,0.32195600,-0.10706700,0.73631100,0.06639300,0.04969900,0.00659100,0.25242400,-0.31495700,0.11346700,0.69877600,-0.06790300,0.05015400,-0.00154600
9.08000000,0.24318400,0.32195600,-0.10706700,0.73631100,0.06639300,0.04969900,0.00659100,0.25242400,-0.31495700,0.11346700,0.69877600,-0.06790300,0.05015400,-0.00154600
9.10000000,0.24318400,0.32195600,-0.10706700,0.73631100,0.06639300,0.04969900,0.00659100,0.25242400,-0.31495700,0.11346700,0.69877600,-0.06790300,0.05015400,-0.00154600
9.12000000,0.24318400,0.32195600,-0.10706700,0.73631100,0.06639300,0.04969900,0.00659100,0.25242400,-0.31495700,0.11346700,0.69877600,-0.06790300,0.05015400,-0.00154600
9.14000000,0.24318400,0.32195600,-0.10706700,0.73631100,0.06639300,0.04969900,0.00659100,0.25242400,-0.31495700,0.11346700,0.69877600,-0.06790300,0.05015400,-0.00154600
9.16000000,0.24318400,0.32195600,-0.10706700,0.73631100,0.06639300,0.04969900,0.00659100,0.25242400,-0.31495700,0.11346700,0.69877600,-0.06790300,0.05015400,-0.00154600
9.18000000,0.24318400,0.32195600,-0.10706700,0.73631100,0.06639300,0.04969900,0.00659100,0.25242400,-0.31495700,0.11346700,0.69877600,-0.06790300,0.05015400,-0.00154600
9.20000000,0.24318400,0.32195600,-0.10706700,0.73631100,0.06639300,0.04969900,0.00659100,0.25242400,-0.31495700,0.11346700,0.69877600,-0.06790300,0.05015400,-0.00154600
9.22000000,0.24318400,0.32195600,-0.10706700,0.73631100,0.06639300,0.04969900,0.00659100,0.25242400,-0.31495700,0.11346700,0.69877600,-0.06790300,0.05015400,-0.00154600
9.24000000,0.24318400,0.32195600,-0.10706700,0.73631100,0.06639300,0.04969900,0.00659100,0.25242400,-0.31495700,0.11346700,0.69877600,-0.06790300,0.05015400,-0.00154600
9.26000000,0.24318400,0.32195600,-0.10706700,0.73631100,0.06639300,0.04969900,0.00659100,0.25242400,-0.31495700,0.11346700,0.69877600,-0.06790300,0.05015400,-0.00154600
9.28000000,0.24318400,0.32195600,-0.10706700,0.73631100,0.06639300,0.04969900,0.00659100,0.25242400,-0.31495700,0.11346700,0.69877600,-0.06790300,0.05015400,-0.00154600
9.30000000,0.24318400,0.32195600,-0.10706700,0.73631100,0.06639300,0.04969900,0.00659100,0.25242400,-0.31495700,0.11346700,0.69877600,-0.06790300,0.05015400,-0.00154600
9.32000000,0.24318400,0.32195600,-0.10706700,0.73631100,0.06639300,0.04969900,0.00659100,0.25242400,-0.31495700,0.11346700,0.69877600,-0.06790300,0.05015400,-0.00154600
9.34000000,0.24318400,0.32195600,-0.10706700,0.73631100,0.06639300,0.04969900,0.00659100,0.25242400,-0.31495700,0.11346700,0.69877600,-0.06790300,0.05015400,-0.00154600
9.36000000,0.24318400,0.32195600,-0.10706700,0.73631100,0.06639300,0.04969900,0.00659100,0.25242400,-0.31495700,0.11346700,0.69877600,-0.06790300,0.05015400,-0.00154600
9.38000000,0.24318400,0.32195600,-0.10706700,0.73631100,0.06639300,0.04969900,0.00659100,0.25242400,-0.31495700,0.11346700,0.69877600,-0.06790300,0.05015400,-0.00154600
9.40000000,0.24318400,0.32195600,-0.10706700,0.73631100,0.06639300,0.04969900,0.00659100,0.25242400,-0.31495700,0.11346700,0.69877600,-0.06790300,0.05015400,-0.00154600
9.42000000,0.24318400,0.32195600,-0.10706700,0.73631100,0.06639300,0.04969900,0.00659100,0.25242400,-0.31495700,0.11346700,0.69877600,-0.06790300,0.05015400,-0.00154600
9.44000000,0.24318400,0.32195600,-0.10706700,0.73631100,0.06639300,0.04969900,0.00659100,0.25242400,-0.31495700,0.11346700,0.69877600,-0.06790300,0.05015400,-0.00154600
9.46000000,0.24318400,0.32195600,-0.10706700,0.73631100,0.06639300,0.04969900,0.00659100,0.25242400,-0.31495700,0.11346700,0.69877600,-0.06790300,0.05015400,-0.00154600
9.48000000,0.24318400,0.32195600,-0.10706700,0.73631100,0.06639300,0.04969900,0.00659100,0.25242400,-0.31495700,0.11346700,0.69877600,-0.06790300,0.05015400,-0.00154600
9.50000000,0.24318400,0.32195600,-0.10706700,0.73631100,0.06639300,0.04969900,0.00659100,0.25242400,-0.31495700,0.11346700,0.69877600,-0.06790300,0.05015400,-0.00154600
9.52000000,0.24318400,0.32195600,-0.10706700,0.73631100,0.06639300,0.04969900,0.00659100,0.25242400,-0.31495700,0.11346700,0.69877600,-0.06790300,0.05015400,-0.00154600
9.54000000,0.24318400,0.32195600,-0.10706700,0.73631100,0.06639300,0.04969900,0.00659100,0.25242400,-0.31495700,0.11346700,0.69877600,-0.06790300,0.05015400,-0.00154600
9.56000000,0.24318400,0.32195600,-0.10706700,0.73631100,0.06639300,0.04969900,0.00659100,0.25242400,-0.31495700,0.11346700,0.69877600,-0.06790300,0.05015400,-0.00154600
9.58000000,0.24318400,0.32195600,-0.10706700,0.73631100,0.06639300,0.04969900,0.00659100,0.25242400,-0.31495700,0.11346700,0.69877600,-0.06790300,0.05015400,-0.00154600
9.60000000,0.24318400,0.32195600,-0.10706700,0.73631100,0.06639300,0.04969900,0.00659100,0.25242400,-0.31495700,0.11346700,0.69877600,-0.06790300,0.05015400,-0.00154600
9.62000000,0.24318400,0.32195600,-0.10706700,0.73631100,0.06639300,0.04969900,0.00659100,0.25242400,-0.31495700,0.11346700,0.69877600,-0.06790300,0.05015400,-0.00154600
9.64000000,0.24318400,0.32195600,-0.10706700,0.73631100,0.06639300,0.04969900,0.00659100,0.25242400,-0.31495700,0.11346700,0.69877600,-0.06790300,0.05015400,-0.00154600
9.66000000,0.24318400,0.32195600,-0.10706700,0.73631100,0.06639300,0.04969900,0.00659100,0.25242400,-0.31495700,0.11346700,0.69877600,-0.06790300,0.05015400,-0.00154600
9.68000000,0.24318400,0.32195600,-0.10706700,0.73631100,0.06639300,0.04969900,0.00659100,0.25242400,-0.31495700,0.11346700,0.69877600,-0.06790300,0.05015400,-0.00154600
9.70000000,0.24318400,0.32195600,-0.10706700,0.73631100,0.06639300,0.04969900,0.00659100,0.25242400,-0.31495700,0.11346700,0.69877600,-0.06790300,0.05015400,-0.00154600
9.72000000,0.24318400,0.32195600,-0.10706700,0.73631100,0.06639300,0.04969900,0.00659100,0.25242400,-0.31495700,0.11346700,0.69877600,-0.06790300,0.05015400,-0.00154600
9.74000000,0.24318400,0.32195600,-0.10706700,0.73631100,0.06639300,0.04969900,0.00659100,0.25242400,-0.31495700,0.11346700,0.69877600,-0.06790300,0.05015400,-0.00154600
9.76000000,0.24318400,0.32195600,-0.10706700,0.73631100,0.06639300,0.04969900,0.00659100,0.25242400,-0.31495700,0.11346700,0.69877600,-0.06790300,0.05015400,-0.00154600
9.78000000,0.24318400,0.32195600,-0.10706700,0.73631100,0.06639300,0.04969900,0.00659100,0.25242400,-0.31495700,0.11346700,0.69877600,-0.06790300,0.05015400,-0.00154600
9.80000000,0.24318400,0.32195600,-0.10706700,0.73631100,0.06639300,0.04969900,0.00659100,0.25242400,-0.31495700,0.11346700,0.69877600,-0.06790300,0.05015400,-0.00154600
9.82000000,0.24318400,0.32195600,-0.10706700,0.73631100,0.06639300,0.04969900,0.00659100,0.25242400,-0.31495700,0.11346700,0.69877600,-0.06790300,0.05015400,-0.00154600
9.84000000,0.24318400,0.32195600,-0.10706700,0.73631100,0.06639300,0.04969900,0.00659100,0.25242400,-0.31495700,0.11346700,0.69877600,-0.06790300,0.05015400,-0.00154600
9.86000000,0.24318400,0.32195600,-0.10706700,0.73631100,0.06639300,0.04969900,0.00659100,0.25242400,-0.31495700,0.11346700,0.69877600,-0.06790300,0.05015400,-0.00154600
9.88000000,0.24318400,0.32195600,-0.10706700,0.73631100,0.06639300,0.04969900,0.00659100,0.25242400,-0.31495700,0.11346700,0.69877600,-0.06790300,0.05015400,-0.00154600
9.90000000,0.24318400,0.32195600,-0.10706700,0.73631100,0.06639300,0.04969900,0.00659100,0.25242400,-0.31495700,0.11346700,0.69877600,-0.06790300,0.05015400,-0.00154600
9.92000000,0.24318400,0.32195600,-0.10706700,0.73631100,0.06639300,0.04969900,0.00659100,0.25242400,-0.31495700,0.11346700,0.69877600,-0.06790300,0.05015400,-0.00154600
9.94000000,0.24318400,0.32195600,-0.10706700,0.73631100,0.06639300,0.04969900,0.00659100,0.25242400,-0.31495700,0.11346700,0.69877600,-0.06790300,0.05015400,-0.00154600
9.96000000,0.24318400,0.32195600,-0.10706700,0.73631100,0.06639300,0.04969900,0.00659100,0.25242400,-0.31495700,0.11346700,0.69877600,-0.06790300,0.05015400,-0.00154600
9.98000000,0.24318400,0.32195600,-0.10706700,0.73631100,0.06639300,0.04969900,0.00659100,0.25242400,-0.31495700,0.11346700,0.69877600,-0.06790300,0.05015400,-0.00154600
10.00000000,0.24318142,0.32196332,-0.10706578,0.73629450,0.06639905,0.04970587,0.00658139,0.25242426,-0.31496156,0.11346815,0.69876443,-0.06791068,0.05015745,-0.00154644
10.02000000,0.24316365,0.32201366,-0.10705736,0.73618102,0.06644070,0.04975314,0.00651524,0.25242606,-0.31499295,0.11347603,0.69868481,-0.06796355,0.05018120,-0.00154950
10.04000000,0.24311637,0.32214765,-0.10703495,0.73587896,0.06655155,0.04987896,0.00633918,0.25243086,-0.31507648,0.11349702,0.69847291,-0.06810427,0.05024439,-0.00155763
10.06000000,0.24302613,0.32240334,-0.10699220,0.73530254,0.06676308,0.05011906,0.00600321,0.25244001,-0.31523588,0.11353707,0.69806853,-0.06837281,0.05036500,-0.00157314
10.08000000,0.24288041,0.32281629,-0.10692314,0.73437161,0.06710470,0.05050683,0.00546061,0.25245478,-0.31549332,0.11360175,0.69741545,-0.06880650,0.05055977,-0.00159819
10.10000000,0.24266751,0.32341957,-0.10682226,0.73301161,0.06760378,0.05107332,0.00466791,0.25247637,-0.31586942,0.11369625,0.69646135,-0.06944008,0.05084432,-0.00163478
10.12000000,0.24237662,0.32424387,-0.10668442,0.73115337,0.06828570,0.05184734,0.00358481,0.25250587,-0.31638330,0.11382536,0.69515773,-0.07030577,0.05123312,-0.00168478
10.14000000,0.24199773,0.32531750,-0.10650489,0.72873303,0.06917389,0.05285550,0.00217410,0.25254429,-0.31705263,0.11399353,0.69345977,-0.07143332,0.05173952,-0.00174991
10.16000000,0.24152168,0.32666649,-0.10627931,0.72569194,0.07028989,0.05412223,0.00040156,0.25259256,-0.31789361,0.11420483,0.69132633,-0.07285007,0.05237580,-0.00183174
10.18000000,0.24094006,0.32831462,-0.10600371,0.72197649,0.07165335,0.05566985,-0.00176403,0.25265153,-0.31892109,0.11446299,0.68871981,-0.07458097,0.05315318,-0.00193172
10.20000000,0.24024525,0.33028348,-0.10567448,0.71753802,0.07328214,0.05751864,-0.00435105,0.25272199,-0.32014852,0.11477138,0.68560605,-0.07664871,0.05408183,-0.00205116
10.22000000,0.23943040,0.33259251,-0.10528836,0.71233269,0.07519235,0.05968685,-0.00738503,0.25280461,-0.32158801,0.11513306,0.68195431,-0.07907370,0.05517093,-0.00219122
10.24000000,0.23848938,0.33525906,-0.10484246,0.70632136,0.07739833,0.06219079,-0.01088880,0.25290003,-0.32325040,0.11555074,0.67773714,-0.08187418,0.05642866,-0.00235298
10.26000000,0.23741678,0.33829848,-0.10433421,0.69946948,0.07991277,0.06504484,-0.01488250,0.25300879,-0.32514523,0.11602682,0.67293030,-0.08506624,0.05786227,-0.00253736
10.28000000,0.23620788,0.34172410,-0.10376138,0.69174697,0.08274672,0.06826155,-0.01938365,0.25313137,-0.32728083,0.11656340,0.66751266,-0.08866391,0.05947803,-0.00274516
10.30000000,0.23485867,0.34554735,-0.10312206,0.68312806,0.08590961,0.07185165,-0.02440728,0.25326818,-0.32966432,0.11716226,0.66146618,-0.09267917,0.06128134,-0.00297708
10.32000000,0.23336576,0.34977778,-0.10241464,0.67359123,0.08940935,0.07582409,-0.02996593,0.25341956,-0.33230165,0.11782490,0.65477573,-0.09712207,0.06327671,-0.00323370
10.34000000,0.23172643,0.35442312,-0.10163785,0.66311904,0.09325234,0.08018614,-0.03606977,0.25358578,-0.33519765,0.11855252,0.64742910,-0.10200071,0.06546778,-0.00351550
10.36000000,0.22993857,0.35948935,-0.10079067,0.65169804,0.09744352,0.08494340,-0.04272663,0.25376707,-0.33835604,0.11934608,0.63941684,-0.10732138,0.06785737,-0.00382282
10.38000000,0.22800068,0.36498071,-0.09987241,0.63931863,0.10198640,0.09009988,-0.04994211,0.25396357,-0.34177946,0.12020622,0.63073222,-0.11308854,0.07044749,-0.00415593
10.40000000,0.22591184,0.37089981,-0.09888262,0.62597496,0.10688315,0.09565801,-0.05771962,0.25417538,-0.34546955,0.12113337,0.62137114,-0.11930491,0.07323935,-0.00451499
10.42000000,0.22367171,0.37724764,-0.09782113,0.61166479,0.11213457,0.10161872,-0.06606046,0.25440252,-0.34942691,0.12212767,0.61133201,-0.12597155,0.07623344,-0.00490006
10.44000000,0.22128047,0.38402365,-0.09668805,0.59638937,0.11774021,0.10798149,-0.07496392,0.25464499,-0.35365121,0.12318903,0.60061573,-0.13308786,0.07942948,-0.00531110
10.46000000,0.21873886,0.39122577,-0.09548371,0.58015333,0.12369836,0.11474440,-0.08442728,0.25490271,-0.35814115,0.12431715,0.58922555,-0.14065169,0.08282651,-0.00574799
10.48000000,0.21604810,0.39885051,-0.09420870,0.56296456,0.13000615,0.12190415,-0.09444594,0.25517555,-0.36289457,0.12551146,0.57716698,-0.14865937,0.08642287,-0.00621052
10.50000000,0.21320993,0.40689298,-0.09286384,0.54483409,0.13665951,0.12945616,-0.10501350,0.25546334,-0.36790841,0.12677120,0.56444778,-0.15710576,0.09021627,-0.00669838
10.52000000,0.21022654,0.41534696,-0.09145017,0.52577594,0.14365330,0.13739457,-0.11612175,0.25576585,-0.37317878,0.12809540,0.55107777,-0.16598432,0.09420376,-0.00721121
10.54000000,0.20710059,0.42420493,-0.08996894,0.50580706,0.15098130,0.14571235,-0.12776084,0.25608282,-0.37870102,0.12948287,0.53706885,-0.17528716,0.09838180,-0.00774855
10.56000000,0.20383515,0.43345816,-0.08842161,0.48494714,0.15863629,0.15440127,-0.13991929,0.25641393,-0.38446966,0.13093226,0.52243484,-0.18500511,0.10274628,-0.00830986
10.58000000,0.20043372,0.44309672,-0.08680985,0.46321854,0.16661006,0.16345203,-0.15258405,0.25675883,-0.39047853,0.13244201,0.50719141,-0.19512774,0.10729250,-0.00889455
10.60000000,0.19690020,0.45310957,-0.08513550,0.44064614,0.17489348,0.17285426,-0.16574063,0.25711712,-0.39672075,0.13401039,0.49135603,-0.20564347,0.11201527,-0.00950194
10.62000000,0.19323887,0.46348462,-0.08340059,0.41725725,0.18347653,0.18259659,-0.17937311,0.25748838,-0.40318876,0.13563549,0.47494785,-0.21653958,0.11690888,-0.01013130
10.64000000,0.18945436,0.47420873,-0.08160731,0.39308146,0.19234835,0.19266670,-0.19346424,0.25787212,-0.40987438,0.13731527,0.45798762,-0.22780229,0.12196712,-0.01078184
10.66000000,0.18555164,0.48526781,-0.07975801,0.36815052,0.20149729,0.20305135,-0.20799553,0.25826786,-0.41676883,0.13904753,0.44049763,-0.23941679,0.12718336,-0.01145270
10.68000000,0.18153599,0.49664687,-0.07785520,0.34249825,0.21091093,0.21373646,-0.22294724,0.25867504,-0.42386276,0.14082990,0.42250161,-0.25136733,0.13255053,-0.01214297
10.70000000,0.17741303,0.50833005,-0.07590154,0.31616038,0.22057617,0.22470715,-0.23829857,0.25909310,-0.43114629,0.14265991,0.40402461,-0.26363727,0.13806114,-0.01285168
10.72000000,0.17318861,0.52030069,-0.07389981,0.28917447,0.23047922,0.23594777,-0.25402762,0.25952145,-0.43860903,0.14453494,0.38509298,-0.27620912,0.14370734,-0.01357784
10.74000000,0.16886890,0.53254140,-0.07185292,0.26157974,0.24060569,0.24744199,-0.27011152,0.25995947,-0.44624013,0.14645228,0.36573424,-0.28906458,0.14948092,-0.01432037
10.76000000,0.16446026,0.54503407,-0.06976390,0.23341701,0.25094060,0.25917280,-0.28652649,0.26040650,-0.45402830,0.14840908,0.34597703,-0.30218467,0.15537334,-0.01507820
10.78000000,0.15996933,0.55775996,-0.06763587,0.20472852,0.26146845,0.27112261,-0.30324790,0.26086187,-0.46196188,0.15040241,0.32585098,-0.31554969,0.16137577,-0.01585016
10.80000000,0.15540291,0.57069973,-0.06547208,0.17555784,0.27217325,0.28327326,-0.32025036,0.26132490,-0.47002879,0.15242925,0.30538666,-0.32913934,0.16747908,-0.01663511
10.82000000,0.15076802,0.58383354,-0.06327585,0.14594977,0.28303856,0.29560611,-0.33750776,0.26179487,-0.47821667,0.15448648,0.28461549,-0.34293276,0.17367391,-0.01743182
10.84000000,0.14607184,0.59714103,-0.06105057,0.11595016,0.29404755,0.30810205,-0.35499337,0.26227106,-0.48651282,0.15657091,0.26356964,-0.35690859,0.17995066,-0.01823907
10.86000000,0.14132170,0.61060142,-0.05879973,0.08560585,0.30518303,0.32074156,-0.37267990,0.26275272,-0.49490429,0.15867929,0.24228197,-0.37104500,0.18629953,-0.01905559
10.88000000,0.13652506,0.62419356,-0.05652685,0.05496452,0.31642752,0.33350480,-0.39053955,0.26323909,-0.50337791,0.16080832,0.22078593,-0.38531978,0.19271054,-0.01988011
10.90000000,0.13168950,0.63789600,-0.05423553,0.02407456,0.32776325,0.34637161,-0.40854411,0.26372941,-0.51192028,0.16295461,0.19911546,-0.39971039,0.19917358,-0.02071132
10.92000000,0.12682269,0.65168699,-0.05192940,-0.00701503,0.33917223,0.35932156,-0.42666503,0.26422290,-0.52051786,0.16511478,0.17730496,-0.41419400,0.20567838,-0.02154790
10.94000000,0.12193238,0.66554457,-0.04961213,-0.03825475,0.35063631,0.37233405,-0.44487346,0.26471878,-0.52915695,0.16728538,0.15538912,-0.42874755,0.21221460,-0.02238851
10.96000000,0.11702637,0.67944665,-0.04728743,-0.06959477,0.36213719,0.38538832,-0.46314035,0.26521624,-0.53782378,0.16946294,0.13340292,-0.44334783,0.21877180,-0.02323183
10.98000000,0.11211250,0.69337100,-0.04495900,-0.10098500,0.37365650,0.39846350,-0.48143650,0.26571450,-0.54650450,0.17164400,0.11138150,-0.45797150,0.22533950,-0.02407650
11.00000000,0.10719863,0.70729535,-0.04263057,-0.13237523,0.38517581,0.41153868,-0.49973265,0.26621276,-0.55518522,0.17382506,0.08936008,-0.47259517,0.23190720,-0.02492117
11.02000000,0.10229262,0.72119743,-0.04030587,-0.16371525,0.39667669,0.42459295,-0.51799954,0.26671022,-0.56385205,0.17600262,0.06737388,-0.48719545,0.23846440,-0.02576449
11.04000000,0.09740231,0.73505501,-0.03798860,-0.19495497,0.40814077,0.43760544,-0.53620797,0.26720610,-0.57249114,0.17817322,0.04545804,-0.50174900,0.24500062,-0.02660510
11.06000000,0.09253550,0.74884600,-0.03568247,-0.22604456,0.41954975,0.45055539,-0.55432889,0.26769959,-0.58108872,0.18033339,0.02364754,-0.51623261,0.25150542,-0.02744168
11.08000000,0.08769994,0.76254844,-0.03339115,-0.25693452,0.43088548,0.46342220,-0.57233345,0.26818991,-0.58963109,0.18247968,0.00197707,-0.53062322,0.25796846,-0.02827289
11.10000000,0.08290330,0.77614058,-0.03111827,-0.28757585,0.44212997,0.47618544,-0.59019310,0.26867628,-0.59810471,0.18460871,-0.01951897,-0.54489800,0.26437947,-0.02909741
11.12000000,0.07815316,0.78960097,-0.02886743,-0.31792016,0.45326545,0.48882495,-0.60787963,0.26915794,-0.60649618,0.18671709,-0.04080664,-0.55903441,0.27072834,-0.02991393
11.14000000,0.07345698,0.80290846,-0.02664215,-0.34791977,0.46427444,0.50132089,-0.62536524,0.26963413,-0.61479233,0.18880152,-0.06185249,-0.57301024,0.27700509,-0.03072118
11.16000000,0.06882209,0.81604227,-0.02444592,-0.37752784,0.47513975,0.51365374,-0.64262264,0.27010410,-0.62298021,0.19085875,-0.08262366,-0.58680366,0.28319992,-0.03151789
11.18000000,0.06425567,0.82898204,-0.02228213,-0.40669852,0.48584455,0.52580439,-0.65962510,0.27056713,-0.63104712,0.19288559,-0.10308798,-0.60039331,0.28930323,-0.03230284
11.20000000,0.05976474,0.84170793,-0.02015410,-0.43538701,0.49637240,0.53775420,-0.67634651,0.27102250,-0.63898070,0.19487892,-0.12321403,-0.61375833,0.29530566,-0.03307480
11.22000000,0.05535610,0.85420060,-0.01806508,-0.46354974,0.50670731,0.54948501,-0.69276148,0.27146953,-0.64676887,0.19683572,-0.14297124,-0.62687842,0.30119808,-0.03383263
11.24000000,0.05103639,0.86644131,-0.01601819,-0.49114447,0.51683378,0.56097923,-0.70884538,0.27190755,-0.65439997,0.19875306,-0.16232998,-0.63973388,0.30697166,-0.03457516
11.26000000,0.04681197,0.87841195,-0.01401646,-0.51813038,0.52673683,0.57221985,-0.72457443,0.27233590,-0.66186271,0.20062809,-0.18126161,-0.65230573,0.31261786,-0.03530132
11.28000000,0.04268901,0.89009513,-0.01206280,-0.54446825,0.53640207,0.58319054,-0.73992576,0.27275396,-0.66914624,0.20245810,-0.19973861,-0.66457567,0.31812847,-0.03601003
11.30000000,0.03867336,0.90147419,-0.01015999,-0.57012052,0.54581571,0.59387565,-0.75487747,0.27316114,-0.67624017,0.20424047,-0.21773463,-0.67652621,0.32349564,-0.03670030
11.32000000,0.03477064,0.91253327,-0.00831069,-0.59505146,0.55496465,0.60426030,-0.76940876,0.27355688,-0.68313462,0.20597273,-0.23522462,-0.68814071,0.32871188,-0.03737116
11.34000000,0.03098613,0.92325738,-0.00651741,-0.61922725,0.56383647,0.61433041,-0.78349989,0.27394062,-0.68982024,0.20765251,-0.25218485,-0.69940342,0.33377012,-0.03802170
11.36000000,0.02732480,0.93363243,-0.00478250,-0.64261614,0.57241952,0.62407274,-0.79713237,0.27431188,-0.69628825,0.20927761,-0.26859303,-0.71029953,0.33866373,-0.03865106
11.38000000,0.02379128,0.94364528,-0.00310815,-0.66518854,0.58070294,0.63347497,-0.81028895,0.27467017,-0.70253047,0.21084599,-0.28442841,-0.72081526,0.34338650,-0.03925845
11.40000000,0.02038985,0.95328384,-0.00149639,-0.68691714,0.58867671,0.64252573,-0.82295371,0.27501507,-0.70853934,0.21235574,-0.29967184,-0.73093789,0.34793272,-0.03984314
11.42000000,0.01712441,0.96253707,0.00005094,-0.70777706,0.59633170,0.65121465,-0.83511216,0.27534618,-0.71430798,0.21380513,-0.31430585,-0.74065584,0.35229720,-0.04040445
11.44000000,0.01399846,0.97139504,0.00153217,-0.72774594,0.60365970,0.65953243,-0.84675125,0.27566315,-0.71983022,0.21519260,-0.32831477,-0.74995868,0.35647524,-0.04094179
11.46000000,0.01101507,0.97984902,0.00294584,-0.74680409,0.61065349,0.66747084,-0.85785950,0.27596566,-0.72510059,0.21651680,-0.34168478,-0.75883724,0.36046273,-0.04145462
11.48000000,0.00817690,0.98789149,0.00429070,-0.76493456,0.61730685,0.67502285,-0.86842706,0.27625345,-0.73011443,0.21777654,-0.35440398,-0.76728363,0.36425613,-0.04194248
11.50000000,0.00548614,0.99551623,0.00556571,-0.78212333,0.62361464,0.68218260,-0.87844572,0.27652629,-0.73486785,0.21897085,-0.36646255,-0.77529131,0.36785249,-0.04240501
11.52000000,0.00294453,1.00271835,0.00677005,-0.79835937,0.62957279,0.68894551,-0.88790908,0.27678401,-0.73935779,0.22009897,-0.37785273,-0.78285514,0.37124952,-0.04284190
11.54000000,0.00055329,1.00949436,0.00790313,-0.81363479,0.63517843,0.69530828,-0.89681254,0.27702648,-0.74358209,0.22116033,-0.38856901,-0.78997145,0.37444556,-0.04325294
11.56000000,-0.00168684,1.01584219,0.00896462,-0.82794496,0.64042985,0.70126899,-0.90515338,0.27725362,-0.74753945,0.22215463,-0.39860814,-0.79663809,0.37743965,-0.04363801
11.58000000,-0.00377568,1.02176129,0.00995441,-0.84128863,0.64532660,0.70682712,-0.91293089,0.27746543,-0.75122954,0.22308178,-0.40796922,-0.80285446,0.38023151,-0.04399707
11.60000000,-0.00571357,1.02725265,0.01087267,-0.85366804,0.64986948,0.71198360,-0.92014637,0.27766193,-0.75465296,0.22394192,-0.41665384,-0.80862162,0.38282163,-0.04433018
11.62000000,-0.00750143,1.03231888,0.01171985,-0.86508904,0.65406066,0.71674086,-0.92680323,0.27784322,-0.75781135,0.22473548,-0.42466610,-0.81394229,0.38521122,-0.04463750
11.64000000,-0.00914076,1.03696422,0.01249664,-0.87556123,0.65790365,0.72110291,-0.93290707,0.27800944,-0.76070735,0.22546310,-0.43201273,-0.81882093,0.38740229,-0.04491930
11.66000000,-0.01063367,1.04119465,0.01320406,-0.88509806,0.66140339,0.72507535,-0.93846572,0.27816082,-0.76334468,0.22612574,-0.43870318,-0.82326383,0.38939766,-0.04517592
11.68000000,-0.01198288,1.04501790,0.01384338,-0.89371697,0.66456628,0.72866545,-0.94348935,0.27829763,-0.76572817,0.22672460,-0.44474966,-0.82727909,0.39120097,-0.04540784
