gracetata/LocomotionHEC/legged_lab/Reference Data/ArmHack/StandPerturb/VisualizationSuite/representative_trajectory_02_50hz.csv
time_s,left_shoulder_pitch_joint,left_shoulder_roll_joint,left_shoulder_yaw_joint,left_elbow_joint,left_wrist_roll_joint,left_wrist_pitch_joint,left_wrist_yaw_joint,right_shoulder_pitch_joint,right_shoulder_roll_joint,right_shoulder_yaw_joint,right_elbow_joint,right_wrist_roll_joint,right_wrist_pitch_joint,right_wrist_yaw_joint
0.00000000,-0.63567900,0.58524364,-0.66395656,0.21961707,0.72175131,0.00910231,-0.36889865,0.27939978,-0.77827978,0.22977400,-0.47606122,-0.84802822,0.40052456,-0.04670300
0.02000000,-0.63567900,0.58514104,-0.66403126,0.21956113,0.72171399,0.00902120,-0.36890077,0.27939446,-0.77828000,0.22977123,-0.47606377,-0.84802523,0.40053885,-0.04670831
0.04000000,-0.63567900,0.58503646,-0.66410596,0.21950735,0.72167514,0.00894053,-0.36890376,0.27938848,-0.77828000,0.22976824,-0.47606676,-0.84802224,0.40055379,-0.04671404
0.06000000,-0.63567900,0.58493188,-0.66418065,0.21945357,0.72163630,0.00885985,-0.36890675,0.27938251,-0.77828000,0.22976525,-0.47606975,-0.84801925,0.40056873,-0.04671976
0.08000000,-0.63567900,0.58482731,-0.66425535,0.21939979,0.72159746,0.00877918,-0.36890973,0.27937653,-0.77828000,0.22976227,-0.47607273,-0.84801627,0.40058367,-0.04672549
0.10000000,-0.63567900,0.58474486,-0.66432699,0.21934609,0.72157226,0.00873147,-0.36891543,0.27937872,-0.77828272,0.22976200,-0.47607300,-0.84801872,0.40057141,-0.04672351
0.12000000,-0.63567900,0.58466458,-0.66439832,0.21929240,0.72154840,0.00868698,-0.36892140,0.27938170,-0.77828570,0.22976200,-0.47607300,-0.84802170,0.40055650,-0.04672078
0.14000000,-0.63567900,0.58458429,-0.66446966,0.21923871,0.72152454,0.00864248,-0.36892737,0.27938468,-0.77828868,0.22976200,-0.47607300,-0.84802468,0.40054159,-0.04671804
0.16000000,-0.63567900,0.58450401,-0.66454100,0.21918502,0.72150068,0.00859799,-0.36893333,0.27938767,-0.77829167,0.22976200,-0.47607300,-0.84802767,0.40052667,-0.04671531
0.18000000,-0.63567637,0.58442667,-0.66458579,0.21916871,0.72148749,0.00857460,-0.36893400,0.27939326,-0.77829200,0.22976200,-0.47607300,-0.84802537,0.40053026,-0.04671237
0.20000000,-0.63567341,0.58434971,-0.66462723,0.21915711,0.72147565,0.00855388,-0.36893400,0.27939918,-0.77829200,0.22976200,-0.47607300,-0.84802241,0.40053618,-0.04670941
0.22000000,-0.63567045,0.58427275,-0.66466867,0.21914552,0.72146381,0.00853316,-0.36893400,0.27940510,-0.77829200,0.22976200,-0.47607300,-0.84801945,0.40054210,-0.04670645
0.24000000,-0.63566749,0.58419579,-0.66471011,0.21913393,0.72145197,0.00851244,-0.36893400,0.27941102,-0.77829200,0.22976200,-0.47607300,-0.84801649,0.40054802,-0.04670349
0.26000000,-0.63566700,0.58413565,-0.66478678,0.21909960,0.72143256,0.00847910,-0.36893151,0.27940951,-0.77828951,0.22976698,-0.47607300,-0.84801600,0.40055897,-0.04670051
0.28000000,-0.63566700,0.58407886,-0.66487046,0.21906075,0.72141163,0.00844323,-0.36892852,0.27940652,-0.77828652,0.22977296,-0.47607300,-0.84801600,0.40057092,-0.04669752
0.30000000,-0.63566700,0.58402208,-0.66495415,0.21902189,0.72139071,0.00840736,-0.36892553,0.27940353,-0.77828353,0.22977894,-0.47607300,-0.84801600,0.40058288,-0.04669453
0.32000000,-0.63566700,0.58396529,-0.66503784,0.21898304,0.72136979,0.00837150,-0.36892254,0.27940054,-0.77828054,0.22978492,-0.47607300,-0.84801600,0.40059483,-0.04669154
0.34000000,-0.63566700,0.58387200,-0.66511397,0.21894908,0.72135397,0.00832095,-0.36892445,0.27939755,-0.77828245,0.22978111,-0.47607300,-0.84801355,0.40059211,-0.04669345
0.36000000,-0.63566700,0.58377064,-0.66518844,0.21891621,0.72133927,0.00826716,-0.36892744,0.27939456,-0.77828544,0.22977513,-0.47607300,-0.84801056,0.40058613,-0.04669644
0.38000000,-0.63566700,0.58366927,-0.66526291,0.21888333,0.72132458,0.00821336,-0.36893042,0.27939158,-0.77828842,0.22976915,-0.47607300,-0.84800758,0.40058015,-0.04669942
0.40000000,-0.63566700,0.58356791,-0.66533737,0.21885046,0.72130989,0.00815957,-0.36893341,0.27938859,-0.77829141,0.22976317,-0.47607300,-0.84800459,0.40057417,-0.04670241
0.42000000,-0.63566700,0.58345194,-0.66541924,0.21883680,0.72130700,0.00812979,-0.36893400,0.27939040,-0.77829200,0.22976200,-0.47607300,-0.84800640,0.40056339,-0.04670540
0.44000000,-0.63566700,0.58333241,-0.66550291,0.21882783,0.72130700,0.00810588,-0.36893400,0.27939339,-0.77829200,0.22976200,-0.47607300,-0.84800939,0.40055144,-0.04670839
0.46000000,-0.63566700,0.58321287,-0.66558659,0.21881887,0.72130700,0.00808197,-0.36893400,0.27939638,-0.77829200,0.22976200,-0.47607300,-0.84801238,0.40053949,-0.04671138
0.48000000,-0.63566700,0.58309334,-0.66567026,0.21880990,0.72130700,0.00805807,-0.36893400,0.27939937,-0.77829200,0.22976200,-0.47607300,-0.84801537,0.40052753,-0.04671437
0.50000000,-0.63566231,0.58299545,-0.66571381,0.21880331,0.72129996,0.00803208,-0.36893869,0.27939765,-0.77828965,0.22976435,-0.47607300,-0.84801600,0.40052500,-0.04671265
0.52000000,-0.63565635,0.58290338,-0.66574657,0.21879735,0.72129103,0.00800552,-0.36894465,0.27939468,-0.77828668,0.22976732,-0.47607300,-0.84801600,0.40052500,-0.04670968
0.54000000,-0.63565039,0.58281131,-0.66577933,0.21879139,0.72128209,0.00797897,-0.36895061,0.27939170,-0.77828370,0.22977030,-0.47607300,-0.84801600,0.40052500,-0.04670670
0.56000000,-0.63564444,0.58271924,-0.66581209,0.21878544,0.72127316,0.00795242,-0.36895656,0.27938872,-0.77828072,0.22977328,-0.47607300,-0.84801600,0.40052500,-0.04670372
0.58000000,-0.63564753,0.58266303,-0.66583340,0.21877494,0.72126647,0.00793921,-0.36895121,0.27939026,-0.77828226,0.22977626,-0.47607300,-0.84801147,0.40052726,-0.04670300
0.60000000,-0.63565350,0.58261823,-0.66585107,0.21876299,0.72126050,0.00793025,-0.36894225,0.27939325,-0.77828525,0.22977925,-0.47607300,-0.84800550,0.40053025,-0.04670300
0.62000000,-0.63565948,0.58257343,-0.66586874,0.21875105,0.72125452,0.00792129,-0.36893329,0.27939624,-0.77828824,0.22978224,-0.47607300,-0.84799952,0.40053324,-0.04670300
0.64000000,-0.63566545,0.58252864,-0.66588641,0.21873910,0.72124855,0.00791233,-0.36892433,0.27939922,-0.77829122,0.22978522,-0.47607300,-0.84799355,0.40053622,-0.04670300
0.66000000,-0.63566258,0.58250594,-0.66590206,0.21873600,0.72124258,0.00790558,-0.36891537,0.27940221,-0.77828979,0.22978379,-0.47607079,-0.84800085,0.40053479,-0.04670300
0.68000000,-0.63565660,0.58249101,-0.66591699,0.21873600,0.72123660,0.00789960,-0.36890640,0.27940520,-0.77828680,0.22978080,-0.47606780,-0.84801280,0.40053180,-0.04670300
0.70000000,-0.63565063,0.58247607,-0.66593193,0.21873600,0.72123063,0.00789363,-0.36889744,0.27940819,-0.77828381,0.22977781,-0.47606481,-0.84802474,0.40052881,-0.04670300
0.72000000,-0.63564465,0.58246113,-0.66594687,0.21873600,0.72122465,0.00788765,-0.36888848,0.27941117,-0.77828083,0.22977483,-0.47606183,-0.84803669,0.40052583,-0.04670300
0.74000000,-0.63564516,0.58245053,-0.66594453,0.21871010,0.72122516,0.00788816,-0.36889463,0.27941416,-0.77828216,0.22977616,-0.47606316,-0.84803784,0.40052716,-0.04670300
0.76000000,-0.63564814,0.58244158,-0.66593558,0.21867431,0.72122814,0.00789114,-0.36890656,0.27941714,-0.77828514,0.22977914,-0.47606614,-0.84803486,0.40053014,-0.04670300
0.78000000,-0.63565112,0.58243263,-0.66592663,0.21863851,0.72123112,0.00789412,-0.36891850,0.27942012,-0.77828812,0.22978212,-0.47606912,-0.84803188,0.40053312,-0.04670300
0.80000000,-0.63565411,0.58242368,-0.66591768,0.21860271,0.72123411,0.00789711,-0.36893043,0.27942311,-0.77829111,0.22978511,-0.47607211,-0.84802889,0.40053611,-0.04670300
0.82000000,-0.63566127,0.58243355,-0.66591082,0.21856481,0.72124546,0.00789591,-0.36893400,0.27942400,-0.77828991,0.22978182,-0.47607300,-0.84802800,0.40054746,-0.04670091
0.84000000,-0.63567023,0.58245145,-0.66590485,0.21852602,0.72126038,0.00789292,-0.36893400,0.27942400,-0.77828692,0.22977585,-0.47607300,-0.84802800,0.40056238,-0.04669792
0.86000000,-0.63567918,0.58246936,-0.66589888,0.21848723,0.72127530,0.00788994,-0.36893400,0.27942400,-0.77828394,0.22976988,-0.47607300,-0.84802800,0.40057730,-0.04669494
0.88000000,-0.63568813,0.58248726,-0.66589291,0.21844844,0.72129022,0.00788696,-0.36893400,0.27942400,-0.77828096,0.22976391,-0.47607300,-0.84802800,0.40059222,-0.04669196
0.90000000,-0.63568694,0.58249300,-0.66589303,0.21846646,0.72129500,0.00789006,-0.36893197,0.27942400,-0.77828000,0.22976200,-0.47607300,-0.84802800,0.40060309,-0.04669303
0.92000000,-0.63568096,0.58249300,-0.66589602,0.21851128,0.72129500,0.00789604,-0.36892898,0.27942400,-0.77828000,0.22976200,-0.47607300,-0.84802800,0.40061206,-0.04669602
0.94000000,-0.63567499,0.58249300,-0.66589901,0.21855611,0.72129500,0.00790201,-0.36892599,0.27942400,-0.77828000,0.22976200,-0.47607300,-0.84802800,0.40062102,-0.04669901
0.96000000,-0.63566901,0.58249300,-0.66590200,0.21860094,0.72129500,0.00790799,-0.36892300,0.27942400,-0.77828000,0.22976200,-0.47607300,-0.84802800,0.40062999,-0.04670200
0.98000000,-0.63566897,0.58249695,-0.66589724,0.21862390,0.72130092,0.00791592,-0.36892595,0.27942597,-0.77828197,0.22976200,-0.47607300,-0.84802603,0.40063103,-0.04670103
1.00000000,-0.63567195,0.58250289,-0.66588857,0.21863579,0.72130984,0.00792484,-0.36893189,0.27942895,-0.77828495,0.22976200,-0.47607300,-0.84802305,0.40062805,-0.04669805
1.02000000,-0.63567492,0.58250884,-0.66587990,0.21864768,0.72131876,0.00793376,-0.36893784,0.27943192,-0.77828792,0.22976200,-0.47607300,-0.84802008,0.40062508,-0.04669508
1.04000000,-0.63567789,0.58251479,-0.66587123,0.21865957,0.72132768,0.00794268,-0.36894379,0.27943489,-0.77829089,0.22976200,-0.47607300,-0.84801711,0.40062211,-0.04669211
1.06000000,-0.63568087,0.58252075,-0.66586800,0.21866400,0.72131788,0.00794413,-0.36893850,0.27943600,-0.77829200,0.22976200,-0.47606738,-0.84801225,0.40062287,-0.04669287
1.08000000,-0.63568386,0.58252672,-0.66586800,0.21866400,0.72129696,0.00794114,-0.36892655,0.27943600,-0.77829200,0.22976200,-0.47605841,-0.84800628,0.40062586,-0.04669586
1.10000000,-0.63568685,0.58253270,-0.66586800,0.21866400,0.72127605,0.00793815,-0.36891460,0.27943600,-0.77829200,0.22976200,-0.47604945,-0.84800030,0.40062885,-0.04669885
1.12000000,-0.63568984,0.58253867,-0.66586800,0.21866400,0.72125514,0.00793516,-0.36890265,0.27943600,-0.77829200,0.22976200,-0.47604049,-0.84799433,0.40063184,-0.04670184
1.14000000,-0.63569100,0.58253735,-0.66586800,0.21866035,0.72125065,0.00793400,-0.36889800,0.27943235,-0.77829018,0.22976200,-0.47604065,-0.84799565,0.40063300,-0.04669935
1.16000000,-0.63569100,0.58253138,-0.66586800,0.21865438,0.72125662,0.00793400,-0.36889800,0.27942638,-0.77828719,0.22976200,-0.47604662,-0.84800162,0.40063300,-0.04669338
1.18000000,-0.63569100,0.58252541,-0.66586800,0.21864841,0.72126259,0.00793400,-0.36889800,0.27942041,-0.77828421,0.22976200,-0.47605259,-0.84800759,0.40063300,-0.04668741
1.20000000,-0.63569100,0.58251944,-0.66586800,0.21864244,0.72126856,0.00793400,-0.36889800,0.27941444,-0.77828122,0.22976200,-0.47605856,-0.84801356,0.40063300,-0.04668144
1.22000000,-0.63568924,0.58251171,-0.66587314,0.21862061,0.72126571,0.00793047,-0.36890329,0.27941200,-0.77828000,0.22976200,-0.47606276,-0.84801953,0.40062771,-0.04668590
1.24000000,-0.63568625,0.58250276,-0.66588185,0.21858778,0.72125676,0.00792450,-0.36891224,0.27941200,-0.77828000,0.22976200,-0.47606575,-0.84802550,0.40061876,-0.04669759
1.26000000,-0.63568327,0.58249380,-0.66589055,0.21855494,0.72124780,0.00791854,-0.36892120,0.27941200,-0.77828000,0.22976200,-0.47606873,-0.84803146,0.40060980,-0.04670929
1.28000000,-0.63568028,0.58248485,-0.66589926,0.21852211,0.72123885,0.00791257,-0.36893015,0.27941200,-0.77828000,0.22976200,-0.47607172,-0.84803743,0.40060085,-0.04672098
1.30000000,-0.63567900,0.58247078,-0.66590470,0.21848599,0.72122989,0.00790489,-0.36893230,0.27941200,-0.77828170,0.22976200,-0.47607130,-0.84804000,0.40059700,-0.04672103
1.32000000,-0.63567900,0.58245285,-0.66590769,0.21844740,0.72122093,0.00789593,-0.36892931,0.27941200,-0.77828469,0.22976200,-0.47606831,-0.84804000,0.40059700,-0.04671232
1.34000000,-0.63567900,0.58243493,-0.66591068,0.21840881,0.72121196,0.00788696,-0.36892632,0.27941200,-0.77828768,0.22976200,-0.47606532,-0.84804000,0.40059700,-0.04670360
1.36000000,-0.63567900,0.58241700,-0.66591367,0.21837022,0.72120300,0.00787800,-0.36892333,0.27941200,-0.77829067,0.22976200,-0.47606233,-0.84804000,0.40059700,-0.04669489
1.38000000,-0.63567900,0.58239576,-0.66591831,0.21832487,0.72119073,0.00786076,-0.36892035,0.27941200,-0.77829200,0.22976200,-0.47606265,-0.84803504,0.40059204,-0.04669100
1.40000000,-0.63567900,0.58237186,-0.66592428,0.21827409,0.72117579,0.00783686,-0.36891736,0.27941200,-0.77829200,0.22976200,-0.47606564,-0.84802607,0.40058307,-0.04669100
1.42000000,-0.63567900,0.58234797,-0.66593026,0.21822330,0.72116085,0.00781297,-0.36891437,0.27941200,-0.77829200,0.22976200,-0.47606863,-0.84801711,0.40057411,-0.04669100
1.44000000,-0.63567900,0.58232407,-0.66593623,0.21817251,0.72114592,0.00778907,-0.36891138,0.27941200,-0.77829200,0.22976200,-0.47607162,-0.84800815,0.40056515,-0.04669100
1.46000000,-0.63567900,0.58229385,-0.66594061,0.21813775,0.72113579,0.00776996,-0.36891482,0.27941200,-0.77829039,0.22976200,-0.47607300,-0.84800882,0.40055939,-0.04668939
1.48000000,-0.63567900,0.58225818,-0.66594360,0.21811680,0.72112980,0.00775500,-0.36892380,0.27941200,-0.77828740,0.22976200,-0.47607300,-0.84801780,0.40055640,-0.04668640
1.50000000,-0.63567900,0.58222251,-0.66594659,0.21809585,0.72112381,0.00774003,-0.36893278,0.27941200,-0.77828441,0.22976200,-0.47607300,-0.84802678,0.40055341,-0.04668341
1.52000000,-0.63567900,0.58218685,-0.66594959,0.21807490,0.72111783,0.00772507,-0.36894176,0.27941200,-0.77828141,0.22976200,-0.47607300,-0.84803576,0.40055041,-0.04668041
1.54000000,-0.63567743,0.58215740,-0.66594943,0.21804925,0.72111185,0.00771170,-0.36894443,0.27940728,-0.77828315,0.22976200,-0.47607143,-0.84803685,0.40054585,-0.04668372
1.56000000,-0.63567444,0.58213352,-0.66594644,0.21801940,0.72110588,0.00769976,-0.36894144,0.27939832,-0.77828912,0.22976200,-0.47606844,-0.84803088,0.40053988,-0.04669268
1.58000000,-0.63567146,0.58210964,-0.66594346,0.21798955,0.72109991,0.00768782,-0.36893846,0.27938937,-0.77829509,0.22976200,-0.47606546,-0.84802491,0.40053391,-0.04670163
1.60000000,-0.63566847,0.58208576,-0.66594047,0.21795970,0.72109394,0.00767588,-0.36893547,0.27938041,-0.77830106,0.22976200,-0.47606247,-0.84801894,0.40052794,-0.04671059
1.62000000,-0.63566700,0.58206946,-0.66593900,0.21792834,0.72108646,0.00766546,-0.36893400,0.27938054,-0.77830097,0.22976351,-0.47605949,-0.84801449,0.40052803,-0.04671500
1.64000000,-0.63566700,0.58206050,-0.66593900,0.21789550,0.72107750,0.00765650,-0.36893400,0.27938950,-0.77829500,0.22976650,-0.47605650,-0.84801150,0.40053400,-0.04671500
1.66000000,-0.63566700,0.58205154,-0.66593900,0.21786266,0.72106854,0.00764754,-0.36893400,0.27939846,-0.77828903,0.22976949,-0.47605351,-0.84800851,0.40053997,-0.04671500
1.68000000,-0.63566700,0.58204259,-0.66593900,0.21782981,0.72105959,0.00763859,-0.36893400,0.27940741,-0.77828306,0.22977247,-0.47605053,-0.84800553,0.40054594,-0.04671500
1.70000000,-0.63566989,0.58203800,-0.66593611,0.21780000,0.72105933,0.00762822,-0.36893544,0.27941056,-0.77828000,0.22977400,-0.47605044,-0.84800544,0.40054900,-0.04671356
1.72000000,-0.63567581,0.58203800,-0.66593019,0.21777337,0.72106821,0.00761639,-0.36893840,0.27940760,-0.77828000,0.22977400,-0.47605340,-0.84800840,0.40054900,-0.04671060
1.74000000,-0.63568172,0.58203800,-0.66592428,0.21774674,0.72107709,0.00760455,-0.36894136,0.27940464,-0.77828000,0.22977400,-0.47605636,-0.84801136,0.40054900,-0.04670764
1.76000000,-0.63568764,0.58203800,-0.66591836,0.21772012,0.72108596,0.00759272,-0.36894432,0.27940168,-0.77828000,0.22977400,-0.47605932,-0.84801432,0.40054900,-0.04670468
1.78000000,-0.63569100,0.58203671,-0.66591242,0.21769865,0.72109100,0.00758729,-0.36894600,0.27940000,-0.77828129,0.22977271,-0.47606229,-0.84801600,0.40054900,-0.04670300
1.80000000,-0.63569100,0.58203372,-0.66590644,0.21768396,0.72109100,0.00759028,-0.36894600,0.27940000,-0.77828428,0.22976972,-0.47606528,-0.84801600,0.40054900,-0.04670300
1.82000000,-0.63569100,0.58203073,-0.66590047,0.21766928,0.72109100,0.00759327,-0.36894600,0.27940000,-0.77828727,0.22976673,-0.47606827,-0.84801600,0.40054900,-0.04670300
1.84000000,-0.63569100,0.58202775,-0.66589450,0.21765459,0.72109100,0.00759625,-0.36894600,0.27940000,-0.77829025,0.22976375,-0.47607125,-0.84801600,0.40054900,-0.04670300
1.86000000,-0.63569100,0.58202724,-0.66589347,0.21764353,0.72109347,0.00759924,-0.36894476,0.27940000,-0.77829076,0.22976324,-0.47607176,-0.84801724,0.40054900,-0.04670053
1.88000000,-0.63569100,0.58203021,-0.66589943,0.21763757,0.72109943,0.00760221,-0.36894179,0.27940000,-0.77828779,0.22976621,-0.47606879,-0.84802021,0.40054900,-0.04669457
1.90000000,-0.63569100,0.58203319,-0.66590539,0.21763161,0.72110539,0.00760519,-0.36893881,0.27940000,-0.77828481,0.22976919,-0.47606581,-0.84802319,0.40054900,-0.04668861
1.92000000,-0.63569100,0.58203617,-0.66591134,0.21762566,0.72111134,0.00760817,-0.36893583,0.27940000,-0.77828183,0.22977217,-0.47606283,-0.84802617,0.40054900,-0.04668266
1.94000000,-0.63569100,0.58203684,-0.66591500,0.21762200,0.72111269,0.00761116,-0.36893169,0.27940000,-0.77828000,0.22977284,-0.47606216,-0.84802800,0.40054784,-0.04668247
1.96000000,-0.63569100,0.58203385,-0.66591500,0.21762200,0.72110670,0.00761415,-0.36892570,0.27940000,-0.77828000,0.22976985,-0.47606515,-0.84802800,0.40054485,-0.04669145
1.98000000,-0.63569100,0.58203085,-0.66591500,0.21762200,0.72110071,0.00761715,-0.36891971,0.27940000,-0.77828000,0.22976685,-0.47606815,-0.84802800,0.40054185,-0.04670044
2.00000000,-0.63569100,0.58202786,-0.66591500,0.21762200,0.72109472,0.00762014,-0.36891372,0.27940000,-0.77828000,0.22976386,-0.47607114,-0.84802800,0.40053886,-0.04670942
2.02000000,-0.63568987,0.58202713,-0.66591613,0.21762200,0.72109440,0.00762200,-0.36890887,0.27940113,-0.77828113,0.22976200,-0.47607187,-0.84802687,0.40053587,-0.04671387
2.04000000,-0.63568688,0.58203012,-0.66591912,0.21762200,0.72110336,0.00762200,-0.36890588,0.27940412,-0.77828412,0.22976200,-0.47606888,-0.84802388,0.40053288,-0.04671088
2.06000000,-0.63568389,0.58203311,-0.66592211,0.21762200,0.72111233,0.00762200,-0.36890289,0.27940711,-0.77828711,0.22976200,-0.47606589,-0.84802089,0.40052989,-0.04670789
2.08000000,-0.63568090,0.58203610,-0.66592510,0.21762200,0.72112129,0.00762200,-0.36889990,0.27941010,-0.77829010,0.22976200,-0.47606290,-0.84801790,0.40052690,-0.04670490
2.10000000,-0.63568009,0.58203800,-0.66592591,0.21762417,0.72112374,0.00762200,-0.36889909,0.27941091,-0.77829091,0.22976309,-0.47606209,-0.84801709,0.40052500,-0.04670409
2.12000000,-0.63568308,0.58203800,-0.66592292,0.21763016,0.72111476,0.00762200,-0.36890208,0.27940792,-0.77828792,0.22976608,-0.47606508,-0.84802008,0.40052500,-0.04670708
2.14000000,-0.63568607,0.58203800,-0.66591993,0.21763614,0.72110578,0.00762200,-0.36890507,0.27940493,-0.77828493,0.22976907,-0.47606807,-0.84802307,0.40052500,-0.04671007
2.16000000,-0.63568906,0.58203800,-0.66591694,0.21764213,0.72109681,0.00762200,-0.36890806,0.27940194,-0.77828194,0.22977206,-0.47607106,-0.84802606,0.40052500,-0.04671306
2.18000000,-0.63569100,0.58203905,-0.66591500,0.21764600,0.72109311,0.00762305,-0.36891316,0.27940000,-0.77828105,0.22977295,-0.47607195,-0.84802800,0.40052711,-0.04671500
2.20000000,-0.63569100,0.58204204,-0.66591500,0.21764600,0.72109908,0.00762604,-0.36892212,0.27940000,-0.77828404,0.22976996,-0.47606896,-0.84802800,0.40053308,-0.04671500
2.22000000,-0.63569100,0.58204503,-0.66591500,0.21764600,0.72110505,0.00762903,-0.36893108,0.27940000,-0.77828703,0.22976697,-0.47606597,-0.84802800,0.40053905,-0.04671500
2.24000000,-0.63569100,0.58204801,-0.66591500,0.21764600,0.72111103,0.00763201,-0.36894004,0.27940000,-0.77829001,0.22976399,-0.47606299,-0.84802800,0.40054503,-0.04671500
2.26000000,-0.63569100,0.58204900,-0.66591500,0.21764891,0.72111500,0.00763400,-0.36894400,0.27940100,-0.77829100,0.22976200,-0.47606300,-0.84802900,0.40054601,-0.04671300
2.28000000,-0.63569100,0.58204602,-0.66591500,0.21765762,0.72111500,0.00763400,-0.36893803,0.27940398,-0.77828802,0.22976200,-0.47606897,-0.84803198,0.40053705,-0.04670703
2.30000000,-0.63569100,0.58204303,-0.66591500,0.21766633,0.72111500,0.00763400,-0.36893206,0.27940697,-0.77828503,0.22976200,-0.47607494,-0.84803497,0.40052809,-0.04670106
2.32000000,-0.63569100,0.58204005,-0.66591500,0.21767503,0.72111500,0.00763400,-0.36892609,0.27940995,-0.77828205,0.22976200,-0.47608091,-0.84803795,0.40051914,-0.04669509
2.34000000,-0.63569100,0.58203988,-0.66591500,0.21768570,0.72111688,0.00763588,-0.36892200,0.27941200,-0.77828094,0.22976200,-0.47608406,-0.84803718,0.40051676,-0.04669288
2.36000000,-0.63569100,0.58204585,-0.66591500,0.21770063,0.72112285,0.00764185,-0.36892200,0.27941200,-0.77828393,0.22976200,-0.47608107,-0.84802822,0.40052870,-0.04669885
2.38000000,-0.63569100,0.58205182,-0.66591500,0.21771555,0.72112882,0.00764782,-0.36892200,0.27941200,-0.77828691,0.22976200,-0.47607809,-0.84801927,0.40054064,-0.04670482
2.40000000,-0.63569100,0.58205779,-0.66591500,0.21773048,0.72113479,0.00765379,-0.36892200,0.27941200,-0.77828990,0.22976200,-0.47607510,-0.84801031,0.40055259,-0.04671079
2.42000000,-0.63569100,0.58206288,-0.66591500,0.21774541,0.72113812,0.00765977,-0.36892112,0.27941200,-0.77829112,0.22976200,-0.47607300,-0.84800577,0.40056277,-0.04671323
2.44000000,-0.63569100,0.58206587,-0.66591500,0.21776034,0.72113513,0.00766574,-0.36891813,0.27941200,-0.77828813,0.22976200,-0.47607300,-0.84801174,0.40056874,-0.04670726
2.46000000,-0.63569100,0.58206885,-0.66591500,0.21777527,0.72113215,0.00767171,-0.36891515,0.27941200,-0.77828515,0.22976200,-0.47607300,-0.84801771,0.40057471,-0.04670129
2.48000000,-0.63569100,0.58207184,-0.66591500,0.21779020,0.72112916,0.00767768,-0.36891216,0.27941200,-0.77828216,0.22976200,-0.47607300,-0.84802368,0.40058068,-0.04669532
2.50000000,-0.63568935,0.58207400,-0.66591665,0.21780430,0.72112865,0.00768200,-0.36891000,0.27941200,-0.77828000,0.22976200,-0.47607300,-0.84802800,0.40058087,-0.04669183
2.52000000,-0.63568336,0.58207400,-0.66592264,0.21781627,0.72113464,0.00768200,-0.36891000,0.27941200,-0.77828000,0.22976200,-0.47607300,-0.84802800,0.40056591,-0.04669482
2.54000000,-0.63567738,0.58207400,-0.66592862,0.21782824,0.72114062,0.00768200,-0.36891000,0.27941200,-0.77828000,0.22976200,-0.47607300,-0.84802800,0.40055096,-0.04669781
2.56000000,-0.63567140,0.58207400,-0.66593460,0.21784020,0.72114660,0.00768200,-0.36891000,0.27941200,-0.77828000,0.22976200,-0.47607300,-0.84802800,0.40053600,-0.04670080
2.58000000,-0.63566934,0.58207400,-0.66593666,0.21785056,0.72115256,0.00768122,-0.36891000,0.27941122,-0.77828078,0.22976200,-0.47607300,-0.84802566,0.40052578,-0.04670300
2.60000000,-0.63567820,0.58207400,-0.66592780,0.21785647,0.72115847,0.00767827,-0.36891000,0.27940827,-0.77828373,0.22976200,-0.47607300,-0.84801680,0.40052873,-0.04670300
2.62000000,-0.63568707,0.58207400,-0.66591893,0.21786238,0.72116438,0.00767531,-0.36891000,0.27940531,-0.77828669,0.22976200,-0.47607300,-0.84800793,0.40053169,-0.04670300
2.64000000,-0.63569593,0.58207400,-0.66591007,0.21786828,0.72117028,0.00767236,-0.36891000,0.27940236,-0.77828964,0.22976200,-0.47607300,-0.84799907,0.40053464,-0.04670300
2.66000000,-0.63570180,0.58207400,-0.66590125,0.21787540,0.72117620,0.00767060,-0.36890940,0.27940000,-0.77829200,0.22976320,-0.47607300,-0.84799200,0.40053760,-0.04670240
2.68000000,-0.63569584,0.58207400,-0.66589256,0.21788732,0.72118216,0.00767358,-0.36890642,0.27940000,-0.77829200,0.22976916,-0.47607300,-0.84799200,0.40054058,-0.04669942
2.70000000,-0.63568988,0.58207400,-0.66588387,0.21789923,0.72118812,0.00767656,-0.36890344,0.27940000,-0.77829200,0.22977512,-0.47607300,-0.84799200,0.40054356,-0.04669644
2.72000000,-0.63568393,0.58207400,-0.66587518,0.21791115,0.72119407,0.00767954,-0.36890046,0.27940000,-0.77829200,0.22978107,-0.47607300,-0.84799200,0.40054654,-0.04669346
2.74000000,-0.63567900,0.58207400,-0.66586899,0.21792152,0.72119848,0.00768148,-0.36889593,0.27940052,-0.77829148,0.22978548,-0.47607300,-0.84799252,0.40054900,-0.04669100
2.76000000,-0.63567900,0.58207400,-0.66587472,0.21792450,0.72119550,0.00767850,-0.36888398,0.27940350,-0.77828850,0.22978250,-0.47607300,-0.84799550,0.40054900,-0.04669100
2.78000000,-0.63567900,0.58207400,-0.66588044,0.21792749,0.72119251,0.00767551,-0.36887203,0.27940649,-0.77828551,0.22977951,-0.47607300,-0.84799849,0.40054900,-0.04669100
2.80000000,-0.63567900,0.58207400,-0.66588617,0.21793048,0.72118952,0.00767252,-0.36886008,0.27940948,-0.77828252,0.22977652,-0.47607300,-0.84800148,0.40054900,-0.04669100
2.82000000,-0.63567900,0.58207400,-0.66589193,0.21793254,0.72118700,0.00767046,-0.36885232,0.27941154,-0.77828000,0.22977354,-0.47607254,-0.84800493,0.40054946,-0.04669146
2.84000000,-0.63567900,0.58207400,-0.66589787,0.21792957,0.72118700,0.00767343,-0.36886716,0.27940857,-0.77828000,0.22977057,-0.47606957,-0.84801087,0.40055243,-0.04669443
2.86000000,-0.63567900,0.58207400,-0.66590380,0.21792660,0.72118700,0.00767640,-0.36888201,0.27940560,-0.77828000,0.22976760,-0.47606660,-0.84801680,0.40055540,-0.04669740
2.88000000,-0.63567900,0.58207400,-0.66590974,0.21792363,0.72118700,0.00767937,-0.36889685,0.27940263,-0.77828000,0.22976463,-0.47606363,-0.84802274,0.40055837,-0.04670037
2.90000000,-0.63567934,0.58207434,-0.66591466,0.21792066,0.72118734,0.00768166,-0.36890932,0.27940034,-0.77828000,0.22976268,-0.47606100,-0.84802766,0.40056100,-0.04670266
2.92000000,-0.63568230,0.58207730,-0.66591170,0.21791770,0.72119030,0.00767870,-0.36890340,0.27940330,-0.77828000,0.22976860,-0.47606100,-0.84802470,0.40056100,-0.04669970
2.94000000,-0.63568526,0.58208026,-0.66590874,0.21791474,0.72119326,0.00767574,-0.36889748,0.27940626,-0.77828000,0.22977452,-0.47606100,-0.84802174,0.40056100,-0.04669674
2.96000000,-0.63568822,0.58208322,-0.66590578,0.21791178,0.72119622,0.00767278,-0.36889156,0.27940922,-0.77828000,0.22978044,-0.47606100,-0.84801878,0.40056100,-0.04669378
2.98000000,-0.63569100,0.58208564,-0.66590282,0.21790864,0.72119864,0.00767000,-0.36888618,0.27941218,-0.77828000,0.22978582,-0.47606100,-0.84801600,0.40056082,-0.04669136
3.00000000,-0.63569100,0.58207975,-0.66589988,0.21790275,0.72119275,0.00767000,-0.36888912,0.27941512,-0.77828000,0.22978288,-0.47606100,-0.84801600,0.40055788,-0.04669725
3.02000000,-0.63569100,0.58207386,-0.66589693,0.21789686,0.72118686,0.00767000,-0.36889207,0.27941807,-0.77828000,0.22977993,-0.47606100,-0.84801600,0.40055493,-0.04670314
3.04000000,-0.63569100,0.58206798,-0.66589399,0.21789098,0.72118098,0.00767000,-0.36889501,0.27942101,-0.77828000,0.22977699,-0.47606100,-0.84801600,0.40055199,-0.04670902
3.06000000,-0.63569100,0.58206209,-0.66589105,0.21788509,0.72117509,0.00767000,-0.36889795,0.27942395,-0.77828000,0.22977405,-0.47606100,-0.84801600,0.40054905,-0.04671491
3.08000000,-0.63568810,0.58206200,-0.66589681,0.21788210,0.72116629,0.00767000,-0.36889800,0.27942110,-0.77828000,0.22977110,-0.47606390,-0.84801890,0.40054900,-0.04670919
3.10000000,-0.63568515,0.58206200,-0.66590271,0.21787915,0.72115744,0.00767000,-0.36889800,0.27941815,-0.77828000,0.22976815,-0.47606685,-0.84802185,0.40054900,-0.04670329
3.12000000,-0.63568220,0.58206200,-0.66590861,0.21787620,0.72114859,0.00767000,-0.36889800,0.27941520,-0.77828000,0.22976520,-0.47606980,-0.84802480,0.40054900,-0.04669739
3.14000000,-0.63567925,0.58206200,-0.66591451,0.21787325,0.72113974,0.00767000,-0.36889800,0.27941225,-0.77828000,0.22976225,-0.47607275,-0.84802775,0.40054900,-0.04669149
3.16000000,-0.63568173,0.58206200,-0.66591500,0.21786482,0.72114173,0.00767000,-0.36889800,0.27941200,-0.77828273,0.22976473,-0.47607300,-0.84802255,0.40054900,-0.04669373
3.18000000,-0.63568470,0.58206200,-0.66591500,0.21785590,0.72114470,0.00767000,-0.36889800,0.27941200,-0.77828570,0.22976770,-0.47607300,-0.84801660,0.40054900,-0.04669670
3.20000000,-0.63568768,0.58206200,-0.66591500,0.21784697,0.72114768,0.00767000,-0.36889800,0.27941200,-0.77828868,0.22977068,-0.47607300,-0.84801065,0.40054900,-0.04669968
3.22000000,-0.63569065,0.58206200,-0.66591500,0.21783805,0.72115065,0.00767000,-0.36889800,0.27941200,-0.77829165,0.22977365,-0.47607300,-0.84800470,0.40054900,-0.04670265
3.24000000,-0.63569100,0.58206200,-0.66590975,0.21783437,0.72114837,0.00767263,-0.36889275,0.27941200,-0.77828937,0.22977400,-0.47607037,-0.84800400,0.40054637,-0.04670300
3.26000000,-0.63569100,0.58206200,-0.66590380,0.21783140,0.72114540,0.00767560,-0.36888680,0.27941200,-0.77828640,0.22977400,-0.47606740,-0.84800400,0.40054340,-0.04670300
3.28000000,-0.63569100,0.58206200,-0.66589785,0.21782842,0.72114242,0.00767858,-0.36888085,0.27941200,-0.77828342,0.22977400,-0.47606442,-0.84800400,0.40054042,-0.04670300
3.30000000,-0.63569100,0.58206200,-0.66589190,0.21782545,0.72113945,0.00768155,-0.36887490,0.27941200,-0.77828045,0.22977400,-0.47606145,-0.84800400,0.40053745,-0.04670300
3.32000000,-0.63569100,0.58205692,-0.66589354,0.21781738,0.72113138,0.00767692,-0.36888670,0.27940946,-0.77827746,0.22977400,-0.47606100,-0.84800908,0.40053700,-0.04669538
3.34000000,-0.63569100,0.58205094,-0.66589653,0.21780841,0.72112241,0.00767094,-0.36890166,0.27940647,-0.77827447,0.22977400,-0.47606100,-0.84801506,0.40053700,-0.04668641
3.36000000,-0.63569100,0.58204495,-0.66589952,0.21779943,0.72111343,0.00766495,-0.36891662,0.27940348,-0.77827148,0.22977400,-0.47606100,-0.84802105,0.40053700,-0.04667743
3.38000000,-0.63569100,0.58203897,-0.66590251,0.21779046,0.72110446,0.00765897,-0.36893157,0.27940049,-0.77826849,0.22977400,-0.47606100,-0.84802703,0.40053700,-0.04666846
3.40000000,-0.63568850,0.58204301,-0.66590050,0.21778900,0.72110550,0.00766050,-0.36893400,0.27940250,-0.77827551,0.22977150,-0.47606100,-0.84802550,0.40053950,-0.04667201
3.42000000,-0.63568551,0.58204898,-0.66589751,0.21778900,0.72110849,0.00766349,-0.36893400,0.27940549,-0.77828447,0.22976851,-0.47606100,-0.84802251,0.40054249,-0.04667798
3.44000000,-0.63568252,0.58205496,-0.66589452,0.21778900,0.72111148,0.00766648,-0.36893400,0.27940848,-0.77829344,0.22976552,-0.47606100,-0.84801952,0.40054548,-0.04668396
3.46000000,-0.63567953,0.58206093,-0.66589153,0.21778900,0.72111447,0.00766947,-0.36893400,0.27941147,-0.77830240,0.22976253,-0.47606100,-0.84801653,0.40054847,-0.04668993
3.48000000,-0.63568145,0.58206200,-0.66589345,0.21778900,0.72111500,0.00767000,-0.36892419,0.27941200,-0.77830155,0.22976200,-0.47606345,-0.84801600,0.40054655,-0.04669345
3.50000000,-0.63568444,0.58206200,-0.66589644,0.21778900,0.72111500,0.00767000,-0.36891224,0.27941200,-0.77829856,0.22976200,-0.47606644,-0.84801600,0.40054356,-0.04669644
3.52000000,-0.63568743,0.58206200,-0.66589943,0.21778900,0.72111500,0.00767000,-0.36890029,0.27941200,-0.77829557,0.22976200,-0.47606943,-0.84801600,0.40054057,-0.04669943
3.54000000,-0.63569041,0.58206200,-0.66590241,0.21778900,0.72111500,0.00767000,-0.36888835,0.27941200,-0.77829259,0.22976200,-0.47607241,-0.84801600,0.40053759,-0.04670241
3.56000000,-0.63569100,0.58206200,-0.66590060,0.21778900,0.72111260,0.00767000,-0.36889079,0.27941200,-0.77828960,0.22976200,-0.47607300,-0.84801840,0.40053940,-0.04670060
3.58000000,-0.63569100,0.58206200,-0.66589762,0.21778900,0.72110962,0.00767000,-0.36889675,0.27941200,-0.77828662,0.22976200,-0.47607300,-0.84802138,0.40054238,-0.04669762
3.60000000,-0.63569100,0.58206200,-0.66589464,0.21778900,0.72110664,0.00767000,-0.36890272,0.27941200,-0.77828364,0.22976200,-0.47607300,-0.84802436,0.40054536,-0.04669464
3.62000000,-0.63569100,0.58206200,-0.66589166,0.21778900,0.72110366,0.00767000,-0.36890868,0.27941200,-0.77828066,0.22976200,-0.47607300,-0.84802734,0.40054834,-0.04669166
3.64000000,-0.63569100,0.58205968,-0.66589565,0.21778900,0.72110997,0.00766768,-0.36890768,0.27941200,-0.77827768,0.22976200,-0.47607068,-0.84802568,0.40055597,-0.04669332
3.66000000,-0.63569100,0.58205669,-0.66590162,0.21778900,0.72111893,0.00766469,-0.36890469,0.27941200,-0.77827469,0.22976200,-0.47606769,-0.84802269,0.40056493,-0.04669631
3.68000000,-0.63569100,0.58205370,-0.66590759,0.21778900,0.72112789,0.00766170,-0.36890170,0.27941200,-0.77827170,0.22976200,-0.47606470,-0.84801970,0.40057389,-0.04669930
3.70000000,-0.63569100,0.58205072,-0.66591356,0.21778900,0.72113685,0.00765872,-0.36889872,0.27941200,-0.77826872,0.22976200,-0.47606172,-0.84801672,0.40058285,-0.04670228
3.72000000,-0.63569100,0.58205227,-0.66591273,0.21779127,0.72114581,0.00766027,-0.36890481,0.27941200,-0.77827254,0.22976200,-0.47606327,-0.84801827,0.40057139,-0.04670073
3.74000000,-0.63569100,0.58205526,-0.66590974,0.21779426,0.72115477,0.00766326,-0.36891377,0.27941200,-0.77827851,0.22976200,-0.47606626,-0.84802126,0.40055347,-0.04669774
3.76000000,-0.63569100,0.58205824,-0.66590676,0.21779724,0.72116373,0.00766624,-0.36892273,0.27941200,-0.77828449,0.22976200,-0.47606924,-0.84802424,0.40053554,-0.04669476
3.78000000,-0.63569100,0.58206123,-0.66590377,0.21780023,0.72117269,0.00766923,-0.36893169,0.27941200,-0.77829046,0.22976200,-0.47607223,-0.84802723,0.40051762,-0.04669177
3.80000000,-0.63569100,0.58206200,-0.66590078,0.21780100,0.72116835,0.00767222,-0.36893178,0.27941200,-0.77828978,0.22976200,-0.47607300,-0.84802356,0.40051744,-0.04669100
3.82000000,-0.63569100,0.58206200,-0.66589779,0.21780100,0.72115938,0.00767521,-0.36892879,0.27941200,-0.77828679,0.22976200,-0.47607300,-0.84801759,0.40052341,-0.04669100
3.84000000,-0.63569100,0.58206200,-0.66589480,0.21780100,0.72115041,0.00767820,-0.36892580,0.27941200,-0.77828380,0.22976200,-0.47607300,-0.84801161,0.40052939,-0.04669100
3.86000000,-0.63569100,0.58206200,-0.66589181,0.21780100,0.72114144,0.00768119,-0.36892281,0.27941200,-0.77828081,0.22976200,-0.47607300,-0.84800563,0.40053537,-0.04669100
3.88000000,-0.63569100,0.58206200,-0.66589535,0.21780317,0.72113900,0.00767983,-0.36892417,0.27940983,-0.77827783,0.22976200,-0.47607083,-0.84800617,0.40054787,-0.04669100
3.90000000,-0.63569100,0.58206200,-0.66590133,0.21780616,0.72113900,0.00767684,-0.36892716,0.27940684,-0.77827484,0.22976200,-0.47606784,-0.84800916,0.40056281,-0.04669100
3.92000000,-0.63569100,0.58206200,-0.66590730,0.21780915,0.72113900,0.00767385,-0.36893015,0.27940385,-0.77827185,0.22976200,-0.47606485,-0.84801215,0.40057776,-0.04669100
3.94000000,-0.63569100,0.58206200,-0.66591328,0.21781214,0.72113900,0.00767086,-0.36893314,0.27940086,-0.77826886,0.22976200,-0.47606186,-0.84801514,0.40059270,-0.04669100
3.96000000,-0.63569100,0.58206413,-0.66591500,0.21781513,0.72113900,0.00767213,-0.36894464,0.27940213,-0.77827013,0.22976413,-0.47606100,-0.84802026,0.40059062,-0.04669100
3.98000000,-0.63569100,0.58206711,-0.66591500,0.21781811,0.72113900,0.00767511,-0.36895957,0.27940511,-0.77827311,0.22976711,-0.47606100,-0.84802623,0.40058166,-0.04669100
4.00000000,-0.63569100,0.58207010,-0.66591500,0.21782110,0.72113900,0.00767810,-0.36897451,0.27940810,-0.77827610,0.22977010,-0.47606100,-0.84803220,0.40057270,-0.04669100
4.02000000,-0.63569100,0.58207309,-0.66591500,0.21782409,0.72113900,0.00768109,-0.36898944,0.27941109,-0.77827909,0.22977309,-0.47606100,-0.84803818,0.40056374,-0.04669100
4.04000000,-0.63569307,0.58207607,-0.66591293,0.21782293,0.72113485,0.00768615,-0.36902303,0.27941200,-0.77828000,0.22977193,-0.47606307,-0.84803793,0.40056515,-0.04669307
4.06000000,-0.63569606,0.58207906,-0.66590994,0.21781994,0.72112888,0.00769212,-0.36906483,0.27941200,-0.77828000,0.22976894,-0.47606606,-0.84803494,0.40057112,-0.04669606
4.08000000,-0.63569904,0.58208204,-0.66590696,0.21781696,0.72112291,0.00769809,-0.36910663,0.27941200,-0.77828000,0.22976596,-0.47606904,-0.84803196,0.40057709,-0.04669904
4.10000000,-0.63570203,0.58208503,-0.66590397,0.21781397,0.72111694,0.00770406,-0.36914842,0.27941200,-0.77828000,0.22976297,-0.47607203,-0.84802897,0.40058306,-0.04670203
4.12000000,-0.63569898,0.58208801,-0.66589714,0.21780697,0.72110294,0.00771404,-0.36923823,0.27940798,-0.77828201,0.22976200,-0.47607300,-0.84802800,0.40058299,-0.04670501
4.14000000,-0.63569302,0.58209099,-0.66588845,0.21779804,0.72108507,0.00772595,-0.36935113,0.27940202,-0.77828499,0.22976200,-0.47607300,-0.84802800,0.40058001,-0.04670799
4.16000000,-0.63568707,0.58209397,-0.66587977,0.21778910,0.72106721,0.00773786,-0.36946402,0.27939607,-0.77828797,0.22976200,-0.47607300,-0.84802800,0.40057703,-0.04671097
4.18000000,-0.63568111,0.58209694,-0.66587108,0.21778017,0.72104934,0.00774977,-0.36957692,0.27939011,-0.77829094,0.22976200,-0.47607300,-0.84802800,0.40057406,-0.04671394
4.20000000,-0.63568477,0.58210185,-0.66586415,0.21775215,0.72102184,0.00777708,-0.36973050,0.27939185,-0.77829008,0.22976392,-0.47607300,-0.84802992,0.40057685,-0.04671308
4.22000000,-0.63569372,0.58210781,-0.66585819,0.21771363,0.72098903,0.00781288,-0.36990647,0.27939781,-0.77828709,0.22976691,-0.47607300,-0.84803291,0.40058281,-0.04671009
4.24000000,-0.63570267,0.58211378,-0.66585222,0.21767510,0.72095622,0.00784867,-0.37008244,0.27940378,-0.77828411,0.22976989,-0.47607300,-0.84803589,0.40058878,-0.04670711
4.26000000,-0.63571161,0.58211974,-0.66584626,0.21763658,0.72092341,0.00788446,-0.37025841,0.27940974,-0.77828113,0.22977287,-0.47607300,-0.84803887,0.40059474,-0.04670413
4.28000000,-0.63571500,0.58212756,-0.66583102,0.21757380,0.72088319,0.00792751,-0.37050080,0.27941015,-0.77828185,0.22977215,-0.47607115,-0.84803815,0.40058773,-0.04670115
4.30000000,-0.63571500,0.58213651,-0.66581015,0.21749626,0.72083846,0.00797497,-0.37078362,0.27940716,-0.77828484,0.22976916,-0.47606816,-0.84803516,0.40057282,-0.04669816
4.32000000,-0.63571500,0.58214545,-0.66578927,0.21741872,0.72079373,0.00802244,-0.37106643,0.27940418,-0.77828782,0.22976618,-0.47606518,-0.84803218,0.40055791,-0.04669518
4.34000000,-0.63571500,0.58215440,-0.66576840,0.21734119,0.72074899,0.00806991,-0.37134925,0.27940120,-0.77829080,0.22976320,-0.47606220,-0.84802920,0.40054300,-0.04669220
4.36000000,-0.63572035,0.58216870,-0.66575465,0.21723706,0.72068480,0.00813713,-0.37169443,0.27940178,-0.77829200,0.22976200,-0.47606100,-0.84802622,0.40054235,-0.04669457
4.38000000,-0.63572929,0.58218659,-0.66574571,0.21711506,0.72060752,0.00821764,-0.37208157,0.27940476,-0.77829200,0.22976200,-0.47606100,-0.84802324,0.40055129,-0.04670053
4.40000000,-0.63573824,0.58220448,-0.66573676,0.21699305,0.72053025,0.00829815,-0.37246871,0.27940775,-0.77829200,0.22976200,-0.47606100,-0.84802025,0.40056024,-0.04670649
4.42000000,-0.63574718,0.58222237,-0.66572782,0.21687105,0.72045297,0.00837865,-0.37285585,0.27941073,-0.77829200,0.22976200,-0.47606100,-0.84801727,0.40056918,-0.04671246
4.44000000,-0.63577323,0.58225380,-0.66568466,0.21667034,0.72032778,0.00849838,-0.37335922,0.27941029,-0.77829200,0.22976200,-0.47606100,-0.84802113,0.40057129,-0.04671158
4.46000000,-0.63581201,0.58229531,-0.66561606,0.21641108,0.72016696,0.00864727,-0.37394908,0.27940731,-0.77829200,0.22976200,-0.47606100,-0.84803008,0.40056831,-0.04670561
4.48000000,-0.63585079,0.58233683,-0.66554745,0.21615182,0.72000613,0.00879616,-0.37453894,0.27940432,-0.77829200,0.22976200,-0.47606100,-0.84803903,0.40056532,-0.04669965
4.50000000,-0.63588957,0.58237834,-0.66547885,0.21589256,0.71984531,0.00894506,-0.37512880,0.27940134,-0.77829200,0.22976200,-0.47606100,-0.84804798,0.40056234,-0.04669368
4.52000000,-0.63595445,0.58242161,-0.66539071,0.21559906,0.71969096,0.00912672,-0.37575116,0.27940000,-0.77829036,0.22976200,-0.47606264,-0.84804380,0.40055936,-0.04669264
4.54000000,-0.63604066,0.58246633,-0.66528661,0.21527759,0.71954190,0.00933516,-0.37640007,0.27940000,-0.77828738,0.22976200,-0.47606562,-0.84802889,0.40055638,-0.04669562
4.56000000,-0.63612686,0.58251105,-0.66518252,0.21495611,0.71939284,0.00954360,-0.37704898,0.27940000,-0.77828440,0.22976200,-0.47606860,-0.84801398,0.40055340,-0.04669860
4.58000000,-0.63621307,0.58255577,-0.66507842,0.21463464,0.71924377,0.00975203,-0.37769790,0.27940000,-0.77828142,0.22976200,-0.47607158,-0.84799908,0.40055042,-0.04670158
4.60000000,-0.63633389,0.58264110,-0.66496164,0.21420655,0.71905421,0.00998559,-0.37846447,0.27940000,-0.77828000,0.22976200,-0.47607300,-0.84799670,0.40054900,-0.04670457
4.62000000,-0.63648601,0.58276314,-0.66483338,0.21368210,0.71882802,0.01024185,-0.37933740,0.27940000,-0.77828000,0.22976200,-0.47607300,-0.84800565,0.40054900,-0.04670755
4.64000000,-0.63663813,0.58288518,-0.66470513,0.21315764,0.71860183,0.01049812,-0.38021034,0.27940000,-0.77828000,0.22976200,-0.47607300,-0.84801460,0.40054900,-0.04671053
4.66000000,-0.63679025,0.58300722,-0.66457687,0.21263318,0.71837564,0.01075438,-0.38108328,0.27940000,-0.77828000,0.22976200,-0.47607300,-0.84802354,0.40054900,-0.04671351
4.68000000,-0.63695429,0.58315641,-0.66442471,0.21207729,0.71813126,0.01101362,-0.38187415,0.27940150,-0.77828000,0.22976500,-0.47607300,-0.84802650,0.40054750,-0.04671350
4.70000000,-0.63713016,0.58333253,-0.66424884,0.21149023,0.71786882,0.01127581,-0.38258360,0.27940448,-0.77828000,0.22977097,-0.47607300,-0.84802352,0.40054452,-0.04671052
4.72000000,-0.63730603,0.58350865,-0.66407297,0.21090316,0.71760638,0.01153800,-0.38329305,0.27940747,-0.77828000,0.22977694,-0.47607300,-0.84802053,0.40054153,-0.04670753
4.74000000,-0.63748190,0.58368477,-0.66389710,0.21031610,0.71734394,0.01180019,-0.38400250,0.27941045,-0.77828000,0.22978291,-0.47607300,-0.84801755,0.40053855,-0.04670455
4.76000000,-0.63769509,0.58387794,-0.66368679,0.20971733,0.71704993,0.01207692,-0.38476529,0.27941200,-0.77828000,0.22978312,-0.47607156,-0.84801600,0.40053556,-0.04670156
4.78000000,-0.63794839,0.58408944,-0.66343946,0.20910599,0.71672199,0.01236928,-0.38558539,0.27941200,-0.77828000,0.22977715,-0.47606858,-0.84801600,0.40053258,-0.04669858
4.80000000,-0.63820168,0.58430093,-0.66319214,0.20849464,0.71639405,0.01266164,-0.38640550,0.27941200,-0.77828000,0.22977118,-0.47606559,-0.84801600,0.40052959,-0.04669559
4.82000000,-0.63845498,0.58451243,-0.66294481,0.20788329,0.71606611,0.01295400,-0.38722560,0.27941200,-0.77828000,0.22976521,-0.47606260,-0.84801600,0.40052660,-0.04669260
4.84000000,-0.63874766,0.58475928,-0.66270485,0.20725968,0.71564957,0.01330467,-0.38829904,0.27941062,-0.77828138,0.22976200,-0.47606100,-0.84801738,0.40052775,-0.04669238
4.86000000,-0.63908601,0.58504713,-0.66247343,0.20662184,0.71513029,0.01372297,-0.38966630,0.27940765,-0.77828435,0.22976200,-0.47606100,-0.84802035,0.40053369,-0.04669535
4.88000000,-0.63942436,0.58533499,-0.66224200,0.20598400,0.71461101,0.01414126,-0.39103356,0.27940468,-0.77828732,0.22976200,-0.47606100,-0.84802332,0.40053963,-0.04669832
4.90000000,-0.63976270,0.58562285,-0.66201058,0.20534616,0.71409173,0.01455956,-0.39240082,0.27940171,-0.77829029,0.22976200,-0.47606100,-0.84802629,0.40054557,-0.04670129
4.92000000,-0.64005492,0.58587215,-0.66177745,0.20465801,0.71358670,0.01502522,-0.39377584,0.27939874,-0.77829074,0.22976200,-0.47605974,-0.84802674,0.40054900,-0.04669922
4.94000000,-0.64028416,0.58606882,-0.66154199,0.20390117,0.71310112,0.01555556,-0.39516147,0.27939575,-0.77828775,0.22976200,-0.47605675,-0.84802375,0.40054900,-0.04669026
4.96000000,-0.64051340,0.58626549,-0.66130654,0.20314433,0.71261554,0.01608589,-0.39654710,0.27939277,-0.77828477,0.22976200,-0.47605377,-0.84802077,0.40054900,-0.04668131
4.98000000,-0.64074264,0.58646216,-0.66107108,0.20238750,0.71212996,0.01661622,-0.39793273,0.27938979,-0.77828179,0.22976200,-0.47605079,-0.84801779,0.40054900,-0.04667236
5.00000000,-0.64101979,0.58670893,-0.66081661,0.20159852,0.71160256,0.01719306,-0.39939589,0.27938920,-0.77828000,0.22976320,-0.47605139,-0.84801600,0.40054661,-0.04667059
5.02000000,-0.64136857,0.58703061,-0.66053371,0.20076150,0.71101264,0.01783940,-0.40097497,0.27939218,-0.77828000,0.22976618,-0.47605736,-0.84801600,0.40054064,-0.04667954
5.04000000,-0.64171735,0.58735230,-0.66025081,0.19992448,0.71042273,0.01848575,-0.40255405,0.27939516,-0.77828000,0.22976916,-0.47606332,-0.84801600,0.40053468,-0.04668849
5.06000000,-0.64206613,0.58767398,-0.65996791,0.19908746,0.70983281,0.01913210,-0.40413313,0.27939815,-0.77828000,0.22977215,-0.47606929,-0.84801600,0.40052871,-0.04669744
5.08000000,-0.64240131,0.58801940,-0.65969729,0.19826379,0.70932625,0.01978200,-0.40568981,0.27939661,-0.77828000,0.22977513,-0.47607187,-0.84801600,0.40052274,-0.04670300
5.10000000,-0.64271414,0.58840384,-0.65944688,0.19746208,0.70895672,0.02043774,-0.40720968,0.27938766,-0.77828000,0.22977811,-0.47606889,-0.84801600,0.40051677,-0.04670300
5.12000000,-0.64302696,0.58878828,-0.65919647,0.19666037,0.70858720,0.02109349,-0.40872955,0.27937871,-0.77828000,0.22978110,-0.47606590,-0.84801600,0.40051081,-0.04670300
5.14000000,-0.64333979,0.58917273,-0.65894606,0.19585866,0.70821768,0.02174923,-0.41024942,0.27936976,-0.77828000,0.22978408,-0.47606292,-0.84801600,0.40050484,-0.04670300
5.16000000,-0.64363664,0.58959443,-0.65863719,0.19503461,0.70783645,0.02240806,-0.41180111,0.27936506,-0.77828213,0.22978387,-0.47606100,-0.84801600,0.40050206,-0.04670194
5.18000000,-0.64390469,0.59008329,-0.65822293,0.19417027,0.70743412,0.02307247,-0.41341017,0.27936805,-0.77828810,0.22977790,-0.47606100,-0.84801600,0.40050505,-0.04669895
5.20000000,-0.64417275,0.59057215,-0.65780867,0.19330594,0.70703179,0.02373689,-0.41501924,0.27937103,-0.77829406,0.22977194,-0.47606100,-0.84801600,0.40050803,-0.04669597
5.22000000,-0.64444080,0.59106101,-0.65739440,0.19244161,0.70662947,0.02440130,-0.41662830,0.27937402,-0.77830003,0.22976597,-0.47606100,-0.84801600,0.40051102,-0.04669298
5.24000000,-0.64476188,0.59164466,-0.65691419,0.19150039,0.70615527,0.02510474,-0.41842130,0.27937900,-0.77830300,0.22976200,-0.47606000,-0.84801900,0.40051800,-0.04669000
5.26000000,-0.64518812,0.59241632,-0.65630318,0.19040669,0.70553854,0.02588561,-0.42057911,0.27938795,-0.77830002,0.22976200,-0.47605702,-0.84802795,0.40053292,-0.04668702
5.28000000,-0.64561436,0.59318798,-0.65569217,0.18931298,0.70492181,0.02666647,-0.42273693,0.27939691,-0.77829703,0.22976200,-0.47605403,-0.84803691,0.40054784,-0.04668403
5.30000000,-0.64604060,0.59395964,-0.65508115,0.18821928,0.70430508,0.02744733,-0.42489474,0.27940586,-0.77829405,0.22976200,-0.47605105,-0.84804586,0.40056276,-0.04668105
5.32000000,-0.64648557,0.59471271,-0.65452450,0.18714340,0.70370327,0.02817860,-0.42685130,0.27941387,-0.77829200,0.22976294,-0.47604900,-0.84805013,0.40057675,-0.04667994
5.34000000,-0.64697147,0.59542514,-0.65408659,0.18610644,0.70313406,0.02880151,-0.42836819,0.27941984,-0.77829200,0.22976592,-0.47604900,-0.84804416,0.40058868,-0.04668292
5.36000000,-0.64745737,0.59613758,-0.65364868,0.18506949,0.70256486,0.02942443,-0.42988507,0.27942581,-0.77829200,0.22976891,-0.47604900,-0.84803819,0.40060062,-0.04668591
5.38000000,-0.64794327,0.59685002,-0.65321078,0.18403254,0.70199566,0.03004735,-0.43140196,0.27943178,-0.77829200,0.22977189,-0.47604900,-0.84803222,0.40061256,-0.04668889
5.40000000,-0.64847698,0.59752660,-0.65268308,0.18288143,0.70139858,0.03071203,-0.43317319,0.27943775,-0.77829367,0.22977313,-0.47604813,-0.84802625,0.40062711,-0.04669187
5.42000000,-0.64912628,0.59811649,-0.65193833,0.18145431,0.70073412,0.03147766,-0.43555934,0.27944371,-0.77829939,0.22977014,-0.47604514,-0.84802029,0.40064799,-0.04669486
5.44000000,-0.64977558,0.59870638,-0.65119357,0.18002720,0.70006965,0.03224330,-0.43794549,0.27944968,-0.77830511,0.22976716,-0.47604216,-0.84801432,0.40066887,-0.04669784
5.46000000,-0.65042488,0.59929626,-0.65044882,0.17860008,0.69940519,0.03300893,-0.44033163,0.27945564,-0.77831083,0.22976418,-0.47603918,-0.84800836,0.40068975,-0.04670082
5.48000000,-0.65116610,0.59985851,-0.64972129,0.17717064,0.69874432,0.03377814,-0.44259213,0.27945759,-0.77831426,0.22976200,-0.47603780,-0.84800400,0.40070098,-0.04670220
5.50000000,-0.65215607,0.60034593,-0.64904039,0.17573491,0.69809318,0.03455703,-0.44451256,0.27944866,-0.77831154,0.22976200,-0.47604078,-0.84800400,0.40068610,-0.04669922
5.52000000,-0.65314605,0.60083335,-0.64835948,0.17429918,0.69744205,0.03533591,-0.44643298,0.27943973,-0.77830881,0.22976200,-0.47604376,-0.84800400,0.40067122,-0.04669624
5.54000000,-0.65413603,0.60132078,-0.64767858,0.17286345,0.69679091,0.03611480,-0.44835340,0.27943080,-0.77830608,0.22976200,-0.47604673,-0.84800400,0.40065634,-0.04669327
5.56000000,-0.65514294,0.60182203,-0.64697169,0.17137067,0.69609323,0.03692827,-0.45031269,0.27942329,-0.77830400,0.22976271,-0.47604900,-0.84800329,0.40064144,-0.04669100
5.58000000,-0.65620392,0.60236744,-0.64618180,0.16969563,0.69524688,0.03785221,-0.45239610,0.27942030,-0.77830400,0.22976570,-0.47604900,-0.84800030,0.40062652,-0.04669100
5.60000000,-0.65726490,0.60291285,-0.64539190,0.16802059,0.69440053,0.03877616,-0.45447952,0.27941732,-0.77830400,0.22976868,-0.47604900,-0.84799732,0.40061160,-0.04669100
5.62000000,-0.65832589,0.60345827,-0.64460201,0.16634555,0.69355418,0.03970011,-0.45656294,0.27941434,-0.77830400,0.22977166,-0.47604900,-0.84799434,0.40059668,-0.04669100
5.64000000,-0.65943429,0.60399654,-0.64381341,0.16466335,0.69268834,0.04062926,-0.45870407,0.27941265,-0.77830335,0.22977465,-0.47604835,-0.84799330,0.40058695,-0.04669100
5.66000000,-0.66071321,0.60450915,-0.64302945,0.16295540,0.69175241,0.04157712,-0.46105272,0.27941563,-0.77830037,0.22977763,-0.47604537,-0.84799927,0.40059590,-0.04669100
5.68000000,-0.66199212,0.60502176,-0.64224548,0.16124744,0.69081648,0.04252499,-0.46340138,0.27941862,-0.77829738,0.22978062,-0.47604238,-0.84800524,0.40060486,-0.04669100
5.70000000,-0.66327103,0.60553437,-0.64146152,0.15953949,0.68988055,0.04347286,-0.46575003,0.27942160,-0.77829440,0.22978360,-0.47603940,-0.84801121,0.40061381,-0.04669100
5.72000000,-0.66457110,0.60604001,-0.64064521,0.15783379,0.68898157,0.04440432,-0.46806716,0.27942047,-0.77829259,0.22978541,-0.47603759,-0.84801718,0.40061747,-0.04669100
5.74000000,-0.66595737,0.60651719,-0.63969706,0.15613726,0.68823320,0.04526887,-0.47025580,0.27940256,-0.77829557,0.22978243,-0.47604057,-0.84802315,0.40059956,-0.04669100
5.76000000,-0.66734365,0.60699438,-0.63874891,0.15444074,0.68748483,0.04613343,-0.47244443,0.27938464,-0.77829856,0.22977944,-0.47604356,-0.84802912,0.40058164,-0.04669100
5.78000000,-0.66872993,0.60747156,-0.63780076,0.15274422,0.68673646,0.04699799,-0.47463307,0.27936673,-0.77830154,0.22977646,-0.47604654,-0.84803509,0.40056373,-0.04669100
5.80000000,-0.67010018,0.60795712,-0.63684429,0.15105480,0.68597705,0.04783970,-0.47686214,0.27934670,-0.77830347,0.22977453,-0.47605006,-0.84803841,0.40054264,-0.04669153
5.82000000,-0.67139624,0.60848146,-0.63584931,0.14939824,0.68516655,0.04857561,-0.47927848,0.27931687,-0.77830049,0.22977751,-0.47605603,-0.84802946,0.40050684,-0.04669451
5.84000000,-0.67269229,0.60900580,-0.63485434,0.14774168,0.68435605,0.04931153,-0.48169482,0.27928703,-0.77829750,0.22978050,-0.47606199,-0.84802051,0.40047104,-0.04669750
5.86000000,-0.67398835,0.60953014,-0.63385936,0.14608513,0.68354555,0.05004745,-0.48411116,0.27925720,-0.77829452,0.22978348,-0.47606796,-0.84801156,0.40043524,-0.04670048
5.88000000,-0.67527199,0.61010503,-0.63286614,0.14437426,0.68274011,0.05080752,-0.48652438,0.27922601,-0.77829246,0.22978554,-0.47607300,-0.84800493,0.40040361,-0.04670300
5.90000000,-0.67648817,0.61095461,-0.63188251,0.14236819,0.68196215,0.05169888,-0.48892067,0.27918746,-0.77829545,0.22978255,-0.47607300,-0.84801090,0.40039466,-0.04670300
5.92000000,-0.67770435,0.61180419,-0.63089887,0.14036212,0.68118420,0.05259025,-0.49131696,0.27914891,-0.77829843,0.22977957,-0.47607300,-0.84801687,0.40038570,-0.04670300
5.94000000,-0.67892052,0.61265377,-0.62991524,0.13835605,0.68040624,0.05348161,-0.49371325,0.27911036,-0.77830142,0.22977658,-0.47607300,-0.84802283,0.40037675,-0.04670300
5.96000000,-0.68012308,0.61350064,-0.62892991,0.13636185,0.67963535,0.05435225,-0.49611041,0.27907860,-0.77830437,0.22977400,-0.47607180,-0.84802760,0.40037181,-0.04670260
5.98000000,-0.68123811,0.61433009,-0.62793374,0.13444392,0.67890986,0.05508965,-0.49851315,0.27909051,-0.77830710,0.22977400,-0.47606287,-0.84802462,0.40039265,-0.04669962
6.00000000,-0.68235313,0.61515954,-0.62693756,0.13252600,0.67818438,0.05582705,-0.50091589,0.27910242,-0.77830983,0.22977400,-0.47605393,-0.84802164,0.40041349,-0.04669664
6.02000000,-0.68346816,0.61598898,-0.62594138,0.13060808,0.67745889,0.05656444,-0.50331863,0.27911433,-0.77831256,0.22977400,-0.47604500,-0.84801867,0.40043433,-0.04669367
6.04000000,-0.68458339,0.61680473,-0.62495057,0.12871201,0.67672234,0.05732837,-0.50572203,0.27912469,-0.77831565,0.22977400,-0.47603731,-0.84801600,0.40045517,-0.04669131
6.06000000,-0.68570034,0.61750277,-0.62400589,0.12700387,0.67589070,0.05832039,-0.50813119,0.27912172,-0.77832184,0.22977400,-0.47604028,-0.84801600,0.40047599,-0.04669428
6.08000000,-0.68681729,0.61820080,-0.62306122,0.12529572,0.67505906,0.05931240,-0.51054034,0.27911874,-0.77832804,0.22977400,-0.47604326,-0.84801600,0.40049681,-0.04669726
6.10000000,-0.68793424,0.61889883,-0.62211655,0.12358758,0.67422742,0.06030442,-0.51294949,0.27911577,-0.77833424,0.22977400,-0.47604623,-0.84801600,0.40051764,-0.04670023
6.12000000,-0.68905283,0.61959616,-0.62118318,0.12188020,0.67338501,0.06130683,-0.51536153,0.27911217,-0.77833917,0.22977400,-0.47604921,-0.84801642,0.40053533,-0.04670279
6.14000000,-0.69019320,0.62028411,-0.62040008,0.12018306,0.67239942,0.06244720,-0.51781197,0.27910024,-0.77832724,0.22977400,-0.47605219,-0.84802238,0.40051148,-0.04669981
6.16000000,-0.69133357,0.62097206,-0.61961697,0.11848591,0.67141383,0.06358757,-0.52026240,0.27908831,-0.77831531,0.22977400,-0.47605517,-0.84802834,0.40048763,-0.04669683
6.18000000,-0.69247394,0.62166001,-0.61883387,0.11678877,0.67042824,0.06472794,-0.52271283,0.27907639,-0.77830339,0.22977400,-0.47605815,-0.84803431,0.40046378,-0.04669385
6.20000000,-0.69360726,0.62234195,-0.61805153,0.11509397,0.66945668,0.06585536,-0.52516901,0.27906527,-0.77829213,0.22977427,-0.47606100,-0.84803960,0.40044113,-0.04669100
6.22000000,-0.69459085,0.62289628,-0.61728555,0.11344886,0.66878297,0.06670789,-0.52774697,0.27907124,-0.77829512,0.22978024,-0.47606100,-0.84803064,0.40044412,-0.04669100
6.24000000,-0.69557443,0.62345062,-0.61651957,0.11180374,0.66810926,0.06756041,-0.53032494,0.27907721,-0.77829810,0.22978621,-0.47606100,-0.84802169,0.40044710,-0.04669100
6.26000000,-0.69655802,0.62400496,-0.61575360,0.11015863,0.66743554,0.06841294,-0.53290291,0.27908317,-0.77830109,0.22979217,-0.47606100,-0.84801274,0.40045009,-0.04669100
6.28000000,-0.69753989,0.62456173,-0.61498912,0.10851016,0.66675726,0.06926717,-0.53547529,0.27908929,-0.77830393,0.22979786,-0.47606107,-0.84800400,0.40045321,-0.04669100
6.30000000,-0.69845180,0.62521726,-0.61428585,0.10672512,0.66589309,0.07019103,-0.53782086,0.27910122,-0.77830094,0.22979189,-0.47606406,-0.84800400,0.40046217,-0.04669100
6.32000000,-0.69936372,0.62587278,-0.61358258,0.10494008,0.66502892,0.07111488,-0.54016643,0.27911316,-0.77829796,0.22978592,-0.47606704,-0.84800400,0.40047112,-0.04669100
6.34000000,-0.70027564,0.62652831,-0.61287930,0.10315504,0.66416475,0.07203873,-0.54251200,0.27912510,-0.77829498,0.22977995,-0.47607002,-0.84800400,0.40048007,-0.04669100
6.36000000,-0.70118731,0.62718370,-0.61217585,0.10136965,0.66330039,0.07296251,-0.54485832,0.27913700,-0.77829201,0.22977399,-0.47607298,-0.84800401,0.40048906,-0.04669101
6.38000000,-0.70201360,0.62779222,-0.61140631,0.09945775,0.66236983,0.07385723,-0.54747405,0.27913700,-0.77829499,0.22977101,-0.47606701,-0.84800699,0.40050996,-0.04669399
6.40000000,-0.70283988,0.62840073,-0.61063677,0.09754585,0.66143927,0.07475195,-0.55008978,0.27913700,-0.77829798,0.22976802,-0.47606104,-0.84800998,0.40053087,-0.04669698
6.42000000,-0.70366616,0.62900924,-0.60986723,0.09563396,0.66050871,0.07564668,-0.55270551,0.27913700,-0.77830097,0.22976503,-0.47605506,-0.84801297,0.40055178,-0.04669997
6.44000000,-0.70449244,0.62961775,-0.60909770,0.09372206,0.65957814,0.07654140,-0.55532124,0.27913700,-0.77830395,0.22976205,-0.47604909,-0.84801595,0.40057268,-0.04670295
6.46000000,-0.70552969,0.63014082,-0.60846658,0.09186635,0.65883873,0.07725969,-0.55747531,0.27913994,-0.77830400,0.22975906,-0.47605194,-0.84801012,0.40057888,-0.04670300
6.48000000,-0.70657020,0.63066256,-0.60783760,0.09001150,0.65810226,0.07797525,-0.55962226,0.27914293,-0.77830400,0.22975607,-0.47605493,-0.84800415,0.40058485,-0.04670300
6.50000000,-0.70761070,0.63118431,-0.60720862,0.08815665,0.65736580,0.07869082,-0.56176920,0.27914591,-0.77830400,0.22975309,-0.47605791,-0.84799818,0.40059082,-0.04670300
6.52000000,-0.70865121,0.63170605,-0.60657964,0.08630181,0.65662933,0.07940638,-0.56391615,0.27914890,-0.77830400,0.22975010,-0.47606090,-0.84799221,0.40059679,-0.04670300
6.54000000,-0.70965681,0.63208694,-0.60572139,0.08464736,0.65583553,0.08034687,-0.56633207,0.27913764,-0.77830116,0.22975568,-0.47606668,-0.84799484,0.40056293,-0.04670584
6.56000000,-0.71066117,0.63246281,-0.60485498,0.08300005,0.65503969,0.08129536,-0.56875759,0.27912588,-0.77829822,0.22976156,-0.47607256,-0.84799778,0.40052765,-0.04670878
6.58000000,-0.71166553,0.63283868,-0.60398857,0.08135274,0.65424384,0.08224386,-0.57118310,0.27911412,-0.77829528,0.22976744,-0.47607844,-0.84800072,0.40049236,-0.04671172
6.60000000,-0.71266990,0.63321455,-0.60312216,0.07970543,0.65344800,0.08319235,-0.57360861,0.27910236,-0.77829234,0.22977332,-0.47608432,-0.84800366,0.40045708,-0.04671466
6.62000000,-0.71374891,0.63375653,-0.60223753,0.07799312,0.65262123,0.08409983,-0.57582008,0.27909575,-0.77829463,0.22977400,-0.47608500,-0.84800663,0.40046088,-0.04671237
6.64000000,-0.71483769,0.63432023,-0.60135051,0.07627232,0.65179041,0.08500194,-0.57800357,0.27908980,-0.77829760,0.22977400,-0.47608500,-0.84800960,0.40046979,-0.04670940
6.66000000,-0.71592646,0.63488393,-0.60046350,0.07455152,0.65095959,0.08590406,-0.58018707,0.27908386,-0.77830057,0.22977400,-0.47608500,-0.84801257,0.40047871,-0.04670643
6.68000000,-0.71701524,0.63544763,-0.59957649,0.07283072,0.65012878,0.08680617,-0.58237056,0.27907792,-0.77830354,0.22977400,-0.47608500,-0.84801554,0.40048762,-0.04670346
6.70000000,-0.71798523,0.63600384,-0.59864030,0.07125399,0.64941048,0.08757336,-0.58439955,0.27908961,-0.77830400,0.22977652,-0.47608248,-0.84801852,0.40049405,-0.04670300
6.72000000,-0.71893343,0.63655867,-0.59769508,0.06970368,0.64871283,0.08831579,-0.58640019,0.27910454,-0.77830400,0.22977951,-0.47607949,-0.84802151,0.40050002,-0.04670300
6.74000000,-0.71988163,0.63711351,-0.59674987,0.06815337,0.64801518,0.08905823,-0.58840084,0.27911947,-0.77830400,0.22978249,-0.47607651,-0.84802449,0.40050599,-0.04670300
6.76000000,-0.72082982,0.63766835,-0.59580466,0.06660306,0.64731753,0.08980067,-0.59040149,0.27913440,-0.77830400,0.22978548,-0.47607352,-0.84802748,0.40051196,-0.04670300
6.78000000,-0.72172875,0.63827704,-0.59508358,0.06497112,0.64663958,0.09055793,-0.59257975,0.27913207,-0.77830153,0.22978353,-0.47607300,-0.84802800,0.40051793,-0.04670547
6.80000000,-0.72261728,0.63889710,-0.59440978,0.06332195,0.64596578,0.09131832,-0.59479547,0.27912610,-0.77829855,0.22978055,-0.47607300,-0.84802800,0.40052390,-0.04670845
6.82000000,-0.72350581,0.63951715,-0.59373598,0.06167279,0.64529198,0.09207870,-0.59701120,0.27912013,-0.77829556,0.22977756,-0.47607300,-0.84802800,0.40052987,-0.04671144
6.84000000,-0.72439434,0.64013721,-0.59306218,0.06002362,0.64461818,0.09283909,-0.59922692,0.27911415,-0.77829258,0.22977458,-0.47607300,-0.84802800,0.40053585,-0.04671442
6.86000000,-0.72519866,0.64080556,-0.59236176,0.05841580,0.64389388,0.09357290,-0.60115596,0.27911541,-0.77829662,0.22977400,-0.47607300,-0.84802800,0.40052977,-0.04671018
6.88000000,-0.72598282,0.64148548,-0.59165498,0.05681788,0.64315749,0.09430033,-0.60301634,0.27911839,-0.77830234,0.22977400,-0.47607300,-0.84802800,0.40052082,-0.04670421
6.90000000,-0.72676697,0.64216539,-0.59094819,0.05521996,0.64242110,0.09502777,-0.60487673,0.27912138,-0.77830806,0.22977400,-0.47607300,-0.84802800,0.40051186,-0.04669824
6.92000000,-0.72755113,0.64284531,-0.59024140,0.05362204,0.64168470,0.09575520,-0.60673711,0.27912436,-0.77831378,0.22977400,-0.47607300,-0.84802800,0.40050291,-0.04669227
6.94000000,-0.72836330,0.64347084,-0.58949739,0.05222145,0.64100233,0.09638399,-0.60871198,0.27913440,-0.77831050,0.22977635,-0.47607065,-0.84802565,0.40053154,-0.04669100
6.96000000,-0.72918303,0.64408166,-0.58874331,0.05087420,0.64033455,0.09698611,-0.61071780,0.27914634,-0.77830478,0.22977933,-0.47606767,-0.84802267,0.40057034,-0.04669100
6.98000000,-0.73000277,0.64469249,-0.58798923,0.04952696,0.63966677,0.09758823,-0.61272362,0.27915827,-0.77829906,0.22978232,-0.47606468,-0.84801968,0.40060914,-0.04669100
7.00000000,-0.73082251,0.64530331,-0.58723515,0.04817972,0.63899899,0.09819035,-0.61472944,0.27917021,-0.77829334,0.22978530,-0.47606170,-0.84801670,0.40064794,-0.04669100
7.02000000,-0.73161028,0.64579104,-0.58659520,0.04699459,0.63845240,0.09874447,-0.61658024,0.27916842,-0.77829200,0.22978600,-0.47606558,-0.84802058,0.40064327,-0.04669329
7.04000000,-0.73238832,0.64624124,-0.58599004,0.04585889,0.63794275,0.09928397,-0.61838379,0.27916246,-0.77829200,0.22978600,-0.47607154,-0.84802654,0.40062537,-0.04669627
7.06000000,-0.73316635,0.64669144,-0.58538488,0.04472318,0.63743310,0.09982347,-0.62018735,0.27915649,-0.77829200,0.22978600,-0.47607751,-0.84803251,0.40060746,-0.04669926
7.08000000,-0.73394438,0.64714165,-0.58477971,0.04358747,0.63692345,0.10036297,-0.62199090,0.27915052,-0.77829200,0.22978600,-0.47608348,-0.84803848,0.40058955,-0.04670224
7.10000000,-0.73468706,0.64757383,-0.58419787,0.04257513,0.63639901,0.10100308,-0.62353029,0.27914016,-0.77829200,0.22978158,-0.47608058,-0.84803337,0.40056732,-0.04670300
7.12000000,-0.73541771,0.64799988,-0.58362396,0.04160480,0.63586954,0.10167745,-0.62497973,0.27912831,-0.77829200,0.22977566,-0.47607466,-0.84802448,0.40054363,-0.04670300
7.14000000,-0.73614836,0.64842592,-0.58305006,0.04063447,0.63534007,0.10235181,-0.62642918,0.27911646,-0.77829200,0.22976973,-0.47606873,-0.84801560,0.40051993,-0.04670300
7.16000000,-0.73687901,0.64885197,-0.58247616,0.03966414,0.63481060,0.10302618,-0.62787863,0.27910462,-0.77829200,0.22976381,-0.47606281,-0.84800671,0.40049623,-0.04670300
7.18000000,-0.73751381,0.64926410,-0.58190379,0.03867822,0.63431124,0.10365618,-0.62930096,0.27910100,-0.77828994,0.22976200,-0.47606100,-0.84801225,0.40049312,-0.04670300
7.20000000,-0.73810651,0.64967011,-0.58133211,0.03768544,0.63382511,0.10426668,-0.63071137,0.27910100,-0.77828697,0.22976200,-0.47606100,-0.84802412,0.40049906,-0.04670300
7.22000000,-0.73869921,0.65007613,-0.58076043,0.03669266,0.63333898,0.10487719,-0.63212179,0.27910100,-0.77828400,0.22976200,-0.47606100,-0.84803598,0.40050499,-0.04670300
7.24000000,-0.73929191,0.65048214,-0.58018875,0.03569988,0.63285285,0.10548769,-0.63353220,0.27910100,-0.77828104,0.22976200,-0.47606100,-0.84804785,0.40051093,-0.04670300
7.26000000,-0.73986341,0.65088182,-0.57967101,0.03471152,0.63238652,0.10606929,-0.63509704,0.27910488,-0.77828388,0.22976394,-0.47606294,-0.84804424,0.40052076,-0.04670300
7.28000000,-0.74042352,0.65127810,-0.57918225,0.03372554,0.63193082,0.10663537,-0.63674481,0.27911085,-0.77828985,0.22976692,-0.47606592,-0.84803230,0.40053270,-0.04670300
7.30000000,-0.74098364,0.65167438,-0.57869348,0.03273957,0.63147513,0.10720145,-0.63839259,0.27911682,-0.77829582,0.22976991,-0.47606891,-0.84802037,0.40054463,-0.04670300
7.32000000,-0.74154375,0.65207066,-0.57820472,0.03175359,0.63101943,0.10776753,-0.64004036,0.27912278,-0.77830178,0.22977289,-0.47607189,-0.84800844,0.40055656,-0.04670300
7.34000000,-0.74203173,0.65240510,-0.57776539,0.03092187,0.63061651,0.10825958,-0.64133677,0.27912129,-0.77830400,0.22977586,-0.47607300,-0.84800771,0.40056286,-0.04669929
7.36000000,-0.74247701,0.65270294,-0.57735530,0.03018146,0.63024483,0.10870782,-0.64242524,0.27911538,-0.77830400,0.22977881,-0.47607300,-0.84801362,0.40056581,-0.04669338
7.38000000,-0.74292229,0.65300078,-0.57694522,0.02944105,0.62987314,0.10915605,-0.64351371,0.27910947,-0.77830400,0.22978176,-0.47607300,-0.84801953,0.40056876,-0.04668747
7.40000000,-0.74336757,0.65329862,-0.57653514,0.02870064,0.62950146,0.10960429,-0.64460217,0.27910357,-0.77830400,0.22978472,-0.47607300,-0.84802543,0.40057172,-0.04668157
7.42000000,-0.74382323,0.65358085,-0.57616881,0.02792858,0.62915336,0.11007974,-0.64565639,0.27910437,-0.77830232,0.22978432,-0.47607300,-0.84802968,0.40056795,-0.04668237
7.44000000,-0.74428686,0.65385109,-0.57583609,0.02713223,0.62882336,0.11057609,-0.64668431,0.27911032,-0.77829934,0.22978134,-0.47607300,-0.84803266,0.40055903,-0.04668832
7.46000000,-0.74475049,0.65412134,-0.57550337,0.02633588,0.62849337,0.11107245,-0.64771222,0.27911627,-0.77829637,0.22977837,-0.47607300,-0.84803563,0.40055010,-0.04669427
7.48000000,-0.74521411,0.65439158,-0.57517065,0.02553953,0.62816337,0.11156880,-0.64874014,0.27912222,-0.77829339,0.22977539,-0.47607300,-0.84803861,0.40054118,-0.04670022
7.50000000,-0.74562235,0.65463822,-0.57489319,0.02471145,0.62785090,0.11201136,-0.64972076,0.27912658,-0.77829200,0.22977400,-0.47607300,-0.84803683,0.40053858,-0.04669983
7.52000000,-0.74598191,0.65486412,-0.57466432,0.02385547,0.62755384,0.11240662,-0.65065981,0.27912956,-0.77829200,0.22977400,-0.47607300,-0.84803088,0.40054156,-0.04669388
7.54000000,-0.74634146,0.65509002,-0.57443545,0.02299949,0.62725677,0.11280187,-0.65159886,0.27913253,-0.77829200,0.22977400,-0.47607300,-0.84802493,0.40054453,-0.04668793
7.56000000,-0.74670101,0.65531592,-0.57420657,0.02214350,0.62695971,0.11319713,-0.65253791,0.27913551,-0.77829200,0.22977400,-0.47607300,-0.84801898,0.40054751,-0.04668198
7.58000000,-0.74698277,0.65550123,-0.57392982,0.02135519,0.62665768,0.11354242,-0.65343721,0.27913405,-0.77829052,0.22977400,-0.47607448,-0.84801600,0.40054900,-0.04668195
7.60000000,-0.74718654,0.65564587,-0.57360506,0.02063471,0.62635066,0.11383761,-0.65429666,0.27912813,-0.77828757,0.22977400,-0.47607743,-0.84801600,0.40054900,-0.04668787
7.62000000,-0.74739031,0.65579051,-0.57328030,0.01991423,0.62604364,0.11413280,-0.65515611,0.27912222,-0.77828461,0.22977400,-0.47608039,-0.84801600,0.40054900,-0.04669378
7.64000000,-0.74759409,0.65593515,-0.57295554,0.01919375,0.62573662,0.11442799,-0.65601557,0.27911631,-0.77828165,0.22977400,-0.47608335,-0.84801600,0.40054900,-0.04669969
7.66000000,-0.74778553,0.65608838,-0.57268331,0.01850982,0.62543351,0.11469554,-0.65685877,0.27911300,-0.77828000,0.22977400,-0.47608237,-0.84801732,0.40054768,-0.04670432
7.68000000,-0.74796134,0.65625250,-0.57247766,0.01787223,0.62513536,0.11492804,-0.65768137,0.27911300,-0.77828000,0.22977400,-0.47607640,-0.84802030,0.40054470,-0.04670730
7.70000000,-0.74813715,0.65641662,-0.57227201,0.01723465,0.62483720,0.11516055,-0.65850396,0.27911300,-0.77828000,0.22977400,-0.47607043,-0.84802328,0.40054172,-0.04671028
7.72000000,-0.74831296,0.65658074,-0.57206636,0.01659706,0.62453905,0.11539305,-0.65932656,0.27911300,-0.77828000,0.22977400,-0.47606446,-0.84802627,0.40053873,-0.04671327
7.74000000,-0.74846625,0.65672475,-0.57186819,0.01598805,0.62424470,0.11560681,-0.66007666,0.27911551,-0.77828125,0.22977525,-0.47606351,-0.84802800,0.40053575,-0.04671500
7.76000000,-0.74858841,0.65684093,-0.57168036,0.01541860,0.62395562,0.11579464,-0.66072648,0.27912148,-0.77828424,0.22977824,-0.47606948,-0.84802800,0.40053276,-0.04671500
7.78000000,-0.74871056,0.65695711,-0.57149253,0.01484914,0.62366653,0.11598247,-0.66137629,0.27912745,-0.77828722,0.22978122,-0.47607545,-0.84802800,0.40052978,-0.04671500
7.80000000,-0.74883271,0.65707329,-0.57130470,0.01427968,0.62337745,0.11617030,-0.66202611,0.27913342,-0.77829021,0.22978421,-0.47608142,-0.84802800,0.40052679,-0.04671500
7.82000000,-0.74895137,0.65717882,-0.57112882,0.01374359,0.62309784,0.11636289,-0.66266762,0.27913461,-0.77829081,0.22978481,-0.47608381,-0.84802919,0.40052500,-0.04671261
7.84000000,-0.74906479,0.65726836,-0.57097088,0.01325757,0.62283244,0.11656262,-0.66329666,0.27912864,-0.77828782,0.22978182,-0.47608082,-0.84803218,0.40052500,-0.04670664
7.86000000,-0.74917821,0.65735790,-0.57081293,0.01277155,0.62256705,0.11676236,-0.66392570,0.27912267,-0.77828484,0.22977884,-0.47607784,-0.84803516,0.40052500,-0.04670067
7.88000000,-0.74929163,0.65744745,-0.57065499,0.01228553,0.62230165,0.11696209,-0.66455474,0.27911670,-0.77828185,0.22977585,-0.47607485,-0.84803815,0.40052500,-0.04669470
7.90000000,-0.74942196,0.65751764,-0.57053887,0.01189684,0.62207364,0.11712897,-0.66504906,0.27911527,-0.77828113,0.22977400,-0.47607300,-0.84803887,0.40052387,-0.04669327
7.92000000,-0.74957993,0.65755620,-0.57049111,0.01166723,0.62190671,0.11724216,-0.66532321,0.27912124,-0.77828412,0.22977400,-0.47607300,-0.84803588,0.40052088,-0.04669924
7.94000000,-0.74973790,0.65759476,-0.57044334,0.01143761,0.62173979,0.11735535,-0.66559735,0.27912721,-0.77828710,0.22977400,-0.47607300,-0.84803290,0.40051790,-0.04670521
7.96000000,-0.74989587,0.65763331,-0.57039558,0.01120800,0.62157286,0.11746854,-0.66587149,0.27913318,-0.77829009,0.22977400,-0.47607300,-0.84802991,0.40051491,-0.04671118
7.98000000,-0.75006890,0.65766552,-0.57034996,0.01104927,0.62144344,0.11756249,-0.66608783,0.27913485,-0.77829093,0.22977400,-0.47607407,-0.84803015,0.40051300,-0.04671393
8.00000000,-0.75026874,0.65768643,-0.57030815,0.01101667,0.62138072,0.11762222,-0.66620132,0.27912888,-0.77828794,0.22977400,-0.47607706,-0.84803612,0.40051300,-0.04671094
8.02000000,-0.75046858,0.65770733,-0.57026634,0.01098407,0.62131801,0.11768195,-0.66631480,0.27912291,-0.77828495,0.22977400,-0.47608005,-0.84804209,0.40051300,-0.04670795
8.04000000,-0.75066842,0.65772824,-0.57022453,0.01095146,0.62125529,0.11774167,-0.66642828,0.27911693,-0.77828197,0.22977400,-0.47608303,-0.84804807,0.40051300,-0.04670497
8.06000000,-0.75085781,0.65775723,-0.57017576,0.01092492,0.62119479,0.11779420,-0.66652120,0.27911300,-0.77828203,0.22977400,-0.47608398,-0.84804895,0.40051402,-0.04670300
8.08000000,-0.75102703,0.65780183,-0.57011357,0.01091006,0.62113854,0.11783286,-0.66657447,0.27911300,-0.77828798,0.22977400,-0.47608101,-0.84804003,0.40051699,-0.04670300
8.10000000,-0.75119626,0.65784643,-0.57005138,0.01089519,0.62108230,0.11787151,-0.66662774,0.27911300,-0.77829392,0.22977400,-0.47607804,-0.84803111,0.40051996,-0.04670300
8.12000000,-0.75136549,0.65789103,-0.56998918,0.01088032,0.62102606,0.11791016,-0.66668101,0.27911300,-0.77829987,0.22977400,-0.47607506,-0.84802219,0.40052294,-0.04670300
8.14000000,-0.75152102,0.65793924,-0.56993058,0.01086819,0.62098428,0.11794879,-0.66672344,0.27911391,-0.77830309,0.22977400,-0.47607300,-0.84801600,0.40052591,-0.04670209
8.16000000,-0.75164545,0.65799563,-0.56988012,0.01086225,0.62097537,0.11798738,-0.66674125,0.27911688,-0.77830012,0.22977400,-0.47607300,-0.84801600,0.40052888,-0.04669912
8.18000000,-0.75176987,0.65805203,-0.56982965,0.01085631,0.62096647,0.11802597,-0.66675906,0.27911984,-0.77829716,0.22977400,-0.47607300,-0.84801600,0.40053184,-0.04669616
8.20000000,-0.75189430,0.65810843,-0.56977919,0.01085038,0.62095756,0.11806456,-0.66677687,0.27912281,-0.77829419,0.22977400,-0.47607300,-0.84801600,0.40053481,-0.04669319
8.22000000,-0.75200640,0.65816092,-0.56973180,0.01084522,0.62094708,0.11810000,-0.66679314,0.27912500,-0.77829200,0.22977400,-0.47607300,-0.84801678,0.40053778,-0.04669178
8.24000000,-0.75208399,0.65820245,-0.56969301,0.01084223,0.62093216,0.11812661,-0.66680508,0.27912500,-0.77829200,0.22977400,-0.47607300,-0.84801977,0.40054077,-0.04669477
8.26000000,-0.75216157,0.65824398,-0.56965421,0.01083925,0.62091724,0.11815321,-0.66681701,0.27912500,-0.77829200,0.22977400,-0.47607300,-0.84802275,0.40054375,-0.04669775
8.28000000,-0.75223916,0.65828551,-0.56961542,0.01083626,0.62090232,0.11817982,-0.66682895,0.27912500,-0.77829200,0.22977400,-0.47607300,-0.84802574,0.40054674,-0.04670074
8.30000000,-0.75231164,0.65831988,-0.56958384,0.01083328,0.62089028,0.11820072,-0.66684088,0.27912572,-0.77829128,0.22977400,-0.47607228,-0.84802800,0.40055188,-0.04670372
8.32000000,-0.75236810,0.65833182,-0.56957488,0.01083029,0.62088729,0.11820371,-0.66685282,0.27912871,-0.77828829,0.22977400,-0.47606929,-0.84802800,0.40056382,-0.04670671
8.34000000,-0.75242457,0.65834376,-0.56956593,0.01082731,0.62088431,0.11820669,-0.66686476,0.27913169,-0.77828531,0.22977400,-0.47606631,-0.84802800,0.40057576,-0.04670969
8.36000000,-0.75248103,0.65835570,-0.56955697,0.01082432,0.62088132,0.11820968,-0.66687670,0.27913468,-0.77828232,0.22977400,-0.47606332,-0.84802800,0.40058770,-0.04671268
8.38000000,-0.75252764,0.65836698,-0.56954868,0.01082068,0.62087834,0.11821332,-0.66688732,0.27913634,-0.77828066,0.22977466,-0.47606166,-0.84802800,0.40059436,-0.04671500
8.40000000,-0.75253959,0.65837594,-0.56954271,0.01081471,0.62087535,0.11821929,-0.66689329,0.27913335,-0.77828365,0.22977765,-0.47606465,-0.84802800,0.40058241,-0.04671500
8.42000000,-0.75255153,0.65838490,-0.56953674,0.01080874,0.62087237,0.11822526,-0.66689926,0.27913037,-0.77828663,0.22978063,-0.47606763,-0.84802800,0.40057047,-0.04671500
8.44000000,-0.75256347,0.65839386,-0.56953076,0.01080276,0.62086938,0.11823124,-0.66690524,0.27912738,-0.77828962,0.22978362,-0.47607062,-0.84802800,0.40055853,-0.04671500
8.46000000,-0.75257300,0.65840040,-0.56952781,0.01079800,0.62086640,0.11823781,-0.66691060,0.27912319,-0.77829200,0.22978540,-0.47607300,-0.84802800,0.40054960,-0.04671440
8.48000000,-0.75257300,0.65839741,-0.56953677,0.01079800,0.62086341,0.11824677,-0.66691359,0.27911423,-0.77829200,0.22978241,-0.47607300,-0.84802800,0.40055259,-0.04671141
8.50000000,-0.75257300,0.65839443,-0.56954572,0.01079800,0.62086043,0.11825572,-0.66691657,0.27910528,-0.77829200,0.22977943,-0.47607300,-0.84802800,0.40055557,-0.04670843
8.52000000,-0.75257300,0.65839144,-0.56955467,0.01079800,0.62085744,0.11826467,-0.66691956,0.27909633,-0.77829200,0.22977644,-0.47607300,-0.84802800,0.40055856,-0.04670544
8.54000000,-0.75257246,0.65838954,-0.56956146,0.01079800,0.62085229,0.11827254,-0.66692254,0.27909117,-0.77829254,0.22977454,-0.47607246,-0.84802800,0.40056263,-0.04670300
8.56000000,-0.75256947,0.65839253,-0.56955847,0.01079800,0.62083737,0.11827553,-0.66692553,0.27910311,-0.77829553,0.22977753,-0.47606947,-0.84802800,0.40057158,-0.04670300
8.58000000,-0.75256649,0.65839551,-0.56955549,0.01079800,0.62082245,0.11827851,-0.66692851,0.27911504,-0.77829851,0.22978051,-0.47606649,-0.84802800,0.40058053,-0.04670300
8.60000000,-0.75256351,0.65839849,-0.56955251,0.01079800,0.62080753,0.11828149,-0.66693149,0.27912698,-0.77830149,0.22978349,-0.47606351,-0.84802800,0.40058948,-0.04670300
8.62000000,-0.75256100,0.65840195,-0.56954952,0.01079657,0.62079357,0.11828543,-0.66693495,0.27913652,-0.77830305,0.22978552,-0.47606148,-0.84802705,0.40059605,-0.04670300
8.64000000,-0.75256100,0.65840789,-0.56954656,0.01078767,0.62078467,0.11829433,-0.66694089,0.27913356,-0.77829711,0.22978256,-0.47606444,-0.84802111,0.40059011,-0.04670300
8.66000000,-0.75256100,0.65841382,-0.56954359,0.01077877,0.62077577,0.11830323,-0.66694682,0.27913059,-0.77829118,0.22977959,-0.47606741,-0.84801518,0.40058418,-0.04670300
8.68000000,-0.75256100,0.65841975,-0.56954062,0.01076987,0.62076687,0.11831213,-0.66695275,0.27912762,-0.77828525,0.22977662,-0.47607038,-0.84800925,0.40057825,-0.04670300
8.70000000,-0.75256100,0.65842740,-0.56953731,0.01075857,0.62075831,0.11832034,-0.66695903,0.27912466,-0.77828034,0.22977366,-0.47607300,-0.84800434,0.40057231,-0.04670300
8.72000000,-0.75256100,0.65844813,-0.56953139,0.01072895,0.62075239,0.11832330,-0.66696791,0.27912170,-0.77828330,0.22977070,-0.47607300,-0.84800730,0.40056639,-0.04670300
8.74000000,-0.75256100,0.65846886,-0.56952547,0.01069934,0.62074647,0.11832627,-0.66697680,0.27911873,-0.77828627,0.22976773,-0.47607300,-0.84801027,0.40056047,-0.04670300
8.76000000,-0.75256100,0.65848960,-0.56951954,0.01066972,0.62074054,0.11832923,-0.66698568,0.27911577,-0.77828923,0.22976477,-0.47607300,-0.84801323,0.40055454,-0.04670300
8.78000000,-0.75256100,0.65851148,-0.56951286,0.01063819,0.62073329,0.11833295,-0.66699495,0.27911300,-0.77829181,0.22976219,-0.47607300,-0.84801619,0.40054900,-0.04670300
8.80000000,-0.75256100,0.65855018,-0.56949499,0.01057864,0.62070649,0.11834784,-0.66700984,0.27911300,-0.77828883,0.22976517,-0.47607300,-0.84801917,0.40054900,-0.04670300
8.82000000,-0.75256100,0.65858889,-0.56947713,0.01051909,0.62067969,0.11836273,-0.66702473,0.27911300,-0.77828585,0.22976815,-0.47607300,-0.84802215,0.40054900,-0.04670300
8.84000000,-0.75256100,0.65862759,-0.56945926,0.01045955,0.62065290,0.11837761,-0.66703961,0.27911300,-0.77828288,0.22977112,-0.47607300,-0.84802512,0.40054900,-0.04670300
8.86000000,-0.75256090,0.65866651,-0.56944060,0.01039920,0.62062580,0.11839270,-0.66705530,0.27911310,-0.77828010,0.22977400,-0.47607300,-0.84802790,0.40054900,-0.04670310
8.88000000,-0.75255791,0.65871130,-0.56939904,0.01031583,0.62058996,0.11841361,-0.66709413,0.27911609,-0.77828309,0.22977400,-0.47607300,-0.84802491,0.40054900,-0.04670609
8.90000000,-0.75255493,0.65875609,-0.56935749,0.01023247,0.62055413,0.11843451,-0.66713295,0.27911907,-0.77828607,0.22977400,-0.47607300,-0.84802193,0.40054900,-0.04670907
8.92000000,-0.75255194,0.65880089,-0.56931593,0.01014910,0.62051829,0.11845541,-0.66717177,0.27912206,-0.77828906,0.22977400,-0.47607300,-0.84801894,0.40054900,-0.04671206
8.94000000,-0.75254900,0.65884627,-0.56927386,0.01006482,0.62048236,0.11847654,-0.66721064,0.27912505,-0.77829200,0.22977405,-0.47607300,-0.84801600,0.40054900,-0.04671500
8.96000000,-0.75254900,0.65892968,-0.56919917,0.00992166,0.62044054,0.11851240,-0.66725246,0.27912803,-0.77829200,0.22977703,-0.47607300,-0.84801600,0.40054900,-0.04671500
8.98000000,-0.75254900,0.65901308,-0.56912448,0.00977850,0.62039871,0.11854825,-0.66729429,0.27913102,-0.77829200,0.22978002,-0.47607300,-0.84801600,0.40054900,-0.04671500
9.00000000,-0.75254900,0.65909649,-0.56904978,0.00963533,0.62035688,0.11858410,-0.66733612,0.27913401,-0.77829200,0.22978301,-0.47607300,-0.84801600,0.40054900,-0.04671500
9.02000000,-0.75254900,0.65917990,-0.56897509,0.00949217,0.62031505,0.11861996,-0.66737795,0.27913700,-0.77829200,0.22978600,-0.47607300,-0.84801600,0.40054900,-0.04671500
9.04000000,-0.75254308,0.65928659,-0.56886569,0.00933507,0.62024715,0.11864961,-0.66743401,0.27913700,-0.77828904,0.22978600,-0.47607300,-0.84801600,0.40054308,-0.04671204
9.06000000,-0.75253715,0.65939331,-0.56875626,0.00917796,0.62017921,0.11867925,-0.66749009,0.27913700,-0.77828607,0.22978600,-0.47607300,-0.84801600,0.40053715,-0.04670907
9.08000000,-0.75253122,0.65950003,-0.56864682,0.00902084,0.62011128,0.11870890,-0.66754616,0.27913700,-0.77828311,0.22978600,-0.47607300,-0.84801600,0.40053122,-0.04670611
9.10000000,-0.75252529,0.65960675,-0.56853738,0.00886373,0.62004334,0.11873854,-0.66760224,0.27913700,-0.77828015,0.22978600,-0.47607300,-0.84801600,0.40052529,-0.04670315
9.12000000,-0.75252216,0.65975666,-0.56837882,0.00862067,0.61997182,0.11878522,-0.66766182,0.27913700,-0.77828000,0.22978316,-0.47607584,-0.84801600,0.40052500,-0.04670300
9.14000000,-0.75251917,0.65990880,-0.56821772,0.00837316,0.61990010,0.11883278,-0.66772158,0.27913700,-0.77828000,0.22978017,-0.47607883,-0.84801600,0.40052500,-0.04670300
9.16000000,-0.75251618,0.66006094,-0.56805661,0.00812565,0.61982839,0.11888034,-0.66778134,0.27913700,-0.77828000,0.22977718,-0.47608182,-0.84801600,0.40052500,-0.04670300
9.18000000,-0.75251319,0.66021308,-0.56789550,0.00787814,0.61975668,0.11892790,-0.66784110,0.27913700,-0.77828000,0.22977419,-0.47608481,-0.84801600,0.40052500,-0.04670300
9.20000000,-0.75251300,0.66038761,-0.56767289,0.00755770,0.61966562,0.11898967,-0.66790647,0.27912582,-0.77828000,0.22977121,-0.47607941,-0.84802159,0.40052779,-0.04670300
9.22000000,-0.75251300,0.66056370,-0.56744600,0.00723217,0.61957322,0.11905244,-0.66797222,0.27911387,-0.77828000,0.22976822,-0.47607343,-0.84802757,0.40053078,-0.04670300
9.24000000,-0.75251300,0.66073979,-0.56721910,0.00690664,0.61948081,0.11911520,-0.66803797,0.27910191,-0.77828000,0.22976523,-0.47606746,-0.84803354,0.40053377,-0.04670300
9.26000000,-0.75251300,0.66091588,-0.56699220,0.00658111,0.61938841,0.11917797,-0.66810373,0.27908996,-0.77828000,0.22976224,-0.47606148,-0.84803952,0.40053676,-0.04670300
9.28000000,-0.75251026,0.66114633,-0.56673025,0.00613627,0.61928231,0.11924331,-0.66818827,0.27909722,-0.77828000,0.22976748,-0.47606374,-0.84803452,0.40053700,-0.04670300
9.30000000,-0.75250728,0.66138153,-0.56646525,0.00568102,0.61917502,0.11930888,-0.66827445,0.27910616,-0.77828000,0.22977344,-0.47606672,-0.84802856,0.40053700,-0.04670300
9.32000000,-0.75250430,0.66161673,-0.56620025,0.00522577,0.61906773,0.11937444,-0.66836063,0.27911511,-0.77828000,0.22977940,-0.47606970,-0.84802260,0.40053700,-0.04670300
9.34000000,-0.75250132,0.66185193,-0.56593525,0.00477053,0.61896044,0.11944001,-0.66844681,0.27912405,-0.77828000,0.22978536,-0.47607268,-0.84801664,0.40053700,-0.04670300
9.36000000,-0.75249589,0.66207139,-0.56564618,0.00433588,0.61882392,0.11950276,-0.66853864,0.27912500,-0.77828000,0.22978067,-0.47607300,-0.84801867,0.40053700,-0.04670567
9.38000000,-0.75249017,0.66228898,-0.56535424,0.00390370,0.61868392,0.11956518,-0.66863115,0.27912500,-0.77828000,0.22977470,-0.47607300,-0.84802165,0.40053700,-0.04670865
9.40000000,-0.75248445,0.66250656,-0.56506231,0.00347151,0.61854392,0.11962759,-0.66872365,0.27912500,-0.77828000,0.22976873,-0.47607300,-0.84802463,0.40053700,-0.04671163
9.42000000,-0.75247873,0.66272415,-0.56477037,0.00303932,0.61840392,0.11969001,-0.66881616,0.27912500,-0.77828000,0.22976276,-0.47607300,-0.84802762,0.40053700,-0.04671462
9.44000000,-0.75247019,0.66295713,-0.56439777,0.00257612,0.61822489,0.11978387,-0.66893187,0.27912240,-0.77828260,0.22976720,-0.47607300,-0.84802540,0.40053440,-0.04671240
9.46000000,-0.75246124,0.66319237,-0.56401332,0.00210838,0.61804013,0.11988234,-0.66905098,0.27911941,-0.77828559,0.22977317,-0.47607300,-0.84802241,0.40053141,-0.04670941
9.48000000,-0.75245229,0.66342761,-0.56362888,0.00164063,0.61785536,0.11998081,-0.66917009,0.27911643,-0.77828857,0.22977914,-0.47607300,-0.84801943,0.40052843,-0.04670643
9.50000000,-0.75244334,0.66366285,-0.56324444,0.00117288,0.61767060,0.12007929,-0.66928920,0.27911345,-0.77829155,0.22978511,-0.47607300,-0.84801645,0.40052545,-0.04670345
9.52000000,-0.75242676,0.66391880,-0.56285209,0.00065378,0.61747301,0.12016746,-0.66942873,0.27911554,-0.77829454,0.22978346,-0.47607300,-0.84801600,0.40053516,-0.04670300
9.54000000,-0.75240884,0.66417838,-0.56245837,0.00012565,0.61727316,0.12025382,-0.66957183,0.27911853,-0.77829753,0.22978047,-0.47607300,-0.84801600,0.40054711,-0.04670300
9.56000000,-0.75239092,0.66443796,-0.56206464,-0.00040247,0.61707331,0.12034018,-0.66971494,0.27912151,-0.77830051,0.22977749,-0.47607300,-0.84801600,0.40055905,-0.04670300
9.58000000,-0.75237300,0.66469755,-0.56167091,-0.00093059,0.61687346,0.12042654,-0.66985804,0.27912450,-0.77830350,0.22977450,-0.47607300,-0.84801600,0.40057100,-0.04670300
9.60000000,-0.75234763,0.66498167,-0.56126989,-0.00148314,0.61667369,0.12051308,-0.67000109,0.27912500,-0.77830151,0.22977400,-0.47607549,-0.84801351,0.40056803,-0.04670300
9.62000000,-0.75232077,0.66527072,-0.56086740,-0.00204061,0.61647394,0.12059964,-0.67014413,0.27912500,-0.77829853,0.22977400,-0.47607847,-0.84801053,0.40056206,-0.04670300
9.64000000,-0.75229390,0.66555978,-0.56046491,-0.00259807,0.61627418,0.12068621,-0.67028716,0.27912500,-0.77829554,0.22977400,-0.47608146,-0.84800754,0.40055609,-0.04670300
9.66000000,-0.75226703,0.66584883,-0.56006243,-0.00315553,0.61607443,0.12077278,-0.67043020,0.27912500,-0.77829256,0.22977400,-0.47608444,-0.84800456,0.40055012,-0.04670300
9.68000000,-0.75216488,0.66620145,-0.55963533,-0.00383950,0.61585024,0.12088106,-0.67061220,0.27912014,-0.77829200,0.22977400,-0.47608257,-0.84800643,0.40054414,-0.04670300
9.70000000,-0.75204535,0.66656873,-0.55920256,-0.00455265,0.61562041,0.12099436,-0.67080318,0.27911417,-0.77829200,0.22977400,-0.47607958,-0.84800942,0.40053817,-0.04670300
9.72000000,-0.75192583,0.66693601,-0.55876979,-0.00526580,0.61539058,0.12110766,-0.67099417,0.27910819,-0.77829200,0.22977400,-0.47607660,-0.84801240,0.40053219,-0.04670300
9.74000000,-0.75180631,0.66730330,-0.55833703,-0.00597895,0.61516075,0.12122096,-0.67118515,0.27910222,-0.77829200,0.22977400,-0.47607361,-0.84801539,0.40052622,-0.04670300
9.76000000,-0.75155162,0.66778185,-0.55785229,-0.00684150,0.61492883,0.12133916,-0.67140223,0.27910100,-0.77828724,0.22977400,-0.47607300,-0.84801600,0.40051786,-0.04670300
9.78000000,-0.75126243,0.66828882,-0.55735428,-0.00774219,0.61469637,0.12145863,-0.67162598,0.27910100,-0.77828127,0.22977400,-0.47607300,-0.84801600,0.40050890,-0.04670300
9.80000000,-0.75097323,0.66879579,-0.55685627,-0.00864289,0.61446392,0.12157809,-0.67184972,0.27910100,-0.77827530,0.22977400,-0.47607300,-0.84801600,0.40049994,-0.04670300
9.82000000,-0.75068403,0.66930276,-0.55635826,-0.00954359,0.61423147,0.12169755,-0.67207346,0.27910100,-0.77826932,0.22977400,-0.47607300,-0.84801600,0.40049098,-0.04670300
9.84000000,-0.75035085,0.66985823,-0.55591379,-0.01048326,0.61398733,0.12183302,-0.67233193,0.27910332,-0.77827032,0.22977400,-0.47607300,-0.84802065,0.40049132,-0.04670532
9.86000000,-0.75000516,0.67042749,-0.55548454,-0.01143402,0.61373988,0.12197303,-0.67260027,0.27910631,-0.77827331,0.22977400,-0.47607300,-0.84802662,0.40049431,-0.04670831
9.88000000,-0.74965948,0.67099675,-0.55505530,-0.01238478,0.61349243,0.12211305,-0.67286861,0.27910929,-0.77827629,0.22977400,-0.47607300,-0.84803258,0.40049729,-0.04671129
9.90000000,-0.74931379,0.67156601,-0.55462605,-0.01333554,0.61324498,0.12225306,-0.67313695,0.27911228,-0.77827928,0.22977400,-0.47607300,-0.84803855,0.40050028,-0.04671428
9.92000000,-0.74885912,0.67222617,-0.55417169,-0.01431662,0.61297466,0.12242490,-0.67342573,0.27911074,-0.77828226,0.22977174,-0.47607300,-0.84804226,0.40051685,-0.04671500
9.94000000,-0.74836958,0.67291541,-0.55370929,-0.01530741,0.61269702,0.12260692,-0.67372105,0.27910775,-0.77828525,0.22976875,-0.47607300,-0.84804525,0.40053776,-0.04671500
9.96000000,-0.74788004,0.67360466,-0.55324688,-0.01629819,0.61241938,0.12278894,-0.67401637,0.27910476,-0.77828824,0.22976576,-0.47607300,-0.84804824,0.40055868,-0.04671500
9.98000000,-0.74739050,0.67429390,-0.55278448,-0.01728898,0.61214174,0.12297097,-0.67431169,0.27910177,-0.77829123,0.22976277,-0.47607300,-0.84805123,0.40057960,-0.04671500
10.00000000,-0.74677305,0.67486126,-0.55224917,-0.01826833,0.61186439,0.12318171,-0.67462702,0.27910100,-0.77828979,0.22976421,-0.47607300,-0.84804536,0.40059164,-0.04671057
10.02000000,-0.74611102,0.67538614,-0.55168844,-0.01924369,0.61158714,0.12340247,-0.67494932,0.27910100,-0.77828680,0.22976720,-0.47607300,-0.84803640,0.40060060,-0.04670460
10.04000000,-0.74544900,0.67591103,-0.55112771,-0.02021905,0.61130988,0.12362323,-0.67527162,0.27910100,-0.77828381,0.22977019,-0.47607300,-0.84802744,0.40060956,-0.04669862
10.06000000,-0.74478698,0.67643592,-0.55056698,-0.02119441,0.61103263,0.12384398,-0.67559392,0.27910100,-0.77828083,0.22977317,-0.47607300,-0.84801848,0.40061852,-0.04669265
10.08000000,-0.74407086,0.67699977,-0.55004492,-0.02225183,0.61074869,0.12405612,-0.67593120,0.27909668,-0.77828432,0.22977400,-0.47607300,-0.84801816,0.40060587,-0.04669532
10.10000000,-0.74333406,0.67757850,-0.54953763,-0.02334059,0.61046218,0.12426496,-0.67627421,0.27909070,-0.77829030,0.22977400,-0.47607300,-0.84802115,0.40058496,-0.04670130
10.12000000,-0.74259727,0.67815724,-0.54903034,-0.02442936,0.61017568,0.12447380,-0.67661722,0.27908473,-0.77829627,0.22977400,-0.47607300,-0.84802414,0.40056405,-0.04670727
10.14000000,-0.74186047,0.67873597,-0.54852304,-0.02551812,0.60988917,0.12468264,-0.67696022,0.27907876,-0.77830224,0.22977400,-0.47607300,-0.84802712,0.40054314,-0.04671324
10.16000000,-0.74102196,0.67936145,-0.54792717,-0.02668346,0.60958581,0.12489371,-0.67730341,0.27907278,-0.77829978,0.22977611,-0.47607300,-0.84802800,0.40053278,-0.04671500
10.18000000,-0.74014113,0.68000638,-0.54729445,-0.02788065,0.60927543,0.12510569,-0.67764668,0.27906680,-0.77829380,0.22977910,-0.47607300,-0.84802800,0.40052680,-0.04671500
10.20000000,-0.73926030,0.68065130,-0.54666173,-0.02907784,0.60896504,0.12531768,-0.67798994,0.27906082,-0.77828782,0.22978209,-0.47607300,-0.84802800,0.40052082,-0.04671500
10.22000000,-0.73837947,0.68129623,-0.54602900,-0.03027503,0.60865466,0.12552967,-0.67833321,0.27905484,-0.77828184,0.22978508,-0.47607300,-0.84802800,0.40051484,-0.04671500
10.24000000,-0.73748662,0.68194927,-0.54542107,-0.03143058,0.60829681,0.12574780,-0.67872187,0.27905507,-0.77828000,0.22978600,-0.47607713,-0.84803007,0.40051300,-0.04671500
10.26000000,-0.73658842,0.68260593,-0.54482418,-0.03256759,0.60791780,0.12596868,-0.67913075,0.27905806,-0.77828000,0.22978600,-0.47608311,-0.84803306,0.40051300,-0.04671500
10.28000000,-0.73569022,0.68326259,-0.54422729,-0.03370460,0.60753880,0.12618956,-0.67953964,0.27906104,-0.77828000,0.22978600,-0.47608909,-0.84803604,0.40051300,-0.04671500
10.30000000,-0.73479202,0.68391924,-0.54363039,-0.03484161,0.60715980,0.12641044,-0.67994852,0.27906403,-0.77828000,0.22978600,-0.47609506,-0.84803903,0.40051300,-0.04671500
10.32000000,-0.73393772,0.68466293,-0.54299066,-0.03593284,0.60673809,0.12666768,-0.68037182,0.27906500,-0.77828404,0.22978600,-0.47609498,-0.84804000,0.40052715,-0.04670893
10.34000000,-0.73310447,0.68544832,-0.54233039,-0.03700213,0.60629592,0.12694236,-0.68080203,0.27906500,-0.77829003,0.22978600,-0.47609199,-0.84804000,0.40054809,-0.04669996
10.36000000,-0.73227122,0.68623371,-0.54167012,-0.03807143,0.60585374,0.12721703,-0.68123224,0.27906500,-0.77829601,0.22978600,-0.47608900,-0.84804000,0.40056903,-0.04669099
10.38000000,-0.73143797,0.68701911,-0.54100985,-0.03914072,0.60541157,0.12749171,-0.68166245,0.27906500,-0.77830199,0.22978600,-0.47608600,-0.84804000,0.40058997,-0.04668201
10.40000000,-0.73063719,0.68771673,-0.54029297,-0.04024652,0.60488677,0.12778013,-0.68210590,0.27905905,-0.77830202,0.22978203,-0.47608302,-0.84804000,0.40058709,-0.04668495
10.42000000,-0.72985284,0.68836995,-0.53954743,-0.04137079,0.60432015,0.12807551,-0.68255606,0.27905009,-0.77829903,0.22977606,-0.47608003,-0.84804000,0.40057216,-0.04669391
10.44000000,-0.72906848,0.68902316,-0.53880190,-0.04249506,0.60375354,0.12837088,-0.68300622,0.27904113,-0.77829604,0.22977009,-0.47607704,-0.84804000,0.40055722,-0.04670287
10.46000000,-0.72828413,0.68967637,-0.53805637,-0.04361933,0.60318692,0.12866626,-0.68345637,0.27903218,-0.77829306,0.22976412,-0.47607406,-0.84804000,0.40054229,-0.04671182
10.48000000,-0.72749174,0.69040491,-0.53733752,-0.04480000,0.60268371,0.12895196,-0.68389145,0.27903286,-0.77829570,0.22976393,-0.47607300,-0.84803807,0.40054471,-0.04671307
10.50000000,-0.72669492,0.69117483,-0.53663334,-0.04601165,0.60221533,0.12923233,-0.68431824,0.27903883,-0.77830142,0.22976692,-0.47607300,-0.84803508,0.40055667,-0.04671008
10.52000000,-0.72589811,0.69194475,-0.53592915,-0.04722331,0.60174696,0.12951271,-0.68474504,0.27904481,-0.77830715,0.22976990,-0.47607300,-0.84803210,0.40056862,-0.04670710
10.54000000,-0.72510130,0.69271467,-0.53522497,-0.04843496,0.60127858,0.12979309,-0.68517183,0.27905079,-0.77831288,0.22977289,-0.47607300,-0.84802911,0.40058057,-0.04670411
10.56000000,-0.72429325,0.69346009,-0.53442869,-0.04972724,0.60082324,0.13010918,-0.68559860,0.27904736,-0.77830952,0.22977212,-0.47607676,-0.84802988,0.40058312,-0.04670300
10.58000000,-0.72347859,0.69419110,-0.53357817,-0.05106700,0.60037558,0.13044630,-0.68602535,0.27903840,-0.77830080,0.22976913,-0.47608274,-0.84803287,0.40058013,-0.04670300
10.60000000,-0.72266393,0.69492210,-0.53272766,-0.05240676,0.59992791,0.13078342,-0.68645210,0.27902943,-0.77829209,0.22976614,-0.47608871,-0.84803586,0.40057714,-0.04670300
10.62000000,-0.72184927,0.69565310,-0.53187715,-0.05374651,0.59948025,0.13112054,-0.68687885,0.27902047,-0.77828337,0.22976316,-0.47609469,-0.84803884,0.40057416,-0.04670300
10.64000000,-0.72096179,0.69641866,-0.53105085,-0.05533619,0.59902921,0.13147586,-0.68723774,0.27900602,-0.77828366,0.22976383,-0.47609883,-0.84804000,0.40056202,-0.04670651
10.66000000,-0.72002834,0.69720604,-0.53023983,-0.05708366,0.59857604,0.13184267,-0.68755378,0.27898810,-0.77828963,0.22976682,-0.47610182,-0.84804000,0.40054410,-0.04671223
10.68000000,-0.71909488,0.69799342,-0.52942881,-0.05883112,0.59812288,0.13220948,-0.68786983,0.27897018,-0.77829561,0.22976980,-0.47610480,-0.84804000,0.40052618,-0.04671796
10.70000000,-0.71816142,0.69878080,-0.52861779,-0.06057858,0.59766971,0.13257629,-0.68818587,0.27895226,-0.77830158,0.22977279,-0.47610779,-0.84804000,0.40050826,-0.04672368
10.72000000,-0.71723665,0.69962681,-0.52781000,-0.06239923,0.59711698,0.13288649,-0.68852685,0.27894678,-0.77830222,0.22977400,-0.47610722,-0.84804000,0.40050633,-0.04672437
10.74000000,-0.71631781,0.70051279,-0.52700443,-0.06426978,0.59649637,0.13315809,-0.68888483,0.27894976,-0.77829924,0.22977400,-0.47610424,-0.84804000,0.40051529,-0.04672163
10.76000000,-0.71539897,0.70139878,-0.52619885,-0.06614033,0.59587576,0.13342968,-0.68924281,0.27895275,-0.77829625,0.22977400,-0.47610125,-0.84804000,0.40052425,-0.04671890
10.78000000,-0.71448012,0.70228476,-0.52539328,-0.06801088,0.59525515,0.13370128,-0.68960079,0.27895574,-0.77829326,0.22977400,-0.47609826,-0.84804000,0.40053321,-0.04671616
10.80000000,-0.71363889,0.70308106,-0.52454814,-0.06968479,0.59468120,0.13396076,-0.68998287,0.27893285,-0.77829373,0.22977573,-0.47609355,-0.84803655,0.40053355,-0.04671155
10.82000000,-0.71285442,0.70381177,-0.52367407,-0.07121491,0.59414138,0.13421138,-0.69038257,0.27889104,-0.77829671,0.22977871,-0.47608758,-0.84803058,0.40052758,-0.04670558
10.84000000,-0.71206995,0.70454248,-0.52280001,-0.07274502,0.59360156,0.13446200,-0.69078227,0.27884923,-0.77829970,0.22978170,-0.47608160,-0.84802460,0.40052160,-0.04669960
10.86000000,-0.71128548,0.70527319,-0.52192594,-0.07427514,0.59306174,0.13471263,-0.69118197,0.27880741,-0.77830268,0.22978468,-0.47607563,-0.84801863,0.40051563,-0.04669363
10.88000000,-0.71030843,0.70616815,-0.52077085,-0.07596495,0.59256329,0.13498333,-0.69160031,0.27875889,-0.77830065,0.22978433,-0.47607802,-0.84801935,0.40050129,-0.04669435
10.90000000,-0.70917983,0.70719237,-0.51939460,-0.07778043,0.59209739,0.13526984,-0.69203332,0.27870507,-0.77829467,0.22978134,-0.47608699,-0.84802533,0.40048036,-0.04670033
10.92000000,-0.70805122,0.70821658,-0.51801835,-0.07959592,0.59163150,0.13555635,-0.69246632,0.27865126,-0.77828870,0.22977835,-0.47609596,-0.84803130,0.40045943,-0.04670630
10.94000000,-0.70692261,0.70924080,-0.51664209,-0.08141141,0.59116561,0.13584287,-0.69289933,0.27859744,-0.77828272,0.22977536,-0.47610493,-0.84803728,0.40043851,-0.04671228
10.96000000,-0.70587891,0.71032178,-0.51537349,-0.08322804,0.59068689,0.13612457,-0.69337942,0.27858605,-0.77827837,0.22977726,-0.47610900,-0.84804000,0.40042574,-0.04671337
10.98000000,-0.70490586,0.71144999,-0.51419447,-0.08504564,0.59019750,0.13640226,-0.69389870,0.27860996,-0.77827538,0.22978324,-0.47610900,-0.84804000,0.40041976,-0.04671038
11.00000000,-0.70393280,0.71257820,-0.51301545,-0.08686323,0.58970811,0.13667996,-0.69441797,0.27863387,-0.77827239,0.22978922,-0.47610900,-0.84804000,0.40041378,-0.04670739
11.02000000,-0.70295975,0.71370642,-0.51183643,-0.08868082,0.58921872,0.13695765,-0.69493725,0.27865778,-0.77826940,0.22979519,-0.47610900,-0.84804000,0.40040781,-0.04670440
11.04000000,-0.70191121,0.71489103,-0.51070072,-0.09053404,0.58873259,0.13729054,-0.69548481,0.27866425,-0.77827275,0.22979642,-0.47610900,-0.84803842,0.40041768,-0.04670300
11.06000000,-0.70079590,0.71612554,-0.50960332,-0.09241878,0.58824933,0.13767227,-0.69605740,0.27865529,-0.77828171,0.22979343,-0.47610900,-0.84803543,0.40044156,-0.04670300
11.08000000,-0.69968059,0.71736005,-0.50850593,-0.09430351,0.58776608,0.13805399,-0.69662999,0.27864633,-0.77829067,0.22979044,-0.47610900,-0.84803244,0.40046545,-0.04670300
11.10000000,-0.69856527,0.71859456,-0.50740853,-0.09618825,0.58728283,0.13843572,-0.69720258,0.27863737,-0.77829963,0.22978746,-0.47610900,-0.84802946,0.40048934,-0.04670300
11.12000000,-0.69740092,0.71981568,-0.50637961,-0.09813149,0.58670796,0.13882504,-0.69777069,0.27864065,-0.77830540,0.22978447,-0.47610900,-0.84802953,0.40051324,-0.04670453
11.14000000,-0.69618981,0.72102405,-0.50541595,-0.10013049,0.58604578,0.13922161,-0.69833455,0.27865558,-0.77830814,0.22978148,-0.47610900,-0.84803252,0.40053713,-0.04670752
11.16000000,-0.69497871,0.72223241,-0.50445230,-0.10212950,0.58538359,0.13961817,-0.69889840,0.27867052,-0.77831088,0.22977850,-0.47610900,-0.84803550,0.40056103,-0.04671050
11.18000000,-0.69376761,0.72344078,-0.50348865,-0.10412850,0.58472140,0.14001473,-0.69946225,0.27868546,-0.77831362,0.22977551,-0.47610900,-0.84803849,0.40058493,-0.04671349
11.20000000,-0.69250667,0.72453766,-0.50245919,-0.10610823,0.58398168,0.14039261,-0.70006802,0.27870041,-0.77831216,0.22977252,-0.47610752,-0.84803852,0.40060144,-0.04671352
11.22000000,-0.69119490,0.72552080,-0.50136259,-0.10806828,0.58316285,0.14075140,-0.70071655,0.27871537,-0.77830643,0.22976953,-0.47610453,-0.84803553,0.40061042,-0.04671053
11.24000000,-0.68988312,0.72650395,-0.50026600,-0.11002834,0.58234402,0.14111020,-0.70136509,0.27873033,-0.77830069,0.22976653,-0.47610153,-0.84803253,0.40061940,-0.04670753
11.26000000,-0.68857135,0.72748709,-0.49916940,-0.11198840,0.58152519,0.14146900,-0.70201362,0.27874529,-0.77829496,0.22976354,-0.47609854,-0.84802954,0.40062837,-0.04670454
11.28000000,-0.68729137,0.72849932,-0.49808989,-0.11392891,0.58074781,0.14180412,-0.70268440,0.27875300,-0.77829200,0.22976489,-0.47609411,-0.84802945,0.40062577,-0.04670011
11.30000000,-0.68604522,0.72954250,-0.49702855,-0.11584862,0.58001455,0.14211404,-0.70337885,0.27875300,-0.77829200,0.22977086,-0.47608814,-0.84803243,0.40061085,-0.04669414
11.32000000,-0.68479908,0.73058568,-0.49596721,-0.11776833,0.57928129,0.14242396,-0.70407331,0.27875300,-0.77829200,0.22977683,-0.47608217,-0.84803542,0.40059592,-0.04668817
11.34000000,-0.68355293,0.73162886,-0.49490588,-0.11968804,0.57854803,0.14273388,-0.70476777,0.27875300,-0.77829200,0.22978280,-0.47607620,-0.84803840,0.40058100,-0.04668220
11.36000000,-0.68230287,0.73265544,-0.49382537,-0.12165453,0.57780237,0.14302577,-0.70544001,0.27875162,-0.77829465,0.22978462,-0.47607715,-0.84803446,0.40056885,-0.04667900
11.38000000,-0.68104826,0.73366285,-0.49272271,-0.12367507,0.57704240,0.14329684,-0.70608658,0.27874863,-0.77830037,0.22978163,-0.47608611,-0.84802252,0.40055989,-0.04667900
11.40000000,-0.67979366,0.73467026,-0.49162006,-0.12569561,0.57628243,0.14356790,-0.70673316,0.27874565,-0.77830609,0.22977865,-0.47609506,-0.84801059,0.40055094,-0.04667900
11.42000000,-0.67853906,0.73567767,-0.49051740,-0.12771615,0.57552246,0.14383896,-0.70737973,0.27874266,-0.77831181,0.22977566,-0.47610401,-0.84799865,0.40054199,-0.04667900
11.44000000,-0.67730271,0.73666960,-0.48942768,-0.12976902,0.57477509,0.14416514,-0.70794942,0.27872122,-0.77831379,0.22977532,-0.47610900,-0.84799596,0.40053041,-0.04667900
11.46000000,-0.67608931,0.73764206,-0.48835423,-0.13186257,0.57404357,0.14456068,-0.70842238,0.27867656,-0.77831106,0.22977830,-0.47610900,-0.84800489,0.40051552,-0.04667900
11.48000000,-0.67487591,0.73861452,-0.48728078,-0.13395612,0.57331206,0.14495621,-0.70889533,0.27863189,-0.77830833,0.22978127,-0.47610900,-0.84801382,0.40050063,-0.04667900
11.50000000,-0.67366251,0.73958697,-0.48620733,-0.13604967,0.57258054,0.14535174,-0.70936828,0.27858723,-0.77830560,0.22978425,-0.47610900,-0.84802275,0.40048574,-0.04667900
11.52000000,-0.67235873,0.74066426,-0.48502880,-0.13834960,0.57190460,0.14576512,-0.70985169,0.27856840,-0.77830400,0.22978723,-0.47611023,-0.84802677,0.40047330,-0.04667900
11.54000000,-0.67092639,0.74189067,-0.48370080,-0.14094310,0.57130771,0.14620389,-0.71034997,0.27858633,-0.77830400,0.22979022,-0.47611322,-0.84802378,0.40046433,-0.04667900
