gracetata/LocomotionHEC/legged_lab/Reference Data/ArmHack/StandPerturb/VisualizationSuite/representative_trajectories_sequence_50hz.csv
time_s,left_shoulder_pitch_joint,left_shoulder_roll_joint,left_shoulder_yaw_joint,left_elbow_joint,left_wrist_roll_joint,left_wrist_pitch_joint,left_wrist_yaw_joint,right_shoulder_pitch_joint,right_shoulder_roll_joint,right_shoulder_yaw_joint,right_elbow_joint,right_wrist_roll_joint,right_wrist_pitch_joint,right_wrist_yaw_joint
0.00000000,0.00988991,1.04326463,-0.00073090,-0.92963741,0.69397586,0.71548688,-0.87259149,0.27902390,-0.77804000,0.22981467,-0.47601990,-0.84802110,0.40053190,-0.04662590
0.02000000,0.01033753,1.04293327,-0.00108890,-0.92933020,0.69423253,0.71498549,-0.87112665,0.27902689,-0.77804000,0.22981194,-0.47602289,-0.84801811,0.40053489,-0.04662889
0.04000000,0.01074137,1.04259150,-0.00147750,-0.92900638,0.69450137,0.71449382,-0.86966181,0.27902812,-0.77804000,0.22981080,-0.47602412,-0.84801688,0.40053788,-0.04663012
0.06000000,0.01103956,1.04222462,-0.00193997,-0.92864248,0.69479956,0.71402563,-0.86819701,0.27902514,-0.77804000,0.22981354,-0.47602114,-0.84801986,0.40054086,-0.04662714
0.08000000,0.01133775,1.04185773,-0.00240243,-0.92827858,0.69509775,0.71355744,-0.86673220,0.27902215,-0.77804000,0.22981628,-0.47601815,-0.84802285,0.40054385,-0.04662415
0.10000000,0.01163593,1.04149085,-0.00286490,-0.92791468,0.69539593,0.71308925,-0.86526740,0.27901916,-0.77804000,0.22981902,-0.47601516,-0.84802584,0.40054684,-0.04662116
0.12000000,0.01192964,1.04110087,-0.00331111,-0.92751944,0.69570682,0.71259969,-0.86385718,0.27901700,-0.77804164,0.22982025,-0.47601382,-0.84802800,0.40054736,-0.04661900
0.14000000,0.01221157,1.04065012,-0.00371458,-0.92704171,0.69605113,0.71205390,-0.86259060,0.27901700,-0.77804758,0.22981753,-0.47601679,-0.84802800,0.40054142,-0.04661900
0.16000000,0.01249351,1.04019938,-0.00411805,-0.92656399,0.69639544,0.71150810,-0.86132401,0.27901700,-0.77805352,0.22981480,-0.47601976,-0.84802800,0.40053548,-0.04661900
0.18000000,0.01277544,1.03974864,-0.00452151,-0.92608627,0.69673974,0.71096231,-0.86005743,0.27901700,-0.77805946,0.22981208,-0.47602273,-0.84802800,0.40052954,-0.04661900
0.20000000,0.01307804,1.03930712,-0.00491423,-0.92558418,0.69708863,0.71042007,-0.85878015,0.27901630,-0.77806259,0.22981064,-0.47602500,-0.84802800,0.40052289,-0.04661900
0.22000000,0.01344778,1.03889558,-0.00527203,-0.92500294,0.69745240,0.70988934,-0.85746813,0.27901331,-0.77805662,0.22981338,-0.47602500,-0.84802800,0.40051393,-0.04661900
0.24000000,0.01381753,1.03848403,-0.00562983,-0.92442170,0.69781618,0.70935861,-0.85615612,0.27901033,-0.77805065,0.22981612,-0.47602500,-0.84802800,0.40050498,-0.04661900
0.26000000,0.01418727,1.03807249,-0.00598763,-0.92384046,0.69817995,0.70882788,-0.85484410,0.27900734,-0.77804468,0.22981886,-0.47602500,-0.84802800,0.40049602,-0.04661900
0.28000000,0.01457755,1.03766618,-0.00634730,-0.92322634,0.69851719,0.70831268,-0.85344913,0.27900565,-0.77803871,0.22982041,-0.47602435,-0.84802865,0.40048965,-0.04661965
0.30000000,0.01504223,1.03727883,-0.00671377,-0.92249316,0.69875835,0.70785373,-0.85175379,0.27900863,-0.77803274,0.22981767,-0.47602137,-0.84803163,0.40049263,-0.04662263
0.32000000,0.01550690,1.03689148,-0.00708024,-0.92175998,0.69899951,0.70739478,-0.85005845,0.27901161,-0.77802677,0.22981494,-0.47601839,-0.84803461,0.40049561,-0.04662561
0.34000000,0.01597157,1.03650413,-0.00744670,-0.92102680,0.69924067,0.70693582,-0.84836311,0.27901460,-0.77802081,0.22981220,-0.47601540,-0.84803760,0.40049860,-0.04662860
0.36000000,0.01644198,1.03611788,-0.00780807,-0.92028891,0.69947580,0.70648095,-0.84667640,0.27901700,-0.77801715,0.22981053,-0.47601358,-0.84803885,0.40050215,-0.04663042
0.38000000,0.01693623,1.03573621,-0.00814826,-0.91953149,0.69968589,0.70604299,-0.84502554,0.27901700,-0.77802308,0.22981324,-0.47601654,-0.84803292,0.40050808,-0.04662746
0.40000000,0.01743048,1.03535454,-0.00848846,-0.91877407,0.69989598,0.70560503,-0.84337467,0.27901700,-0.77802900,0.22981596,-0.47601950,-0.84802700,0.40051400,-0.04662450
0.42000000,0.01792473,1.03497286,-0.00882866,-0.91801665,0.70010608,0.70516707,-0.84172380,0.27901700,-0.77803493,0.22981867,-0.47602246,-0.84802107,0.40051993,-0.04662154
0.44000000,0.01841523,1.03458726,-0.00917789,-0.91724544,0.70032006,0.70472520,-0.84011549,0.27901657,-0.77804043,0.22982061,-0.47602500,-0.84801557,0.40052500,-0.04661900
0.46000000,0.01888340,1.03417820,-0.00958101,-0.91639195,0.70055724,0.70425999,-0.83876093,0.27901361,-0.77804339,0.22981789,-0.47602500,-0.84801261,0.40052500,-0.04661900
0.48000000,0.01935157,1.03376914,-0.00998414,-0.91553846,0.70079441,0.70379479,-0.83740638,0.27901064,-0.77804636,0.22981517,-0.47602500,-0.84800964,0.40052500,-0.04661900
0.50000000,0.01981974,1.03336007,-0.01038727,-0.91468497,0.70103159,0.70332959,-0.83605183,0.27900767,-0.77804933,0.22981245,-0.47602500,-0.84800667,0.40052500,-0.04661900
0.52000000,0.02029365,1.03293967,-0.01079164,-0.91382125,0.70126850,0.70286132,-0.83468075,0.27900560,-0.77805170,0.22981027,-0.47602500,-0.84800519,0.40052500,-0.04661930
0.54000000,0.02081913,1.03241741,-0.01120717,-0.91286562,0.70150301,0.70236556,-0.83316126,0.27901154,-0.77804873,0.22981300,-0.47602500,-0.84801708,0.40052500,-0.04662227
0.56000000,0.02134462,1.03189514,-0.01162270,-0.91191000,0.70173752,0.70186979,-0.83164177,0.27901748,-0.77804576,0.22981572,-0.47602500,-0.84802896,0.40052500,-0.04662524
0.58000000,0.02187010,1.03137288,-0.01203823,-0.91095438,0.70197203,0.70137403,-0.83012228,0.27902343,-0.77804279,0.22981844,-0.47602500,-0.84804085,0.40052500,-0.04662821
0.60000000,0.02239260,1.03084858,-0.01245427,-0.91001303,0.70220661,0.70087458,-0.82858542,0.27902919,-0.77804000,0.22982083,-0.47602463,-0.84805107,0.40052593,-0.04663081
0.62000000,0.02287006,1.03029341,-0.01287793,-0.90928775,0.70244222,0.70031941,-0.82678566,0.27903217,-0.77804000,0.22981809,-0.47601865,-0.84803613,0.40054087,-0.04662783
0.64000000,0.02334752,1.02973824,-0.01330159,-0.90856247,0.70267784,0.69976424,-0.82498591,0.27903516,-0.77804000,0.22981535,-0.47601267,-0.84802119,0.40055581,-0.04662484
0.66000000,0.02382498,1.02918308,-0.01372525,-0.90783719,0.70291346,0.69920908,-0.82318616,0.27903815,-0.77804000,0.22981261,-0.47600670,-0.84800624,0.40057076,-0.04662185
0.68000000,0.02430311,1.02863117,-0.01414974,-0.90711083,0.70315118,0.69864638,-0.82138903,0.27904072,-0.77804000,0.22981013,-0.47600142,-0.84799256,0.40058430,-0.04661900
0.70000000,0.02479488,1.02814537,-0.01459101,-0.90636261,0.70343151,0.69793099,-0.81964509,0.27903475,-0.77804000,0.22981286,-0.47601038,-0.84800450,0.40056937,-0.04661900
0.72000000,0.02528665,1.02765957,-0.01503228,-0.90561439,0.70371184,0.69721560,-0.81790115,0.27902878,-0.77804000,0.22981560,-0.47601933,-0.84801644,0.40055445,-0.04661900
0.74000000,0.02577841,1.02717378,-0.01547355,-0.90486617,0.70399218,0.69650021,-0.81615721,0.27902281,-0.77804000,0.22981834,-0.47602829,-0.84802838,0.40053952,-0.04661900
0.76000000,0.02626939,1.02668741,-0.01591666,-0.90411707,0.70427227,0.69578746,-0.81441717,0.27901692,-0.77804008,0.22982093,-0.47603692,-0.84803992,0.40052476,-0.04661900
0.78000000,0.02673160,1.02618042,-0.01642639,-0.90333593,0.70454368,0.69517026,-0.81281908,0.27901393,-0.77804307,0.22981819,-0.47603393,-0.84803693,0.40051580,-0.04661900
0.80000000,0.02719381,1.02567343,-0.01693611,-0.90255480,0.70481509,0.69455307,-0.81122099,0.27901095,-0.77804605,0.22981545,-0.47603095,-0.84803395,0.40050685,-0.04661900
0.82000000,0.02765602,1.02516644,-0.01744584,-0.90177367,0.70508649,0.69393587,-0.80962290,0.27900796,-0.77804904,0.22981272,-0.47602796,-0.84803096,0.40049789,-0.04661900
0.84000000,0.02811788,1.02465910,-0.01795549,-0.90099199,0.70535802,0.69331876,-0.80802344,0.27900504,-0.77805198,0.22981002,-0.47602498,-0.84802796,0.40048917,-0.04661904
0.86000000,0.02852941,1.02410152,-0.01845360,-0.90013336,0.70564714,0.69271367,-0.80622855,0.27901101,-0.77804899,0.22981276,-0.47602199,-0.84802199,0.40051305,-0.04662501
0.88000000,0.02894093,1.02354395,-0.01895170,-0.89927473,0.70593625,0.69210857,-0.80443367,0.27901698,-0.77804601,0.22981549,-0.47601901,-0.84801602,0.40053694,-0.04663098
0.90000000,0.02935245,1.02298638,-0.01944981,-0.89841610,0.70622536,0.69150348,-0.80263878,0.27902296,-0.77804302,0.22981823,-0.47601602,-0.84801004,0.40056082,-0.04663696
0.92000000,0.02976398,1.02242880,-0.01994792,-0.89755748,0.70651447,0.69089838,-0.80084390,0.27902893,-0.77804004,0.22982097,-0.47601304,-0.84800407,0.40058471,-0.04664293
0.94000000,0.03019611,1.02176537,-0.02036341,-0.89664560,0.70688908,0.69014000,-0.79897841,0.27902900,-0.77803705,0.22982100,-0.47601595,-0.84800105,0.40057026,-0.04663710
0.96000000,0.03062849,1.02110062,-0.02077788,-0.89573308,0.70726474,0.68937973,-0.79711206,0.27902900,-0.77803407,0.22982100,-0.47601893,-0.84799807,0.40055533,-0.04663113
0.98000000,0.03106087,1.02043588,-0.02119235,-0.89482055,0.70764039,0.68861945,-0.79524570,0.27902900,-0.77803108,0.22982100,-0.47602192,-0.84799508,0.40054040,-0.04662516
1.00000000,0.03149325,1.01977114,-0.02160682,-0.89390802,0.70801605,0.68785918,-0.79337935,0.27902900,-0.77802809,0.22982100,-0.47602491,-0.84799209,0.40052547,-0.04661919
1.02000000,0.03190201,1.01920014,-0.02212685,-0.89307726,0.70825430,0.68725646,-0.79146705,0.27902326,-0.77802800,0.22981837,-0.47602213,-0.84800347,0.40050779,-0.04661900
1.04000000,0.03231000,1.01863221,-0.02265035,-0.89224920,0.70848804,0.68665892,-0.78955324,0.27901734,-0.77802800,0.22981566,-0.47601917,-0.84801532,0.40049002,-0.04661900
1.06000000,0.03271799,1.01806429,-0.02317384,-0.89142113,0.70872177,0.68606138,-0.78763942,0.27901142,-0.77802800,0.22981294,-0.47601621,-0.84802716,0.40047225,-0.04661900
1.08000000,0.03312597,1.01749636,-0.02369734,-0.89059306,0.70895551,0.68546383,-0.78572561,0.27900549,-0.77802800,0.22981023,-0.47601325,-0.84803901,0.40045448,-0.04661900
1.10000000,0.03368883,1.01698272,-0.02419614,-0.88988076,0.70916584,0.68487152,-0.78376410,0.27900500,-0.77803346,0.22981000,-0.47601846,-0.84803454,0.40046665,-0.04662173
1.12000000,0.03426579,1.01647401,-0.02469269,-0.88917898,0.70937403,0.68427968,-0.78179824,0.27900500,-0.77803941,0.22981000,-0.47602441,-0.84802859,0.40048154,-0.04662471
1.14000000,0.03484274,1.01596530,-0.02518924,-0.88847721,0.70958223,0.68368784,-0.77983239,0.27900500,-0.77804537,0.22981000,-0.47603037,-0.84802263,0.40049643,-0.04662769
1.16000000,0.03541969,1.01545659,-0.02568579,-0.88777544,0.70979043,0.68309600,-0.77786653,0.27900500,-0.77805133,0.22981000,-0.47603633,-0.84801667,0.40051131,-0.04663066
1.18000000,0.03597419,1.01487297,-0.02610166,-0.88704530,0.71003068,0.68249480,-0.77619763,0.27900765,-0.77805200,0.22981243,-0.47603435,-0.84801600,0.40051035,-0.04662835
1.20000000,0.03652582,1.01427978,-0.02650724,-0.88631153,0.71027502,0.68189241,-0.77456662,0.27901063,-0.77805200,0.22981516,-0.47603137,-0.84801600,0.40050737,-0.04662537
1.22000000,0.03707744,1.01368660,-0.02691281,-0.88557777,0.71051936,0.68129002,-0.77293562,0.27901362,-0.77805200,0.22981790,-0.47602838,-0.84801600,0.40050438,-0.04662238
1.24000000,0.03762907,1.01309342,-0.02731838,-0.88484400,0.71076370,0.68068764,-0.77130462,0.27901661,-0.77805200,0.22982064,-0.47602539,-0.84801600,0.40050139,-0.04661939
1.26000000,0.03819851,1.01255652,-0.02776419,-0.88388655,0.71101249,0.68008854,-0.76948750,0.27901700,-0.77805200,0.22981866,-0.47602500,-0.84801855,0.40050355,-0.04661900
1.28000000,0.03877066,1.01202819,-0.02821614,-0.88289502,0.71126197,0.67948995,-0.76764203,0.27901700,-0.77805200,0.22981597,-0.47602500,-0.84802149,0.40050649,-0.04661900
1.30000000,0.03934281,1.01149987,-0.02866808,-0.88190349,0.71151144,0.67889136,-0.76579657,0.27901700,-0.77805200,0.22981328,-0.47602500,-0.84802443,0.40050943,-0.04661900
1.32000000,0.03991496,1.01097154,-0.02912002,-0.88091196,0.71176091,0.67829277,-0.76395110,0.27901700,-0.77805200,0.22981058,-0.47602500,-0.84802736,0.40051236,-0.04661900
1.34000000,0.04057231,1.01039849,-0.02962075,-0.87975394,0.71203396,0.67763221,-0.76180011,0.27901467,-0.77804734,0.22981214,-0.47602267,-0.84802800,0.40051067,-0.04661900
1.36000000,0.04125325,1.00981305,-0.03013499,-0.87854983,0.71231353,0.67695450,-0.75956454,0.27901169,-0.77804138,0.22981487,-0.47601969,-0.84802800,0.40050769,-0.04661900
1.38000000,0.04193419,1.00922762,-0.03064923,-0.87734573,0.71259310,0.67627679,-0.75732898,0.27900872,-0.77803543,0.22981759,-0.47601672,-0.84802800,0.40050472,-0.04661900
1.40000000,0.04261513,1.00864219,-0.03116347,-0.87614162,0.71287267,0.67559907,-0.75509342,0.27900574,-0.77802948,0.22982032,-0.47601374,-0.84802800,0.40050174,-0.04661900
1.42000000,0.04327715,1.00814715,-0.03160044,-0.87497306,0.71317062,0.67500950,-0.75320042,0.27900724,-0.77803024,0.22982100,-0.47601524,-0.84802800,0.40049651,-0.04662124
1.44000000,0.04393294,1.00768193,-0.03201192,-0.87381623,0.71347463,0.67444900,-0.75142039,0.27901023,-0.77803323,0.22982100,-0.47601823,-0.84802800,0.40049054,-0.04662423
1.46000000,0.04458872,1.00721671,-0.03242340,-0.87265940,0.71377864,0.67388849,-0.74964036,0.27901322,-0.77803622,0.22982100,-0.47602122,-0.84802800,0.40048457,-0.04662722
1.48000000,0.04524451,1.00675149,-0.03283489,-0.87150257,0.71408265,0.67332799,-0.74786034,0.27901620,-0.77803920,0.22982100,-0.47602420,-0.84802800,0.40047860,-0.04663020
1.50000000,0.04610565,1.00627115,-0.03331397,-0.87028688,0.71444788,0.67272594,-0.74579224,0.27901919,-0.77804219,0.22981900,-0.47602500,-0.84802800,0.40048793,-0.04662881
1.52000000,0.04704181,1.00578528,-0.03381775,-0.86904970,0.71483548,0.67210872,-0.74361889,0.27902217,-0.77804517,0.22981626,-0.47602500,-0.84802800,0.40050286,-0.04662583
1.54000000,0.04797797,1.00529941,-0.03432153,-0.86781251,0.71522308,0.67149149,-0.74144554,0.27902516,-0.77804816,0.22981352,-0.47602500,-0.84802800,0.40051779,-0.04662284
1.56000000,0.04891413,1.00481354,-0.03482531,-0.86657532,0.71561068,0.67087427,-0.73927219,0.27902814,-0.77805114,0.22981079,-0.47602500,-0.84802800,0.40053271,-0.04661986
1.58000000,0.04966527,1.00427008,-0.03530192,-0.86548610,0.71600328,0.67014926,-0.73729454,0.27902900,-0.77805200,0.22981000,-0.47602288,-0.84802588,0.40055606,-0.04661900
1.60000000,0.05034186,1.00370341,-0.03576759,-0.86445649,0.71639789,0.66938083,-0.73539574,0.27902900,-0.77805200,0.22981000,-0.47601991,-0.84802291,0.40058279,-0.04661900
1.62000000,0.05101844,1.00313674,-0.03623325,-0.86342688,0.71679251,0.66861240,-0.73349694,0.27902900,-0.77805200,0.22981000,-0.47601694,-0.84801994,0.40060953,-0.04661900
1.64000000,0.05169503,1.00257007,-0.03669891,-0.86239727,0.71718712,0.66784397,-0.73159815,0.27902900,-0.77805200,0.22981000,-0.47601397,-0.84801697,0.40063627,-0.04661900
1.66000000,0.05227202,1.00193028,-0.03714877,-0.86140922,0.71765792,0.66707198,-0.72971674,0.27902497,-0.77805200,0.22981000,-0.47601300,-0.84801399,0.40063694,-0.04661900
1.68000000,0.05280071,1.00125502,-0.03759097,-0.86044132,0.71816567,0.66629826,-0.72784376,0.27901899,-0.77805200,0.22981000,-0.47601300,-0.84801099,0.40062498,-0.04661900
1.70000000,0.05332940,1.00057977,-0.03803317,-0.85947343,0.71867342,0.66552454,-0.72597079,0.27901301,-0.77805200,0.22981000,-0.47601300,-0.84800800,0.40061301,-0.04661900
1.72000000,0.05385809,0.99990451,-0.03847536,-0.85850554,0.71918118,0.66475083,-0.72409781,0.27900702,-0.77805200,0.22981000,-0.47601300,-0.84800501,0.40060105,-0.04661900
1.74000000,0.05440326,0.99928214,-0.03894410,-0.85763461,0.71960112,0.66401051,-0.72197924,0.27900697,-0.77805003,0.22981181,-0.47601694,-0.84800992,0.40058123,-0.04661900
1.76000000,0.05495686,0.99868681,-0.03942642,-0.85681328,0.71997614,0.66328729,-0.71973506,0.27900995,-0.77804705,0.22981454,-0.47602290,-0.84801886,0.40055738,-0.04661900
1.78000000,0.05551045,0.99809149,-0.03990873,-0.85599195,0.72035117,0.66256406,-0.71749087,0.27901293,-0.77804407,0.22981727,-0.47602886,-0.84802780,0.40053354,-0.04661900
1.80000000,0.05606405,0.99749617,-0.04039105,-0.85517062,0.72072619,0.66184083,-0.71524668,0.27901591,-0.77804109,0.22982000,-0.47603483,-0.84803674,0.40050970,-0.04661900
1.82000000,0.05663323,0.99697053,-0.04086410,-0.85428044,0.72110340,0.66112464,-0.71302148,0.27901321,-0.77804000,0.22981926,-0.47603321,-0.84804000,0.40051048,-0.04661900
1.84000000,0.05721136,0.99648490,-0.04133182,-0.85335071,0.72148185,0.66041249,-0.71080719,0.27900724,-0.77804000,0.22981653,-0.47602724,-0.84804000,0.40052540,-0.04661900
1.86000000,0.05778948,0.99599927,-0.04179955,-0.85242098,0.72186031,0.65970033,-0.70859290,0.27900127,-0.77804000,0.22981379,-0.47602127,-0.84804000,0.40054032,-0.04661900
1.88000000,0.05836761,0.99551365,-0.04226727,-0.85149125,0.72223876,0.65898818,-0.70637860,0.27899531,-0.77804000,0.22981106,-0.47601531,-0.84804000,0.40055524,-0.04661900
1.90000000,0.05893664,0.99495290,-0.04276983,-0.85056693,0.72266487,0.65826497,-0.70416243,0.27899666,-0.77804366,0.22981000,-0.47601483,-0.84803817,0.40056466,-0.04661900
1.92000000,0.05949993,0.99434484,-0.04329433,-0.84964601,0.72312097,0.65753480,-0.70194507,0.27900263,-0.77804963,0.22981000,-0.47601782,-0.84803518,0.40057063,-0.04661900
1.94000000,0.06006322,0.99373678,-0.04381882,-0.84872510,0.72357708,0.65680464,-0.69972771,0.27900860,-0.77805560,0.22981000,-0.47602080,-0.84803220,0.40057660,-0.04661900
1.96000000,0.06062651,0.99312872,-0.04434332,-0.84780418,0.72403318,0.65607447,-0.69751035,0.27901457,-0.77806157,0.22981000,-0.47602378,-0.84802922,0.40058257,-0.04661900
1.98000000,0.06113418,0.99245307,-0.04493746,-0.84681077,0.72441797,0.65535613,-0.69531088,0.27901524,-0.77806224,0.22981162,-0.47602500,-0.84802976,0.40058147,-0.04661900
2.00000000,0.06160360,0.99173096,-0.04557948,-0.84576752,0.72475374,0.65464592,-0.69312371,0.27901226,-0.77805926,0.22981434,-0.47602500,-0.84803274,0.40057552,-0.04661900
2.02000000,0.06207303,0.99100885,-0.04622149,-0.84472428,0.72508950,0.65393570,-0.69093653,0.27900929,-0.77805629,0.22981707,-0.47602500,-0.84803571,0.40056957,-0.04661900
2.04000000,0.06254245,0.99028673,-0.04686351,-0.84368103,0.72542526,0.65322549,-0.68874936,0.27900631,-0.77805331,0.22981980,-0.47602500,-0.84803869,0.40056362,-0.04661900
2.06000000,0.06305654,0.98965148,-0.04748017,-0.84258862,0.72575583,0.65248742,-0.68666645,0.27900500,-0.77805200,0.22981947,-0.47602666,-0.84803667,0.40054602,-0.04661900
2.08000000,0.06360571,0.98908447,-0.04807690,-0.84145758,0.72608231,0.65172745,-0.68466545,0.27900500,-0.77805200,0.22981675,-0.47602964,-0.84803073,0.40051927,-0.04661900
2.10000000,0.06415488,0.98851747,-0.04867363,-0.84032654,0.72640879,0.65096748,-0.68266446,0.27900500,-0.77805200,0.22981402,-0.47603261,-0.84802478,0.40049251,-0.04661900
2.12000000,0.06470405,0.98795046,-0.04927036,-0.83919551,0.72673527,0.65020751,-0.68066347,0.27900500,-0.77805200,0.22981130,-0.47603558,-0.84801884,0.40046576,-0.04661900
2.14000000,0.06536811,0.98736482,-0.04988715,-0.83790619,0.72705565,0.64932332,-0.67835681,0.27900500,-0.77805045,0.22981000,-0.47603545,-0.84801755,0.40045455,-0.04661900
2.16000000,0.06613696,0.98676217,-0.05052225,-0.83647253,0.72737047,0.64832585,-0.67577135,0.27900500,-0.77804747,0.22981000,-0.47603247,-0.84802053,0.40045753,-0.04661900
2.18000000,0.06690581,0.98615953,-0.05115734,-0.83503886,0.72768530,0.64732837,-0.67318590,0.27900500,-0.77804450,0.22981000,-0.47602950,-0.84802350,0.40046050,-0.04661900
2.20000000,0.06767466,0.98555688,-0.05179243,-0.83360519,0.72800012,0.64633090,-0.67060044,0.27900500,-0.77804153,0.22981000,-0.47602653,-0.84802647,0.40046347,-0.04661900
2.22000000,0.06841901,0.98489378,-0.05240593,-0.83222207,0.72831623,0.64545034,-0.66824586,0.27900644,-0.77803856,0.22981000,-0.47602356,-0.84802656,0.40047799,-0.04661900
2.24000000,0.06913744,0.98416669,-0.05299657,-0.83089245,0.72863372,0.64469353,-0.66613566,0.27900942,-0.77803558,0.22981000,-0.47602058,-0.84802358,0.40050474,-0.04661900
2.26000000,0.06985586,0.98343959,-0.05358721,-0.82956283,0.72895120,0.64393672,-0.66402546,0.27901239,-0.77803261,0.22981000,-0.47601761,-0.84802061,0.40053148,-0.04661900
2.28000000,0.07057429,0.98271250,-0.05417785,-0.82823322,0.72926869,0.64317991,-0.66191525,0.27901536,-0.77802964,0.22981000,-0.47601464,-0.84801764,0.40055823,-0.04661900
2.30000000,0.07124223,0.98193323,-0.05476336,-0.82702146,0.72956896,0.64248932,-0.65987893,0.27901833,-0.77802933,0.22981000,-0.47601300,-0.84801733,0.40056767,-0.04661900
2.32000000,0.07184793,0.98108961,-0.05534254,-0.82595504,0.72984802,0.64188040,-0.65793370,0.27902131,-0.77803231,0.22981000,-0.47601300,-0.84802031,0.40055578,-0.04661900
2.34000000,0.07245363,0.98024599,-0.05592172,-0.82488862,0.73012708,0.64127148,-0.65598847,0.27902428,-0.77803528,0.22981000,-0.47601300,-0.84802328,0.40054388,-0.04661900
2.36000000,0.07305933,0.97940237,-0.05650090,-0.82382220,0.73040614,0.64066256,-0.65404324,0.27902725,-0.77803825,0.22981000,-0.47601300,-0.84802625,0.40053199,-0.04661900
2.38000000,0.07370420,0.97861421,-0.05709693,-0.82274573,0.73068693,0.64001221,-0.65191669,0.27902777,-0.77804000,0.22981000,-0.47601300,-0.84802677,0.40052007,-0.04661900
2.40000000,0.07440477,0.97790493,-0.05771693,-0.82165496,0.73097019,0.63930293,-0.64953220,0.27902478,-0.77804000,0.22981000,-0.47601300,-0.84802378,0.40050813,-0.04661900
2.42000000,0.07510534,0.97719566,-0.05833692,-0.82056418,0.73125346,0.63859366,-0.64714772,0.27902180,-0.77804000,0.22981000,-0.47601300,-0.84802080,0.40049620,-0.04661900
2.44000000,0.07580591,0.97648638,-0.05895692,-0.81947341,0.73153672,0.63788438,-0.64476324,0.27901882,-0.77804000,0.22981000,-0.47601300,-0.84801782,0.40048426,-0.04661900
2.46000000,0.07647839,0.97579692,-0.05956762,-0.81845143,0.73183863,0.63717855,-0.64249772,0.27901583,-0.77804117,0.22981000,-0.47601417,-0.84801717,0.40048519,-0.04661900
2.48000000,0.07710724,0.97513821,-0.06016389,-0.81753626,0.73216947,0.63647805,-0.64041688,0.27901285,-0.77804415,0.22981000,-0.47601715,-0.84802015,0.40050608,-0.04661900
2.50000000,0.07773610,0.97447951,-0.06076016,-0.81662109,0.73250032,0.63577755,-0.63833603,0.27900986,-0.77804714,0.22981000,-0.47602014,-0.84802314,0.40052698,-0.04661900
2.52000000,0.07836495,0.97382080,-0.06135642,-0.81570591,0.73283116,0.63507705,-0.63625519,0.27900688,-0.77805012,0.22981000,-0.47602312,-0.84802612,0.40054787,-0.04661900
2.54000000,0.07903316,0.97316132,-0.06196004,-0.81472236,0.73321970,0.63434288,-0.63388063,0.27900279,-0.77805200,0.22981000,-0.47602500,-0.84803021,0.40055438,-0.04661900
2.56000000,0.07976786,0.97250054,-0.06257608,-0.81362328,0.73370571,0.63355182,-0.63100982,0.27899686,-0.77805200,0.22981000,-0.47602500,-0.84803614,0.40053658,-0.04661900
2.58000000,0.08050256,0.97183975,-0.06319212,-0.81252420,0.73419171,0.63276076,-0.62813901,0.27899093,-0.77805200,0.22981000,-0.47602500,-0.84804207,0.40051878,-0.04661900
2.60000000,0.08123725,0.97117897,-0.06380816,-0.81142512,0.73467772,0.63196970,-0.62526820,0.27898500,-0.77805200,0.22981000,-0.47602500,-0.84804800,0.40050099,-0.04661900
2.62000000,0.08196180,0.97052767,-0.06437978,-0.81037250,0.73515780,0.63116731,-0.62267597,0.27898392,-0.77805103,0.22981089,-0.47602403,-0.84804908,0.40048997,-0.04661900
2.64000000,0.08266543,0.96989593,-0.06485980,-0.80941568,0.73562564,0.63034156,-0.62065811,0.27899288,-0.77804804,0.22981363,-0.47602104,-0.84804012,0.40049296,-0.04661900
2.66000000,0.08336906,0.96926418,-0.06533983,-0.80845886,0.73609348,0.62951582,-0.61864025,0.27900183,-0.77804506,0.22981637,-0.47601806,-0.84803117,0.40049594,-0.04661900
2.68000000,0.08407268,0.96863243,-0.06581986,-0.80750203,0.73656132,0.62869007,-0.61662239,0.27901079,-0.77804207,0.22981910,-0.47601507,-0.84802221,0.40049893,-0.04661900
2.70000000,0.08479074,0.96804626,-0.06634630,-0.80645329,0.73702278,0.62782617,-0.61447716,0.27901700,-0.77804091,0.22982100,-0.47601483,-0.84801691,0.40050009,-0.04661900
2.72000000,0.08554154,0.96756347,-0.06697802,-0.80519608,0.73746978,0.62687574,-0.61204304,0.27901700,-0.77804390,0.22982100,-0.47602079,-0.84801990,0.40049710,-0.04661900
2.74000000,0.08629233,0.96708067,-0.06760973,-0.80393887,0.73791677,0.62592531,-0.60960892,0.27901700,-0.77804688,0.22982100,-0.47602676,-0.84802288,0.40049412,-0.04661900
2.76000000,0.08704313,0.96659788,-0.06824144,-0.80268166,0.73836377,0.62497489,-0.60717480,0.27901700,-0.77804986,0.22982100,-0.47603273,-0.84802586,0.40049114,-0.04661900
2.78000000,0.08778624,0.96608796,-0.06889334,-0.80133515,0.73880087,0.62403408,-0.60475134,0.27901700,-0.77805284,0.22981939,-0.47603616,-0.84802800,0.40049321,-0.04661984
2.80000000,0.08850993,0.96550956,-0.06959624,-0.79976302,0.73921296,0.62311759,-0.60235480,0.27901700,-0.77805581,0.22981369,-0.47603319,-0.84802800,0.40050806,-0.04662281
2.82000000,0.08923362,0.96493115,-0.07029914,-0.79819090,0.73962504,0.62220110,-0.59995825,0.27901700,-0.77805878,0.22980800,-0.47603022,-0.84802800,0.40052291,-0.04662578
2.84000000,0.08995731,0.96435274,-0.07100204,-0.79661878,0.74003713,0.62128460,-0.59756171,0.27901700,-0.77806175,0.22980231,-0.47602725,-0.84802800,0.40053776,-0.04662875
2.86000000,0.09068306,0.96375556,-0.07167990,-0.79511650,0.74045772,0.62039152,-0.59517371,0.27901700,-0.77806328,0.22979872,-0.47602572,-0.84802872,0.40054685,-0.04663100
2.88000000,0.09141522,0.96309995,-0.07227981,-0.79383153,0.74090477,0.61957127,-0.59281234,0.27901700,-0.77806034,0.22980166,-0.47602866,-0.84803166,0.40053802,-0.04663100
2.90000000,0.09214739,0.96244434,-0.07287972,-0.79254657,0.74135182,0.61875102,-0.59045097,0.27901700,-0.77805740,0.22980460,-0.47603160,-0.84803460,0.40052919,-0.04663100
2.92000000,0.09287955,0.96178873,-0.07347963,-0.79126160,0.74179887,0.61793077,-0.58808960,0.27901700,-0.77805445,0.22980755,-0.47603455,-0.84803755,0.40052035,-0.04663100
2.94000000,0.09360995,0.96110804,-0.07407597,-0.79000207,0.74223948,0.61712551,-0.58571616,0.27901700,-0.77805200,0.22981046,-0.47603600,-0.84804000,0.40051300,-0.04662950
2.96000000,0.09433159,0.96030278,-0.07465453,-0.78886884,0.74264808,0.61639466,-0.58328272,0.27901700,-0.77805200,0.22981320,-0.47603003,-0.84804000,0.40051300,-0.04662054
2.98000000,0.09505324,0.95949753,-0.07523309,-0.78773561,0.74305668,0.61566381,-0.58084929,0.27901700,-0.77805200,0.22981593,-0.47602405,-0.84804000,0.40051300,-0.04661158
3.00000000,0.09577488,0.95869227,-0.07581165,-0.78660238,0.74346528,0.61493295,-0.57841585,0.27901700,-0.77805200,0.22981867,-0.47601808,-0.84804000,0.40051300,-0.04660262
3.02000000,0.09650987,0.95791358,-0.07638412,-0.78546268,0.74388119,0.61419194,-0.57598820,0.27901656,-0.77805244,0.22982059,-0.47601256,-0.84803867,0.40051433,-0.04659633
3.04000000,0.09732105,0.95728660,-0.07692186,-0.78428607,0.74433885,0.61339291,-0.57359356,0.27901358,-0.77805542,0.22981787,-0.47600958,-0.84802975,0.40052325,-0.04660525
3.06000000,0.09813224,0.95665961,-0.07745959,-0.78310945,0.74479650,0.61259387,-0.57119893,0.27901061,-0.77805839,0.22981514,-0.47600661,-0.84802082,0.40053218,-0.04661418
3.08000000,0.09894342,0.95603263,-0.07799732,-0.78193283,0.74525416,0.61179483,-0.56880429,0.27900763,-0.77806137,0.22981241,-0.47600363,-0.84801190,0.40054110,-0.04662310
3.10000000,0.09973868,0.95539175,-0.07854043,-0.78075578,0.74570449,0.61098667,-0.56637762,0.27900534,-0.77806400,0.22981031,-0.47600100,-0.84800434,0.40055106,-0.04663100
3.12000000,0.10041181,0.95464438,-0.07912472,-0.77957532,0.74609872,0.61010863,-0.56370538,0.27900831,-0.77806400,0.22981304,-0.47600100,-0.84800731,0.40056887,-0.04663100
3.14000000,0.10108495,0.95389700,-0.07970901,-0.77839486,0.74649295,0.60923059,-0.56103314,0.27901128,-0.77806400,0.22981576,-0.47600100,-0.84801028,0.40058669,-0.04663100
3.16000000,0.10175808,0.95314962,-0.08029330,-0.77721440,0.74688718,0.60835254,-0.55836089,0.27901425,-0.77806400,0.22981848,-0.47600100,-0.84801325,0.40060451,-0.04663100
3.18000000,0.10241754,0.95240717,-0.08086700,-0.77605028,0.74727556,0.60747994,-0.55573551,0.27901678,-0.77806356,0.22982080,-0.47600144,-0.84801600,0.40062012,-0.04663078
3.20000000,0.10290735,0.95172587,-0.08130930,-0.77508887,0.74759135,0.60667483,-0.55369135,0.27901383,-0.77805765,0.22981809,-0.47600735,-0.84801600,0.40060830,-0.04662783
3.22000000,0.10339716,0.95104457,-0.08175161,-0.77412747,0.74790714,0.60586972,-0.55164719,0.27901087,-0.77805174,0.22981538,-0.47601326,-0.84801600,0.40059649,-0.04662487
3.24000000,0.10388697,0.95036326,-0.08219391,-0.77316606,0.74822293,0.60506461,-0.54960304,0.27900792,-0.77804584,0.22981268,-0.47601916,-0.84801600,0.40058468,-0.04662192
3.26000000,0.10437871,0.94968375,-0.08263795,-0.77220487,0.74853845,0.60425710,-0.54755302,0.27900500,-0.77804000,0.22981000,-0.47602500,-0.84801603,0.40057272,-0.04661900
3.28000000,0.10503228,0.94915433,-0.08322660,-0.77126129,0.74883118,0.60324836,-0.54501229,0.27900500,-0.77804000,0.22981000,-0.47602500,-0.84801900,0.40054903,-0.04661900
3.30000000,0.10568585,0.94862491,-0.08381526,-0.77031771,0.74912390,0.60223962,-0.54247157,0.27900500,-0.77804000,0.22981000,-0.47602500,-0.84802196,0.40052533,-0.04661900
3.32000000,0.10633942,0.94809549,-0.08440392,-0.76937413,0.74941663,0.60123089,-0.53993085,0.27900500,-0.77804000,0.22981000,-0.47602500,-0.84802492,0.40050164,-0.04661900
3.34000000,0.10699299,0.94756607,-0.08499257,-0.76843055,0.74970935,0.60022215,-0.53739012,0.27900500,-0.77804000,0.22981000,-0.47602500,-0.84802788,0.40047794,-0.04661900
3.36000000,0.10764948,0.94694295,-0.08558109,-0.76720312,0.75003044,0.59933591,-0.53485545,0.27900500,-0.77804000,0.22980716,-0.47602500,-0.84802516,0.40048837,-0.04661616
3.38000000,0.10830610,0.94631595,-0.08616960,-0.76596391,0.75035270,0.59845474,-0.53232103,0.27900500,-0.77804000,0.22980420,-0.47602500,-0.84802220,0.40050022,-0.04661320
3.40000000,0.10896271,0.94568894,-0.08675811,-0.76472471,0.75067496,0.59757358,-0.52978660,0.27900500,-0.77804000,0.22980123,-0.47602500,-0.84801923,0.40051206,-0.04661023
3.42000000,0.10961933,0.94506194,-0.08734662,-0.76348550,0.75099722,0.59669242,-0.52725218,0.27900500,-0.77804000,0.22979827,-0.47602500,-0.84801627,0.40052391,-0.04660727
3.44000000,0.11026159,0.94427340,-0.08799884,-0.76218593,0.75134647,0.59601022,-0.52471830,0.27900500,-0.77804000,0.22980319,-0.47602771,-0.84801600,0.40051687,-0.04661242
3.46000000,0.11090238,0.94346843,-0.08865755,-0.76088021,0.75169846,0.59534828,-0.52218446,0.27900500,-0.77804000,0.22980891,-0.47603069,-0.84801600,0.40050792,-0.04661839
3.48000000,0.11154318,0.94266345,-0.08931625,-0.75957448,0.75205045,0.59468634,-0.51965063,0.27900500,-0.77804000,0.22981464,-0.47603368,-0.84801600,0.40049896,-0.04662436
3.50000000,0.11218397,0.94185848,-0.08997496,-0.75826876,0.75240244,0.59402440,-0.51711680,0.27900500,-0.77804000,0.22982036,-0.47603666,-0.84801600,0.40049001,-0.04663033
3.52000000,0.11284048,0.94096950,-0.09062554,-0.75677343,0.75284114,0.59333926,-0.51472972,0.27900500,-0.77804530,0.22981857,-0.47603170,-0.84801335,0.40049430,-0.04662835
3.54000000,0.11349898,0.94006987,-0.09127509,-0.75525409,0.75329083,0.59265118,-0.51236122,0.27900500,-0.77805126,0.22981584,-0.47602574,-0.84801037,0.40050026,-0.04662537
3.56000000,0.11415747,0.93917025,-0.09192463,-0.75373475,0.75374052,0.59196311,-0.50999272,0.27900500,-0.77805723,0.22981310,-0.47601977,-0.84800739,0.40050623,-0.04662239
3.58000000,0.11481597,0.93827063,-0.09257418,-0.75221541,0.75419020,0.59127503,-0.50762422,0.27900500,-0.77806319,0.22981037,-0.47601381,-0.84800440,0.40051219,-0.04661940
3.60000000,0.11566672,0.93751076,-0.09326931,-0.75087247,0.75470391,0.59046903,-0.50514726,0.27900758,-0.77806142,0.22981000,-0.47601558,-0.84800658,0.40051558,-0.04661642
3.62000000,0.11654752,0.93677274,-0.09397157,-0.74955710,0.75522762,0.58964459,-0.50265335,0.27901056,-0.77805844,0.22981000,-0.47601856,-0.84800956,0.40051856,-0.04661344
3.64000000,0.11742833,0.93603472,-0.09467383,-0.74824172,0.75575134,0.58882016,-0.50015943,0.27901354,-0.77805546,0.22981000,-0.47602154,-0.84801254,0.40052154,-0.04661046
3.66000000,0.11830913,0.93529671,-0.09537609,-0.74692635,0.75627505,0.58799572,-0.49766551,0.27901652,-0.77805248,0.22981000,-0.47602452,-0.84801552,0.40052452,-0.04660748
3.68000000,0.11921241,0.93446652,-0.09612079,-0.74578803,0.75664190,0.58716650,-0.49522902,0.27901450,-0.77805200,0.22981000,-0.47602500,-0.84801850,0.40052999,-0.04660700
3.70000000,0.12012003,0.93361850,-0.09687371,-0.74468398,0.75697838,0.58633636,-0.49280364,0.27901152,-0.77805200,0.22981000,-0.47602500,-0.84802148,0.40053595,-0.04660700
3.72000000,0.12102765,0.93277047,-0.09762663,-0.74357993,0.75731486,0.58550621,-0.49037826,0.27900854,-0.77805200,0.22981000,-0.47602500,-0.84802446,0.40054191,-0.04660700
3.74000000,0.12193528,0.93192245,-0.09837955,-0.74247589,0.75765134,0.58467606,-0.48795288,0.27900556,-0.77805200,0.22981000,-0.47602500,-0.84802744,0.40054787,-0.04660700
3.76000000,0.12288202,0.93116064,-0.09908710,-0.74127460,0.75810845,0.58363036,-0.48537423,0.27900984,-0.77805442,0.22981000,-0.47602500,-0.84803042,0.40055625,-0.04660942
3.78000000,0.12383789,0.93041895,-0.09978406,-0.74005063,0.75859372,0.58253435,-0.48275981,0.27901580,-0.77805740,0.22981000,-0.47602500,-0.84803340,0.40056520,-0.04661240
3.80000000,0.12479376,0.92967726,-0.10048103,-0.73882666,0.75907898,0.58143834,-0.48014538,0.27902176,-0.77806038,0.22981000,-0.47602500,-0.84803638,0.40057414,-0.04661538
3.82000000,0.12574963,0.92893557,-0.10117799,-0.73760269,0.75956425,0.58034233,-0.47753096,0.27902773,-0.77806336,0.22981000,-0.47602500,-0.84803936,0.40058309,-0.04661836
3.84000000,0.12655850,0.92829919,-0.10182827,-0.73655625,0.75993975,0.57940751,-0.47517727,0.27902431,-0.77806400,0.22981000,-0.47602500,-0.84803765,0.40057092,-0.04661900
3.86000000,0.12732738,0.92769144,-0.10246586,-0.73555809,0.76028540,0.57851653,-0.47289449,0.27901834,-0.77806400,0.22981000,-0.47602500,-0.84803467,0.40055302,-0.04661900
3.88000000,0.12809627,0.92708369,-0.10310345,-0.73455993,0.76063105,0.57762554,-0.47061170,0.27901237,-0.77806400,0.22981000,-0.47602500,-0.84803169,0.40053512,-0.04661900
3.90000000,0.12886516,0.92647594,-0.10374104,-0.73356177,0.76097670,0.57673456,-0.46832891,0.27900640,-0.77806400,0.22981000,-0.47602500,-0.84802870,0.40051721,-0.04661900
3.92000000,0.12952901,0.92588631,-0.10431271,-0.73250154,0.76145020,0.57594228,-0.46605519,0.27900273,-0.77805946,0.22981208,-0.47602273,-0.84802573,0.40052208,-0.04661900
3.94000000,0.13016057,0.92530225,-0.10486412,-0.73142223,0.76196301,0.57518036,-0.46378427,0.27899976,-0.77805352,0.22981480,-0.47601976,-0.84802276,0.40053396,-0.04661900
3.96000000,0.13079212,0.92471819,-0.10541552,-0.73034293,0.76247583,0.57441843,-0.46151334,0.27899679,-0.77804759,0.22981752,-0.47601679,-0.84801979,0.40054583,-0.04661900
3.98000000,0.13142368,0.92413413,-0.10596693,-0.72926362,0.76298864,0.57365651,-0.45924241,0.27899382,-0.77804165,0.22982024,-0.47601382,-0.84801682,0.40055770,-0.04661900
4.00000000,0.13204378,0.92352937,-0.10650884,-0.72801654,0.76356717,0.57277255,-0.45659249,0.27899300,-0.77804215,0.22981903,-0.47601730,-0.84801815,0.40055885,-0.04661900
4.02000000,0.13265947,0.92291666,-0.10704711,-0.72670500,0.76417095,0.57184168,-0.45379692,0.27899300,-0.77804513,0.22981630,-0.47602326,-0.84802113,0.40055587,-0.04661900
4.04000000,0.13327516,0.92230394,-0.10758538,-0.72539345,0.76477474,0.57091082,-0.45100136,0.27899300,-0.77804811,0.22981357,-0.47602921,-0.84802411,0.40055289,-0.04661900
4.06000000,0.13389086,0.92169123,-0.10812364,-0.72408191,0.76537852,0.56997996,-0.44820580,0.27899300,-0.77805109,0.22981084,-0.47603517,-0.84802709,0.40054991,-0.04661900
4.08000000,0.13454653,0.92100559,-0.10862415,-0.72272124,0.76594014,0.56909797,-0.44543542,0.27899917,-0.77805200,0.22981000,-0.47603494,-0.84802594,0.40053253,-0.04662106
4.10000000,0.13521993,0.92028763,-0.10910791,-0.72133879,0.76648307,0.56823765,-0.44267621,0.27900809,-0.77805200,0.22981000,-0.47603197,-0.84802297,0.40050877,-0.04662403
4.12000000,0.13589333,0.91956967,-0.10959167,-0.71995633,0.76702600,0.56737733,-0.43991700,0.27901700,-0.77805200,0.22981000,-0.47602900,-0.84802000,0.40048500,-0.04662700
4.14000000,0.13656673,0.91885170,-0.11007543,-0.71857388,0.76756893,0.56651701,-0.43715779,0.27902591,-0.77805200,0.22981000,-0.47602603,-0.84801703,0.40046123,-0.04662997
4.16000000,0.13724611,0.91822605,-0.11061417,-0.71720262,0.76792052,0.56575925,-0.43466725,0.27902515,-0.77805393,0.22981000,-0.47602693,-0.84801600,0.40045878,-0.04662907
4.18000000,0.13792865,0.91764933,-0.11118206,-0.71583729,0.76817070,0.56505584,-0.43231911,0.27901926,-0.77805687,0.22981000,-0.47602987,-0.84801600,0.40046762,-0.04662613
4.20000000,0.13861120,0.91707260,-0.11174994,-0.71447195,0.76842089,0.56435242,-0.42997096,0.27901336,-0.77805982,0.22981000,-0.47603282,-0.84801600,0.40047645,-0.04662318
4.22000000,0.13929374,0.91649588,-0.11231783,-0.71310662,0.76867107,0.56364901,-0.42762281,0.27900747,-0.77806276,0.22981000,-0.47603576,-0.84801600,0.40048529,-0.04662024
4.24000000,0.13997166,0.91578166,-0.11291155,-0.71175254,0.76893579,0.56284568,-0.42538090,0.27900844,-0.77806400,0.22981000,-0.47603184,-0.84801600,0.40050620,-0.04661900
4.26000000,0.14064624,0.91496811,-0.11352393,-0.71040658,0.76921100,0.56197018,-0.42321572,0.27901436,-0.77806400,0.22981000,-0.47602296,-0.84801600,0.40053582,-0.04661900
4.28000000,0.14132083,0.91415456,-0.11413631,-0.70906063,0.76948622,0.56109469,-0.42105054,0.27902029,-0.77806400,0.22981000,-0.47601407,-0.84801600,0.40056544,-0.04661900
4.30000000,0.14199541,0.91334102,-0.11474869,-0.70771468,0.76976143,0.56021919,-0.41888537,0.27902621,-0.77806400,0.22981000,-0.47600518,-0.84801600,0.40059506,-0.04661900
4.32000000,0.14270918,0.91254614,-0.11540966,-0.70644060,0.77004283,0.55929335,-0.41652249,0.27902586,-0.77806400,0.22981000,-0.47600570,-0.84801757,0.40060430,-0.04662057
4.34000000,0.14345782,0.91176787,-0.11611386,-0.70523048,0.77032975,0.55832273,-0.41398372,0.27901994,-0.77806400,0.22981000,-0.47601459,-0.84802053,0.40059541,-0.04662353
4.36000000,0.14420647,0.91098960,-0.11681806,-0.70402036,0.77061666,0.55735211,-0.41144495,0.27901401,-0.77806400,0.22981000,-0.47602348,-0.84802349,0.40058652,-0.04662649
4.38000000,0.14495511,0.91021132,-0.11752225,-0.70281023,0.77090358,0.55638150,-0.40890619,0.27900809,-0.77806400,0.22981000,-0.47603237,-0.84802646,0.40057763,-0.04662946
4.40000000,0.14572086,0.90944874,-0.11820905,-0.70165127,0.77120730,0.55551159,-0.40637783,0.27900786,-0.77806400,0.22981000,-0.47603700,-0.84802800,0.40055869,-0.04662957
4.42000000,0.14650521,0.90870321,-0.11887695,-0.70054790,0.77152931,0.55475112,-0.40386079,0.27901383,-0.77806400,0.22981000,-0.47603700,-0.84802800,0.40052883,-0.04662658
4.44000000,0.14728957,0.90795767,-0.11954484,-0.69944453,0.77185131,0.55399066,-0.40134374,0.27901981,-0.77806400,0.22981000,-0.47603700,-0.84802800,0.40049897,-0.04662360
4.46000000,0.14807392,0.90721214,-0.12021274,-0.69834116,0.77217331,0.55323019,-0.39882669,0.27902578,-0.77806400,0.22981000,-0.47603700,-0.84802800,0.40046911,-0.04662061
4.48000000,0.14883144,0.90647556,-0.12083647,-0.69718352,0.77255864,0.55245697,-0.39627456,0.27902763,-0.77806400,0.22981000,-0.47603563,-0.84802663,0.40046394,-0.04661900
4.50000000,0.14955752,0.90574948,-0.12140849,-0.69596233,0.77301813,0.55166881,-0.39368132,0.27902467,-0.77806400,0.22981000,-0.47603267,-0.84802367,0.40048768,-0.04661900
4.52000000,0.15028361,0.90502339,-0.12198050,-0.69474114,0.77347762,0.55088066,-0.39108809,0.27902170,-0.77806400,0.22981000,-0.47602970,-0.84802070,0.40051142,-0.04661900
4.54000000,0.15100969,0.90429731,-0.12255252,-0.69351995,0.77393712,0.55009250,-0.38849486,0.27901873,-0.77806400,0.22981000,-0.47602673,-0.84801773,0.40053516,-0.04661900
4.56000000,0.15168783,0.90354282,-0.12308185,-0.69237088,0.77439099,0.54933861,-0.38602121,0.27901823,-0.77806277,0.22981000,-0.47602377,-0.84801723,0.40055147,-0.04661900
4.58000000,0.15229894,0.90274863,-0.12355152,-0.69132263,0.77483700,0.54863263,-0.38371477,0.27902119,-0.77805981,0.22981000,-0.47602081,-0.84802019,0.40055738,-0.04661900
4.60000000,0.15291005,0.90195443,-0.12402118,-0.69027438,0.77528301,0.54792665,-0.38140833,0.27902415,-0.77805685,0.22981000,-0.47601785,-0.84802315,0.40056329,-0.04661900
4.62000000,0.15352116,0.90116024,-0.12449085,-0.68922614,0.77572902,0.54722067,-0.37910189,0.27902710,-0.77805390,0.22981000,-0.47601490,-0.84802610,0.40056921,-0.04661900
4.64000000,0.15411934,0.90042860,-0.12497372,-0.68813061,0.77618280,0.54646335,-0.37677622,0.27902793,-0.77805307,0.22981000,-0.47601407,-0.84802800,0.40056872,-0.04661900
4.66000000,0.15469443,0.89980876,-0.12548018,-0.68695060,0.77665048,0.54561427,-0.37441621,0.27902495,-0.77805605,0.22981000,-0.47601705,-0.84802800,0.40055678,-0.04661900
4.68000000,0.15526952,0.89918892,-0.12598665,-0.68577059,0.77711816,0.54476519,-0.37205619,0.27902196,-0.77805904,0.22981000,-0.47602004,-0.84802800,0.40054485,-0.04661900
4.70000000,0.15584460,0.89856908,-0.12649311,-0.68459058,0.77758584,0.54391611,-0.36969617,0.27901898,-0.77806202,0.22981000,-0.47602302,-0.84802800,0.40053291,-0.04661900
4.72000000,0.15645787,0.89793718,-0.12703776,-0.68332432,0.77804355,0.54297065,-0.36721883,0.27901700,-0.77806400,0.22981092,-0.47602400,-0.84802800,0.40051897,-0.04661900
4.74000000,0.15714634,0.89728154,-0.12765760,-0.68188822,0.77848164,0.54183539,-0.36451047,0.27901700,-0.77806400,0.22981366,-0.47602101,-0.84802800,0.40050107,-0.04661900
4.76000000,0.15783480,0.89662589,-0.12827744,-0.68045212,0.77891973,0.54070013,-0.36180212,0.27901700,-0.77806400,0.22981639,-0.47601803,-0.84802800,0.40048317,-0.04661900
4.78000000,0.15852326,0.89597025,-0.12889729,-0.67901602,0.77935782,0.53956488,-0.35909376,0.27901700,-0.77806400,0.22981913,-0.47601504,-0.84802800,0.40046527,-0.04661900
4.80000000,0.15923715,0.89528355,-0.12950409,-0.67760400,0.77977814,0.53850725,-0.35646651,0.27901418,-0.77806306,0.22982100,-0.47601394,-0.84802612,0.40045864,-0.04661994
4.82000000,0.16000638,0.89452924,-0.13008250,-0.67624441,0.78015977,0.53761861,-0.35401577,0.27900522,-0.77806007,0.22982100,-0.47601693,-0.84802015,0.40047655,-0.04662293
4.84000000,0.16077562,0.89377494,-0.13066092,-0.67488483,0.78054140,0.53672996,-0.35156502,0.27899627,-0.77805709,0.22982100,-0.47601991,-0.84801418,0.40049446,-0.04662591
4.86000000,0.16154485,0.89302063,-0.13123933,-0.67352524,0.78092303,0.53584132,-0.34911428,0.27898731,-0.77805410,0.22982100,-0.47602290,-0.84800821,0.40051238,-0.04662890
4.88000000,0.16232660,0.89227976,-0.13187798,-0.67223184,0.78131010,0.53503184,-0.34673319,0.27898535,-0.77805200,0.22981933,-0.47602413,-0.84800574,0.40052500,-0.04663013
4.90000000,0.16313825,0.89157094,-0.13266042,-0.67109645,0.78171016,0.53441138,-0.34451839,0.27900007,-0.77805200,0.22981369,-0.47602119,-0.84801163,0.40052500,-0.04662719
4.92000000,0.16394991,0.89086213,-0.13344287,-0.66996107,0.78211022,0.53379092,-0.34230358,0.27901480,-0.77805200,0.22980804,-0.47601824,-0.84801752,0.40052500,-0.04662424
4.94000000,0.16476156,0.89015331,-0.13422532,-0.66882569,0.78251027,0.53317046,-0.34008878,0.27902953,-0.77805200,0.22980240,-0.47601529,-0.84802341,0.40052500,-0.04662129
4.96000000,0.16557650,0.88947196,-0.13502201,-0.66767770,0.78292494,0.53252473,-0.33790682,0.27903969,-0.77805265,0.22979865,-0.47601365,-0.84802800,0.40052696,-0.04661900
4.98000000,0.16640302,0.88888753,-0.13586897,-0.66648520,0.78339115,0.53178983,-0.33584076,0.27903378,-0.77805561,0.22980161,-0.47601661,-0.84802800,0.40053582,-0.04661900
5.00000000,0.16722953,0.88830311,-0.13671593,-0.66529271,0.78385736,0.53105493,-0.33377471,0.27902787,-0.77805856,0.22980456,-0.47601956,-0.84802800,0.40054469,-0.04661900
5.02000000,0.16805605,0.88771868,-0.13756289,-0.66410022,0.78432357,0.53032002,-0.33170866,0.27902196,-0.77806152,0.22980752,-0.47602252,-0.84802800,0.40055356,-0.04661900
5.04000000,0.16888911,0.88713094,-0.13840071,-0.66291062,0.78480153,0.52955766,-0.32954465,0.27901748,-0.77806400,0.22981000,-0.47602452,-0.84802800,0.40056148,-0.04661900
5.06000000,0.16975640,0.88652580,-0.13919064,-0.66173617,0.78534100,0.52865158,-0.32686794,0.27902046,-0.77806400,0.22981000,-0.47602154,-0.84802800,0.40056446,-0.04661900
5.08000000,0.17062368,0.88592067,-0.13998057,-0.66056171,0.78588047,0.52774550,-0.32419123,0.27902345,-0.77806400,0.22981000,-0.47601855,-0.84802800,0.40056745,-0.04661900
5.10000000,0.17149096,0.88531554,-0.14077050,-0.65938726,0.78641995,0.52683941,-0.32151451,0.27902643,-0.77806400,0.22981000,-0.47601557,-0.84802800,0.40057043,-0.04661900
5.12000000,0.17234014,0.88470057,-0.14151294,-0.65824279,0.78692544,0.52595396,-0.31888061,0.27902859,-0.77806441,0.22981000,-0.47601300,-0.84802717,0.40057051,-0.04661983
5.14000000,0.17307787,0.88402514,-0.14196315,-0.65728279,0.78722187,0.52519546,-0.31651016,0.27902562,-0.77806738,0.22981000,-0.47601300,-0.84802124,0.40055271,-0.04662576
5.16000000,0.17381561,0.88334970,-0.14241335,-0.65632280,0.78751830,0.52443695,-0.31413971,0.27902265,-0.77807035,0.22981000,-0.47601300,-0.84801530,0.40053491,-0.04663170
5.18000000,0.17455335,0.88267427,-0.14286356,-0.65536280,0.78781473,0.52367845,-0.31176926,0.27901968,-0.77807332,0.22981000,-0.47601300,-0.84800937,0.40051711,-0.04663763
5.20000000,0.17529521,0.88200323,-0.14331122,-0.65440226,0.78811273,0.52291524,-0.30939374,0.27901757,-0.77807543,0.22981000,-0.47601300,-0.84800400,0.40050213,-0.04664272
5.22000000,0.17607634,0.88137410,-0.14373463,-0.65343654,0.78842568,0.52210724,-0.30696999,0.27902354,-0.77806946,0.22981000,-0.47601300,-0.84800400,0.40051408,-0.04663973
5.24000000,0.17685747,0.88074496,-0.14415803,-0.65247082,0.78873863,0.52129924,-0.30454624,0.27902951,-0.77806349,0.22981000,-0.47601300,-0.84800400,0.40052602,-0.04663675
5.26000000,0.17763861,0.88011582,-0.14458144,-0.65150510,0.78905158,0.52049124,-0.30212249,0.27903548,-0.77805752,0.22981000,-0.47601300,-0.84800400,0.40053796,-0.04663376
5.28000000,0.17839645,0.87949014,-0.14501045,-0.65052405,0.78936692,0.51967577,-0.29970689,0.27904056,-0.77805200,0.22981000,-0.47601278,-0.84800489,0.40054922,-0.04663100
5.30000000,0.17886792,0.87890683,-0.14550846,-0.64935449,0.78971154,0.51876849,-0.29739162,0.27903466,-0.77805200,0.22981000,-0.47600983,-0.84801669,0.40055217,-0.04663100
5.32000000,0.17933938,0.87832353,-0.14600647,-0.64818493,0.79005616,0.51786121,-0.29507634,0.27902876,-0.77805200,0.22981000,-0.47600688,-0.84802848,0.40055512,-0.04663100
5.34000000,0.17981084,0.87774022,-0.14650448,-0.64701537,0.79040079,0.51695393,-0.29276107,0.27902286,-0.77805200,0.22981000,-0.47600393,-0.84804028,0.40055807,-0.04663100
5.36000000,0.18028197,0.87715653,-0.14700163,-0.64584564,0.79074469,0.51604771,-0.29044679,0.27901698,-0.77805200,0.22981000,-0.47600102,-0.84805196,0.40056081,-0.04663098
5.38000000,0.18070561,0.87651796,-0.14737770,-0.64465168,0.79098652,0.51529258,-0.28827380,0.27901399,-0.77805200,0.22981000,-0.47600401,-0.84804598,0.40053391,-0.04662799
5.40000000,0.18112925,0.87587938,-0.14775377,-0.64345772,0.79122835,0.51453745,-0.28610080,0.27901100,-0.77805200,0.22981000,-0.47600700,-0.84804000,0.40050702,-0.04662500
5.42000000,0.18155289,0.87524081,-0.14812985,-0.64226375,0.79147019,0.51378232,-0.28392781,0.27900801,-0.77805200,0.22981000,-0.47600999,-0.84803403,0.40048012,-0.04662201
5.44000000,0.18197653,0.87460224,-0.14850592,-0.64106979,0.79171202,0.51302719,-0.28175482,0.27900502,-0.77805200,0.22981000,-0.47601298,-0.84802805,0.40045322,-0.04661902
5.46000000,0.18258657,0.87383958,-0.14902670,-0.63968416,0.79219319,0.51225470,-0.27918973,0.27900500,-0.77804904,0.22981272,-0.47601893,-0.84802800,0.40045596,-0.04661900
5.48000000,0.18319816,0.87307591,-0.14954868,-0.63829694,0.79267633,0.51148206,-0.27662140,0.27900500,-0.77804605,0.22981545,-0.47602490,-0.84802800,0.40045895,-0.04661900
5.50000000,0.18380975,0.87231223,-0.15007066,-0.63690973,0.79315948,0.51070942,-0.27405308,0.27900500,-0.77804306,0.22981819,-0.47603087,-0.84802800,0.40046194,-0.04661900
5.52000000,0.18442134,0.87154855,-0.15059264,-0.63552251,0.79364263,0.50993678,-0.27148475,0.27900500,-0.77804008,0.22982093,-0.47603685,-0.84802800,0.40046492,-0.04661900
5.54000000,0.18506695,0.87098915,-0.15104994,-0.63440729,0.79392214,0.50933355,-0.26952358,0.27901081,-0.77804581,0.22981834,-0.47603119,-0.84802800,0.40047372,-0.04661609
5.56000000,0.18571345,0.87043511,-0.15150555,-0.63329922,0.79419630,0.50873477,-0.26757836,0.27901678,-0.77805178,0.22981560,-0.47602522,-0.84802800,0.40048267,-0.04661311
5.58000000,0.18635995,0.86988107,-0.15196116,-0.63219115,0.79447046,0.50813600,-0.26563314,0.27902274,-0.77805774,0.22981287,-0.47601926,-0.84802800,0.40049162,-0.04661013
5.60000000,0.18700645,0.86932704,-0.15241677,-0.63108307,0.79474462,0.50753722,-0.26368793,0.27902871,-0.77806371,0.22981013,-0.47601329,-0.84802800,0.40050056,-0.04660715
5.62000000,0.18773264,0.86869314,-0.15306006,-0.62984674,0.79517772,0.50682472,-0.26132194,0.27902616,-0.77806400,0.22981000,-0.47601300,-0.84802800,0.40052371,-0.04660984
5.64000000,0.18846291,0.86805514,-0.15371298,-0.62860383,0.79561897,0.50610638,-0.25893437,0.27902318,-0.77806400,0.22981000,-0.47601300,-0.84802800,0.40054759,-0.04661282
5.66000000,0.18919319,0.86741715,-0.15436590,-0.62736092,0.79606022,0.50538805,-0.25654679,0.27902019,-0.77806400,0.22981000,-0.47601300,-0.84802800,0.40057147,-0.04661581
5.68000000,0.18992346,0.86677915,-0.15501882,-0.62611801,0.79650147,0.50466971,-0.25415922,0.27901721,-0.77806400,0.22981000,-0.47601300,-0.84802800,0.40059535,-0.04661879
5.70000000,0.19056829,0.86601027,-0.15566107,-0.62511010,0.79692055,0.50386746,-0.25195302,0.27901978,-0.77806400,0.22981255,-0.47601022,-0.84802522,0.40059422,-0.04661900
5.72000000,0.19120676,0.86523165,-0.15630253,-0.62411966,0.79733798,0.50305898,-0.24976031,0.27902277,-0.77806400,0.22981529,-0.47600723,-0.84802223,0.40059123,-0.04661900
5.74000000,0.19184524,0.86445304,-0.15694399,-0.62312921,0.79775542,0.50225050,-0.24756760,0.27902575,-0.77806400,0.22981802,-0.47600425,-0.84801925,0.40058825,-0.04661900
5.76000000,0.19248371,0.86367443,-0.15758545,-0.62213877,0.79817285,0.50144201,-0.24537489,0.27902874,-0.77806400,0.22982076,-0.47600126,-0.84801626,0.40058526,-0.04661900
5.78000000,0.19301328,0.86293914,-0.15813166,-0.62121885,0.79846809,0.50064135,-0.24332312,0.27902354,-0.77805854,0.22982100,-0.47600373,-0.84801873,0.40057408,-0.04662173
5.80000000,0.19353253,0.86220795,-0.15866884,-0.62030562,0.79875175,0.49984143,-0.24128472,0.27901756,-0.77805256,0.22982100,-0.47600672,-0.84802172,0.40056213,-0.04662472
5.82000000,0.19405179,0.86147677,-0.15920603,-0.61939238,0.79903541,0.49904151,-0.23924632,0.27901159,-0.77804659,0.22982100,-0.47600971,-0.84802471,0.40055017,-0.04662771
5.84000000,0.19457104,0.86074558,-0.15974321,-0.61847915,0.79931907,0.49824159,-0.23720792,0.27900561,-0.77804061,0.22982100,-0.47601270,-0.84802770,0.40053822,-0.04663070
5.86000000,0.19522892,0.86012751,-0.16029056,-0.61759902,0.79963438,0.49737838,-0.23489841,0.27900500,-0.77804536,0.22982100,-0.47601836,-0.84802532,0.40052360,-0.04663100
5.88000000,0.19590255,0.85952229,-0.16083907,-0.61672265,0.79995328,0.49650798,-0.23255811,0.27900500,-0.77805133,0.22982100,-0.47602433,-0.84802233,0.40050867,-0.04663100
5.90000000,0.19657619,0.85891706,-0.16138757,-0.61584629,0.80027219,0.49563759,-0.23021781,0.27900500,-0.77805730,0.22982100,-0.47603030,-0.84801935,0.40049375,-0.04663100
5.92000000,0.19724982,0.85831184,-0.16193608,-0.61496992,0.80059109,0.49476719,-0.22787752,0.27900500,-0.77806327,0.22982100,-0.47603627,-0.84801636,0.40047882,-0.04663100
5.94000000,0.19799756,0.85770865,-0.16242215,-0.61398513,0.80102313,0.49385922,-0.22577089,0.27901025,-0.77806400,0.22981859,-0.47603175,-0.84801338,0.40049274,-0.04662575
5.96000000,0.19875561,0.85710576,-0.16289954,-0.61298528,0.80147088,0.49294603,-0.22369673,0.27901622,-0.77806400,0.22981586,-0.47602578,-0.84801039,0.40051067,-0.04661978
5.98000000,0.19951365,0.85650286,-0.16337692,-0.61198543,0.80191864,0.49203284,-0.22162257,0.27902220,-0.77806400,0.22981312,-0.47601980,-0.84800740,0.40052860,-0.04661380
6.00000000,0.20027169,0.85589996,-0.16385431,-0.61098558,0.80236639,0.49111965,-0.21954840,0.27902818,-0.77806400,0.22981038,-0.47601382,-0.84800441,0.40054653,-0.04660782
6.02000000,0.20093685,0.85526662,-0.16436056,-0.60985963,0.80278651,0.49041008,-0.21731446,0.27902131,-0.77806144,0.22981000,-0.47601556,-0.84801169,0.40054387,-0.04660956
6.04000000,0.20158718,0.85462843,-0.16487141,-0.60871356,0.80320223,0.48973299,-0.21505502,0.27901239,-0.77805846,0.22981000,-0.47601854,-0.84802061,0.40053793,-0.04661254
6.06000000,0.20223751,0.85399024,-0.16538226,-0.60756749,0.80361795,0.48905590,-0.21279558,0.27900347,-0.77805549,0.22981000,-0.47602151,-0.84802953,0.40053198,-0.04661551
6.08000000,0.20288784,0.85335205,-0.16589311,-0.60642142,0.80403367,0.48837881,-0.21053614,0.27899455,-0.77805252,0.22981000,-0.47602448,-0.84803845,0.40052603,-0.04661848
6.10000000,0.20352526,0.85276091,-0.16635609,-0.60532591,0.80444065,0.48780556,-0.20865362,0.27900040,-0.77804953,0.22981226,-0.47602500,-0.84803753,0.40052007,-0.04662147
6.12000000,0.20415996,0.85217968,-0.16680899,-0.60424105,0.80484579,0.48725417,-0.20685050,0.27900935,-0.77804655,0.22981500,-0.47602500,-0.84803455,0.40051410,-0.04662445
6.14000000,0.20479466,0.85159845,-0.16726188,-0.60315619,0.80525093,0.48670279,-0.20504737,0.27901830,-0.77804357,0.22981773,-0.47602500,-0.84803157,0.40050813,-0.04662743
6.16000000,0.20542936,0.85101722,-0.16771478,-0.60207133,0.80565608,0.48615141,-0.20324425,0.27902726,-0.77804058,0.22982047,-0.47602500,-0.84802858,0.40050216,-0.04663042
6.18000000,0.20607664,0.85049819,-0.16819458,-0.60080330,0.80604482,0.48547487,-0.20108701,0.27902900,-0.77804481,0.22981880,-0.47602260,-0.84802560,0.40051062,-0.04662860
6.20000000,0.20672696,0.84999421,-0.16868089,-0.59949096,0.80642958,0.48476805,-0.19884410,0.27902900,-0.77805078,0.22981606,-0.47601961,-0.84802261,0.40052257,-0.04662561
6.22000000,0.20737729,0.84949023,-0.16916720,-0.59817861,0.80681435,0.48406123,-0.19660120,0.27902900,-0.77805676,0.22981332,-0.47601662,-0.84801962,0.40053451,-0.04662262
6.24000000,0.20802761,0.84898625,-0.16965351,-0.59686627,0.80719912,0.48335441,-0.19435829,0.27902900,-0.77806273,0.22981058,-0.47601364,-0.84801664,0.40054646,-0.04661964
6.26000000,0.20869991,0.84847312,-0.17018603,-0.59569158,0.80753297,0.48270492,-0.19214619,0.27902667,-0.77806633,0.22981000,-0.47601533,-0.84801133,0.40055600,-0.04662367
6.28000000,0.20937814,0.84795753,-0.17073104,-0.59455410,0.80785306,0.48207093,-0.18994243,0.27902370,-0.77806930,0.22981000,-0.47601830,-0.84800540,0.40056490,-0.04662960
6.30000000,0.21005637,0.84744193,-0.17127605,-0.59341663,0.80817314,0.48143694,-0.18773866,0.27902073,-0.77807227,0.22981000,-0.47602127,-0.84799947,0.40057380,-0.04663553
6.32000000,0.21073461,0.84692633,-0.17182106,-0.59227915,0.80849323,0.48080295,-0.18553489,0.27901777,-0.77807523,0.22981000,-0.47602423,-0.84799353,0.40058270,-0.04664147
6.34000000,0.21130080,0.84642832,-0.17231804,-0.59130299,0.80878311,0.48016428,-0.18367429,0.27901700,-0.77806952,0.22981000,-0.47602068,-0.84799632,0.40058716,-0.04663652
6.36000000,0.21182791,0.84593643,-0.17279827,-0.59038310,0.80906245,0.47952398,-0.18193337,0.27901700,-0.77806077,0.22981000,-0.47601485,-0.84800215,0.40059008,-0.04662777
6.38000000,0.21235502,0.84544454,-0.17327850,-0.58946322,0.80934179,0.47888367,-0.18019245,0.27901700,-0.77805203,0.22981000,-0.47600902,-0.84800798,0.40059299,-0.04661903
6.40000000,0.21288212,0.84495265,-0.17375872,-0.58854333,0.80962113,0.47824337,-0.17845154,0.27901700,-0.77804328,0.22981000,-0.47600319,-0.84801381,0.40059591,-0.04661028
6.42000000,0.21345636,0.84441575,-0.17437135,-0.58758105,0.80990500,0.47757423,-0.17640392,0.27901513,-0.77803627,0.22981000,-0.47600287,-0.84801413,0.40058207,-0.04660887
6.44000000,0.21405892,0.84385178,-0.17506354,-0.58659330,0.81019159,0.47688776,-0.17417196,0.27901215,-0.77803029,0.22981000,-0.47600585,-0.84801115,0.40055817,-0.04661185
6.46000000,0.21466148,0.84328782,-0.17575574,-0.58560555,0.81047818,0.47620129,-0.17194000,0.27900916,-0.77802432,0.22981000,-0.47600884,-0.84800816,0.40053426,-0.04661484
6.48000000,0.21526404,0.84272385,-0.17644794,-0.58461780,0.81076477,0.47551482,-0.16970804,0.27900617,-0.77801834,0.22981000,-0.47601183,-0.84800517,0.40051036,-0.04661783
6.50000000,0.21583738,0.84218379,-0.17702202,-0.58375937,0.81107831,0.47480888,-0.16771122,0.27900863,-0.77802327,0.22981000,-0.47601118,-0.84800582,0.40051190,-0.04661900
6.52000000,0.21639191,0.84165911,-0.17752008,-0.58298417,0.81140919,0.47409040,-0.16586577,0.27901460,-0.77803521,0.22981000,-0.47600820,-0.84800880,0.40052981,-0.04661900
6.54000000,0.21694644,0.84113443,-0.17801814,-0.58220896,0.81174006,0.47337192,-0.16402031,0.27902057,-0.77804715,0.22981000,-0.47600521,-0.84801179,0.40054772,-0.04661900
6.56000000,0.21750098,0.84060975,-0.17851620,-0.58143376,0.81207094,0.47265344,-0.16217485,0.27902654,-0.77805909,0.22981000,-0.47600223,-0.84801477,0.40056563,-0.04661900
6.58000000,0.21803819,0.84011822,-0.17904235,-0.58053898,0.81239486,0.47184176,-0.16027802,0.27902724,-0.77805697,0.22981161,-0.47600276,-0.84801424,0.40056948,-0.04662076
6.60000000,0.21856330,0.83964986,-0.17958811,-0.57956068,0.81271390,0.47096500,-0.15834532,0.27902426,-0.77804502,0.22981435,-0.47600574,-0.84801126,0.40056351,-0.04662374
6.62000000,0.21908841,0.83918149,-0.18013388,-0.57858238,0.81303295,0.47008824,-0.15641261,0.27902127,-0.77803308,0.22981709,-0.47600873,-0.84800827,0.40055754,-0.04662673
6.64000000,0.21961352,0.83871312,-0.18067965,-0.57760408,0.81335200,0.46921148,-0.15447990,0.27901828,-0.77802113,0.22981982,-0.47601172,-0.84800528,0.40055156,-0.04662972
6.66000000,0.22018787,0.83821924,-0.18117608,-0.57674650,0.81364056,0.46853542,-0.15253664,0.27901530,-0.77802282,0.22981944,-0.47601130,-0.84800741,0.40053877,-0.04663100
6.68000000,0.22079927,0.83770617,-0.18163537,-0.57597976,0.81390618,0.46801041,-0.15058543,0.27901231,-0.77803477,0.22981670,-0.47600831,-0.84801338,0.40052085,-0.04663100
6.70000000,0.22141067,0.83719310,-0.18209467,-0.57521301,0.81417181,0.46748539,-0.14863423,0.27900932,-0.77804672,0.22981396,-0.47600532,-0.84801936,0.40050293,-0.04663100
6.72000000,0.22202207,0.83668003,-0.18255397,-0.57444627,0.81443743,0.46696037,-0.14668302,0.27900633,-0.77805867,0.22981122,-0.47600233,-0.84802533,0.40048500,-0.04663100
6.74000000,0.22259048,0.83608791,-0.18296526,-0.57365857,0.81475565,0.46638604,-0.14485161,0.27900830,-0.77805904,0.22981000,-0.47600100,-0.84802800,0.40048857,-0.04662604
6.76000000,0.22312424,0.83543204,-0.18333784,-0.57285396,0.81511629,0.46577195,-0.14311679,0.27901427,-0.77805009,0.22981000,-0.47600100,-0.84802800,0.40050946,-0.04661709
6.78000000,0.22365799,0.83477616,-0.18371042,-0.57204936,0.81547694,0.46515787,-0.14138197,0.27902024,-0.77804114,0.22981000,-0.47600100,-0.84802800,0.40053035,-0.04660814
6.80000000,0.22419174,0.83412029,-0.18408300,-0.57124475,0.81583758,0.46454378,-0.13964716,0.27902621,-0.77803218,0.22981000,-0.47600100,-0.84802800,0.40055124,-0.04659918
6.82000000,0.22466564,0.83355291,-0.18446909,-0.57031817,0.81615946,0.46392777,-0.13793647,0.27902583,-0.77802958,0.22981145,-0.47600258,-0.84802483,0.40055942,-0.04659975
6.84000000,0.22508709,0.83306307,-0.18486701,-0.56928472,0.81644736,0.46331008,-0.13624693,0.27901988,-0.77803256,0.22981418,-0.47600556,-0.84801888,0.40055644,-0.04660867
6.86000000,0.22550855,0.83257323,-0.18526493,-0.56825127,0.81673527,0.46269239,-0.13455738,0.27901394,-0.77803553,0.22981690,-0.47600853,-0.84801294,0.40055347,-0.04661759
6.88000000,0.22593001,0.83208339,-0.18566285,-0.56721782,0.81702318,0.46207470,-0.13286784,0.27900799,-0.77803850,0.22981963,-0.47601150,-0.84800699,0.40055050,-0.04662651
6.90000000,0.22637931,0.83162938,-0.18607507,-0.56623537,0.81728814,0.46148969,-0.13105414,0.27900648,-0.77804445,0.22981964,-0.47601597,-0.84800400,0.40054158,-0.04662952
6.92000000,0.22685681,0.83121164,-0.18650178,-0.56530453,0.81752988,0.46093776,-0.12911479,0.27900947,-0.77805342,0.22981690,-0.47602194,-0.84800400,0.40052664,-0.04662653
6.94000000,0.22733430,0.83079389,-0.18692849,-0.56437369,0.81777161,0.46038583,-0.12717543,0.27901246,-0.77806238,0.22981416,-0.47602792,-0.84800400,0.40051170,-0.04662354
6.96000000,0.22781180,0.83037614,-0.18735520,-0.56344285,0.81801335,0.45983389,-0.12523608,0.27901545,-0.77807134,0.22981142,-0.47603389,-0.84800400,0.40049676,-0.04662055
6.98000000,0.22824053,0.82991260,-0.18776183,-0.56246178,0.81827517,0.45925182,-0.12340571,0.27901700,-0.77807457,0.22981000,-0.47603270,-0.84800543,0.40049617,-0.04661900
7.00000000,0.22861647,0.82939948,-0.18814673,-0.56142632,0.81855875,0.45863712,-0.12169332,0.27901700,-0.77807158,0.22981000,-0.47602373,-0.84800842,0.40051111,-0.04661900
7.02000000,0.22899241,0.82888636,-0.18853164,-0.56039087,0.81884232,0.45802242,-0.11998092,0.27901700,-0.77806859,0.22981000,-0.47601477,-0.84801141,0.40052605,-0.04661900
7.04000000,0.22936835,0.82837324,-0.18891654,-0.55935542,0.81912589,0.45740772,-0.11826853,0.27901700,-0.77806560,0.22981000,-0.47600581,-0.84801440,0.40054099,-0.04661900
7.06000000,0.22978559,0.82782427,-0.18930410,-0.55837562,0.81939543,0.45681950,-0.11654542,0.27901562,-0.77805985,0.22981000,-0.47600515,-0.84801738,0.40054623,-0.04662038
7.08000000,0.23025063,0.82723382,-0.18969475,-0.55746022,0.81964873,0.45626189,-0.11480991,0.27901263,-0.77805089,0.22981000,-0.47601411,-0.84802037,0.40054026,-0.04662337
7.10000000,0.23071568,0.82664338,-0.19008539,-0.55654482,0.81990202,0.45570429,-0.11307441,0.27900964,-0.77804193,0.22981000,-0.47602307,-0.84802336,0.40053429,-0.04662636
7.12000000,0.23118072,0.82605293,-0.19047604,-0.55562941,0.82015532,0.45514669,-0.11133890,0.27900666,-0.77803297,0.22981000,-0.47603203,-0.84802634,0.40052832,-0.04662934
7.14000000,0.23165256,0.82545578,-0.19081770,-0.55483065,0.82037954,0.45457044,-0.10965222,0.27901031,-0.77802800,0.22981000,-0.47603700,-0.84802667,0.40052766,-0.04662967
7.16000000,0.23213290,0.82485026,-0.19109819,-0.55417759,0.82056745,0.45397089,-0.10802654,0.27902226,-0.77802800,0.22981000,-0.47603700,-0.84802369,0.40053363,-0.04662669
7.18000000,0.23261324,0.82424473,-0.19137868,-0.55352453,0.82075535,0.45337134,-0.10640085,0.27903420,-0.77802800,0.22981000,-0.47603700,-0.84802070,0.40053960,-0.04662370
7.20000000,0.23309357,0.82363921,-0.19165917,-0.55287147,0.82094326,0.45277178,-0.10477517,0.27904615,-0.77802800,0.22981000,-0.47603700,-0.84801771,0.40054558,-0.04662071
7.22000000,0.23358796,0.82303734,-0.19200327,-0.55215448,0.82119485,0.45211098,-0.10313002,0.27904790,-0.77802927,0.22981000,-0.47603445,-0.84801600,0.40054645,-0.04661900
7.24000000,0.23410124,0.82244039,-0.19243286,-0.55135157,0.82153205,0.45136784,-0.10145870,0.27903595,-0.77803226,0.22981000,-0.47602847,-0.84801600,0.40054047,-0.04661900
7.26000000,0.23461451,0.82184344,-0.19286246,-0.55054866,0.82186925,0.45062470,-0.09978739,0.27902399,-0.77803525,0.22981000,-0.47602250,-0.84801600,0.40053450,-0.04661900
7.28000000,0.23512778,0.82124649,-0.19329205,-0.54974575,0.82220646,0.44988156,-0.09811607,0.27901204,-0.77803824,0.22981000,-0.47601652,-0.84801600,0.40052852,-0.04661900
7.30000000,0.23563346,0.82072345,-0.19371788,-0.54896653,0.82254729,0.44919154,-0.09652519,0.27900377,-0.77804368,0.22981000,-0.47601177,-0.84801723,0.40052377,-0.04661900
7.32000000,0.23612826,0.82030627,-0.19413830,-0.54822122,0.82289333,0.44857758,-0.09504950,0.27900079,-0.77805264,0.22981000,-0.47600879,-0.84802021,0.40052079,-0.04661900
7.34000000,0.23662306,0.81988908,-0.19455871,-0.54747591,0.82323936,0.44796362,-0.09357380,0.27899780,-0.77806159,0.22981000,-0.47600580,-0.84802320,0.40051780,-0.04661900
7.36000000,0.23711786,0.81947190,-0.19497913,-0.54673060,0.82358540,0.44734966,-0.09209811,0.27899482,-0.77807055,0.22981000,-0.47600282,-0.84802618,0.40051482,-0.04661900
7.38000000,0.23764099,0.81904037,-0.19537520,-0.54601065,0.82392099,0.44678784,-0.09054455,0.27899651,-0.77807249,0.22981107,-0.47600100,-0.84802800,0.40051066,-0.04662017
7.40000000,0.23820817,0.81858652,-0.19573339,-0.54533013,0.82424032,0.44630709,-0.08886991,0.27900548,-0.77806352,0.22981381,-0.47600100,-0.84802800,0.40050468,-0.04662316
7.42000000,0.23877535,0.81813268,-0.19609158,-0.54464961,0.82455966,0.44582635,-0.08719527,0.27901444,-0.77805456,0.22981655,-0.47600100,-0.84802800,0.40049870,-0.04662615
7.44000000,0.23934253,0.81767884,-0.19644977,-0.54396910,0.82487899,0.44534560,-0.08552063,0.27902341,-0.77804559,0.22981929,-0.47600100,-0.84802800,0.40049273,-0.04662914
7.46000000,0.23989837,0.81721960,-0.19679885,-0.54327858,0.82517581,0.44488414,-0.08383303,0.27902787,-0.77804113,0.22981997,-0.47600213,-0.84802800,0.40049350,-0.04662875
7.48000000,0.24043546,0.81675146,-0.19713285,-0.54257151,0.82543539,0.44445457,-0.08212397,0.27902489,-0.77804411,0.22981723,-0.47600511,-0.84802800,0.40050545,-0.04662278
7.50000000,0.24097254,0.81628332,-0.19746684,-0.54186444,0.82569497,0.44402501,-0.08041491,0.27902190,-0.77804710,0.22981449,-0.47600810,-0.84802800,0.40051739,-0.04661680
7.52000000,0.24150962,0.81581517,-0.19780084,-0.54115737,0.82595456,0.44359544,-0.07870585,0.27901891,-0.77805009,0.22981176,-0.47601109,-0.84802800,0.40052934,-0.04661083
7.54000000,0.24205645,0.81535408,-0.19813761,-0.54043229,0.82621898,0.44315596,-0.07713585,0.27901593,-0.77805200,0.22980893,-0.47601300,-0.84802800,0.40054020,-0.04660700
7.56000000,0.24262067,0.81490557,-0.19847931,-0.53967503,0.82649205,0.44269878,-0.07581436,0.27901296,-0.77805200,0.22980596,-0.47601300,-0.84802800,0.40054912,-0.04660700
7.58000000,0.24318490,0.81445706,-0.19882102,-0.53891777,0.82676512,0.44224160,-0.07449287,0.27900999,-0.77805200,0.22980299,-0.47601300,-0.84802800,0.40055804,-0.04660700
7.60000000,0.24374913,0.81400855,-0.19916273,-0.53816051,0.82703819,0.44178442,-0.07317138,0.27900701,-0.77805200,0.22980001,-0.47601300,-0.84802800,0.40056696,-0.04660700
7.62000000,0.24426552,0.81357810,-0.19953141,-0.53746920,0.82726527,0.44135388,-0.07188668,0.27900596,-0.77805007,0.22979984,-0.47601300,-0.84802511,0.40057396,-0.04660796
7.64000000,0.24468173,0.81318547,-0.19995655,-0.53691599,0.82739607,0.44097911,-0.07067899,0.27900894,-0.77804412,0.22980555,-0.47601300,-0.84801618,0.40057694,-0.04661094
7.66000000,0.24509794,0.81279283,-0.20038170,-0.53636278,0.82752686,0.44060435,-0.06947131,0.27901192,-0.77803816,0.22981126,-0.47601300,-0.84800724,0.40057992,-0.04661392
7.68000000,0.24551415,0.81240020,-0.20080685,-0.53580957,0.82765766,0.44022958,-0.06826362,0.27901490,-0.77803221,0.22981697,-0.47601300,-0.84799831,0.40058290,-0.04661690
7.70000000,0.24591693,0.81202018,-0.20123077,-0.53525778,0.82782672,0.43984036,-0.06696916,0.27901787,-0.77802887,0.22982020,-0.47601300,-0.84799636,0.40058413,-0.04661987
7.72000000,0.24628745,0.81167044,-0.20165174,-0.53470943,0.82808766,0.43941642,-0.06546632,0.27902084,-0.77803184,0.22981748,-0.47601300,-0.84801120,0.40058116,-0.04662284
7.74000000,0.24665797,0.81132070,-0.20207272,-0.53416107,0.82834861,0.43899248,-0.06396347,0.27902381,-0.77803481,0.22981476,-0.47601300,-0.84802604,0.40057819,-0.04662581
7.76000000,0.24702848,0.81097096,-0.20249369,-0.53361272,0.82860955,0.43856853,-0.06246063,0.27902678,-0.77803778,0.22981204,-0.47601300,-0.84804088,0.40057522,-0.04662878
7.78000000,0.24738155,0.81062239,-0.20289339,-0.53305170,0.82885238,0.43812961,-0.06096187,0.27902752,-0.77804000,0.22981000,-0.47601448,-0.84805052,0.40056633,-0.04663100
7.80000000,0.24768256,0.81027732,-0.20322959,-0.53245288,0.82904116,0.43764598,-0.05947528,0.27902161,-0.77804000,0.22981000,-0.47602039,-0.84804461,0.40053975,-0.04663100
7.82000000,0.24798357,0.80993226,-0.20356580,-0.53185406,0.82922994,0.43716234,-0.05798869,0.27901570,-0.77804000,0.22981000,-0.47602630,-0.84803870,0.40051317,-0.04663100
7.84000000,0.24828458,0.80958719,-0.20390200,-0.53125524,0.82941871,0.43667871,-0.05650211,0.27900980,-0.77804000,0.22981000,-0.47603220,-0.84803280,0.40048658,-0.04663100
7.86000000,0.24859931,0.80925117,-0.20421798,-0.53063285,0.82962280,0.43619892,-0.05504052,0.27900500,-0.77804000,0.22981051,-0.47603700,-0.84802688,0.40046668,-0.04662988
7.88000000,0.24897332,0.80895420,-0.20444659,-0.52990862,0.82989303,0.43573575,-0.05368693,0.27900500,-0.77804000,0.22981324,-0.47603700,-0.84802094,0.40047559,-0.04662394
7.90000000,0.24934732,0.80865722,-0.20467520,-0.52918439,0.83016325,0.43527259,-0.05233334,0.27900500,-0.77804000,0.22981596,-0.47603700,-0.84801499,0.40048451,-0.04661799
7.92000000,0.24972132,0.80836025,-0.20490382,-0.52846016,0.83043347,0.43480942,-0.05097974,0.27900500,-0.77804000,0.22981869,-0.47603700,-0.84800905,0.40049343,-0.04661205
7.94000000,0.25009047,0.80806774,-0.20513113,-0.52773041,0.83069788,0.43435378,-0.04963978,0.27900590,-0.77803955,0.22982059,-0.47603610,-0.84800400,0.40050145,-0.04660745
7.96000000,0.25043222,0.80780039,-0.20535111,-0.52696954,0.83092952,0.43394060,-0.04837670,0.27901185,-0.77803658,0.22981786,-0.47603015,-0.84800400,0.40050442,-0.04661042
7.98000000,0.25077397,0.80753304,-0.20557109,-0.52620866,0.83116115,0.43352743,-0.04711362,0.27901780,-0.77803360,0.22981513,-0.47602420,-0.84800400,0.40050740,-0.04661340
8.00000000,0.25111571,0.80726569,-0.20579107,-0.52544779,0.83139279,0.43311425,-0.04585053,0.27902375,-0.77803062,0.22981241,-0.47601825,-0.84800400,0.40051038,-0.04661638
8.02000000,0.25145373,0.80699571,-0.20601926,-0.52466677,0.83162598,0.43269384,-0.04457026,0.27902900,-0.77802835,0.22981000,-0.47601300,-0.84800506,0.40051406,-0.04661900
8.04000000,0.25176398,0.80670614,-0.20630858,-0.52373579,0.83187074,0.43221951,-0.04316196,0.27902900,-0.77803134,0.22981000,-0.47601300,-0.84801402,0.40052302,-0.04661900
8.06000000,0.25207422,0.80641656,-0.20659791,-0.52280481,0.83211550,0.43174518,-0.04175366,0.27902900,-0.77803433,0.22981000,-0.47601300,-0.84802299,0.40053199,-0.04661900
8.08000000,0.25238446,0.80612698,-0.20688724,-0.52187383,0.83236026,0.43127085,-0.04034537,0.27902900,-0.77803732,0.22981000,-0.47601300,-0.84803195,0.40054095,-0.04661900
8.10000000,0.25269781,0.80582494,-0.20717696,-0.52095149,0.83261176,0.43079567,-0.03894878,0.27902839,-0.77803939,0.22981000,-0.47601330,-0.84803939,0.40054809,-0.04661900
8.12000000,0.25303842,0.80541344,-0.20747015,-0.52010503,0.83292248,0.43031304,-0.03765500,0.27902247,-0.77803347,0.22981000,-0.47601627,-0.84803347,0.40053920,-0.04661900
8.14000000,0.25337903,0.80500194,-0.20776334,-0.51925856,0.83323321,0.42983040,-0.03636121,0.27901654,-0.77802754,0.22981000,-0.47601923,-0.84802754,0.40053031,-0.04661900
8.16000000,0.25371965,0.80459044,-0.20805653,-0.51841209,0.83354393,0.42934777,-0.03506743,0.27901061,-0.77802161,0.22981000,-0.47602219,-0.84802161,0.40052142,-0.04661900
8.18000000,0.25406265,0.80417925,-0.20834888,-0.51757995,0.83384585,0.42886636,-0.03379259,0.27900532,-0.77801648,0.22981015,-0.47602484,-0.84801584,0.40051300,-0.04661900
8.20000000,0.25444782,0.80377340,-0.20862642,-0.51700070,0.83399235,0.42840670,-0.03285208,0.27901130,-0.77802545,0.22981289,-0.47602185,-0.84801285,0.40051300,-0.04661900
8.22000000,0.25483299,0.80336755,-0.20890396,-0.51642145,0.83413884,0.42794703,-0.03191158,0.27901728,-0.77803442,0.22981563,-0.47601886,-0.84800986,0.40051300,-0.04661900
8.24000000,0.25521816,0.80296170,-0.20918150,-0.51584220,0.83428534,0.42748737,-0.03097107,0.27902326,-0.77804339,0.22981837,-0.47601587,-0.84800687,0.40051300,-0.04661900
8.26000000,0.25560208,0.80255922,-0.20946302,-0.51526588,0.83443156,0.42702766,-0.03003192,0.27902888,-0.77805188,0.22982089,-0.47601288,-0.84800424,0.40051359,-0.04661912
8.28000000,0.25595575,0.80223804,-0.20984050,-0.51476043,0.83457119,0.42656685,-0.02912542,0.27902591,-0.77804891,0.22981816,-0.47600991,-0.84801019,0.40052847,-0.04662209
8.30000000,0.25630942,0.80191686,-0.21021798,-0.51425497,0.83471082,0.42610603,-0.02821893,0.27902293,-0.77804593,0.22981544,-0.47600693,-0.84801614,0.40054335,-0.04662507
8.32000000,0.25666309,0.80159568,-0.21059546,-0.51374951,0.83485046,0.42564522,-0.02731243,0.27901995,-0.77804295,0.22981271,-0.47600395,-0.84802209,0.40055824,-0.04662805
8.34000000,0.25701563,0.80127479,-0.21097330,-0.51324405,0.83499002,0.42518495,-0.02640379,0.27901702,-0.77804000,0.22981000,-0.47600100,-0.84802798,0.40057298,-0.04663100
8.36000000,0.25722445,0.80099155,-0.21139692,-0.51273705,0.83512119,0.42479419,-0.02522254,0.27902001,-0.77804000,0.22981000,-0.47600100,-0.84802499,0.40056999,-0.04663100
8.38000000,0.25743327,0.80070831,-0.21182053,-0.51223006,0.83525236,0.42440343,-0.02404130,0.27902300,-0.77804000,0.22981000,-0.47600100,-0.84802200,0.40056700,-0.04663100
8.40000000,0.25764209,0.80042507,-0.21224415,-0.51172306,0.83538352,0.42401267,-0.02286006,0.27902598,-0.77804000,0.22981000,-0.47600100,-0.84801902,0.40056402,-0.04663100
8.42000000,0.25785091,0.80014183,-0.21266776,-0.51121607,0.83551469,0.42362191,-0.02167881,0.27902897,-0.77804000,0.22981000,-0.47600100,-0.84801603,0.40056103,-0.04663100
8.44000000,0.25807696,0.79983505,-0.21293460,-0.51071853,0.83565751,0.42323751,-0.02044605,0.27902605,-0.77803705,0.22981271,-0.47600100,-0.84801895,0.40054919,-0.04662509
8.46000000,0.25830318,0.79952804,-0.21319985,-0.51022110,0.83580046,0.42285319,-0.01921277,0.27902306,-0.77803406,0.22981544,-0.47600100,-0.84802194,0.40053725,-0.04661913
8.48000000,0.25852940,0.79922102,-0.21346510,-0.50972366,0.83594340,0.42246886,-0.01797949,0.27902008,-0.77803108,0.22981818,-0.47600100,-0.84802492,0.40052532,-0.04661316
8.50000000,0.25875563,0.79891401,-0.21373035,-0.50922622,0.83608634,0.42208453,-0.01674621,0.27901710,-0.77802810,0.22982091,-0.47600100,-0.84802790,0.40051339,-0.04660719
8.52000000,0.25898434,0.79859082,-0.21393444,-0.50877021,0.83626653,0.42175307,-0.01561683,0.27901700,-0.77802512,0.22981836,-0.47600963,-0.84802800,0.40049286,-0.04660988
8.54000000,0.25921313,0.79826709,-0.21413646,-0.50831559,0.83644798,0.42142339,-0.01449096,0.27901700,-0.77802215,0.22981564,-0.47601856,-0.84802800,0.40047203,-0.04661285
8.56000000,0.25944192,0.79794336,-0.21433848,-0.50786098,0.83662943,0.42109370,-0.01336508,0.27901700,-0.77801917,0.22981291,-0.47602748,-0.84802800,0.40045121,-0.04661583
8.58000000,0.25967072,0.79761963,-0.21454050,-0.50740637,0.83681088,0.42076402,-0.01223921,0.27901700,-0.77801620,0.22981018,-0.47603640,-0.84802800,0.40043039,-0.04661880
8.60000000,0.25992925,0.79733561,-0.21475828,-0.50706934,0.83694174,0.42050728,-0.01138468,0.27901700,-0.77802153,0.22981000,-0.47603147,-0.84802800,0.40046220,-0.04661900
8.62000000,0.26018991,0.79705445,-0.21497719,-0.50674074,0.83706898,0.42025576,-0.01054958,0.27901700,-0.77802746,0.22981000,-0.47602554,-0.84802800,0.40049778,-0.04661900
8.64000000,0.26045057,0.79677328,-0.21519609,-0.50641213,0.83719623,0.42000424,-0.00971447,0.27901700,-0.77803339,0.22981000,-0.47601961,-0.84802800,0.40053336,-0.04661900
8.66000000,0.26071123,0.79649211,-0.21541500,-0.50608353,0.83732347,0.41975272,-0.00887937,0.27901700,-0.77803932,0.22981000,-0.47601368,-0.84802800,0.40056894,-0.04661900
8.68000000,0.26104356,0.79624417,-0.21567164,-0.50570392,0.83748533,0.41948709,-0.00801312,0.27901173,-0.77804000,0.22981242,-0.47601300,-0.84802800,0.40055983,-0.04661900
8.70000000,0.26138512,0.79600052,-0.21593314,-0.50531774,0.83765165,0.41921964,-0.00714285,0.27900578,-0.77804000,0.22981514,-0.47601300,-0.84802800,0.40054495,-0.04661900
8.72000000,0.26172668,0.79575686,-0.21619464,-0.50493157,0.83781797,0.41895219,-0.00627259,0.27899983,-0.77804000,0.22981787,-0.47601300,-0.84802800,0.40053008,-0.04661900
8.74000000,0.26206824,0.79551321,-0.21645614,-0.50454539,0.83798428,0.41868474,-0.00540232,0.27899388,-0.77804000,0.22982059,-0.47601300,-0.84802800,0.40051521,-0.04661900
8.76000000,0.26240687,0.79523696,-0.21671480,-0.50410908,0.83810489,0.41841761,-0.00448503,0.27899553,-0.77803494,0.22981868,-0.47602059,-0.84802800,0.40050288,-0.04661900
8.78000000,0.26274499,0.79495503,-0.21697297,-0.50366404,0.83821751,0.41815053,-0.00355954,0.27899850,-0.77802900,0.22981596,-0.47602950,-0.84802800,0.40049100,-0.04661900
8.80000000,0.26308311,0.79467310,-0.21723114,-0.50321899,0.83833014,0.41788345,-0.00263404,0.27900147,-0.77802306,0.22981324,-0.47603841,-0.84802800,0.40047912,-0.04661900
8.82000000,0.26342123,0.79439117,-0.21748931,-0.50277394,0.83844276,0.41761637,-0.00170855,0.27900444,-0.77801712,0.22981051,-0.47604732,-0.84802800,0.40046724,-0.04661900
8.84000000,0.26373685,0.79412756,-0.21772421,-0.50226406,0.83860194,0.41735313,-0.00078129,0.27900742,-0.77802085,0.22981000,-0.47603931,-0.84801831,0.40047954,-0.04661900
8.86000000,0.26404723,0.79386820,-0.21795370,-0.50173912,0.83877194,0.41709079,0.00014638,0.27901041,-0.77802682,0.22981000,-0.47602736,-0.84800636,0.40049746,-0.04661900
8.88000000,0.26435761,0.79360884,-0.21818319,-0.50121418,0.83894194,0.41682844,0.00107405,0.27901340,-0.77803279,0.22981000,-0.47601541,-0.84799441,0.40051538,-0.04661900
8.90000000,0.26466800,0.79334948,-0.21841268,-0.50068924,0.83911195,0.41656610,0.00200171,0.27901638,-0.77803877,0.22981000,-0.47600346,-0.84798246,0.40053330,-0.04661900
8.92000000,0.26492752,0.79314513,-0.21868876,-0.50020393,0.83922725,0.41629976,0.00301815,0.27901700,-0.77804236,0.22981000,-0.47600336,-0.84798944,0.40054408,-0.04661900
8.94000000,0.26517383,0.79295507,-0.21897695,-0.49972890,0.83932835,0.41603239,0.00405765,0.27901700,-0.77804533,0.22981000,-0.47600633,-0.84800134,0.40055300,-0.04661900
8.96000000,0.26542013,0.79276501,-0.21926513,-0.49925388,0.83942945,0.41576502,0.00509715,0.27901700,-0.77804831,0.22981000,-0.47600931,-0.84801323,0.40056192,-0.04661900
8.98000000,0.26566644,0.79257496,-0.21955332,-0.49877886,0.83953055,0.41549765,0.00613665,0.27901700,-0.77805128,0.22981000,-0.47601228,-0.84802512,0.40057084,-0.04661900
9.00000000,0.26586771,0.79239630,-0.21980751,-0.49844120,0.83963815,0.41522615,0.00693459,0.27901700,-0.77804750,0.22981000,-0.47601300,-0.84803025,0.40057525,-0.04661900
9.02000000,0.26605462,0.79222127,-0.22005086,-0.49814734,0.83974782,0.41495334,0.00765548,0.27901700,-0.77804155,0.22981000,-0.47601300,-0.84803322,0.40057822,-0.04661900
9.04000000,0.26624153,0.79204624,-0.22029422,-0.49785349,0.83985749,0.41468053,0.00837638,0.27901700,-0.77803561,0.22981000,-0.47601300,-0.84803619,0.40058119,-0.04661900
9.06000000,0.26642844,0.79187122,-0.22053757,-0.49755963,0.83996716,0.41440771,0.00909728,0.27901700,-0.77802967,0.22981000,-0.47601300,-0.84803916,0.40058416,-0.04661900
9.08000000,0.26655376,0.79165953,-0.22073209,-0.49731239,0.84007933,0.41409148,0.00969111,0.27901272,-0.77802800,0.22980786,-0.47601514,-0.84804000,0.40057858,-0.04661900
9.10000000,0.26665500,0.79143350,-0.22090751,-0.49708338,0.84019247,0.41375827,0.01023522,0.27900676,-0.77802800,0.22980488,-0.47601812,-0.84804000,0.40056965,-0.04661900
9.12000000,0.26675623,0.79120746,-0.22108292,-0.49685437,0.84030561,0.41342505,0.01077934,0.27900081,-0.77802800,0.22980191,-0.47602109,-0.84804000,0.40056072,-0.04661900
9.14000000,0.26685746,0.79098143,-0.22125834,-0.49662536,0.84041875,0.41309183,0.01132345,0.27899486,-0.77802800,0.22979893,-0.47602407,-0.84804000,0.40055178,-0.04661900
9.16000000,0.26695257,0.79077751,-0.22140125,-0.49638162,0.84052991,0.41279917,0.01180915,0.27899506,-0.77803006,0.22980006,-0.47602500,-0.84804000,0.40054283,-0.04662106
9.18000000,0.26704492,0.79058361,-0.22152944,-0.49613121,0.84064018,0.41252486,0.01226840,0.27899804,-0.77803304,0.22980304,-0.47602500,-0.84804000,0.40053387,-0.04662404
9.20000000,0.26713727,0.79038970,-0.22165763,-0.49588080,0.84075045,0.41225055,0.01272765,0.27900103,-0.77803603,0.22980603,-0.47602500,-0.84804000,0.40052491,-0.04662703
9.22000000,0.26722962,0.79019580,-0.22178582,-0.49563039,0.84086072,0.41197625,0.01318691,0.27900402,-0.77803902,0.22980902,-0.47602500,-0.84804000,0.40051595,-0.04663002
9.24000000,0.26735995,0.79002204,-0.22192194,-0.49535995,0.84103699,0.41171397,0.01377600,0.27900500,-0.77803800,0.22981000,-0.47602500,-0.84803800,0.40051300,-0.04663100
9.26000000,0.26750890,0.78985817,-0.22206194,-0.49507970,0.84124563,0.41145759,0.01442876,0.27900500,-0.77803501,0.22981000,-0.47602500,-0.84803501,0.40051300,-0.04663100
9.28000000,0.26765785,0.78969429,-0.22220194,-0.49479945,0.84145426,0.41120121,0.01508152,0.27900500,-0.77803203,0.22981000,-0.47602500,-0.84803203,0.40051300,-0.04663100
9.30000000,0.26780681,0.78953042,-0.22234194,-0.49451920,0.84166289,0.41094483,0.01573427,0.27900500,-0.77802905,0.22981000,-0.47602500,-0.84802905,0.40051300,-0.04663100
9.32000000,0.26797327,0.78934903,-0.22248022,-0.49423124,0.84181730,0.41071551,0.01640264,0.27900694,-0.77802994,0.22981000,-0.47602306,-0.84802800,0.40051494,-0.04662906
9.34000000,0.26814919,0.78915818,-0.22261757,-0.49393913,0.84194246,0.41050078,0.01707942,0.27900993,-0.77803293,0.22981000,-0.47602007,-0.84802800,0.40051793,-0.04662607
9.36000000,0.26832510,0.78896734,-0.22275492,-0.49364702,0.84206761,0.41028605,0.01775621,0.27901291,-0.77803591,0.22981000,-0.47601709,-0.84802800,0.40052091,-0.04662309
9.38000000,0.26850102,0.78877650,-0.22289226,-0.49335491,0.84219277,0.41007132,0.01843300,0.27901590,-0.77803890,0.22981000,-0.47601410,-0.84802800,0.40052390,-0.04662010
9.40000000,0.26869569,0.78857443,-0.22304070,-0.49301585,0.84230110,0.40982859,0.01919611,0.27901700,-0.77804000,0.22981000,-0.47601488,-0.84802988,0.40052500,-0.04661900
9.42000000,0.26890135,0.78836578,-0.22319563,-0.49264929,0.84239958,0.40956947,0.02000980,0.27901700,-0.77804000,0.22981000,-0.47601787,-0.84803287,0.40052500,-0.04661900
9.44000000,0.26910701,0.78815714,-0.22335056,-0.49228273,0.84249806,0.40931034,0.02082349,0.27901700,-0.77804000,0.22981000,-0.47602085,-0.84803585,0.40052500,-0.04661900
9.46000000,0.26931267,0.78794850,-0.22350548,-0.49191618,0.84259653,0.40905121,0.02163717,0.27901700,-0.77804000,0.22981000,-0.47602383,-0.84803883,0.40052500,-0.04661900
9.48000000,0.26950574,0.78772149,-0.22365871,-0.49159107,0.84269676,0.40882634,0.02234602,0.27901882,-0.77804000,0.22981000,-0.47602136,-0.84803818,0.40052500,-0.04661900
9.50000000,0.26969074,0.78748270,-0.22381084,-0.49129253,0.84279810,0.40862341,0.02298767,0.27902181,-0.77804000,0.22981000,-0.47601538,-0.84803519,0.40052500,-0.04661900
9.52000000,0.26987574,0.78724392,-0.22396298,-0.49099399,0.84289944,0.40842048,0.02362932,0.27902480,-0.77804000,0.22981000,-0.47600941,-0.84803220,0.40052500,-0.04661900
9.54000000,0.27006074,0.78700514,-0.22411511,-0.49069545,0.84300078,0.40821755,0.02427098,0.27902778,-0.77804000,0.22981000,-0.47600343,-0.84802922,0.40052500,-0.04661900
9.56000000,0.27025798,0.78675785,-0.22424942,-0.49039553,0.84307917,0.40800948,0.02490841,0.27902900,-0.77804177,0.22981000,-0.47600277,-0.84802623,0.40052323,-0.04661900
9.58000000,0.27046361,0.78650473,-0.22437151,-0.49009467,0.84314183,0.40779788,0.02554295,0.27902900,-0.77804475,0.22981000,-0.47600575,-0.84802325,0.40052025,-0.04661900
9.60000000,0.27066924,0.78625161,-0.22449359,-0.48979381,0.84320449,0.40758629,0.02617749,0.27902900,-0.77804774,0.22981000,-0.47600874,-0.84802026,0.40051726,-0.04661900
9.62000000,0.27087487,0.78599849,-0.22461567,-0.48949295,0.84326714,0.40737469,0.02681204,0.27902900,-0.77805072,0.22981000,-0.47601172,-0.84801728,0.40051428,-0.04661900
9.64000000,0.27107365,0.78577253,-0.22474641,-0.48920392,0.84334002,0.40716312,0.02738200,0.27902730,-0.77805030,0.22981000,-0.47601300,-0.84801600,0.40051641,-0.04661900
9.66000000,0.27126730,0.78556695,-0.22488362,-0.48892377,0.84342056,0.40695158,0.02790353,0.27902431,-0.77804731,0.22981000,-0.47601300,-0.84801600,0.40052237,-0.04661900
9.68000000,0.27146094,0.78536138,-0.22502084,-0.48864361,0.84350110,0.40674004,0.02842506,0.27902133,-0.77804433,0.22981000,-0.47601300,-0.84801600,0.40052834,-0.04661900
9.70000000,0.27165459,0.78515580,-0.22515806,-0.48836346,0.84358164,0.40652849,0.02894658,0.27901835,-0.77804135,0.22981000,-0.47601300,-0.84801600,0.40053431,-0.04661900
9.72000000,0.27182841,0.78496842,-0.22528518,-0.48807397,0.84366522,0.40631883,0.02942001,0.27901863,-0.77803837,0.22981000,-0.47601627,-0.84801600,0.40053373,-0.04661900
9.74000000,0.27198593,0.78479603,-0.22540400,-0.48777681,0.84375129,0.40611071,0.02985385,0.27902161,-0.77803539,0.22981000,-0.47602222,-0.84801600,0.40052778,-0.04661900
9.76000000,0.27214344,0.78462363,-0.22552282,-0.48747964,0.84383737,0.40590259,0.03028770,0.27902459,-0.77803241,0.22981000,-0.47602817,-0.84801600,0.40052183,-0.04661900
9.78000000,0.27230095,0.78445123,-0.22564164,-0.48718247,0.84392344,0.40569448,0.03072154,0.27902756,-0.77802944,0.22981000,-0.47603413,-0.84801600,0.40051587,-0.04661900
9.80000000,0.27243242,0.78428795,-0.22576815,-0.48689595,0.84399425,0.40550945,0.03108328,0.27902746,-0.77802954,0.22981141,-0.47603546,-0.84801600,0.40051916,-0.04661900
9.82000000,0.27253958,0.78413316,-0.22590185,-0.48661937,0.84405081,0.40534599,0.03137772,0.27902448,-0.77803252,0.22981414,-0.47603248,-0.84801600,0.40053106,-0.04661900
9.84000000,0.27264674,0.78397838,-0.22603555,-0.48634280,0.84410736,0.40518252,0.03167216,0.27902151,-0.77803549,0.22981687,-0.47602951,-0.84801600,0.40054297,-0.04661900
9.86000000,0.27275390,0.78382359,-0.22616925,-0.48606622,0.84416392,0.40501905,0.03196660,0.27901853,-0.77803847,0.22981960,-0.47602653,-0.84801600,0.40055488,-0.04661900
9.88000000,0.27284642,0.78367770,-0.22629720,-0.48579863,0.84421755,0.40486726,0.03225204,0.27901844,-0.77803856,0.22982100,-0.47602500,-0.84801744,0.40056100,-0.04661611
9.90000000,0.27292345,0.78354124,-0.22641905,-0.48554055,0.84426807,0.40472782,0.03252794,0.27902142,-0.77803558,0.22982100,-0.47602500,-0.84802042,0.40056100,-0.04661017
9.92000000,0.27300047,0.78340477,-0.22654091,-0.48528248,0.84431860,0.40458838,0.03280385,0.27902439,-0.77803261,0.22982100,-0.47602500,-0.84802339,0.40056100,-0.04660422
9.94000000,0.27307750,0.78326830,-0.22666276,-0.48502441,0.84436912,0.40444894,0.03307975,0.27902736,-0.77802964,0.22982100,-0.47602500,-0.84802636,0.40056100,-0.04659828
9.96000000,0.27314793,0.78313725,-0.22676314,-0.48477970,0.84443413,0.40432678,0.03334627,0.27902900,-0.77802933,0.22981978,-0.47602500,-0.84802933,0.40056100,-0.04659766
9.98000000,0.27321024,0.78301287,-0.22683708,-0.48455146,0.84451697,0.40422589,0.03360121,0.27902900,-0.77803230,0.22981706,-0.47602500,-0.84803230,0.40056100,-0.04660359
10.00000000,0.27327256,0.78288849,-0.22691101,-0.48432322,0.84459981,0.40412500,0.03385616,0.27902900,-0.77803526,0.22981434,-0.47602500,-0.84803526,0.40056100,-0.04660953
10.02000000,0.27333487,0.78276411,-0.22698495,-0.48409499,0.84468264,0.40402411,0.03411110,0.27902900,-0.77803823,0.22981162,-0.47602500,-0.84803823,0.40056100,-0.04661546
10.04000000,0.27340097,0.78265258,-0.22705676,-0.48385771,0.84475493,0.40393272,0.03438953,0.27902900,-0.77803879,0.22981000,-0.47602379,-0.84803759,0.40055617,-0.04661900
10.06000000,0.27347263,0.78256001,-0.22712544,-0.48360713,0.84481167,0.40385533,0.03470258,0.27902900,-0.77803581,0.22981000,-0.47602081,-0.84803161,0.40054423,-0.04661900
10.08000000,0.27354430,0.78246744,-0.22719412,-0.48335654,0.84486841,0.40377794,0.03501562,0.27902900,-0.77803282,0.22981000,-0.47601782,-0.84802564,0.40053228,-0.04661900
10.10000000,0.27361597,0.78237487,-0.22726280,-0.48310596,0.84492514,0.40370055,0.03532867,0.27902900,-0.77802983,0.22981000,-0.47601483,-0.84801967,0.40052034,-0.04661900
10.12000000,0.27368859,0.78229515,-0.22732221,-0.48286604,0.84497377,0.40363005,0.03563909,0.27903015,-0.77802915,0.22981000,-0.47601300,-0.84801829,0.40051415,-0.04662015
10.14000000,0.27376273,0.78223588,-0.22736684,-0.48264312,0.84500948,0.40357054,0.03594532,0.27903312,-0.77803212,0.22981000,-0.47601300,-0.84802425,0.40051712,-0.04662312
10.16000000,0.27383687,0.78217662,-0.22741148,-0.48242020,0.84504518,0.40351103,0.03625156,0.27903610,-0.77803510,0.22981000,-0.47601300,-0.84803020,0.40052010,-0.04662610
10.18000000,0.27391102,0.78211736,-0.22745611,-0.48219728,0.84508089,0.40345152,0.03655780,0.27903907,-0.77803807,0.22981000,-0.47601300,-0.84803615,0.40052307,-0.04662907
10.20000000,0.27398939,0.78206223,-0.22750063,-0.48197143,0.84511029,0.40339099,0.03684176,0.27903890,-0.77804000,0.22981096,-0.47601300,-0.84804000,0.40052605,-0.04662995
10.22000000,0.27407554,0.78201470,-0.22754494,-0.48174022,0.84512811,0.40332861,0.03708486,0.27903296,-0.77804000,0.22981368,-0.47601300,-0.84804000,0.40052902,-0.04662698
10.24000000,0.27416169,0.78196717,-0.22758926,-0.48150901,0.84514594,0.40326623,0.03732795,0.27902702,-0.77804000,0.22981641,-0.47601300,-0.84804000,0.40053199,-0.04662401
10.26000000,0.27424783,0.78191964,-0.22763357,-0.48127780,0.84516376,0.40320384,0.03757104,0.27902108,-0.77804000,0.22981913,-0.47601300,-0.84804000,0.40053496,-0.04662104
10.28000000,0.27433951,0.78186745,-0.22767610,-0.48105857,0.84518523,0.40314804,0.03780123,0.27901607,-0.77804093,0.22982015,-0.47601207,-0.84804000,0.40053514,-0.04661900
10.30000000,0.27444329,0.78180503,-0.22771474,-0.48086561,0.84521471,0.40310668,0.03800310,0.27901310,-0.77804390,0.22981742,-0.47600910,-0.84804000,0.40052919,-0.04661900
10.32000000,0.27454708,0.78174261,-0.22775338,-0.48067266,0.84524418,0.40306531,0.03820497,0.27901012,-0.77804688,0.22981470,-0.47600612,-0.84804000,0.40052325,-0.04661900
10.34000000,0.27465086,0.78168019,-0.22779202,-0.48047970,0.84527366,0.40302395,0.03840684,0.27900715,-0.77804985,0.22981197,-0.47600315,-0.84804000,0.40051730,-0.04661900
10.36000000,0.27475390,0.78162105,-0.22783969,-0.48030390,0.84530813,0.40297923,0.03860955,0.27900664,-0.77805036,0.22981000,-0.47600100,-0.84803836,0.40051382,-0.04661982
10.38000000,0.27485498,0.78157051,-0.22791104,-0.48017309,0.84535570,0.40292572,0.03881443,0.27901259,-0.77804441,0.22981000,-0.47600100,-0.84803241,0.40051679,-0.04662279
10.40000000,0.27495606,0.78151997,-0.22798239,-0.48004228,0.84540326,0.40287220,0.03901932,0.27901853,-0.77803847,0.22981000,-0.47600100,-0.84802647,0.40051977,-0.04662577
10.42000000,0.27505714,0.78146943,-0.22805374,-0.47991147,0.84545083,0.40281869,0.03922421,0.27902448,-0.77803252,0.22981000,-0.47600100,-0.84802052,0.40052274,-0.04662874
10.44000000,0.27514761,0.78141889,-0.22812727,-0.47978700,0.84549917,0.40276368,0.03942649,0.27902828,-0.77802800,0.22981000,-0.47600172,-0.84801743,0.40052428,-0.04663100
10.46000000,0.27520439,0.78136833,-0.22820772,-0.47968264,0.84554998,0.40270391,0.03962050,0.27902530,-0.77802800,0.22981000,-0.47600470,-0.84802341,0.40052130,-0.04663100
10.48000000,0.27526117,0.78131777,-0.22828816,-0.47957829,0.84560079,0.40264413,0.03981451,0.27902231,-0.77802800,0.22981000,-0.47600769,-0.84802939,0.40051831,-0.04663100
10.50000000,0.27531796,0.78126721,-0.22836861,-0.47947394,0.84565159,0.40258436,0.04000852,0.27901932,-0.77802800,0.22981000,-0.47601068,-0.84803536,0.40051532,-0.04663100
10.52000000,0.27537267,0.78121326,-0.22843971,-0.47937893,0.84569703,0.40252728,0.04020719,0.27901901,-0.77802800,0.22981000,-0.47601233,-0.84804000,0.40051300,-0.04663033
10.54000000,0.27542019,0.78114756,-0.22847853,-0.47931622,0.84572391,0.40247950,0.04042194,0.27902797,-0.77802800,0.22981000,-0.47600934,-0.84804000,0.40051300,-0.04662734
10.56000000,0.27546772,0.78108187,-0.22851735,-0.47925351,0.84575078,0.40243172,0.04063669,0.27903693,-0.77802800,0.22981000,-0.47600636,-0.84804000,0.40051300,-0.04662436
10.58000000,0.27551525,0.78101617,-0.22855617,-0.47919080,0.84577766,0.40238395,0.04085144,0.27904589,-0.77802800,0.22981000,-0.47600337,-0.84804000,0.40051300,-0.04662137
10.60000000,0.27556151,0.78095792,-0.22859430,-0.47913193,0.84580686,0.40233632,0.04106999,0.27905178,-0.77802800,0.22981056,-0.47600161,-0.84804000,0.40051361,-0.04661900
10.62000000,0.27560289,0.78092837,-0.22862976,-0.47908785,0.84584503,0.40228929,0.04130320,0.27904587,-0.77802800,0.22981327,-0.47600456,-0.84804000,0.40051656,-0.04661900
10.64000000,0.27564426,0.78089882,-0.22866522,-0.47904377,0.84588319,0.40224225,0.04153640,0.27903996,-0.77802800,0.22981598,-0.47600752,-0.84804000,0.40051952,-0.04661900
10.66000000,0.27568563,0.78086927,-0.22870068,-0.47899969,0.84592136,0.40219521,0.04176961,0.27903405,-0.77802800,0.22981868,-0.47601047,-0.84804000,0.40052247,-0.04661900
10.68000000,0.27572703,0.78084142,-0.22873272,-0.47895683,0.84595658,0.40215069,0.04199868,0.27902900,-0.77802843,0.22982061,-0.47601257,-0.84803957,0.40052500,-0.04661943
10.70000000,0.27576860,0.78082360,-0.22874460,-0.47892120,0.84597440,0.40212100,0.04220334,0.27902900,-0.77803140,0.22981788,-0.47600960,-0.84803660,0.40052500,-0.04662240
10.72000000,0.27581018,0.78080578,-0.22875648,-0.47888556,0.84599222,0.40209130,0.04240800,0.27902900,-0.77803437,0.22981516,-0.47600663,-0.84803363,0.40052500,-0.04662537
10.74000000,0.27585176,0.78078796,-0.22876836,-0.47884992,0.84601004,0.40206160,0.04261266,0.27902900,-0.77803734,0.22981244,-0.47600366,-0.84803066,0.40052500,-0.04662834
10.76000000,0.27589363,0.78076984,-0.22877993,-0.47881615,0.84602940,0.40203160,0.04281296,0.27902838,-0.77804000,0.22981000,-0.47600162,-0.84802800,0.40052531,-0.04663069
10.78000000,0.27593810,0.78074909,-0.22878882,-0.47879836,0.84606201,0.40199899,0.04297576,0.27902245,-0.77804000,0.22981000,-0.47600755,-0.84802800,0.40052827,-0.04662773
10.80000000,0.27598257,0.78072834,-0.22879771,-0.47878057,0.84609462,0.40196638,0.04313856,0.27901652,-0.77804000,0.22981000,-0.47601348,-0.84802800,0.40053124,-0.04662476
10.82000000,0.27602703,0.78070758,-0.22880661,-0.47876279,0.84612722,0.40193378,0.04330135,0.27901060,-0.77804000,0.22981000,-0.47601940,-0.84802800,0.40053420,-0.04662180
10.84000000,0.27607001,0.78068750,-0.22881601,-0.47874449,0.84615867,0.40190166,0.04346170,0.27900550,-0.77804000,0.22981000,-0.47602483,-0.84802800,0.40053666,-0.04661900
10.86000000,0.27608793,0.78067854,-0.22883393,-0.47871761,0.84617062,0.40187777,0.04358091,0.27901446,-0.77804000,0.22981000,-0.47602185,-0.84802800,0.40053069,-0.04661900
10.88000000,0.27610584,0.78066958,-0.22885184,-0.47869073,0.84618256,0.40185387,0.04370011,0.27902342,-0.77804000,0.22981000,-0.47601886,-0.84802800,0.40052472,-0.04661900
10.90000000,0.27612376,0.78066062,-0.22886976,-0.47866386,0.84619451,0.40182998,0.04381932,0.27903238,-0.77804000,0.22981000,-0.47601587,-0.84802800,0.40051875,-0.04661900
10.92000000,0.27614178,0.78065166,-0.22888723,-0.47863709,0.84620645,0.40180621,0.04393604,0.27904077,-0.77804000,0.22981000,-0.47601300,-0.84802811,0.40051323,-0.04661900
10.94000000,0.27616243,0.78064270,-0.22889320,-0.47861321,0.84621839,0.40178531,0.04398977,0.27903480,-0.77804000,0.22981000,-0.47601300,-0.84803110,0.40051920,-0.04661900
10.96000000,0.27618308,0.78063375,-0.22889917,-0.47858933,0.84623033,0.40176441,0.04404350,0.27902883,-0.77804000,0.22981000,-0.47601300,-0.84803408,0.40052517,-0.04661900
10.98000000,0.27620372,0.78062479,-0.22890514,-0.47856545,0.84624227,0.40174352,0.04409724,0.27902286,-0.77804000,0.22981000,-0.47601300,-0.84803707,0.40053114,-0.04661900
11.00000000,0.27622443,0.78061574,-0.22891127,-0.47854162,0.84625416,0.40172279,0.04415086,0.27901695,-0.77804000,0.22981005,-0.47601300,-0.84803995,0.40053695,-0.04661900
11.02000000,0.27624829,0.78060107,-0.22892618,-0.47852074,0.84626311,0.40171085,0.04419858,0.27901396,-0.77804000,0.22981278,-0.47601300,-0.84803696,0.40053396,-0.04661900
11.04000000,0.27627216,0.78058640,-0.22894110,-0.47849986,0.84627206,0.40169892,0.04424631,0.27901098,-0.77804000,0.22981552,-0.47601300,-0.84803398,0.40053098,-0.04661900
11.06000000,0.27629602,0.78057174,-0.22895601,-0.47847898,0.84628101,0.40168699,0.04429404,0.27900800,-0.77804000,0.22981825,-0.47601300,-0.84803100,0.40052800,-0.04661900
11.08000000,0.27631988,0.78055707,-0.22897093,-0.47845810,0.84628996,0.40167506,0.04434176,0.27900501,-0.77804000,0.22982099,-0.47601300,-0.84802801,0.40052501,-0.04661900
11.10000000,0.27634961,0.78053331,-0.22898877,-0.47844023,0.84630777,0.40166019,0.04438913,0.27900500,-0.77804296,0.22981829,-0.47601300,-0.84802504,0.40052204,-0.04661900
11.12000000,0.27637937,0.78050950,-0.22900662,-0.47842238,0.84632562,0.40164531,0.04443650,0.27900500,-0.77804594,0.22981556,-0.47601300,-0.84802206,0.40051906,-0.04661900
11.14000000,0.27640913,0.78048569,-0.22902448,-0.47840452,0.84634348,0.40163043,0.04448387,0.27900500,-0.77804891,0.22981283,-0.47601300,-0.84801909,0.40051609,-0.04661900
11.16000000,0.27643889,0.78046189,-0.22904234,-0.47838666,0.84636134,0.40161555,0.04453124,0.27900500,-0.77805189,0.22981010,-0.47601300,-0.84801611,0.40051311,-0.04661900
11.18000000,0.27644862,0.78045525,-0.22905713,-0.47837738,0.84637924,0.40160351,0.04456173,0.27900787,-0.77804913,0.22981000,-0.47601300,-0.84801887,0.40051875,-0.04662187
11.20000000,0.27645757,0.78044928,-0.22907180,-0.47836843,0.84639715,0.40159157,0.04459158,0.27901086,-0.77804614,0.22981000,-0.47601300,-0.84802186,0.40052472,-0.04662486
11.22000000,0.27646653,0.78044332,-0.22908647,-0.47835947,0.84641505,0.40157963,0.04462142,0.27901384,-0.77804316,0.22981000,-0.47601300,-0.84802484,0.40053068,-0.04662784
11.24000000,0.27647548,0.78043735,-0.22910115,-0.47835052,0.84643296,0.40156769,0.04465126,0.27901683,-0.77804017,0.22981000,-0.47601300,-0.84802783,0.40053665,-0.04663083
11.26000000,0.27648443,0.78042857,-0.22911324,-0.47834157,0.84642838,0.40155576,0.04466705,0.27901700,-0.77804000,0.22981000,-0.47601300,-0.84802800,0.40053419,-0.04663100
11.28000000,0.27649338,0.78041962,-0.22912518,-0.47833262,0.84642241,0.40154382,0.04468197,0.27901700,-0.77804000,0.22981000,-0.47601300,-0.84802800,0.40053121,-0.04663100
11.30000000,0.27650234,0.78041066,-0.22913712,-0.47832366,0.84641644,0.40153188,0.04469690,0.27901700,-0.77804000,0.22981000,-0.47601300,-0.84802800,0.40052822,-0.04663100
11.32000000,0.27651129,0.78040171,-0.22914905,-0.47831471,0.84641047,0.40151995,0.04471182,0.27901700,-0.77804000,0.22981000,-0.47601300,-0.84802800,0.40052524,-0.04663100
11.34000000,0.27652017,0.78040372,-0.22915817,-0.47831128,0.84641545,0.40151105,0.04472662,0.27901428,-0.77803455,0.22980455,-0.47601300,-0.84802255,0.40052500,-0.04662828
11.36000000,0.27652905,0.78040668,-0.22916705,-0.47830832,0.84642137,0.40150242,0.04474142,0.27901132,-0.77802863,0.22979863,-0.47601300,-0.84801663,0.40052500,-0.04662532
11.38000000,0.27653793,0.78040964,-0.22917593,-0.47830536,0.84642729,0.40149379,0.04475622,0.27900836,-0.77802271,0.22979271,-0.47601300,-0.84801071,0.40052500,-0.04662236
11.40000000,0.27654681,0.78041260,-0.22918481,-0.47830240,0.84643321,0.40148516,0.04477101,0.27900540,-0.77801679,0.22978679,-0.47601300,-0.84800479,0.40052500,-0.04661940
11.42000000,0.27655059,0.78040007,-0.22919117,-0.47829424,0.84644176,0.40147624,0.04477817,0.27900759,-0.77802376,0.22979117,-0.47601300,-0.84800400,0.40052500,-0.04661900
11.44000000,0.27655357,0.78038514,-0.22919715,-0.47828528,0.84645072,0.40146728,0.04478415,0.27901057,-0.77803272,0.22979715,-0.47601300,-0.84800400,0.40052500,-0.04661900
11.46000000,0.27655656,0.78037020,-0.22920312,-0.47827632,0.84645968,0.40145832,0.04479012,0.27901356,-0.77804168,0.22980312,-0.47601300,-0.84800400,0.40052500,-0.04661900
11.48000000,0.27655955,0.78035527,-0.22920909,-0.47826736,0.84646864,0.40144936,0.04479609,0.27901655,-0.77805064,0.22980909,-0.47601300,-0.84800400,0.40052500,-0.04661900
11.50000000,0.27656000,0.78033782,-0.22920747,-0.47826094,0.84646494,0.40144041,0.04480965,0.27901700,-0.77804947,0.22980747,-0.47601553,-0.84800400,0.40052500,-0.04661394
11.52000000,0.27656000,0.78031992,-0.22920449,-0.47825497,0.84645897,0.40143146,0.04482457,0.27901700,-0.77804649,0.22980449,-0.47601851,-0.84800400,0.40052500,-0.04660797
11.54000000,0.27656000,0.78030202,-0.22920150,-0.47824901,0.84645301,0.40142251,0.04483948,0.27901700,-0.77804350,0.22980150,-0.47602150,-0.84800400,0.40052500,-0.04660201
11.56000000,0.27656000,0.78028412,-0.22919852,-0.47824304,0.84644704,0.40141356,0.04485440,0.27901700,-0.77804052,0.22979852,-0.47602448,-0.84800400,0.40052500,-0.04659604
