gracetata/LocomotionHEC/legged_lab/Reference Data/ArmHack/StandPerturb/VisualizationSuite/synthesized_trajectory_01_seed20260714_50hz.csv
time_s,left_shoulder_pitch_joint,left_shoulder_roll_joint,left_shoulder_yaw_joint,left_elbow_joint,left_wrist_roll_joint,left_wrist_pitch_joint,left_wrist_yaw_joint,right_shoulder_pitch_joint,right_shoulder_roll_joint,right_shoulder_yaw_joint,right_elbow_joint,right_wrist_roll_joint,right_wrist_pitch_joint,right_wrist_yaw_joint
0.00000000,-0.29099097,0.58424852,-0.40452243,0.39606700,0.55353504,0.07567961,-0.21113128,0.26772936,-0.57838321,0.20665091,-0.01007302,-0.52014947,0.23263491,-0.04254597
0.02000000,-0.29099097,0.58424852,-0.40452243,0.39606700,0.55353504,0.07567961,-0.21113128,0.26772936,-0.57838321,0.20665091,-0.01007302,-0.52014947,0.23263491,-0.04254597
0.04000000,-0.29099097,0.58424852,-0.40452243,0.39606700,0.55353504,0.07567961,-0.21113128,0.26772936,-0.57838321,0.20665091,-0.01007302,-0.52014947,0.23263491,-0.04254597
0.06000000,-0.29099097,0.58424852,-0.40452243,0.39606700,0.55353504,0.07567961,-0.21113128,0.26772936,-0.57838321,0.20665091,-0.01007302,-0.52014947,0.23263491,-0.04254597
0.08000000,-0.29099097,0.58424852,-0.40452243,0.39606700,0.55353504,0.07567961,-0.21113128,0.26772936,-0.57838321,0.20665091,-0.01007302,-0.52014947,0.23263491,-0.04254597
0.10000000,-0.29099097,0.58424852,-0.40452243,0.39606700,0.55353504,0.07567961,-0.21113128,0.26772936,-0.57838321,0.20665091,-0.01007302,-0.52014947,0.23263491,-0.04254597
0.12000000,-0.29099097,0.58424852,-0.40452243,0.39606700,0.55353504,0.07567961,-0.21113128,0.26772936,-0.57838321,0.20665091,-0.01007302,-0.52014947,0.23263491,-0.04254597
0.14000000,-0.29099097,0.58424852,-0.40452243,0.39606700,0.55353504,0.07567961,-0.21113128,0.26772936,-0.57838321,0.20665091,-0.01007302,-0.52014947,0.23263491,-0.04254597
0.16000000,-0.29099097,0.58424852,-0.40452243,0.39606700,0.55353504,0.07567961,-0.21113128,0.26772936,-0.57838321,0.20665091,-0.01007302,-0.52014947,0.23263491,-0.04254597
0.18000000,-0.29099097,0.58424852,-0.40452243,0.39606700,0.55353504,0.07567961,-0.21113128,0.26772936,-0.57838321,0.20665091,-0.01007302,-0.52014947,0.23263491,-0.04254597
0.20000000,-0.29099097,0.58424852,-0.40452243,0.39606700,0.55353504,0.07567961,-0.21113128,0.26772936,-0.57838321,0.20665091,-0.01007302,-0.52014947,0.23263491,-0.04254597
0.22000000,-0.29099097,0.58424852,-0.40452243,0.39606700,0.55353504,0.07567961,-0.21113128,0.26772936,-0.57838321,0.20665091,-0.01007302,-0.52014947,0.23263491,-0.04254597
0.24000000,-0.29099097,0.58424852,-0.40452243,0.39606700,0.55353504,0.07567961,-0.21113128,0.26772936,-0.57838321,0.20665091,-0.01007302,-0.52014947,0.23263491,-0.04254597
0.26000000,-0.29099097,0.58424852,-0.40452243,0.39606700,0.55353504,0.07567961,-0.21113128,0.26772936,-0.57838321,0.20665091,-0.01007302,-0.52014947,0.23263491,-0.04254597
0.28000000,-0.29099097,0.58424852,-0.40452243,0.39606700,0.55353504,0.07567961,-0.21113128,0.26772936,-0.57838321,0.20665091,-0.01007302,-0.52014947,0.23263491,-0.04254597
0.30000000,-0.29099097,0.58424852,-0.40452243,0.39606700,0.55353504,0.07567961,-0.21113128,0.26772936,-0.57838321,0.20665091,-0.01007302,-0.52014947,0.23263491,-0.04254597
0.32000000,-0.29099097,0.58424852,-0.40452243,0.39606700,0.55353504,0.07567961,-0.21113128,0.26772936,-0.57838321,0.20665091,-0.01007302,-0.52014947,0.23263491,-0.04254597
0.34000000,-0.29099097,0.58424852,-0.40452243,0.39606700,0.55353504,0.07567961,-0.21113128,0.26772936,-0.57838321,0.20665091,-0.01007302,-0.52014947,0.23263491,-0.04254597
0.36000000,-0.29099097,0.58424852,-0.40452243,0.39606700,0.55353504,0.07567961,-0.21113128,0.26772936,-0.57838321,0.20665091,-0.01007302,-0.52014947,0.23263491,-0.04254597
0.38000000,-0.29099097,0.58424852,-0.40452243,0.39606700,0.55353504,0.07567961,-0.21113128,0.26772936,-0.57838321,0.20665091,-0.01007302,-0.52014947,0.23263491,-0.04254597
0.40000000,-0.29099097,0.58424852,-0.40452243,0.39606700,0.55353504,0.07567961,-0.21113128,0.26772936,-0.57838321,0.20665091,-0.01007302,-0.52014947,0.23263491,-0.04254597
0.42000000,-0.29099097,0.58424852,-0.40452243,0.39606700,0.55353504,0.07567961,-0.21113128,0.26772936,-0.57838321,0.20665091,-0.01007302,-0.52014947,0.23263491,-0.04254597
0.44000000,-0.29099097,0.58424852,-0.40452243,0.39606700,0.55353504,0.07567961,-0.21113128,0.26772936,-0.57838321,0.20665091,-0.01007302,-0.52014947,0.23263491,-0.04254597
0.46000000,-0.29099097,0.58424852,-0.40452243,0.39606700,0.55353504,0.07567961,-0.21113128,0.26772936,-0.57838321,0.20665091,-0.01007302,-0.52014947,0.23263491,-0.04254597
0.48000000,-0.29099097,0.58424852,-0.40452243,0.39606700,0.55353504,0.07567961,-0.21113128,0.26772936,-0.57838321,0.20665091,-0.01007302,-0.52014947,0.23263491,-0.04254597
0.50000000,-0.29099097,0.58424852,-0.40452243,0.39606700,0.55353504,0.07567961,-0.21113128,0.26772936,-0.57838321,0.20665091,-0.01007302,-0.52014947,0.23263491,-0.04254597
0.52000000,-0.29099097,0.58424852,-0.40452243,0.39606700,0.55353504,0.07567961,-0.21113128,0.26772936,-0.57838321,0.20665091,-0.01007302,-0.52014947,0.23263491,-0.04254597
0.54000000,-0.29099097,0.58424852,-0.40452243,0.39606700,0.55353504,0.07567961,-0.21113128,0.26772936,-0.57838321,0.20665091,-0.01007302,-0.52014947,0.23263491,-0.04254597
0.56000000,-0.29099097,0.58424852,-0.40452243,0.39606700,0.55353504,0.07567961,-0.21113128,0.26772936,-0.57838321,0.20665091,-0.01007302,-0.52014947,0.23263491,-0.04254597
0.58000000,-0.29099097,0.58424852,-0.40452243,0.39606700,0.55353504,0.07567961,-0.21113128,0.26772936,-0.57838321,0.20665091,-0.01007302,-0.52014947,0.23263491,-0.04254597
0.60000000,-0.29099097,0.58424852,-0.40452243,0.39606700,0.55353504,0.07567961,-0.21113128,0.26772936,-0.57838321,0.20665091,-0.01007302,-0.52014947,0.23263491,-0.04254597
0.62000000,-0.29099097,0.58424852,-0.40452243,0.39606700,0.55353504,0.07567961,-0.21113128,0.26772936,-0.57838321,0.20665091,-0.01007302,-0.52014947,0.23263491,-0.04254597
0.64000000,-0.29099097,0.58424852,-0.40452243,0.39606700,0.55353504,0.07567961,-0.21113128,0.26772936,-0.57838321,0.20665091,-0.01007302,-0.52014947,0.23263491,-0.04254597
0.66000000,-0.29099097,0.58424852,-0.40452243,0.39606700,0.55353504,0.07567961,-0.21113128,0.26772936,-0.57838321,0.20665091,-0.01007302,-0.52014947,0.23263491,-0.04254597
0.68000000,-0.29099097,0.58424852,-0.40452243,0.39606700,0.55353504,0.07567961,-0.21113128,0.26772936,-0.57838321,0.20665091,-0.01007302,-0.52014947,0.23263491,-0.04254597
0.70000000,-0.29099097,0.58424852,-0.40452243,0.39606700,0.55353504,0.07567961,-0.21113128,0.26772936,-0.57838321,0.20665091,-0.01007302,-0.52014947,0.23263491,-0.04254597
0.72000000,-0.29099097,0.58424852,-0.40452243,0.39606700,0.55353504,0.07567961,-0.21113128,0.26772936,-0.57838321,0.20665091,-0.01007302,-0.52014947,0.23263491,-0.04254597
0.74000000,-0.29099097,0.58424852,-0.40452243,0.39606700,0.55353504,0.07567961,-0.21113128,0.26772936,-0.57838321,0.20665091,-0.01007302,-0.52014947,0.23263491,-0.04254597
0.76000000,-0.29099097,0.58424852,-0.40452243,0.39606700,0.55353504,0.07567961,-0.21113128,0.26772936,-0.57838321,0.20665091,-0.01007302,-0.52014947,0.23263491,-0.04254597
0.78000000,-0.29099097,0.58424852,-0.40452243,0.39606700,0.55353504,0.07567961,-0.21113128,0.26772936,-0.57838321,0.20665091,-0.01007302,-0.52014947,0.23263491,-0.04254597
0.80000000,-0.29099097,0.58424852,-0.40452243,0.39606700,0.55353504,0.07567961,-0.21113128,0.26772936,-0.57838321,0.20665091,-0.01007302,-0.52014947,0.23263491,-0.04254597
0.82000000,-0.29099097,0.58424852,-0.40452243,0.39606700,0.55353504,0.07567961,-0.21113128,0.26772936,-0.57838321,0.20665091,-0.01007302,-0.52014947,0.23263491,-0.04254597
0.84000000,-0.29099097,0.58424852,-0.40452243,0.39606700,0.55353504,0.07567961,-0.21113128,0.26772936,-0.57838321,0.20665091,-0.01007302,-0.52014947,0.23263491,-0.04254597
0.86000000,-0.29099097,0.58424852,-0.40452243,0.39606700,0.55353504,0.07567961,-0.21113128,0.26772936,-0.57838321,0.20665091,-0.01007302,-0.52014947,0.23263491,-0.04254597
0.88000000,-0.29099097,0.58424852,-0.40452243,0.39606700,0.55353504,0.07567961,-0.21113128,0.26772936,-0.57838321,0.20665091,-0.01007302,-0.52014947,0.23263491,-0.04254597
0.90000000,-0.29099097,0.58424852,-0.40452243,0.39606700,0.55353504,0.07567961,-0.21113128,0.26772936,-0.57838321,0.20665091,-0.01007302,-0.52014947,0.23263491,-0.04254597
0.92000000,-0.29099097,0.58424852,-0.40452243,0.39606700,0.55353504,0.07567961,-0.21113128,0.26772936,-0.57838321,0.20665091,-0.01007302,-0.52014947,0.23263491,-0.04254597
0.94000000,-0.29099097,0.58424852,-0.40452243,0.39606700,0.55353504,0.07567961,-0.21113128,0.26772936,-0.57838321,0.20665091,-0.01007302,-0.52014947,0.23263491,-0.04254597
0.96000000,-0.29099097,0.58424852,-0.40452243,0.39606700,0.55353504,0.07567961,-0.21113128,0.26772936,-0.57838321,0.20665091,-0.01007302,-0.52014947,0.23263491,-0.04254597
0.98000000,-0.29099097,0.58424852,-0.40452243,0.39606700,0.55353504,0.07567961,-0.21113128,0.26772936,-0.57838321,0.20665091,-0.01007302,-0.52014947,0.23263491,-0.04254597
1.00000000,-0.29099097,0.58424852,-0.40452243,0.39606700,0.55353504,0.07567961,-0.21113128,0.26772936,-0.57838321,0.20665091,-0.01007302,-0.52014947,0.23263491,-0.04254597
1.02000000,-0.29099097,0.58424852,-0.40452243,0.39606700,0.55353504,0.07567961,-0.21113128,0.26772936,-0.57838321,0.20665091,-0.01007302,-0.52014947,0.23263491,-0.04254597
1.04000000,-0.29099097,0.58424852,-0.40452243,0.39606700,0.55353504,0.07567961,-0.21113128,0.26772936,-0.57838321,0.20665091,-0.01007302,-0.52014947,0.23263491,-0.04254597
1.06000000,-0.29099097,0.58424852,-0.40452243,0.39606700,0.55353504,0.07567961,-0.21113128,0.26772936,-0.57838321,0.20665091,-0.01007302,-0.52014947,0.23263491,-0.04254597
1.08000000,-0.29099097,0.58424852,-0.40452243,0.39606700,0.55353504,0.07567961,-0.21113128,0.26772936,-0.57838321,0.20665091,-0.01007302,-0.52014947,0.23263491,-0.04254597
1.10000000,-0.29099097,0.58424852,-0.40452243,0.39606700,0.55353504,0.07567961,-0.21113128,0.26772936,-0.57838321,0.20665091,-0.01007302,-0.52014947,0.23263491,-0.04254597
1.12000000,-0.29099097,0.58424852,-0.40452243,0.39606700,0.55353504,0.07567961,-0.21113128,0.26772936,-0.57838321,0.20665091,-0.01007302,-0.52014947,0.23263491,-0.04254597
1.14000000,-0.29099097,0.58424852,-0.40452243,0.39606700,0.55353504,0.07567961,-0.21113128,0.26772936,-0.57838321,0.20665091,-0.01007302,-0.52014947,0.23263491,-0.04254597
1.16000000,-0.29099097,0.58424852,-0.40452243,0.39606700,0.55353504,0.07567961,-0.21113128,0.26772936,-0.57838321,0.20665091,-0.01007302,-0.52014947,0.23263491,-0.04254597
1.18000000,-0.29099097,0.58424852,-0.40452243,0.39606700,0.55353504,0.07567961,-0.21113128,0.26772936,-0.57838321,0.20665091,-0.01007302,-0.52014947,0.23263491,-0.04254597
1.20000000,-0.29099097,0.58424852,-0.40452243,0.39606700,0.55353504,0.07567961,-0.21113128,0.26772936,-0.57838321,0.20665091,-0.01007302,-0.52014947,0.23263491,-0.04254597
1.22000000,-0.29099097,0.58424852,-0.40452243,0.39606700,0.55353504,0.07567961,-0.21113128,0.26772936,-0.57838321,0.20665091,-0.01007302,-0.52014947,0.23263491,-0.04254597
1.24000000,-0.29099097,0.58424852,-0.40452243,0.39606700,0.55353504,0.07567961,-0.21113128,0.26772936,-0.57838321,0.20665091,-0.01007302,-0.52014947,0.23263491,-0.04254597
1.26000000,-0.29099097,0.58424852,-0.40452243,0.39606700,0.55353504,0.07567961,-0.21113128,0.26772936,-0.57838321,0.20665091,-0.01007302,-0.52014947,0.23263491,-0.04254597
1.28000000,-0.29099097,0.58424852,-0.40452243,0.39606700,0.55353504,0.07567961,-0.21113128,0.26772936,-0.57838321,0.20665091,-0.01007302,-0.52014947,0.23263491,-0.04254597
1.30000000,-0.29099097,0.58424852,-0.40452243,0.39606700,0.55353504,0.07567961,-0.21113128,0.26772936,-0.57838321,0.20665091,-0.01007302,-0.52014947,0.23263491,-0.04254597
1.32000000,-0.29099097,0.58424852,-0.40452243,0.39606700,0.55353504,0.07567961,-0.21113128,0.26772936,-0.57838321,0.20665091,-0.01007302,-0.52014947,0.23263491,-0.04254597
1.34000000,-0.29099097,0.58424852,-0.40452243,0.39606700,0.55353504,0.07567961,-0.21113128,0.26772936,-0.57838321,0.20665091,-0.01007302,-0.52014947,0.23263491,-0.04254597
1.36000000,-0.29099097,0.58424852,-0.40452243,0.39606700,0.55353504,0.07567961,-0.21113128,0.26772936,-0.57838321,0.20665091,-0.01007302,-0.52014947,0.23263491,-0.04254597
1.38000000,-0.29099097,0.58424852,-0.40452243,0.39606700,0.55353504,0.07567961,-0.21113128,0.26772936,-0.57838321,0.20665091,-0.01007302,-0.52014947,0.23263491,-0.04254597
1.40000000,-0.29099097,0.58424852,-0.40452243,0.39606700,0.55353504,0.07567961,-0.21113128,0.26772936,-0.57838321,0.20665091,-0.01007302,-0.52014947,0.23263491,-0.04254597
1.42000000,-0.29099097,0.58424852,-0.40452243,0.39606700,0.55353504,0.07567961,-0.21113128,0.26772936,-0.57838321,0.20665091,-0.01007302,-0.52014947,0.23263491,-0.04254597
1.44000000,-0.29099097,0.58424852,-0.40452243,0.39606700,0.55353504,0.07567961,-0.21113128,0.26772936,-0.57838321,0.20665091,-0.01007302,-0.52014947,0.23263491,-0.04254597
1.46000000,-0.29099097,0.58424852,-0.40452243,0.39606700,0.55353504,0.07567961,-0.21113128,0.26772936,-0.57838321,0.20665091,-0.01007302,-0.52014947,0.23263491,-0.04254597
1.48000000,-0.29099097,0.58424852,-0.40452243,0.39606700,0.55353504,0.07567961,-0.21113128,0.26772936,-0.57838321,0.20665091,-0.01007302,-0.52014947,0.23263491,-0.04254597
1.50000000,-0.29099097,0.58424852,-0.40452243,0.39606700,0.55353504,0.07567961,-0.21113128,0.26772936,-0.57838321,0.20665091,-0.01007302,-0.52014947,0.23263491,-0.04254597
1.52000000,-0.29099097,0.58424852,-0.40452243,0.39606700,0.55353504,0.07567961,-0.21113128,0.26772936,-0.57838321,0.20665091,-0.01007302,-0.52014947,0.23263491,-0.04254597
1.54000000,-0.29099097,0.58424852,-0.40452243,0.39606700,0.55353504,0.07567961,-0.21113128,0.26772936,-0.57838321,0.20665091,-0.01007302,-0.52014947,0.23263491,-0.04254597
1.56000000,-0.29099097,0.58424852,-0.40452243,0.39606700,0.55353504,0.07567961,-0.21113128,0.26772936,-0.57838321,0.20665091,-0.01007302,-0.52014947,0.23263491,-0.04254597
1.58000000,-0.29099097,0.58424852,-0.40452243,0.39606700,0.55353504,0.07567961,-0.21113128,0.26772936,-0.57838321,0.20665091,-0.01007302,-0.52014947,0.23263491,-0.04254597
1.60000000,-0.29099097,0.58424852,-0.40452243,0.39606700,0.55353504,0.07567961,-0.21113128,0.26772936,-0.57838321,0.20665091,-0.01007302,-0.52014947,0.23263491,-0.04254597
1.62000000,-0.29099097,0.58424852,-0.40452243,0.39606700,0.55353504,0.07567961,-0.21113128,0.26772936,-0.57838321,0.20665091,-0.01007302,-0.52014947,0.23263491,-0.04254597
1.64000000,-0.29099097,0.58424852,-0.40452243,0.39606700,0.55353504,0.07567961,-0.21113128,0.26772936,-0.57838321,0.20665091,-0.01007302,-0.52014947,0.23263491,-0.04254597
1.66000000,-0.29099097,0.58424852,-0.40452243,0.39606700,0.55353504,0.07567961,-0.21113128,0.26772936,-0.57838321,0.20665091,-0.01007302,-0.52014947,0.23263491,-0.04254597
1.68000000,-0.29099097,0.58424852,-0.40452243,0.39606700,0.55353504,0.07567961,-0.21113128,0.26772936,-0.57838321,0.20665091,-0.01007302,-0.52014947,0.23263491,-0.04254597
1.70000000,-0.29099097,0.58424852,-0.40452243,0.39606700,0.55353504,0.07567961,-0.21113128,0.26772936,-0.57838321,0.20665091,-0.01007302,-0.52014947,0.23263491,-0.04254597
1.72000000,-0.29099097,0.58424852,-0.40452243,0.39606700,0.55353504,0.07567961,-0.21113128,0.26772936,-0.57838321,0.20665091,-0.01007302,-0.52014947,0.23263491,-0.04254597
1.74000000,-0.29099097,0.58424852,-0.40452243,0.39606700,0.55353504,0.07567961,-0.21113128,0.26772936,-0.57838321,0.20665091,-0.01007302,-0.52014947,0.23263491,-0.04254597
1.76000000,-0.29099097,0.58424852,-0.40452243,0.39606700,0.55353504,0.07567961,-0.21113128,0.26772936,-0.57838321,0.20665091,-0.01007302,-0.52014947,0.23263491,-0.04254597
1.78000000,-0.29099097,0.58424852,-0.40452243,0.39606700,0.55353504,0.07567961,-0.21113128,0.26772936,-0.57838321,0.20665091,-0.01007302,-0.52014947,0.23263491,-0.04254597
1.80000000,-0.29099097,0.58424852,-0.40452243,0.39606700,0.55353504,0.07567961,-0.21113128,0.26772936,-0.57838321,0.20665091,-0.01007302,-0.52014947,0.23263491,-0.04254597
1.82000000,-0.29099097,0.58424852,-0.40452243,0.39606700,0.55353504,0.07567961,-0.21113128,0.26772936,-0.57838321,0.20665091,-0.01007302,-0.52014947,0.23263491,-0.04254597
1.84000000,-0.29099097,0.58424852,-0.40452243,0.39606700,0.55353504,0.07567961,-0.21113128,0.26772936,-0.57838321,0.20665091,-0.01007302,-0.52014947,0.23263491,-0.04254597
1.86000000,-0.29099097,0.58424852,-0.40452243,0.39606700,0.55353504,0.07567961,-0.21113128,0.26772936,-0.57838321,0.20665091,-0.01007302,-0.52014947,0.23263491,-0.04254597
1.88000000,-0.29099097,0.58424852,-0.40452243,0.39606700,0.55353504,0.07567961,-0.21113128,0.26772936,-0.57838321,0.20665091,-0.01007302,-0.52014947,0.23263491,-0.04254597
1.90000000,-0.29099097,0.58424852,-0.40452243,0.39606700,0.55353504,0.07567961,-0.21113128,0.26772936,-0.57838321,0.20665091,-0.01007302,-0.52014947,0.23263491,-0.04254597
1.92000000,-0.29099097,0.58424852,-0.40452243,0.39606700,0.55353504,0.07567961,-0.21113128,0.26772936,-0.57838321,0.20665091,-0.01007302,-0.52014947,0.23263491,-0.04254597
1.94000000,-0.29099097,0.58424852,-0.40452243,0.39606700,0.55353504,0.07567961,-0.21113128,0.26772936,-0.57838321,0.20665091,-0.01007302,-0.52014947,0.23263491,-0.04254597
1.96000000,-0.29099097,0.58424852,-0.40452243,0.39606700,0.55353504,0.07567961,-0.21113128,0.26772936,-0.57838321,0.20665091,-0.01007302,-0.52014947,0.23263491,-0.04254597
1.98000000,-0.29099097,0.58424852,-0.40452243,0.39606700,0.55353504,0.07567961,-0.21113128,0.26772936,-0.57838321,0.20665091,-0.01007302,-0.52014947,0.23263491,-0.04254597
2.00000000,-0.29099108,0.58424855,-0.40452243,0.39606686,0.55353504,0.07567964,-0.21113141,0.26772937,-0.57838328,0.20665091,-0.01007318,-0.52014958,0.23263498,-0.04254597
2.02000000,-0.29099186,0.58424874,-0.40452243,0.39606588,0.55353504,0.07567986,-0.21113237,0.26772941,-0.57838372,0.20665092,-0.01007427,-0.52015031,0.23263543,-0.04254591
2.04000000,-0.29099395,0.58424924,-0.40452244,0.39606324,0.55353504,0.07568044,-0.21113493,0.26772951,-0.57838491,0.20665096,-0.01007723,-0.52015228,0.23263664,-0.04254577
2.06000000,-0.29099801,0.58425022,-0.40452244,0.39605815,0.55353504,0.07568157,-0.21113989,0.26772970,-0.57838720,0.20665104,-0.01008294,-0.52015608,0.23263899,-0.04254550
2.08000000,-0.29100463,0.58425182,-0.40452246,0.39604982,0.55353504,0.07568342,-0.21114800,0.26773001,-0.57839096,0.20665117,-0.01009229,-0.52016229,0.23264283,-0.04254506
2.10000000,-0.29101444,0.58425419,-0.40452247,0.39603749,0.55353504,0.07568615,-0.21115999,0.26773048,-0.57839652,0.20665135,-0.01010611,-0.52017149,0.23264851,-0.04254440
2.12000000,-0.29102801,0.58425748,-0.40452250,0.39602042,0.55353504,0.07568994,-0.21117660,0.26773113,-0.57840421,0.20665161,-0.01012525,-0.52018422,0.23265637,-0.04254349
2.14000000,-0.29104593,0.58426181,-0.40452253,0.39599789,0.55353504,0.07569493,-0.21119851,0.26773198,-0.57841436,0.20665195,-0.01015050,-0.52020102,0.23266675,-0.04254229
2.16000000,-0.29106874,0.58426732,-0.40452258,0.39596920,0.55353504,0.07570129,-0.21122643,0.26773307,-0.57842729,0.20665238,-0.01018267,-0.52022242,0.23267997,-0.04254076
2.18000000,-0.29109700,0.58427415,-0.40452263,0.39593367,0.55353504,0.07570917,-0.21126099,0.26773441,-0.57844331,0.20665291,-0.01022250,-0.52024892,0.23269634,-0.04253886
2.20000000,-0.29113123,0.58428242,-0.40452270,0.39589063,0.55353504,0.07571871,-0.21130287,0.26773604,-0.57846271,0.20665356,-0.01027075,-0.52028102,0.23271617,-0.04253657
2.22000000,-0.29117194,0.58429227,-0.40452277,0.39583944,0.55353504,0.07573006,-0.21135267,0.26773798,-0.57848578,0.20665433,-0.01032815,-0.52031920,0.23273975,-0.04253384
2.24000000,-0.29121964,0.58430379,-0.40452286,0.39577947,0.55353504,0.07574335,-0.21141102,0.26774025,-0.57851281,0.20665523,-0.01039538,-0.52036393,0.23276738,-0.04253064
2.26000000,-0.29127479,0.58431713,-0.40452297,0.39571012,0.55353504,0.07575872,-0.21147849,0.26774288,-0.57854408,0.20665628,-0.01047314,-0.52041566,0.23279933,-0.04252695
2.28000000,-0.29133789,0.58433238,-0.40452309,0.39563078,0.55353504,0.07577631,-0.21155568,0.26774588,-0.57857983,0.20665747,-0.01056208,-0.52047483,0.23283588,-0.04252272
2.30000000,-0.29140937,0.58434966,-0.40452322,0.39554091,0.55353504,0.07579624,-0.21164312,0.26774928,-0.57862035,0.20665882,-0.01066285,-0.52054186,0.23287728,-0.04251793
2.32000000,-0.29148967,0.58436907,-0.40452338,0.39543993,0.55353504,0.07581862,-0.21174136,0.26775311,-0.57866586,0.20666034,-0.01077607,-0.52061718,0.23292380,-0.04251254
2.34000000,-0.29157924,0.58439072,-0.40452355,0.39532731,0.55353504,0.07584359,-0.21185093,0.26775737,-0.57871663,0.20666204,-0.01090233,-0.52070117,0.23297569,-0.04250654
2.36000000,-0.29167847,0.58441470,-0.40452373,0.39520254,0.55353504,0.07587125,-0.21197232,0.26776210,-0.57877287,0.20666392,-0.01104221,-0.52079424,0.23303317,-0.04249989
2.38000000,-0.29178776,0.58444112,-0.40452394,0.39506511,0.55353504,0.07590171,-0.21210603,0.26776730,-0.57883481,0.20666598,-0.01119629,-0.52089674,0.23309648,-0.04249256
2.40000000,-0.29190751,0.58447007,-0.40452417,0.39491454,0.55353504,0.07593509,-0.21225251,0.26777300,-0.57890268,0.20666825,-0.01136510,-0.52100904,0.23316584,-0.04248454
2.42000000,-0.29203807,0.58450163,-0.40452442,0.39475037,0.55353504,0.07597148,-0.21241224,0.26777922,-0.57897668,0.20667072,-0.01154916,-0.52113148,0.23324148,-0.04247578
2.44000000,-0.29217981,0.58453589,-0.40452469,0.39457215,0.55353504,0.07601099,-0.21258564,0.26778597,-0.57905701,0.20667340,-0.01174898,-0.52126441,0.23332358,-0.04246628
2.46000000,-0.29233308,0.58457293,-0.40452498,0.39437944,0.55353504,0.07605371,-0.21277313,0.26779327,-0.57914387,0.20667630,-0.01196504,-0.52140815,0.23341237,-0.04245601
2.48000000,-0.29249819,0.58461285,-0.40452529,0.39417182,0.55353504,0.07609974,-0.21297512,0.26780113,-0.57923746,0.20667942,-0.01219781,-0.52156300,0.23350801,-0.04244494
2.50000000,-0.29267548,0.58465570,-0.40452563,0.39394891,0.55353504,0.07614915,-0.21319200,0.26780957,-0.57933793,0.20668278,-0.01244773,-0.52172926,0.23361071,-0.04243306
2.52000000,-0.29286523,0.58470157,-0.40452599,0.39371030,0.55353504,0.07620205,-0.21342413,0.26781860,-0.57944548,0.20668637,-0.01271524,-0.52190722,0.23372063,-0.04242034
2.54000000,-0.29306776,0.58475052,-0.40452637,0.39345565,0.55353504,0.07625850,-0.21367189,0.26782825,-0.57956027,0.20669020,-0.01300074,-0.52209716,0.23383795,-0.04240676
2.56000000,-0.29328333,0.58480263,-0.40452678,0.39318460,0.55353504,0.07631859,-0.21393560,0.26783851,-0.57968244,0.20669428,-0.01330464,-0.52229933,0.23396282,-0.04239231
2.58000000,-0.29351221,0.58485795,-0.40452721,0.39289681,0.55353504,0.07638238,-0.21421560,0.26784941,-0.57981217,0.20669861,-0.01362730,-0.52251398,0.23409541,-0.04237697
2.60000000,-0.29375465,0.58491656,-0.40452767,0.39259196,0.55353504,0.07644996,-0.21451219,0.26786095,-0.57994957,0.20670320,-0.01396908,-0.52274135,0.23423585,-0.04236072
2.62000000,-0.29401090,0.58497850,-0.40452816,0.39226975,0.55353504,0.07652139,-0.21482567,0.26787315,-0.58009481,0.20670804,-0.01433032,-0.52298167,0.23438429,-0.04234354
2.64000000,-0.29428119,0.58504383,-0.40452867,0.39192989,0.55353504,0.07659673,-0.21515632,0.26788602,-0.58024800,0.20671316,-0.01471136,-0.52323515,0.23454086,-0.04232543
2.66000000,-0.29456573,0.58511261,-0.40452921,0.39157211,0.55353504,0.07667604,-0.21550441,0.26789957,-0.58040927,0.20671854,-0.01511248,-0.52350201,0.23470569,-0.04230635
2.68000000,-0.29486473,0.58518488,-0.40452978,0.39119615,0.55353504,0.07675939,-0.21587019,0.26791381,-0.58057873,0.20672420,-0.01553399,-0.52378242,0.23487889,-0.04228631
2.70000000,-0.29517838,0.58526070,-0.40453037,0.39080177,0.55353504,0.07684681,-0.21625389,0.26792874,-0.58075650,0.20673013,-0.01597616,-0.52407657,0.23506058,-0.04226529
2.72000000,-0.29550687,0.58534010,-0.40453100,0.39038873,0.55353504,0.07693838,-0.21665573,0.26794438,-0.58094267,0.20673635,-0.01643924,-0.52438463,0.23525087,-0.04224327
2.74000000,-0.29585036,0.58542313,-0.40453165,0.38995683,0.55353504,0.07703412,-0.21707594,0.26796074,-0.58113735,0.20674285,-0.01692347,-0.52470677,0.23544984,-0.04222024
2.76000000,-0.29620901,0.58550982,-0.40453233,0.38950586,0.55353504,0.07713409,-0.21751469,0.26797781,-0.58134062,0.20674963,-0.01742907,-0.52504313,0.23565760,-0.04219620
2.78000000,-0.29658298,0.58560022,-0.40453304,0.38903563,0.55353504,0.07723833,-0.21797218,0.26799562,-0.58155257,0.20675671,-0.01795626,-0.52539385,0.23587423,-0.04217113
2.80000000,-0.29697239,0.58569435,-0.40453378,0.38854599,0.55353504,0.07734688,-0.21844856,0.26801416,-0.58177328,0.20676407,-0.01850523,-0.52575905,0.23609981,-0.04214503
2.82000000,-0.29737738,0.58579224,-0.40453455,0.38803676,0.55353504,0.07745976,-0.21894399,0.26803344,-0.58200281,0.20677174,-0.01907615,-0.52613886,0.23633441,-0.04211788
2.84000000,-0.29779805,0.58589392,-0.40453534,0.38750781,0.55353504,0.07757702,-0.21945861,0.26805347,-0.58224123,0.20677970,-0.01966919,-0.52653338,0.23657809,-0.04208969
2.86000000,-0.29823452,0.58599942,-0.40453617,0.38695900,0.55353504,0.07769868,-0.21999255,0.26807426,-0.58248861,0.20678795,-0.02028449,-0.52694271,0.23683092,-0.04206043
2.88000000,-0.29868686,0.58610877,-0.40453703,0.38639022,0.55353504,0.07782477,-0.22054593,0.26809579,-0.58274498,0.20679651,-0.02092218,-0.52736694,0.23709296,-0.04203011
2.90000000,-0.29915518,0.58622197,-0.40453792,0.38580137,0.55353504,0.07795531,-0.22111883,0.26811809,-0.58301041,0.20680537,-0.02158238,-0.52780614,0.23736424,-0.04199872
2.92000000,-0.29963953,0.58633904,-0.40453884,0.38519234,0.55353504,0.07809032,-0.22171136,0.26814115,-0.58328492,0.20681454,-0.02226519,-0.52826038,0.23764482,-0.04196625
2.94000000,-0.30013999,0.58646001,-0.40453979,0.38456307,0.55353504,0.07822982,-0.22232358,0.26816498,-0.58356856,0.20682400,-0.02297069,-0.52872972,0.23793472,-0.04193270
2.96000000,-0.30065660,0.58658489,-0.40454077,0.38391349,0.55353504,0.07837382,-0.22295557,0.26818958,-0.58386136,0.20683378,-0.02369897,-0.52921422,0.23823398,-0.04189807
2.98000000,-0.30118940,0.58671368,-0.40454178,0.38324355,0.55353504,0.07852233,-0.22360736,0.26821495,-0.58416333,0.20684386,-0.02445008,-0.52971390,0.23854262,-0.04186236
3.00000000,-0.30173843,0.58684639,-0.40454282,0.38255320,0.55353504,0.07867537,-0.22427901,0.26824109,-0.58447450,0.20685425,-0.02522407,-0.53022879,0.23886066,-0.04182556
3.02000000,-0.30230371,0.58698303,-0.40454389,0.38184243,0.55353504,0.07883293,-0.22497053,0.26826801,-0.58479488,0.20686494,-0.02602096,-0.53075893,0.23918811,-0.04178767
3.04000000,-0.30288525,0.58712360,-0.40454499,0.38111120,0.55353504,0.07899503,-0.22568195,0.26829569,-0.58512448,0.20687594,-0.02684077,-0.53130432,0.23952498,-0.04174869
3.06000000,-0.30348305,0.58726810,-0.40454613,0.38035953,0.55353504,0.07916167,-0.22641326,0.26832416,-0.58546329,0.20688725,-0.02768352,-0.53186496,0.23987127,-0.04170861
3.08000000,-0.30409711,0.58741653,-0.40454729,0.37958741,0.55353504,0.07933283,-0.22716447,0.26835340,-0.58581132,0.20689887,-0.02854918,-0.53244084,0.24022698,-0.04166745
3.10000000,-0.30472742,0.58756888,-0.40454849,0.37879487,0.55353504,0.07950852,-0.22793554,0.26838341,-0.58616856,0.20691080,-0.02943774,-0.53303196,0.24059210,-0.04162520
3.12000000,-0.30537394,0.58772516,-0.40454972,0.37798193,0.55353504,0.07968873,-0.22872645,0.26841419,-0.58653498,0.20692303,-0.03034916,-0.53363829,0.24096662,-0.04158187
3.14000000,-0.30603665,0.58788535,-0.40455097,0.37714865,0.55353504,0.07987346,-0.22953717,0.26844574,-0.58691058,0.20693557,-0.03128340,-0.53425980,0.24135051,-0.04153744
3.16000000,-0.30671550,0.58804944,-0.40455226,0.37629507,0.55353504,0.08006268,-0.23036763,0.26847807,-0.58729533,0.20694841,-0.03224040,-0.53489645,0.24174375,-0.04149194
3.18000000,-0.30741044,0.58821742,-0.40455358,0.37542125,0.55353504,0.08025639,-0.23121777,0.26851116,-0.58768920,0.20696156,-0.03322008,-0.53554819,0.24214631,-0.04144536
3.20000000,-0.30812141,0.58838928,-0.40455493,0.37452728,0.55353504,0.08045457,-0.23208753,0.26854501,-0.58809216,0.20697501,-0.03422237,-0.53621496,0.24255816,-0.04139770
3.22000000,-0.30884835,0.58856499,-0.40455631,0.37361323,0.55353504,0.08065719,-0.23297682,0.26857962,-0.58850416,0.20698876,-0.03524716,-0.53689671,0.24297926,-0.04134897
3.24000000,-0.30959118,0.58874455,-0.40455772,0.37267921,0.55353504,0.08086425,-0.23388554,0.26861499,-0.58892517,0.20700282,-0.03629434,-0.53759336,0.24340956,-0.04129918
3.26000000,-0.31034980,0.58892792,-0.40455915,0.37172531,0.55353504,0.08107571,-0.23481360,0.26865111,-0.58935513,0.20701717,-0.03736380,-0.53830482,0.24384901,-0.04124833
3.28000000,-0.31112414,0.58911509,-0.40456062,0.37075166,0.55353504,0.08129155,-0.23576087,0.26868798,-0.58979400,0.20703182,-0.03845541,-0.53903102,0.24429757,-0.04119642
3.30000000,-0.31191409,0.58930604,-0.40456212,0.36975839,0.55353504,0.08151174,-0.23672724,0.26872559,-0.59024172,0.20704677,-0.03956903,-0.53977186,0.24475517,-0.04114347
3.32000000,-0.31271954,0.58950073,-0.40456365,0.36874562,0.55353504,0.08173625,-0.23771258,0.26876394,-0.59069822,0.20706201,-0.04070450,-0.54052724,0.24522175,-0.04108948
3.34000000,-0.31354038,0.58969914,-0.40456521,0.36771350,0.55353504,0.08196506,-0.23871673,0.26880303,-0.59116344,0.20707754,-0.04186166,-0.54129705,0.24569724,-0.04103446
3.36000000,-0.31437648,0.58990125,-0.40456679,0.36666220,0.55353504,0.08219811,-0.23973956,0.26884284,-0.59163731,0.20709336,-0.04304034,-0.54208117,0.24618157,-0.04097841
3.38000000,-0.31522771,0.59010700,-0.40456841,0.36559186,0.55353504,0.08243538,-0.24078090,0.26888337,-0.59211976,0.20710946,-0.04424034,-0.54287948,0.24667467,-0.04092136
3.40000000,-0.31609393,0.59031639,-0.40457005,0.36450268,0.55353504,0.08267684,-0.24184058,0.26892461,-0.59261071,0.20712585,-0.04546149,-0.54369185,0.24717645,-0.04086329
3.42000000,-0.31697501,0.59052936,-0.40457172,0.36339482,0.55353504,0.08292243,-0.24291843,0.26896656,-0.59311007,0.20714252,-0.04670356,-0.54451815,0.24768683,-0.04080423
3.44000000,-0.31787077,0.59074588,-0.40457342,0.36226849,0.55353504,0.08317211,-0.24401425,0.26900921,-0.59361776,0.20715947,-0.04796636,-0.54535823,0.24820573,-0.04074419
3.46000000,-0.31878108,0.59096592,-0.40457515,0.36112388,0.55353504,0.08342585,-0.24512786,0.26905255,-0.59413369,0.20717669,-0.04924964,-0.54621194,0.24873305,-0.04068317
3.48000000,-0.31970575,0.59118943,-0.40457690,0.35996120,0.55353504,0.08368360,-0.24625905,0.26909658,-0.59465776,0.20719418,-0.05055319,-0.54707914,0.24926869,-0.04062119
3.50000000,-0.32064463,0.59141638,-0.40457868,0.35878066,0.55353504,0.08394530,-0.24740760,0.26914129,-0.59518988,0.20721195,-0.05187675,-0.54795964,0.24981255,-0.04055825
3.52000000,-0.32159752,0.59164671,-0.40458049,0.35758250,0.55353504,0.08421091,-0.24857331,0.26918666,-0.59572995,0.20722998,-0.05322008,-0.54885330,0.25036454,-0.04049438
3.54000000,-0.32256425,0.59188039,-0.40458233,0.35636694,0.55353504,0.08448038,-0.24975594,0.26923269,-0.59627786,0.20724827,-0.05458290,-0.54975993,0.25092454,-0.04042958
3.56000000,-0.32354462,0.59211736,-0.40458419,0.35513423,0.55353504,0.08475365,-0.25095526,0.26927936,-0.59683350,0.20726681,-0.05596496,-0.55067935,0.25149245,-0.04036386
3.58000000,-0.32453844,0.59235759,-0.40458607,0.35388461,0.55353504,0.08503066,-0.25217103,0.26932668,-0.59739676,0.20728562,-0.05736598,-0.55161138,0.25206814,-0.04029725
3.60000000,-0.32554549,0.59260101,-0.40458798,0.35261835,0.55353504,0.08531137,-0.25340299,0.26937463,-0.59796752,0.20730467,-0.05878566,-0.55255583,0.25265150,-0.04022974
3.62000000,-0.32656558,0.59284758,-0.40458992,0.35133569,0.55353504,0.08559571,-0.25465090,0.26942320,-0.59854567,0.20732397,-0.06022371,-0.55351250,0.25324242,-0.04016136
3.64000000,-0.32759848,0.59309726,-0.40459188,0.35003693,0.55353504,0.08588362,-0.25591448,0.26947238,-0.59913109,0.20734351,-0.06167982,-0.55448119,0.25384075,-0.04009213
3.66000000,-0.32864398,0.59334997,-0.40459386,0.34872232,0.55353504,0.08617505,-0.25719348,0.26952216,-0.59972364,0.20736329,-0.06315370,-0.55546169,0.25444638,-0.04002205
3.68000000,-0.32970185,0.59360568,-0.40459587,0.34739217,0.55353504,0.08646992,-0.25848760,0.26957253,-0.60032320,0.20738331,-0.06464501,-0.55645380,0.25505918,-0.03995114
3.70000000,-0.33077186,0.59386432,-0.40459790,0.34604675,0.55353504,0.08676817,-0.25979658,0.26962348,-0.60092964,0.20740355,-0.06615343,-0.55745728,0.25567901,-0.03987941
3.72000000,-0.33185376,0.59412584,-0.40459995,0.34468636,0.55353504,0.08706975,-0.26112011,0.26967499,-0.60154283,0.20742402,-0.06767863,-0.55847193,0.25630573,-0.03980689
3.74000000,-0.33294733,0.59439018,-0.40460202,0.34331132,0.55353504,0.08737457,-0.26245791,0.26972706,-0.60216263,0.20744471,-0.06922027,-0.55949751,0.25693921,-0.03973359
3.76000000,-0.33405231,0.59465727,-0.40460412,0.34192193,0.55353504,0.08768257,-0.26380966,0.26977968,-0.60278889,0.20746562,-0.07077799,-0.56053380,0.25757929,-0.03965952
3.78000000,-0.33516844,0.59492706,-0.40460624,0.34051850,0.55353504,0.08799368,-0.26517507,0.26983282,-0.60342148,0.20748673,-0.07235145,-0.56158055,0.25822585,-0.03958470
3.80000000,-0.33629549,0.59519949,-0.40460838,0.33910137,0.55353504,0.08830784,-0.26655382,0.26988648,-0.60406025,0.20750806,-0.07394028,-0.56263753,0.25887871,-0.03950916
3.82000000,-0.33743317,0.59547449,-0.40461053,0.33767084,0.55353504,0.08862496,-0.26794559,0.26994065,-0.60470505,0.20752958,-0.07554411,-0.56370449,0.25953775,-0.03943290
3.84000000,-0.33858124,0.59575200,-0.40461271,0.33622727,0.55353504,0.08894497,-0.26935006,0.26999531,-0.60535573,0.20755130,-0.07716257,-0.56478118,0.26020279,-0.03935594
3.86000000,-0.33973941,0.59603195,-0.40461491,0.33477099,0.55353504,0.08926780,-0.27076689,0.27005046,-0.60601215,0.20757322,-0.07879529,-0.56586735,0.26087370,-0.03927831
3.88000000,-0.34090742,0.59631428,-0.40461712,0.33330235,0.55353504,0.08959337,-0.27219576,0.27010607,-0.60667413,0.20759531,-0.08044187,-0.56696275,0.26155030,-0.03920001
3.90000000,-0.34208499,0.59659892,-0.40461936,0.33182168,0.55353504,0.08992161,-0.27363632,0.27016214,-0.60734154,0.20761759,-0.08210192,-0.56806711,0.26223243,-0.03912108
3.92000000,-0.34327183,0.59688581,-0.40462161,0.33032935,0.55353504,0.09025243,-0.27508822,0.27021865,-0.60801420,0.20764005,-0.08377505,-0.56918017,0.26291994,-0.03904153
3.94000000,-0.34446767,0.59717486,-0.40462388,0.32882572,0.55353504,0.09058576,-0.27655112,0.27027559,-0.60869196,0.20766267,-0.08546086,-0.57030166,0.26361266,-0.03896137
3.96000000,-0.34567220,0.59746602,-0.40462616,0.32731114,0.55353504,0.09092151,-0.27802467,0.27033294,-0.60937464,0.20768546,-0.08715893,-0.57143131,0.26431041,-0.03888063
3.98000000,-0.34688514,0.59775921,-0.40462846,0.32578599,0.55353504,0.09125961,-0.27950851,0.27039069,-0.61006210,0.20770841,-0.08886886,-0.57256885,0.26501304,-0.03879932
4.00000000,-0.34810620,0.59805437,-0.40463078,0.32425064,0.55353504,0.09159997,-0.28100227,0.27044883,-0.61075415,0.20773151,-0.09059022,-0.57371400,0.26572037,-0.03871747
4.02000000,-0.34933507,0.59835141,-0.40463311,0.32270547,0.55353504,0.09194250,-0.28250559,0.27050735,-0.61145064,0.20775476,-0.09232260,-0.57486647,0.26643223,-0.03863510
4.04000000,-0.35057146,0.59865026,-0.40463546,0.32115084,0.55353504,0.09228713,-0.28401810,0.27056621,-0.61215138,0.20777816,-0.09406558,-0.57602600,0.26714844,-0.03855222
4.06000000,-0.35181505,0.59895086,-0.40463782,0.31958716,0.55353504,0.09263377,-0.28553943,0.27062543,-0.61285620,0.20780168,-0.09581871,-0.57719228,0.26786882,-0.03846886
4.08000000,-0.35306554,0.59925313,-0.40464019,0.31801480,0.55353504,0.09298234,-0.28706919,0.27068497,-0.61356493,0.20782534,-0.09758156,-0.57836503,0.26859320,-0.03838504
4.10000000,-0.35432262,0.59955699,-0.40464257,0.31643416,0.55353504,0.09333274,-0.28860702,0.27074482,-0.61427740,0.20784913,-0.09935371,-0.57954395,0.26932139,-0.03830078
4.12000000,-0.35558597,0.59986237,-0.40464497,0.31484563,0.55353504,0.09368488,-0.29015252,0.27080497,-0.61499343,0.20787303,-0.10113470,-0.58072877,0.27005322,-0.03821609
4.14000000,-0.35685528,0.60016919,-0.40464738,0.31324960,0.55353504,0.09403869,-0.29170531,0.27086541,-0.61571283,0.20789704,-0.10292409,-0.58191917,0.27078850,-0.03813101
4.16000000,-0.35813024,0.60047737,-0.40464980,0.31164649,0.55353504,0.09439408,-0.29326500,0.27092612,-0.61643543,0.20792117,-0.10472143,-0.58311486,0.27152705,-0.03804555
4.18000000,-0.35941051,0.60078683,-0.40465223,0.31003668,0.55353504,0.09475094,-0.29483121,0.27098707,-0.61716104,0.20794539,-0.10652627,-0.58431554,0.27226868,-0.03795973
4.20000000,-0.36069578,0.60109751,-0.40465466,0.30842059,0.55353504,0.09510920,-0.29640352,0.27104827,-0.61788949,0.20796970,-0.10833816,-0.58552091,0.27301321,-0.03787358
4.22000000,-0.36198572,0.60140931,-0.40465711,0.30679862,0.55353504,0.09546876,-0.29798155,0.27110969,-0.61862058,0.20799411,-0.11015663,-0.58673066,0.27376044,-0.03778711
4.24000000,-0.36328001,0.60172217,-0.40465957,0.30517118,0.55353504,0.09582953,-0.29956490,0.27117132,-0.61935414,0.20801860,-0.11198124,-0.58794449,0.27451019,-0.03770035
4.26000000,-0.36457832,0.60203599,-0.40466203,0.30353870,0.55353504,0.09619142,-0.30115317,0.27123313,-0.62008998,0.20804316,-0.11381151,-0.58916209,0.27526227,-0.03761333
4.28000000,-0.36588032,0.60235071,-0.40466450,0.30190157,0.55353504,0.09655434,-0.30274595,0.27129513,-0.62082791,0.20806779,-0.11564698,-0.59038315,0.27601649,-0.03752605
4.30000000,-0.36718568,0.60266624,-0.40466698,0.30026022,0.55353504,0.09691820,-0.30434284,0.27135728,-0.62156774,0.20809249,-0.11748719,-0.59160736,0.27677265,-0.03743855
4.32000000,-0.36849407,0.60298250,-0.40466946,0.29861506,0.55353504,0.09728290,-0.30594343,0.27141958,-0.62230929,0.20811725,-0.11933166,-0.59283440,0.27753056,-0.03735085
4.34000000,-0.36980515,0.60329942,-0.40467195,0.29696652,0.55353504,0.09764835,-0.30754732,0.27148200,-0.62305237,0.20814205,-0.12117993,-0.59406398,0.27829004,-0.03726297
4.36000000,-0.37111859,0.60361690,-0.40467444,0.29531501,0.55353504,0.09801446,-0.30915409,0.27154454,-0.62379678,0.20816690,-0.12303153,-0.59529576,0.27905088,-0.03717492
4.38000000,-0.37243405,0.60393487,-0.40467693,0.29366095,0.55353504,0.09838113,-0.31076334,0.27160717,-0.62454234,0.20819179,-0.12488598,-0.59652944,0.27981290,-0.03708675
4.40000000,-0.37375120,0.60425325,-0.40467943,0.29200478,0.55353504,0.09874828,-0.31237466,0.27166989,-0.62528885,0.20821671,-0.12674281,-0.59776471,0.28057589,-0.03699846
4.42000000,-0.37506970,0.60457196,-0.40468193,0.29034690,0.55353504,0.09911580,-0.31398762,0.27173267,-0.62603613,0.20824166,-0.12860154,-0.59900124,0.28133967,-0.03691008
4.44000000,-0.37638921,0.60489091,-0.40468444,0.28868775,0.55353504,0.09948360,-0.31560183,0.27179549,-0.62678399,0.20826662,-0.13046170,-0.60023873,0.28210403,-0.03682163
4.46000000,-0.37770940,0.60521003,-0.40468694,0.28702775,0.55353504,0.09985159,-0.31721686,0.27185835,-0.62753222,0.20829160,-0.13232282,-0.60147684,0.28286878,-0.03673313
4.48000000,-0.37902993,0.60552922,-0.40468945,0.28536733,0.55353504,0.10021968,-0.31883231,0.27192123,-0.62828065,0.20831658,-0.13418441,-0.60271528,0.28363373,-0.03664462
4.50000000,-0.38035046,0.60584842,-0.40469195,0.28370691,0.55353504,0.10058776,-0.32044775,0.27198410,-0.62902908,0.20834157,-0.13604600,-0.60395371,0.28439868,-0.03655610
4.52000000,-0.38167065,0.60616753,-0.40469446,0.28204691,0.55353504,0.10095575,-0.32206279,0.27204696,-0.62977732,0.20836654,-0.13790712,-0.60519183,0.28516344,-0.03646761
4.54000000,-0.38299017,0.60648649,-0.40469696,0.28038776,0.55353504,0.10132356,-0.32367699,0.27210979,-0.63052518,0.20839151,-0.13976728,-0.60642931,0.28592780,-0.03637916
4.56000000,-0.38430867,0.60680519,-0.40469946,0.27872988,0.55353504,0.10169108,-0.32528996,0.27217257,-0.63127246,0.20841645,-0.14162601,-0.60766584,0.28669157,-0.03629078
4.58000000,-0.38562582,0.60712357,-0.40470196,0.27707371,0.55353504,0.10205822,-0.32690127,0.27223528,-0.63201897,0.20844137,-0.14348284,-0.60890111,0.28745457,-0.03620249
4.60000000,-0.38694128,0.60744155,-0.40470445,0.27541965,0.55353504,0.10242489,-0.32851052,0.27229792,-0.63276453,0.20846626,-0.14533729,-0.61013479,0.28821658,-0.03611431
4.62000000,-0.38825472,0.60775903,-0.40470695,0.27376814,0.55353504,0.10279100,-0.33011730,0.27236046,-0.63350894,0.20849111,-0.14718889,-0.61136658,0.28897742,-0.03602627
4.64000000,-0.38956580,0.60807594,-0.40470943,0.27211960,0.55353504,0.10315645,-0.33172118,0.27242288,-0.63425202,0.20851592,-0.14903716,-0.61259615,0.28973690,-0.03593839
4.66000000,-0.39087418,0.60839220,-0.40471191,0.27047444,0.55353504,0.10352116,-0.33332178,0.27248518,-0.63499356,0.20854067,-0.15088163,-0.61382320,0.29049482,-0.03585068
4.68000000,-0.39217954,0.60870773,-0.40471439,0.26883309,0.55353504,0.10388501,-0.33491867,0.27254733,-0.63573340,0.20856537,-0.15272184,-0.61504741,0.29125098,-0.03576318
4.70000000,-0.39348154,0.60902245,-0.40471686,0.26719596,0.55353504,0.10424793,-0.33651145,0.27260932,-0.63647133,0.20859000,-0.15455731,-0.61626847,0.29200520,-0.03567591
4.72000000,-0.39477985,0.60933628,-0.40471932,0.26556348,0.55353504,0.10460983,-0.33809971,0.27267114,-0.63720716,0.20861457,-0.15638758,-0.61748606,0.29275728,-0.03558888
4.74000000,-0.39607414,0.60964913,-0.40472178,0.26393604,0.55353504,0.10497060,-0.33968306,0.27273277,-0.63794072,0.20863905,-0.15821219,-0.61869989,0.29350703,-0.03550212
4.76000000,-0.39736409,0.60996094,-0.40472423,0.26231407,0.55353504,0.10533016,-0.34126110,0.27279419,-0.63867182,0.20866346,-0.16003066,-0.61990964,0.29425426,-0.03541566
4.78000000,-0.39864936,0.61027161,-0.40472666,0.26069798,0.55353504,0.10568842,-0.34283341,0.27285538,-0.63940027,0.20868778,-0.16184255,-0.62111501,0.29499879,-0.03532950
4.80000000,-0.39992963,0.61058108,-0.40472909,0.25908818,0.55353504,0.10604528,-0.34439961,0.27291634,-0.64012588,0.20871200,-0.16364739,-0.62231569,0.29574042,-0.03524369
4.82000000,-0.40120458,0.61088926,-0.40473151,0.25748506,0.55353504,0.10640066,-0.34595930,0.27297705,-0.64084848,0.20873612,-0.16544474,-0.62351138,0.29647896,-0.03515823
4.84000000,-0.40247389,0.61119608,-0.40473392,0.25588903,0.55353504,0.10675447,-0.34751210,0.27303748,-0.64156788,0.20876014,-0.16723413,-0.62470179,0.29721425,-0.03507314
4.86000000,-0.40373725,0.61150145,-0.40473632,0.25430050,0.55353504,0.10710662,-0.34905760,0.27309764,-0.64228390,0.20878404,-0.16901511,-0.62588660,0.29794608,-0.03498846
4.88000000,-0.40499433,0.61180531,-0.40473870,0.25271986,0.55353504,0.10745702,-0.35059542,0.27315749,-0.64299637,0.20880782,-0.17078726,-0.62706553,0.29867427,-0.03490419
4.90000000,-0.40624482,0.61210758,-0.40474107,0.25114750,0.55353504,0.10780558,-0.35212519,0.27321703,-0.64370511,0.20883148,-0.17255011,-0.62823828,0.29939865,-0.03482037
4.92000000,-0.40748841,0.61240818,-0.40474343,0.24958382,0.55353504,0.10815222,-0.35364652,0.27327624,-0.64440993,0.20885501,-0.17430325,-0.62940456,0.30011903,-0.03473701
4.94000000,-0.40872479,0.61270704,-0.40474578,0.24802919,0.55353504,0.10849685,-0.35515903,0.27333511,-0.64511067,0.20887840,-0.17604622,-0.63056408,0.30083524,-0.03465414
4.96000000,-0.40995366,0.61300408,-0.40474811,0.24648402,0.55353504,0.10883939,-0.35666235,0.27339362,-0.64580715,0.20890165,-0.17777860,-0.63171656,0.30154709,-0.03457176
4.98000000,-0.41117472,0.61329923,-0.40475043,0.24494867,0.55353504,0.10917975,-0.35815611,0.27345176,-0.64649921,0.20892475,-0.17949996,-0.63286170,0.30225442,-0.03448992
5.00000000,-0.41238767,0.61359242,-0.40475273,0.24342352,0.55353504,0.10951784,-0.35963994,0.27350952,-0.64718666,0.20894770,-0.18120989,-0.63399924,0.30295705,-0.03440861
5.02000000,-0.41359220,0.61388358,-0.40475501,0.24190894,0.55353504,0.10985360,-0.36111349,0.27356687,-0.64786935,0.20897049,-0.18290796,-0.63512889,0.30365481,-0.03432787
5.04000000,-0.41478803,0.61417264,-0.40475728,0.24040531,0.55353504,0.11018693,-0.36257640,0.27362381,-0.64854711,0.20899312,-0.18459377,-0.63625039,0.30434753,-0.03424771
5.06000000,-0.41597488,0.61445952,-0.40475953,0.23891298,0.55353504,0.11051775,-0.36402830,0.27368032,-0.64921977,0.20901557,-0.18626690,-0.63736345,0.30503503,-0.03416816
5.08000000,-0.41715244,0.61474416,-0.40476177,0.23743231,0.55353504,0.11084598,-0.36546886,0.27373638,-0.64988717,0.20903785,-0.18792695,-0.63846781,0.30571717,-0.03408922
5.10000000,-0.41832045,0.61502649,-0.40476398,0.23596367,0.55353504,0.11117156,-0.36689772,0.27379200,-0.65054916,0.20905995,-0.18957353,-0.63956320,0.30639377,-0.03401093
5.12000000,-0.41947863,0.61530644,-0.40476618,0.23450739,0.55353504,0.11149439,-0.36831456,0.27384714,-0.65120557,0.20908186,-0.19120625,-0.64064938,0.30706467,-0.03393329
5.14000000,-0.42062669,0.61558395,-0.40476836,0.23306382,0.55353504,0.11181440,-0.36971902,0.27390181,-0.65185626,0.20910358,-0.19282471,-0.64172607,0.30772972,-0.03385634
5.16000000,-0.42176438,0.61585895,-0.40477052,0.23163330,0.55353504,0.11213152,-0.37111079,0.27395598,-0.65250106,0.20912511,-0.19442855,-0.64279303,0.30838875,-0.03378008
5.18000000,-0.42289142,0.61613138,-0.40477265,0.23021616,0.55353504,0.11244567,-0.37248954,0.27400964,-0.65313983,0.20914643,-0.19601738,-0.64385001,0.30904162,-0.03370453
5.20000000,-0.42400756,0.61640117,-0.40477477,0.22881273,0.55353504,0.11275679,-0.37385495,0.27406278,-0.65377242,0.20916755,-0.19759083,-0.64489676,0.30968817,-0.03362972
5.22000000,-0.42511254,0.61666827,-0.40477687,0.22742334,0.55353504,0.11306479,-0.37520671,0.27411539,-0.65439868,0.20918845,-0.19914856,-0.64593304,0.31032826,-0.03355565
5.24000000,-0.42620610,0.61693260,-0.40477894,0.22604830,0.55353504,0.11336961,-0.37654450,0.27416746,-0.65501848,0.20920914,-0.20069019,-0.64695862,0.31096173,-0.03348234
5.26000000,-0.42728801,0.61719412,-0.40478099,0.22468791,0.55353504,0.11367118,-0.37786804,0.27421898,-0.65563166,0.20922961,-0.20221539,-0.64797327,0.31158846,-0.03340982
5.28000000,-0.42835802,0.61745276,-0.40478302,0.22334249,0.55353504,0.11396944,-0.37917701,0.27426992,-0.65623810,0.20924986,-0.20372381,-0.64897676,0.31220828,-0.03333810
5.30000000,-0.42941588,0.61770847,-0.40478503,0.22201234,0.55353504,0.11426431,-0.38047114,0.27432029,-0.65683767,0.20926987,-0.20521512,-0.64996886,0.31282108,-0.03326719
5.32000000,-0.43046138,0.61796119,-0.40478701,0.22069773,0.55353504,0.11455573,-0.38175013,0.27437007,-0.65743022,0.20928965,-0.20668900,-0.65094936,0.31342671,-0.03319711
5.34000000,-0.43149429,0.61821086,-0.40478897,0.21939897,0.55353504,0.11484364,-0.38301372,0.27441925,-0.65801563,0.20930919,-0.20814511,-0.65191805,0.31402505,-0.03312787
5.36000000,-0.43251437,0.61845743,-0.40479091,0.21811631,0.55353504,0.11512798,-0.38426162,0.27446782,-0.65859379,0.20932849,-0.20958317,-0.65287472,0.31461596,-0.03305949
5.38000000,-0.43352143,0.61870086,-0.40479282,0.21685005,0.55353504,0.11540869,-0.38549359,0.27451577,-0.65916455,0.20934755,-0.21100284,-0.65381917,0.31519932,-0.03299199
5.40000000,-0.43451524,0.61894108,-0.40479470,0.21560043,0.55353504,0.11568571,-0.38670936,0.27456309,-0.65972781,0.20936635,-0.21240386,-0.65475120,0.31577502,-0.03292537
5.42000000,-0.43549562,0.61917806,-0.40479656,0.21436772,0.55353504,0.11595898,-0.38790868,0.27460977,-0.66028345,0.20938490,-0.21378592,-0.65567063,0.31634292,-0.03285966
5.44000000,-0.43646234,0.61941173,-0.40479840,0.21315216,0.55353504,0.11622844,-0.38909131,0.27465580,-0.66083136,0.20940319,-0.21514874,-0.65657726,0.31690292,-0.03279486
5.46000000,-0.43741524,0.61964207,-0.40480021,0.21195400,0.55353504,0.11649405,-0.39025701,0.27470117,-0.66137142,0.20942122,-0.21649207,-0.65747091,0.31745491,-0.03273098
5.48000000,-0.43835411,0.61986901,-0.40480199,0.21077347,0.55353504,0.11675576,-0.39140557,0.27474588,-0.66190355,0.20943898,-0.21781563,-0.65835142,0.31799878,-0.03266805
5.50000000,-0.43927879,0.62009252,-0.40480374,0.20961078,0.55353504,0.11701350,-0.39253676,0.27478990,-0.66242762,0.20945647,-0.21911918,-0.65921861,0.31853442,-0.03260607
5.52000000,-0.44018909,0.62031256,-0.40480547,0.20846617,0.55353504,0.11726724,-0.39365037,0.27483325,-0.66294355,0.20947370,-0.22040246,-0.66007232,0.31906174,-0.03254505
5.54000000,-0.44108486,0.62052908,-0.40480717,0.20733984,0.55353504,0.11751693,-0.39474619,0.27487590,-0.66345124,0.20949064,-0.22166526,-0.66091240,0.31958063,-0.03248500
5.56000000,-0.44196593,0.62074206,-0.40480884,0.20623198,0.55353504,0.11776252,-0.39582403,0.27491785,-0.66395060,0.20950731,-0.22290733,-0.66173870,0.32009102,-0.03242594
5.58000000,-0.44283216,0.62095144,-0.40481048,0.20514280,0.55353504,0.11800397,-0.39688371,0.27495909,-0.66444155,0.20952370,-0.22412848,-0.66255107,0.32059280,-0.03236788
5.60000000,-0.44368339,0.62115720,-0.40481210,0.20407247,0.55353504,0.11824124,-0.39792505,0.27499962,-0.66492400,0.20953981,-0.22532849,-0.66334939,0.32108590,-0.03231082
5.62000000,-0.44451949,0.62135930,-0.40481368,0.20302116,0.55353504,0.11847430,-0.39894788,0.27503943,-0.66539787,0.20955563,-0.22650716,-0.66413351,0.32157023,-0.03225478
5.64000000,-0.44534032,0.62155771,-0.40481524,0.20198904,0.55353504,0.11870310,-0.39995204,0.27507852,-0.66586309,0.20957116,-0.22766432,-0.66490331,0.32204572,-0.03219976
5.66000000,-0.44614577,0.62175240,-0.40481677,0.20097628,0.55353504,0.11892761,-0.40093737,0.27511687,-0.66631959,0.20958640,-0.22879979,-0.66565869,0.32251230,-0.03214576
5.68000000,-0.44693572,0.62194335,-0.40481827,0.19998300,0.55353504,0.11914780,-0.40190375,0.27515448,-0.66676731,0.20960134,-0.22991341,-0.66639953,0.32296989,-0.03209281
5.70000000,-0.44771006,0.62213052,-0.40481974,0.19900935,0.55353504,0.11936364,-0.40285102,0.27519135,-0.66720617,0.20961599,-0.23100502,-0.66712573,0.32341845,-0.03204091
5.72000000,-0.44846869,0.62231390,-0.40482118,0.19805545,0.55353504,0.11957510,-0.40377908,0.27522747,-0.66763614,0.20963034,-0.23207448,-0.66783720,0.32385790,-0.03199006
5.74000000,-0.44921151,0.62249345,-0.40482258,0.19712143,0.55353504,0.11978216,-0.40468780,0.27526284,-0.66805715,0.20964440,-0.23312167,-0.66853384,0.32428821,-0.03194026
5.76000000,-0.44993845,0.62266917,-0.40482396,0.19620738,0.55353504,0.11998479,-0.40557709,0.27529745,-0.66846915,0.20965815,-0.23414645,-0.66921559,0.32470930,-0.03189154
5.78000000,-0.45064943,0.62284102,-0.40482531,0.19531341,0.55353504,0.12018297,-0.40644684,0.27533130,-0.66887211,0.20967160,-0.23514874,-0.66988236,0.32512115,-0.03184388
5.80000000,-0.45134437,0.62300900,-0.40482663,0.19443959,0.55353504,0.12037667,-0.40729699,0.27536439,-0.66926597,0.20968475,-0.23612842,-0.67053410,0.32552372,-0.03179730
5.82000000,-0.45202322,0.62317310,-0.40482792,0.19358601,0.55353504,0.12056590,-0.40812745,0.27539671,-0.66965072,0.20969760,-0.23708542,-0.67117075,0.32591696,-0.03175179
5.84000000,-0.45268593,0.62333328,-0.40482918,0.19275273,0.55353504,0.12075062,-0.40893816,0.27542827,-0.67002632,0.20971013,-0.23801966,-0.67179226,0.32630085,-0.03170737
5.86000000,-0.45333245,0.62348956,-0.40483040,0.19193979,0.55353504,0.12093083,-0.40972908,0.27545905,-0.67039275,0.20972237,-0.23893108,-0.67239859,0.32667536,-0.03166403
5.88000000,-0.45396275,0.62364192,-0.40483160,0.19114725,0.55353504,0.12110653,-0.41050015,0.27548906,-0.67074998,0.20973429,-0.23981964,-0.67298971,0.32704048,-0.03162178
5.90000000,-0.45457682,0.62379035,-0.40483276,0.19037513,0.55353504,0.12127769,-0.41125135,0.27551830,-0.67109801,0.20974591,-0.24068531,-0.67356560,0.32739619,-0.03158062
5.92000000,-0.45517462,0.62393485,-0.40483390,0.18962346,0.55353504,0.12144432,-0.41198267,0.27554676,-0.67143683,0.20975722,-0.24152805,-0.67412624,0.32774249,-0.03154055
5.94000000,-0.45575616,0.62407542,-0.40483500,0.18889223,0.55353504,0.12160642,-0.41269408,0.27557445,-0.67176642,0.20976822,-0.24234786,-0.67467162,0.32807936,-0.03150157
5.96000000,-0.45632144,0.62421206,-0.40483607,0.18818146,0.55353504,0.12176399,-0.41338561,0.27560137,-0.67208680,0.20977892,-0.24314476,-0.67520176,0.32840681,-0.03146368
5.98000000,-0.45687047,0.62434477,-0.40483711,0.18749111,0.55353504,0.12191702,-0.41405725,0.27562751,-0.67239798,0.20978930,-0.24391874,-0.67571666,0.32872485,-0.03142688
6.00000000,-0.45740327,0.62447356,-0.40483812,0.18682117,0.55353504,0.12206554,-0.41470905,0.27565288,-0.67269995,0.20979938,-0.24466985,-0.67621634,0.32903349,-0.03139116
6.02000000,-0.45791988,0.62459843,-0.40483910,0.18617159,0.55353504,0.12220954,-0.41534103,0.27567747,-0.67299275,0.20980916,-0.24539813,-0.67670083,0.32933275,-0.03135653
6.04000000,-0.45842033,0.62471940,-0.40484005,0.18554232,0.55353504,0.12234904,-0.41595326,0.27570130,-0.67327639,0.20981863,-0.24610364,-0.67717017,0.32962265,-0.03132299
6.06000000,-0.45890469,0.62483648,-0.40484097,0.18493329,0.55353504,0.12248404,-0.41654578,0.27572437,-0.67355090,0.20982779,-0.24678645,-0.67762442,0.32990322,-0.03129052
6.08000000,-0.45937300,0.62494968,-0.40484186,0.18434444,0.55353504,0.12261458,-0.41711869,0.27574666,-0.67381633,0.20983665,-0.24744665,-0.67806362,0.33017451,-0.03125913
6.10000000,-0.45982535,0.62505902,-0.40484272,0.18377566,0.55353504,0.12274067,-0.41767206,0.27576820,-0.67407270,0.20984521,-0.24808434,-0.67848784,0.33043654,-0.03122881
6.12000000,-0.46026181,0.62516452,-0.40484355,0.18322685,0.55353504,0.12286233,-0.41820600,0.27578898,-0.67432007,0.20985347,-0.24869963,-0.67889717,0.33068937,-0.03119955
6.14000000,-0.46068249,0.62526621,-0.40484435,0.18269790,0.55353504,0.12297959,-0.41872063,0.27580901,-0.67455850,0.20986143,-0.24929267,-0.67929170,0.33093306,-0.03117135
6.16000000,-0.46108747,0.62536410,-0.40484511,0.18218867,0.55353504,0.12309248,-0.41921606,0.27582830,-0.67478803,0.20986909,-0.24986359,-0.67967150,0.33116766,-0.03114421
6.18000000,-0.46147689,0.62545823,-0.40484585,0.18169903,0.55353504,0.12320102,-0.41969244,0.27584684,-0.67500873,0.20987646,-0.25041256,-0.68003671,0.33139323,-0.03111810
6.20000000,-0.46185085,0.62554862,-0.40484656,0.18122880,0.55353504,0.12330526,-0.42014992,0.27586464,-0.67522069,0.20988353,-0.25093975,-0.68038742,0.33160986,-0.03109304
6.22000000,-0.46220951,0.62563532,-0.40484724,0.18077784,0.55353504,0.12340523,-0.42058868,0.27588172,-0.67542396,0.20989032,-0.25144536,-0.68072378,0.33181762,-0.03106899
6.24000000,-0.46255300,0.62571834,-0.40484789,0.18034593,0.55353504,0.12350098,-0.42100888,0.27589808,-0.67561864,0.20989682,-0.25192959,-0.68104592,0.33201660,-0.03104597
6.26000000,-0.46288148,0.62579774,-0.40484852,0.17993290,0.55353504,0.12359254,-0.42141073,0.27591372,-0.67580481,0.20990303,-0.25239266,-0.68135398,0.33220688,-0.03102395
6.28000000,-0.46319513,0.62587356,-0.40484911,0.17953851,0.55353504,0.12367997,-0.42179443,0.27592865,-0.67598258,0.20990897,-0.25283483,-0.68164814,0.33238857,-0.03100293
6.30000000,-0.46349413,0.62594583,-0.40484968,0.17916255,0.55353504,0.12376331,-0.42216021,0.27594289,-0.67615204,0.20991462,-0.25325634,-0.68192855,0.33256178,-0.03098288
6.32000000,-0.46377867,0.62601461,-0.40485022,0.17880477,0.55353504,0.12384262,-0.42250830,0.27595643,-0.67631331,0.20992001,-0.25365746,-0.68219540,0.33272660,-0.03096381
6.34000000,-0.46404896,0.62607995,-0.40485073,0.17846491,0.55353504,0.12391797,-0.42283895,0.27596930,-0.67646650,0.20992512,-0.25403850,-0.68244888,0.33288318,-0.03094569
6.36000000,-0.46430521,0.62614189,-0.40485122,0.17814270,0.55353504,0.12398939,-0.42315243,0.27598150,-0.67661173,0.20992997,-0.25439974,-0.68268921,0.33303162,-0.03092852
6.38000000,-0.46454766,0.62620049,-0.40485168,0.17783786,0.55353504,0.12405697,-0.42344902,0.27599305,-0.67674914,0.20993455,-0.25474153,-0.68291658,0.33317206,-0.03091226
6.40000000,-0.46477654,0.62625582,-0.40485211,0.17755006,0.55353504,0.12412077,-0.42372902,0.27600395,-0.67687886,0.20993889,-0.25506419,-0.68313123,0.33330464,-0.03089692
6.42000000,-0.46499211,0.62630792,-0.40485252,0.17727901,0.55353504,0.12418086,-0.42399273,0.27601421,-0.67700104,0.20994296,-0.25536808,-0.68333340,0.33342952,-0.03088247
6.44000000,-0.46519463,0.62635688,-0.40485291,0.17702436,0.55353504,0.12423731,-0.42424048,0.27602385,-0.67711582,0.20994680,-0.25565358,-0.68352333,0.33354683,-0.03086890
6.46000000,-0.46538439,0.62640275,-0.40485327,0.17678576,0.55353504,0.12429020,-0.42447262,0.27603289,-0.67722337,0.20995039,-0.25592109,-0.68370129,0.33365676,-0.03085618
6.48000000,-0.46556167,0.62644560,-0.40485360,0.17656284,0.55353504,0.12433962,-0.42468950,0.27604133,-0.67732385,0.20995374,-0.25617102,-0.68386755,0.33375945,-0.03084429
6.50000000,-0.46572679,0.62648551,-0.40485392,0.17635523,0.55353504,0.12438564,-0.42489149,0.27604919,-0.67741743,0.20995686,-0.25640378,-0.68402240,0.33385510,-0.03083323
6.52000000,-0.46588005,0.62652256,-0.40485421,0.17616251,0.55353504,0.12442836,-0.42507898,0.27605649,-0.67750430,0.20995976,-0.25661984,-0.68416614,0.33394388,-0.03082295
6.54000000,-0.46602179,0.62655682,-0.40485447,0.17598429,0.55353504,0.12446787,-0.42525238,0.27606324,-0.67758463,0.20996245,-0.25681966,-0.68429907,0.33402599,-0.03081345
6.56000000,-0.46615236,0.62658838,-0.40485472,0.17582012,0.55353504,0.12450427,-0.42541210,0.27606945,-0.67765863,0.20996492,-0.25700372,-0.68442152,0.33410162,-0.03080470
6.58000000,-0.46627210,0.62661732,-0.40485495,0.17566955,0.55353504,0.12453765,-0.42555859,0.27607516,-0.67772650,0.20996718,-0.25717253,-0.68453382,0.33417099,-0.03079667
6.60000000,-0.46638140,0.62664374,-0.40485516,0.17553212,0.55353504,0.12456811,-0.42569229,0.27608036,-0.67778844,0.20996925,-0.25732661,-0.68463632,0.33423430,-0.03078935
6.62000000,-0.46648063,0.62666773,-0.40485535,0.17540735,0.55353504,0.12459577,-0.42581369,0.27608508,-0.67784468,0.20997113,-0.25746650,-0.68472938,0.33429178,-0.03078270
6.64000000,-0.46657019,0.62668938,-0.40485552,0.17529474,0.55353504,0.12462073,-0.42592325,0.27608935,-0.67789544,0.20997282,-0.25759276,-0.68481337,0.33434366,-0.03077669
6.66000000,-0.46665050,0.62670879,-0.40485567,0.17519376,0.55353504,0.12464312,-0.42602150,0.27609317,-0.67794096,0.20997434,-0.25770597,-0.68488869,0.33439018,-0.03077131
6.68000000,-0.46672198,0.62672607,-0.40485580,0.17510388,0.55353504,0.12466304,-0.42610894,0.27609658,-0.67798147,0.20997569,-0.25780674,-0.68495573,0.33443159,-0.03076652
6.70000000,-0.46678507,0.62674132,-0.40485592,0.17502455,0.55353504,0.12468063,-0.42618612,0.27609958,-0.67801723,0.20997689,-0.25789568,-0.68501490,0.33446814,-0.03076229
6.72000000,-0.46684023,0.62675465,-0.40485603,0.17495519,0.55353504,0.12469601,-0.42625360,0.27610221,-0.67804849,0.20997793,-0.25797344,-0.68506663,0.33450009,-0.03075859
6.74000000,-0.46688792,0.62676618,-0.40485612,0.17489522,0.55353504,0.12470930,-0.42631194,0.27610448,-0.67807552,0.20997883,-0.25804067,-0.68511135,0.33452772,-0.03075539
6.76000000,-0.46692864,0.62677602,-0.40485620,0.17484403,0.55353504,0.12472065,-0.42636175,0.27610642,-0.67809860,0.20997960,-0.25809807,-0.68514954,0.33455130,-0.03075267
6.78000000,-0.46696286,0.62678429,-0.40485626,0.17480099,0.55353504,0.12473019,-0.42640362,0.27610805,-0.67811800,0.20998025,-0.25814632,-0.68518164,0.33457113,-0.03075037
6.80000000,-0.46699112,0.62679112,-0.40485631,0.17476546,0.55353504,0.12473807,-0.42643819,0.27610939,-0.67813401,0.20998078,-0.25818616,-0.68520814,0.33458750,-0.03074848
6.82000000,-0.46701394,0.62679664,-0.40485636,0.17473677,0.55353504,0.12474443,-0.42646610,0.27611048,-0.67814694,0.20998122,-0.25821832,-0.68522953,0.33460071,-0.03074695
6.84000000,-0.46703185,0.62680097,-0.40485639,0.17471424,0.55353504,0.12474942,-0.42648802,0.27611133,-0.67815710,0.20998156,-0.25824358,-0.68524634,0.33461109,-0.03074575
6.86000000,-0.46704543,0.62680425,-0.40485642,0.17469718,0.55353504,0.12475320,-0.42650462,0.27611198,-0.67816479,0.20998181,-0.25826271,-0.68525907,0.33461895,-0.03074484
6.88000000,-0.46705523,0.62680662,-0.40485644,0.17468485,0.55353504,0.12475594,-0.42651662,0.27611244,-0.67817035,0.20998200,-0.25827654,-0.68526826,0.33462464,-0.03074418
6.90000000,-0.46706186,0.62680822,-0.40485645,0.17467651,0.55353504,0.12475778,-0.42652473,0.27611276,-0.67817411,0.20998212,-0.25828588,-0.68527448,0.33462847,-0.03074373
6.92000000,-0.46706591,0.62680920,-0.40485646,0.17467142,0.55353504,0.12475891,-0.42652968,0.27611295,-0.67817640,0.20998220,-0.25829159,-0.68527828,0.33463082,-0.03074346
6.94000000,-0.46706801,0.62680971,-0.40485646,0.17466878,0.55353504,0.12475950,-0.42653225,0.27611305,-0.67817759,0.20998224,-0.25829455,-0.68528025,0.33463204,-0.03074332
6.96000000,-0.46706879,0.62680990,-0.40485646,0.17466780,0.55353504,0.12475971,-0.42653320,0.27611309,-0.67817803,0.20998225,-0.25829565,-0.68528098,0.33463249,-0.03074327
6.98000000,-0.46706890,0.62680992,-0.40485646,0.17466766,0.55353504,0.12475975,-0.42653334,0.27611309,-0.67817810,0.20998226,-0.25829580,-0.68528108,0.33463255,-0.03074326
7.00000000,-0.46706890,0.62680999,-0.40485647,0.17466749,0.55353514,0.12475987,-0.42653342,0.27611310,-0.67817816,0.20998227,-0.25829593,-0.68528118,0.33463258,-0.03074327
7.02000000,-0.46706887,0.62681043,-0.40485653,0.17466628,0.55353583,0.12476072,-0.42653399,0.27611311,-0.67817857,0.20998239,-0.25829684,-0.68528187,0.33463281,-0.03074330
7.04000000,-0.46706881,0.62681163,-0.40485670,0.17466303,0.55353770,0.12476301,-0.42653552,0.27611315,-0.67817970,0.20998270,-0.25829929,-0.68528373,0.33463341,-0.03074337
7.06000000,-0.46706868,0.62681393,-0.40485702,0.17465676,0.55354131,0.12476745,-0.42653848,0.27611322,-0.67818187,0.20998330,-0.25830401,-0.68528733,0.33463457,-0.03074352
7.08000000,-0.46706848,0.62681771,-0.40485754,0.17464650,0.55354721,0.12477470,-0.42654332,0.27611333,-0.67818543,0.20998429,-0.25831174,-0.68529321,0.33463648,-0.03074377
7.10000000,-0.46706818,0.62682329,-0.40485832,0.17463131,0.55355594,0.12478543,-0.42655048,0.27611350,-0.67819069,0.20998574,-0.25832317,-0.68530192,0.33463929,-0.03074413
7.12000000,-0.46706777,0.62683102,-0.40485939,0.17461029,0.55356802,0.12480028,-0.42656039,0.27611374,-0.67819798,0.20998776,-0.25833900,-0.68531397,0.33464319,-0.03074463
7.14000000,-0.46706722,0.62684122,-0.40486081,0.17458254,0.55358398,0.12481988,-0.42657347,0.27611406,-0.67820759,0.20999042,-0.25835989,-0.68532987,0.33464834,-0.03074529
7.16000000,-0.46706652,0.62685421,-0.40486261,0.17454721,0.55360429,0.12484484,-0.42659012,0.27611445,-0.67821984,0.20999381,-0.25838649,-0.68535013,0.33465489,-0.03074614
7.18000000,-0.46706565,0.62687030,-0.40486485,0.17450344,0.55362945,0.12487576,-0.42661075,0.27611495,-0.67823500,0.20999801,-0.25841944,-0.68537521,0.33466301,-0.03074718
7.20000000,-0.46706461,0.62688979,-0.40486756,0.17445044,0.55365992,0.12491321,-0.42663574,0.27611555,-0.67825338,0.21000309,-0.25845935,-0.68540560,0.33467284,-0.03074844
7.22000000,-0.46706336,0.62691297,-0.40487078,0.17438739,0.55369617,0.12495775,-0.42666546,0.27611626,-0.67827523,0.21000914,-0.25850682,-0.68544174,0.33468453,-0.03074995
7.24000000,-0.46706190,0.62694012,-0.40487455,0.17431352,0.55373863,0.12500993,-0.42670028,0.27611709,-0.67830082,0.21001622,-0.25856242,-0.68548408,0.33469823,-0.03075171
7.26000000,-0.46706021,0.62697153,-0.40487891,0.17422810,0.55378774,0.12507027,-0.42674055,0.27611806,-0.67833043,0.21002441,-0.25862674,-0.68553305,0.33471407,-0.03075374
7.28000000,-0.46705828,0.62700745,-0.40488390,0.17413039,0.55384392,0.12513930,-0.42678661,0.27611916,-0.67836429,0.21003379,-0.25870030,-0.68558906,0.33473219,-0.03075607
7.30000000,-0.46705609,0.62704815,-0.40488956,0.17401969,0.55390756,0.12521750,-0.42683880,0.27612041,-0.67840265,0.21004440,-0.25878364,-0.68565251,0.33475272,-0.03075871
7.32000000,-0.46705363,0.62709387,-0.40489591,0.17389532,0.55397906,0.12530537,-0.42689743,0.27612181,-0.67844575,0.21005633,-0.25887728,-0.68572381,0.33477579,-0.03076168
7.34000000,-0.46705089,0.62714487,-0.40490300,0.17375662,0.55405880,0.12540336,-0.42696282,0.27612338,-0.67849382,0.21006963,-0.25898171,-0.68580332,0.33480151,-0.03076499
7.36000000,-0.46704785,0.62720136,-0.40491085,0.17360294,0.55414715,0.12551192,-0.42703526,0.27612511,-0.67854708,0.21008437,-0.25909741,-0.68589141,0.33483001,-0.03076865
7.38000000,-0.46704450,0.62726359,-0.40491949,0.17343368,0.55424446,0.12563150,-0.42711505,0.27612703,-0.67860574,0.21010061,-0.25922484,-0.68598843,0.33486141,-0.03077269
7.40000000,-0.46704084,0.62733177,-0.40492896,0.17324823,0.55435108,0.12576251,-0.42720248,0.27612912,-0.67867000,0.21011839,-0.25936446,-0.68609474,0.33489580,-0.03077711
7.42000000,-0.46703684,0.62740611,-0.40493929,0.17304603,0.55446732,0.12590535,-0.42729780,0.27613140,-0.67874008,0.21013779,-0.25951669,-0.68621064,0.33493330,-0.03078193
7.44000000,-0.46703250,0.62748681,-0.40495051,0.17282652,0.55459352,0.12606043,-0.42740128,0.27613388,-0.67881615,0.21015884,-0.25968196,-0.68633647,0.33497401,-0.03078716
7.46000000,-0.46702780,0.62757408,-0.40496263,0.17258916,0.55472998,0.12622811,-0.42751317,0.27613656,-0.67889841,0.21018160,-0.25986066,-0.68647253,0.33501803,-0.03079282
7.48000000,-0.46702275,0.62766809,-0.40497569,0.17233345,0.55487699,0.12640875,-0.42763371,0.27613945,-0.67898702,0.21020613,-0.26005317,-0.68661911,0.33506545,-0.03079892
7.50000000,-0.46701732,0.62776903,-0.40498972,0.17205889,0.55503483,0.12660272,-0.42776314,0.27614255,-0.67908217,0.21023246,-0.26025988,-0.68677649,0.33511637,-0.03080547
7.52000000,-0.46701151,0.62787707,-0.40500473,0.17176502,0.55520378,0.12681032,-0.42790168,0.27614586,-0.67918401,0.21026065,-0.26048113,-0.68694495,0.33517087,-0.03081247
7.54000000,-0.46700531,0.62799238,-0.40502075,0.17145138,0.55538410,0.12703190,-0.42804953,0.27614940,-0.67929271,0.21029073,-0.26071727,-0.68712474,0.33522904,-0.03081995
7.56000000,-0.46699871,0.62811512,-0.40503780,0.17111753,0.55557603,0.12726775,-0.42820691,0.27615317,-0.67940840,0.21032275,-0.26096861,-0.68731611,0.33529095,-0.03082791
7.58000000,-0.46699170,0.62824543,-0.40505591,0.17076307,0.55577981,0.12751816,-0.42837401,0.27615717,-0.67953124,0.21035674,-0.26123548,-0.68751930,0.33535669,-0.03083636
7.60000000,-0.46698427,0.62838347,-0.40507508,0.17038760,0.55599567,0.12778341,-0.42855101,0.27616141,-0.67966136,0.21039275,-0.26151816,-0.68773453,0.33542633,-0.03084532
7.62000000,-0.46697643,0.62852937,-0.40509536,0.16999075,0.55622382,0.12806376,-0.42873809,0.27616589,-0.67979889,0.21043082,-0.26181694,-0.68796201,0.33549993,-0.03085478
7.64000000,-0.46696815,0.62868327,-0.40511674,0.16957216,0.55646447,0.12835948,-0.42893542,0.27617062,-0.67994396,0.21047096,-0.26213208,-0.68820196,0.33557756,-0.03086476
7.66000000,-0.46695944,0.62884527,-0.40513925,0.16913150,0.55671781,0.12867078,-0.42914315,0.27617559,-0.68009667,0.21051323,-0.26246385,-0.68845456,0.33565928,-0.03087527
7.68000000,-0.46695028,0.62901551,-0.40516290,0.16866844,0.55698402,0.12899791,-0.42936144,0.27618082,-0.68025714,0.21055764,-0.26281247,-0.68871999,0.33574516,-0.03088631
7.70000000,-0.46694068,0.62919410,-0.40518771,0.16818270,0.55726328,0.12934107,-0.42959043,0.27618631,-0.68042548,0.21060422,-0.26317818,-0.68899843,0.33583524,-0.03089789
7.72000000,-0.46693062,0.62938112,-0.40521369,0.16767398,0.55755574,0.12970045,-0.42983024,0.27619205,-0.68060177,0.21065302,-0.26356118,-0.68929004,0.33592959,-0.03091002
7.74000000,-0.46692010,0.62957670,-0.40524087,0.16714202,0.55786156,0.13007625,-0.43008101,0.27619805,-0.68078613,0.21070403,-0.26396168,-0.68959498,0.33602825,-0.03092270
7.76000000,-0.46690912,0.62978090,-0.40526924,0.16658658,0.55818089,0.13046865,-0.43034285,0.27620432,-0.68097862,0.21075731,-0.26437985,-0.68991337,0.33613126,-0.03093595
7.78000000,-0.46689767,0.62999382,-0.40529882,0.16600743,0.55851385,0.13087779,-0.43061587,0.27621086,-0.68117932,0.21081285,-0.26481588,-0.69024535,0.33623867,-0.03094976
7.80000000,-0.46688575,0.63021554,-0.40532963,0.16540435,0.55886056,0.13130383,-0.43090017,0.27621767,-0.68138832,0.21087069,-0.26526992,-0.69059105,0.33635051,-0.03096414
7.82000000,-0.46687334,0.63044613,-0.40536166,0.16477716,0.55922113,0.13174691,-0.43119584,0.27622475,-0.68160567,0.21093085,-0.26574212,-0.69095058,0.33646683,-0.03097909
7.84000000,-0.46686046,0.63068564,-0.40539494,0.16412567,0.55959568,0.13220716,-0.43150295,0.27623211,-0.68183145,0.21099333,-0.26623261,-0.69132403,0.33658765,-0.03099463
7.86000000,-0.46684710,0.63093415,-0.40542947,0.16344973,0.55998428,0.13268468,-0.43182160,0.27623974,-0.68206570,0.21105816,-0.26674151,-0.69171149,0.33671301,-0.03101074
7.88000000,-0.46683325,0.63119170,-0.40546525,0.16274919,0.56038702,0.13317958,-0.43215185,0.27624765,-0.68230847,0.21112535,-0.26726893,-0.69211306,0.33684294,-0.03102745
7.90000000,-0.46681891,0.63145835,-0.40550230,0.16202392,0.56080398,0.13369195,-0.43249375,0.27625583,-0.68255982,0.21119491,-0.26781497,-0.69252881,0.33697744,-0.03104474
7.92000000,-0.46680408,0.63173412,-0.40554061,0.16127381,0.56123523,0.13422187,-0.43284736,0.27626430,-0.68281977,0.21126685,-0.26837971,-0.69295879,0.33711656,-0.03106263
7.94000000,-0.46678875,0.63201906,-0.40558020,0.16049876,0.56168080,0.13476940,-0.43321272,0.27627305,-0.68308836,0.21134118,-0.26896322,-0.69340306,0.33726030,-0.03108111
7.96000000,-0.46677293,0.63231320,-0.40562107,0.15969870,0.56214076,0.13533460,-0.43358988,0.27628208,-0.68336563,0.21141792,-0.26956557,-0.69386168,0.33740867,-0.03110018
7.98000000,-0.46675662,0.63261656,-0.40566321,0.15887356,0.56261514,0.13591753,-0.43397886,0.27629140,-0.68365158,0.21149706,-0.27018680,-0.69433467,0.33756170,-0.03111986
8.00000000,-0.46673981,0.63292916,-0.40570665,0.15802329,0.56310396,0.13651820,-0.43437969,0.27630100,-0.68394624,0.21157861,-0.27082694,-0.69482207,0.33771939,-0.03114013
8.02000000,-0.46672250,0.63325101,-0.40575136,0.15714786,0.56360725,0.13713665,-0.43479238,0.27631088,-0.68424963,0.21166257,-0.27148604,-0.69532389,0.33788175,-0.03116100
8.04000000,-0.46670469,0.63358212,-0.40579736,0.15624724,0.56412502,0.13777290,-0.43521694,0.27632105,-0.68456174,0.21174895,-0.27216409,-0.69584015,0.33804878,-0.03118248
8.06000000,-0.46668639,0.63392249,-0.40584465,0.15532144,0.56465727,0.13842693,-0.43565337,0.27633150,-0.68488258,0.21183774,-0.27286111,-0.69637084,0.33822048,-0.03120455
8.08000000,-0.46666758,0.63427211,-0.40589323,0.15437045,0.56520400,0.13909876,-0.43610168,0.27634224,-0.68521215,0.21192895,-0.27357708,-0.69691597,0.33839684,-0.03122723
8.10000000,-0.46664828,0.63463099,-0.40594309,0.15339431,0.56576518,0.13978836,-0.43656184,0.27635326,-0.68555043,0.21202257,-0.27431199,-0.69747552,0.33857788,-0.03125050
8.12000000,-0.46662849,0.63499909,-0.40599423,0.15239306,0.56634081,0.14049570,-0.43703385,0.27636456,-0.68589742,0.21211860,-0.27506581,-0.69804947,0.33876357,-0.03127438
8.14000000,-0.46660819,0.63537642,-0.40604666,0.15136673,0.56693085,0.14122074,-0.43751767,0.27637615,-0.68625309,0.21221703,-0.27583851,-0.69863778,0.33895391,-0.03129885
8.16000000,-0.46658741,0.63576293,-0.40610036,0.15031541,0.56753526,0.14196345,-0.43801327,0.27638802,-0.68661743,0.21231786,-0.27663002,-0.69924043,0.33914889,-0.03132392
8.18000000,-0.46656613,0.63615861,-0.40615533,0.14923917,0.56815399,0.14272377,-0.43852062,0.27640017,-0.68699040,0.21242108,-0.27744030,-0.69985736,0.33934848,-0.03134958
8.20000000,-0.46654436,0.63656341,-0.40621157,0.14813810,0.56878700,0.14350162,-0.43903968,0.27641260,-0.68737198,0.21252669,-0.27826927,-0.70048852,0.33955269,-0.03137583
8.22000000,-0.46652210,0.63697731,-0.40626908,0.14701231,0.56943423,0.14429694,-0.43957039,0.27642531,-0.68776213,0.21263466,-0.27911685,-0.70113385,0.33976148,-0.03140268
8.24000000,-0.46649935,0.63740024,-0.40632784,0.14586191,0.57009559,0.14510964,-0.44011270,0.27643829,-0.68816080,0.21274500,-0.27998296,-0.70179329,0.33997483,-0.03143011
8.26000000,-0.46647612,0.63783218,-0.40638785,0.14468704,0.57077103,0.14593963,-0.44066655,0.27645156,-0.68856796,0.21285768,-0.28086749,-0.70246676,0.34019272,-0.03145812
8.28000000,-0.46645241,0.63827306,-0.40644911,0.14348784,0.57146046,0.14678681,-0.44123187,0.27646510,-0.68898354,0.21297269,-0.28177034,-0.70315417,0.34041512,-0.03148671
8.30000000,-0.46642822,0.63872283,-0.40651160,0.14226446,0.57216378,0.14765107,-0.44180858,0.27647891,-0.68940751,0.21309002,-0.28269139,-0.70385545,0.34064201,-0.03151588
8.32000000,-0.46640356,0.63918143,-0.40657531,0.14101708,0.57288091,0.14853229,-0.44239661,0.27649299,-0.68983979,0.21320966,-0.28363051,-0.70457048,0.34087334,-0.03154563
8.34000000,-0.46637842,0.63964878,-0.40664025,0.13974586,0.57361174,0.14943034,-0.44299588,0.27650734,-0.69028034,0.21333158,-0.28458758,-0.70529917,0.34110910,-0.03157594
8.36000000,-0.46635282,0.64012483,-0.40670639,0.13845102,0.57435615,0.15034509,-0.44360628,0.27652196,-0.69072907,0.21345577,-0.28556244,-0.70604141,0.34134924,-0.03160681
8.38000000,-0.46632676,0.64060949,-0.40677372,0.13713273,0.57511404,0.15127639,-0.44422774,0.27653684,-0.69118592,0.21358220,-0.28655494,-0.70679709,0.34159373,-0.03163825
8.40000000,-0.46630023,0.64110269,-0.40684225,0.13579123,0.57588527,0.15222410,-0.44486014,0.27655199,-0.69165082,0.21371087,-0.28756493,-0.70756607,0.34184252,-0.03167023
8.42000000,-0.46627325,0.64160434,-0.40691194,0.13442673,0.57666973,0.15318805,-0.44550338,0.27656739,-0.69212369,0.21384174,-0.28859223,-0.70834824,0.34209558,-0.03170277
8.44000000,-0.46624583,0.64211436,-0.40698280,0.13303948,0.57746727,0.15416808,-0.44615735,0.27658305,-0.69260445,0.21397479,-0.28963666,-0.70914345,0.34235286,-0.03173584
8.46000000,-0.46621795,0.64263266,-0.40705481,0.13162971,0.57827775,0.15516402,-0.44682193,0.27659897,-0.69309301,0.21411000,-0.29069804,-0.70995157,0.34261431,-0.03176946
8.48000000,-0.46618964,0.64315914,-0.40712796,0.13019768,0.57910103,0.15617568,-0.44749700,0.27661513,-0.69358928,0.21424734,-0.29177618,-0.71077244,0.34287989,-0.03180360
8.50000000,-0.46616089,0.64369370,-0.40720223,0.12874367,0.57993695,0.15720287,-0.44818244,0.27663155,-0.69409318,0.21438679,-0.29287087,-0.71160592,0.34314955,-0.03183827
8.52000000,-0.46613171,0.64423625,-0.40727761,0.12726794,0.58078535,0.15824540,-0.44887812,0.27664821,-0.69460459,0.21452833,-0.29398191,-0.71245185,0.34342324,-0.03187346
8.54000000,-0.46610211,0.64478667,-0.40735408,0.12577079,0.58164607,0.15930306,-0.44958389,0.27666511,-0.69512343,0.21467192,-0.29510908,-0.71331005,0.34370090,-0.03190916
8.56000000,-0.46607209,0.64534486,-0.40743164,0.12425251,0.58251894,0.16037566,-0.45029962,0.27668225,-0.69564960,0.21481754,-0.29625215,-0.71418037,0.34398248,-0.03194536
8.58000000,-0.46604166,0.64591070,-0.40751025,0.12271341,0.58340377,0.16146296,-0.45102517,0.27669963,-0.69618298,0.21496515,-0.29741090,-0.71506262,0.34426792,-0.03198206
8.60000000,-0.46601082,0.64648408,-0.40758992,0.12115380,0.58430040,0.16256474,-0.45176039,0.27671723,-0.69672346,0.21511473,-0.29858509,-0.71595663,0.34455716,-0.03201925
8.62000000,-0.46597959,0.64706489,-0.40767061,0.11957402,0.58520862,0.16368079,-0.45250512,0.27673507,-0.69727094,0.21526625,-0.29977448,-0.71686220,0.34485014,-0.03205691
8.64000000,-0.46594796,0.64765299,-0.40775232,0.11797438,0.58612826,0.16481086,-0.45325921,0.27675313,-0.69782530,0.21541967,-0.30097880,-0.71777916,0.34514681,-0.03209506
8.66000000,-0.46591594,0.64824826,-0.40783502,0.11635524,0.58705911,0.16595470,-0.45402249,0.27677141,-0.69838642,0.21557496,-0.30219782,-0.71870729,0.34544709,-0.03213366
8.68000000,-0.46588355,0.64885057,-0.40791871,0.11471694,0.58800098,0.16711208,-0.45479480,0.27678990,-0.69895417,0.21573209,-0.30343125,-0.71964641,0.34575093,-0.03217273
8.70000000,-0.46585079,0.64945979,-0.40800335,0.11305985,0.58895365,0.16828274,-0.45557598,0.27680861,-0.69952845,0.21589102,-0.30467884,-0.72059630,0.34605825,-0.03221224
8.72000000,-0.46581766,0.65007580,-0.40808894,0.11138432,0.58991692,0.16946642,-0.45636584,0.27682753,-0.70010910,0.21605172,-0.30594030,-0.72155675,0.34636899,-0.03225219
8.74000000,-0.46578417,0.65069843,-0.40817544,0.10969074,0.59089056,0.17066286,-0.45716421,0.27684664,-0.70069602,0.21621415,-0.30721536,-0.72252756,0.34668308,-0.03229257
8.76000000,-0.46575034,0.65132757,-0.40826285,0.10797948,0.59187437,0.17187178,-0.45797092,0.27686596,-0.70128906,0.21637827,-0.30850372,-0.72350850,0.34700045,-0.03233337
8.78000000,-0.46571616,0.65196306,-0.40835115,0.10625094,0.59286812,0.17309291,-0.45878577,0.27688548,-0.70188809,0.21654406,-0.30980510,-0.72449934,0.34732102,-0.03237459
8.80000000,-0.46568165,0.65260476,-0.40844030,0.10450552,0.59387157,0.17432597,-0.45960859,0.27690518,-0.70249297,0.21671146,-0.31111919,-0.72549987,0.34764473,-0.03241621
8.82000000,-0.46564681,0.65325252,-0.40853030,0.10274360,0.59488450,0.17557068,-0.46043917,0.27692507,-0.70310357,0.21688044,-0.31244569,-0.72650984,0.34797149,-0.03245822
8.84000000,-0.46561166,0.65390619,-0.40862112,0.10096562,0.59590667,0.17682674,-0.46127733,0.27694515,-0.70371973,0.21705097,-0.31378429,-0.72752903,0.34830123,-0.03250061
8.86000000,-0.46557620,0.65456561,-0.40871273,0.09917198,0.59693784,0.17809386,-0.46212287,0.27696540,-0.70434132,0.21722299,-0.31513468,-0.72855719,0.34863388,-0.03254338
8.88000000,-0.46554043,0.65523064,-0.40880513,0.09736311,0.59797777,0.17937174,-0.46297560,0.27698582,-0.70496819,0.21739648,-0.31649653,-0.72959408,0.34896935,-0.03258651
8.90000000,-0.46550437,0.65590110,-0.40889828,0.09553944,0.59902621,0.18066008,-0.46383530,0.27700640,-0.70560019,0.21757139,-0.31786953,-0.73063946,0.34930756,-0.03262999
8.92000000,-0.46546803,0.65657685,-0.40899217,0.09370140,0.60008291,0.18195857,-0.46470177,0.27702715,-0.70623717,0.21774767,-0.31925334,-0.73169307,0.34964844,-0.03267382
8.94000000,-0.46543141,0.65725772,-0.40908677,0.09184944,0.60114761,0.18326689,-0.46557481,0.27704806,-0.70687897,0.21792529,-0.32064764,-0.73275466,0.34999191,-0.03271798
8.96000000,-0.46539453,0.65794354,-0.40918205,0.08998400,0.60222006,0.18458473,-0.46645420,0.27706912,-0.70752544,0.21810421,-0.32205208,-0.73382398,0.35033787,-0.03276246
8.98000000,-0.46535739,0.65863415,-0.40927800,0.08810554,0.60329999,0.18591177,-0.46733972,0.27709033,-0.70817643,0.21828437,-0.32346633,-0.73490076,0.35068625,-0.03280725
9.00000000,-0.46532000,0.65932938,-0.40937459,0.08621451,0.60438715,0.18724770,-0.46823118,0.27711168,-0.70883177,0.21846574,-0.32489004,-0.73598475,0.35103695,-0.03285234
9.02000000,-0.46528237,0.66002905,-0.40947180,0.08431139,0.60548127,0.18859216,-0.46912833,0.27713316,-0.70949130,0.21864826,-0.32632286,-0.73707567,0.35138990,-0.03289772
9.04000000,-0.46524451,0.66073301,-0.40956961,0.08239662,0.60658207,0.18994485,-0.47003097,0.27715478,-0.71015487,0.21883191,-0.32776444,-0.73817326,0.35174501,-0.03294337
9.06000000,-0.46520643,0.66144107,-0.40966798,0.08047070,0.60768930,0.19130543,-0.47093887,0.27717652,-0.71082230,0.21901662,-0.32921442,-0.73927725,0.35210219,-0.03298929
9.08000000,-0.46516814,0.66215305,-0.40976690,0.07853409,0.60880266,0.19267355,-0.47185181,0.27719838,-0.71149344,0.21920236,-0.33067244,-0.74038737,0.35246135,-0.03303547
9.10000000,-0.46512965,0.66286879,-0.40986635,0.07658728,0.60992189,0.19404888,-0.47276956,0.27722036,-0.71216811,0.21938908,-0.33213815,-0.74150333,0.35282241,-0.03308189
9.12000000,-0.46509096,0.66358810,-0.40996628,0.07463076,0.61104671,0.19543107,-0.47369189,0.27724245,-0.71284615,0.21957673,-0.33361117,-0.74262486,0.35318526,-0.03312854
9.14000000,-0.46505210,0.66431080,-0.41006669,0.07266500,0.61217683,0.19681978,-0.47461857,0.27726464,-0.71352739,0.21976526,-0.33509114,-0.74375168,0.35354983,-0.03317541
9.16000000,-0.46501306,0.66503671,-0.41016755,0.07069051,0.61331197,0.19821467,-0.47554937,0.27728693,-0.71421165,0.21995463,-0.33657769,-0.74488352,0.35391601,-0.03322249
9.18000000,-0.46497386,0.66576566,-0.41026883,0.06870778,0.61445185,0.19961537,-0.47648405,0.27730932,-0.71489877,0.22014479,-0.33807044,-0.74602007,0.35428373,-0.03326977
9.20000000,-0.46493450,0.66649745,-0.41037050,0.06671731,0.61559618,0.20102155,-0.47742238,0.27733179,-0.71558857,0.22033570,-0.33956902,-0.74716106,0.35465288,-0.03331723
9.22000000,-0.46489500,0.66723190,-0.41047254,0.06471960,0.61674467,0.20243283,-0.47836413,0.27735434,-0.71628089,0.22052730,-0.34107304,-0.74830620,0.35502337,-0.03336486
9.24000000,-0.46485537,0.66796882,-0.41057493,0.06271516,0.61789704,0.20384887,-0.47930904,0.27737697,-0.71697553,0.22071954,-0.34258214,-0.74945520,0.35539511,-0.03341266
9.26000000,-0.46481561,0.66870803,-0.41067763,0.06070449,0.61905298,0.20526931,-0.48025689,0.27739967,-0.71767233,0.22091238,-0.34409592,-0.75060776,0.35576801,-0.03346060
9.28000000,-0.46477575,0.66944935,-0.41078063,0.05868811,0.62021220,0.20669379,-0.48120744,0.27742243,-0.71837111,0.22110577,-0.34561400,-0.75176360,0.35614196,-0.03350868
9.30000000,-0.46473577,0.67019258,-0.41088389,0.05666653,0.62137442,0.20812194,-0.48216044,0.27744526,-0.71907170,0.22129966,-0.34713600,-0.75292243,0.35651688,-0.03355688
9.32000000,-0.46469571,0.67093753,-0.41098739,0.05464026,0.62253933,0.20955341,-0.48311564,0.27746813,-0.71977391,0.22149400,-0.34866153,-0.75408394,0.35689267,-0.03360519
9.34000000,-0.46465557,0.67168401,-0.41109110,0.05260982,0.62370664,0.21098782,-0.48407282,0.27749105,-0.72047756,0.22168874,-0.35019020,-0.75524784,0.35726923,-0.03365361
9.36000000,-0.46461535,0.67243184,-0.41119500,0.05057572,0.62487605,0.21242481,-0.48503171,0.27751402,-0.72118248,0.22188383,-0.35172162,-0.75641384,0.35764647,-0.03370211
9.38000000,-0.46457507,0.67318082,-0.41129906,0.04853850,0.62604726,0.21386401,-0.48599208,0.27753702,-0.72188849,0.22207922,-0.35325540,-0.75758163,0.35802430,-0.03375068
9.40000000,-0.46453473,0.67393075,-0.41140326,0.04649865,0.62721998,0.21530506,-0.48695369,0.27756005,-0.72259540,0.22227486,-0.35479115,-0.75875092,0.35840260,-0.03379932
9.42000000,-0.46449436,0.67468146,-0.41150756,0.04445672,0.62839389,0.21674759,-0.48791628,0.27758310,-0.72330304,0.22247070,-0.35632847,-0.75992141,0.35878130,-0.03384801
9.44000000,-0.46445396,0.67543275,-0.41161194,0.04241322,0.62956871,0.21819123,-0.48887961,0.27760617,-0.72401122,0.22266669,-0.35786698,-0.76109280,0.35916028,-0.03389674
9.46000000,-0.46441353,0.67618442,-0.41171637,0.04036867,0.63074413,0.21963561,-0.48984344,0.27762925,-0.72471976,0.22286278,-0.35940627,-0.76226479,0.35953946,-0.03394549
9.48000000,-0.46437310,0.67693628,-0.41182083,0.03832359,0.63191986,0.22108036,-0.49080751,0.27765234,-0.72542849,0.22305892,-0.36094596,-0.76343708,0.35991874,-0.03399425
9.50000000,-0.46433266,0.67768815,-0.41192529,0.03627852,0.63309558,0.22252510,-0.49177158,0.27767542,-0.72613722,0.22325506,-0.36248564,-0.76460937,0.36029801,-0.03404301
9.52000000,-0.46429224,0.67843982,-0.41202973,0.03423397,0.63427100,0.22396948,-0.49273540,0.27769851,-0.72684576,0.22345115,-0.36402494,-0.76578136,0.36067719,-0.03409176
9.54000000,-0.46425183,0.67919110,-0.41213411,0.03219047,0.63544582,0.22541312,-0.49369873,0.27772158,-0.72755394,0.22364714,-0.36556344,-0.76695275,0.36105618,-0.03414049
9.56000000,-0.46421146,0.67994181,-0.41223841,0.03014853,0.63661974,0.22685565,-0.49466133,0.27774463,-0.72826158,0.22384298,-0.36710076,-0.76812324,0.36143487,-0.03418917
9.58000000,-0.46417113,0.68069175,-0.41234260,0.02810869,0.63779245,0.22829670,-0.49562293,0.27776766,-0.72896849,0.22403862,-0.36863651,-0.76929253,0.36181318,-0.03423781
9.60000000,-0.46413085,0.68144073,-0.41244666,0.02607146,0.63896366,0.22973591,-0.49658330,0.27779066,-0.72967450,0.22423401,-0.37017029,-0.77046032,0.36219100,-0.03428639
9.62000000,-0.46409063,0.68218856,-0.41255056,0.02403737,0.64013307,0.23117290,-0.49754220,0.27781362,-0.73037942,0.22442910,-0.37170171,-0.77162632,0.36256824,-0.03433489
9.64000000,-0.46405048,0.68293504,-0.41265428,0.02200693,0.64130038,0.23260731,-0.49849937,0.27783654,-0.73108307,0.22462384,-0.37323038,-0.77279022,0.36294480,-0.03438330
9.66000000,-0.46401042,0.68367999,-0.41275778,0.01998066,0.64246529,0.23403877,-0.49945458,0.27785942,-0.73178528,0.22481818,-0.37475591,-0.77395173,0.36332059,-0.03443162
9.68000000,-0.46397045,0.68442322,-0.41286104,0.01795908,0.64362751,0.23546692,-0.50040758,0.27788224,-0.73248587,0.22501207,-0.37627791,-0.77511056,0.36369551,-0.03447982
9.70000000,-0.46393058,0.68516453,-0.41296404,0.01594270,0.64478673,0.23689140,-0.50135812,0.27790500,-0.73318465,0.22520546,-0.37779599,-0.77626640,0.36406947,-0.03452790
9.72000000,-0.46389083,0.68590375,-0.41306674,0.01393203,0.64594268,0.23831184,-0.50230597,0.27792770,-0.73388145,0.22539830,-0.37930977,-0.77741897,0.36444236,-0.03457584
9.74000000,-0.46385119,0.68664067,-0.41316912,0.01192759,0.64709504,0.23972788,-0.50325089,0.27795033,-0.73457609,0.22559054,-0.38081887,-0.77856796,0.36481410,-0.03462363
9.76000000,-0.46381169,0.68737512,-0.41327117,0.00992988,0.64824353,0.24113917,-0.50419263,0.27797288,-0.73526841,0.22578214,-0.38232290,-0.77971310,0.36518460,-0.03467127
9.78000000,-0.46377234,0.68810691,-0.41337284,0.00793941,0.64938786,0.24254534,-0.50513096,0.27799536,-0.73595821,0.22597305,-0.38382147,-0.78085409,0.36555375,-0.03471873
9.80000000,-0.46373314,0.68883585,-0.41347411,0.00595668,0.65052774,0.24394605,-0.50606565,0.27801774,-0.73664533,0.22616321,-0.38531422,-0.78199065,0.36592146,-0.03476600
9.82000000,-0.46369410,0.68956177,-0.41357497,0.00398219,0.65166288,0.24534093,-0.50699644,0.27804003,-0.73732959,0.22635258,-0.38680077,-0.78312248,0.36628765,-0.03481308
9.84000000,-0.46365523,0.69028447,-0.41367538,0.00201643,0.65279301,0.24672964,-0.50792312,0.27806222,-0.73801083,0.22654111,-0.38828074,-0.78424930,0.36665221,-0.03485996
9.86000000,-0.46361655,0.69100378,-0.41377532,0.00005990,0.65391782,0.24811184,-0.50884545,0.27808431,-0.73868887,0.22672876,-0.38975376,-0.78537083,0.36701507,-0.03490661
9.88000000,-0.46357805,0.69171952,-0.41387476,-0.00188691,0.65503705,0.24948717,-0.50976320,0.27810629,-0.73936354,0.22691548,-0.39121947,-0.78648680,0.36737612,-0.03495303
9.90000000,-0.46353976,0.69243150,-0.41397368,-0.00382351,0.65615042,0.25085529,-0.51067614,0.27812815,-0.74003468,0.22710122,-0.39267749,-0.78759691,0.36773528,-0.03499920
9.92000000,-0.46350168,0.69313956,-0.41407206,-0.00574944,0.65725764,0.25221586,-0.51158404,0.27814989,-0.74070211,0.22728593,-0.39412748,-0.78870090,0.36809246,-0.03504512
9.94000000,-0.46346382,0.69384351,-0.41416986,-0.00766420,0.65835844,0.25356855,-0.51248668,0.27817151,-0.74136568,0.22746958,-0.39556905,-0.78979849,0.36844757,-0.03509078
9.96000000,-0.46342619,0.69454319,-0.41426707,-0.00956733,0.65945256,0.25491302,-0.51338384,0.27819300,-0.74202521,0.22765210,-0.39700187,-0.79088941,0.36880052,-0.03513616
9.98000000,-0.46338881,0.69523842,-0.41436366,-0.01145835,0.66053972,0.25624894,-0.51427529,0.27821435,-0.74268055,0.22783347,-0.39842558,-0.79197340,0.36915123,-0.03518125
10.00000000,-0.46335166,0.69592903,-0.41445961,-0.01333681,0.66161966,0.25757598,-0.51516082,0.27823555,-0.74333154,0.22801363,-0.39983983,-0.79305018,0.36949961,-0.03522604
10.02000000,-0.46331478,0.69661485,-0.41455490,-0.01520225,0.66269210,0.25889382,-0.51604021,0.27825661,-0.74397801,0.22819255,-0.40124427,-0.79411950,0.36984557,-0.03527052
10.04000000,-0.46327816,0.69729572,-0.41464950,-0.01705421,0.66375681,0.26020215,-0.51691325,0.27827752,-0.74461981,0.22837017,-0.40263857,-0.79518109,0.37018903,-0.03531468
10.06000000,-0.46324182,0.69797146,-0.41474338,-0.01889225,0.66481350,0.26150063,-0.51777972,0.27829827,-0.74525679,0.22854645,-0.40402238,-0.79623471,0.37052991,-0.03535850
10.08000000,-0.46320576,0.69864193,-0.41483653,-0.02071592,0.66586194,0.26278897,-0.51863942,0.27831886,-0.74588879,0.22872136,-0.40539538,-0.79728008,0.37086813,-0.03540199
10.10000000,-0.46317000,0.69930695,-0.41492893,-0.02252480,0.66690187,0.26406685,-0.51949214,0.27833928,-0.74651566,0.22889485,-0.40675724,-0.79831698,0.37120360,-0.03544512
10.12000000,-0.46313454,0.69996638,-0.41502055,-0.02431843,0.66793304,0.26533397,-0.52033768,0.27835953,-0.74713725,0.22906687,-0.40810762,-0.79934514,0.37153624,-0.03548788
10.14000000,-0.46309938,0.70062005,-0.41511137,-0.02609642,0.66895521,0.26659004,-0.52117584,0.27837960,-0.74775341,0.22923740,-0.40944623,-0.80036432,0.37186599,-0.03553028
10.16000000,-0.46306454,0.70126781,-0.41520136,-0.02785833,0.66996814,0.26783474,-0.52200643,0.27839949,-0.74836401,0.22940638,-0.41077273,-0.80137430,0.37219275,-0.03557229
10.18000000,-0.46303003,0.70190951,-0.41529052,-0.02960376,0.67097159,0.26906780,-0.52282924,0.27841920,-0.74896889,0.22957378,-0.41208682,-0.80237482,0.37251645,-0.03561391
10.20000000,-0.46299586,0.70254500,-0.41537881,-0.03133230,0.67196534,0.27028894,-0.52364410,0.27843871,-0.74956792,0.22973957,-0.41338819,-0.80336567,0.37283702,-0.03565512
10.22000000,-0.46296202,0.70317413,-0.41546622,-0.03304355,0.67294915,0.27149786,-0.52445080,0.27845803,-0.75016096,0.22990369,-0.41467656,-0.80434660,0.37315439,-0.03569592
10.24000000,-0.46292854,0.70379677,-0.41555273,-0.03473713,0.67392280,0.27269429,-0.52524918,0.27847715,-0.75074788,0.23006612,-0.41595161,-0.80531741,0.37346848,-0.03573631
10.26000000,-0.46289541,0.70441277,-0.41563831,-0.03641266,0.67488606,0.27387797,-0.52603904,0.27849606,-0.75132853,0.23022682,-0.41721307,-0.80627786,0.37377922,-0.03577626
10.28000000,-0.46286264,0.70502200,-0.41572296,-0.03806976,0.67583873,0.27504863,-0.52682021,0.27851477,-0.75190281,0.23038575,-0.41846066,-0.80722775,0.37408654,-0.03581577
10.30000000,-0.46283025,0.70562431,-0.41580664,-0.03970805,0.67678060,0.27620601,-0.52759253,0.27853327,-0.75247056,0.23054288,-0.41969410,-0.80816687,0.37439038,-0.03585483
10.32000000,-0.46279824,0.70621958,-0.41588935,-0.04132720,0.67771145,0.27734986,-0.52835581,0.27855155,-0.75303168,0.23069817,-0.42091311,-0.80909500,0.37469066,-0.03589344
10.34000000,-0.46276661,0.70680768,-0.41597105,-0.04292683,0.67863109,0.27847992,-0.52910990,0.27856961,-0.75358604,0.23085159,-0.42211744,-0.81001196,0.37498733,-0.03593158
10.36000000,-0.46273537,0.70738849,-0.41605175,-0.04450662,0.67953932,0.27959597,-0.52985463,0.27858744,-0.75413352,0.23100311,-0.42330682,-0.81091753,0.37528032,-0.03596925
10.38000000,-0.46270454,0.70796187,-0.41613141,-0.04606622,0.68043594,0.28069776,-0.53058984,0.27860505,-0.75467400,0.23115269,-0.42448101,-0.81181154,0.37556956,-0.03600644
10.40000000,-0.46267411,0.70852771,-0.41621003,-0.04760532,0.68132078,0.28178506,-0.53131539,0.27862242,-0.75520738,0.23130030,-0.42563976,-0.81269379,0.37585500,-0.03604314
10.42000000,-0.46264409,0.70908590,-0.41628758,-0.04912360,0.68219364,0.28285765,-0.53203113,0.27863956,-0.75573354,0.23144592,-0.42678284,-0.81356411,0.37613658,-0.03607934
10.44000000,-0.46261448,0.70963632,-0.41636406,-0.05062075,0.68305436,0.28391531,-0.53273690,0.27865647,-0.75625239,0.23158951,-0.42791000,-0.81442232,0.37641423,-0.03611504
10.46000000,-0.46258531,0.71017887,-0.41643943,-0.05209648,0.68390276,0.28495784,-0.53343257,0.27867313,-0.75676380,0.23173104,-0.42902104,-0.81526824,0.37668792,-0.03615022
10.48000000,-0.46255656,0.71071343,-0.41651370,-0.05355049,0.68473868,0.28598504,-0.53411801,0.27868954,-0.75726770,0.23187050,-0.43011574,-0.81610172,0.37695758,-0.03618489
10.50000000,-0.46252824,0.71123991,-0.41658685,-0.05498252,0.68556196,0.28699669,-0.53479309,0.27870571,-0.75776397,0.23200784,-0.43119387,-0.81692260,0.37722316,-0.03621904
10.52000000,-0.46250037,0.71175821,-0.41665886,-0.05639229,0.68637244,0.28799263,-0.53545767,0.27872162,-0.75825253,0.23214305,-0.43225526,-0.81773071,0.37748462,-0.03625265
10.54000000,-0.46247294,0.71226822,-0.41672972,-0.05777955,0.68716998,0.28897266,-0.53611164,0.27873728,-0.75873329,0.23227610,-0.43329969,-0.81852592,0.37774190,-0.03628573
10.56000000,-0.46244596,0.71276988,-0.41679942,-0.05914404,0.68795444,0.28993661,-0.53675488,0.27875269,-0.75920616,0.23240697,-0.43432698,-0.81930809,0.37799495,-0.03631826
10.58000000,-0.46241944,0.71326308,-0.41686794,-0.06048555,0.68872567,0.29088432,-0.53738728,0.27876783,-0.75967106,0.23253563,-0.43533697,-0.82007708,0.37824375,-0.03635025
10.60000000,-0.46239337,0.71374774,-0.41693528,-0.06180383,0.68948356,0.29181563,-0.53800873,0.27878272,-0.76012791,0.23266207,-0.43632947,-0.82083275,0.37848823,-0.03638168
10.62000000,-0.46236777,0.71422378,-0.41700142,-0.06309868,0.69022797,0.29273038,-0.53861914,0.27879733,-0.76057664,0.23278626,-0.43730433,-0.82157499,0.37872837,-0.03641256
10.64000000,-0.46234264,0.71469114,-0.41706635,-0.06436989,0.69095880,0.29362843,-0.53921840,0.27881168,-0.76101719,0.23290818,-0.43826140,-0.82230368,0.37896413,-0.03644287
10.66000000,-0.46231797,0.71514973,-0.41713007,-0.06561728,0.69167593,0.29450964,-0.53980643,0.27882577,-0.76144947,0.23302781,-0.43920052,-0.82301872,0.37919547,-0.03647261
10.68000000,-0.46229378,0.71559950,-0.41719256,-0.06684065,0.69237925,0.29537390,-0.54038315,0.27883958,-0.76187343,0.23314515,-0.44012157,-0.82371999,0.37942236,-0.03650178
10.70000000,-0.46227007,0.71604039,-0.41725381,-0.06803985,0.69306868,0.29622108,-0.54094847,0.27885312,-0.76228902,0.23326016,-0.44102442,-0.82440740,0.37964476,-0.03653038
10.72000000,-0.46224684,0.71647232,-0.41731382,-0.06921473,0.69374412,0.29705107,-0.54150231,0.27886638,-0.76269618,0.23337284,-0.44190896,-0.82508087,0.37986265,-0.03655839
10.74000000,-0.46222410,0.71689526,-0.41737259,-0.07036512,0.69440549,0.29786377,-0.54204462,0.27887937,-0.76309485,0.23348318,-0.44277506,-0.82574031,0.38007600,-0.03658582
10.76000000,-0.46220184,0.71730916,-0.41743009,-0.07149092,0.69505271,0.29865909,-0.54257534,0.27889208,-0.76348500,0.23359115,-0.44362265,-0.82638564,0.38028479,-0.03661266
10.78000000,-0.46218007,0.71771396,-0.41748633,-0.07259199,0.69568572,0.29943695,-0.54309439,0.27890451,-0.76386657,0.23369675,-0.44445162,-0.82701680,0.38048899,-0.03663892
10.80000000,-0.46215879,0.71810964,-0.41754131,-0.07366823,0.69630446,0.30019726,-0.54360175,0.27891666,-0.76423955,0.23379998,-0.44526189,-0.82763373,0.38068859,-0.03666458
10.82000000,-0.46213800,0.71849615,-0.41759501,-0.07471955,0.69690887,0.30093997,-0.54409735,0.27892853,-0.76460389,0.23390081,-0.44605341,-0.82823638,0.38088356,-0.03668965
10.84000000,-0.46211771,0.71887347,-0.41764743,-0.07574587,0.69749890,0.30166502,-0.54458117,0.27894011,-0.76495956,0.23399924,-0.44682610,-0.82882469,0.38107391,-0.03671412
10.86000000,-0.46209791,0.71924158,-0.41769857,-0.07674713,0.69807453,0.30237236,-0.54505317,0.27895142,-0.76530655,0.23409527,-0.44757992,-0.82939864,0.38125960,-0.03673799
10.88000000,-0.46207861,0.71960045,-0.41774843,-0.07772327,0.69863572,0.30306195,-0.54551334,0.27896244,-0.76564483,0.23418889,-0.44831483,-0.82995819,0.38144063,-0.03676127
10.90000000,-0.46205981,0.71995008,-0.41779701,-0.07867425,0.69918244,0.30373378,-0.54596164,0.27897317,-0.76597440,0.23428010,-0.44903081,-0.83050332,0.38161700,-0.03678394
10.92000000,-0.46204150,0.72029045,-0.41784430,-0.07960006,0.69971469,0.30438782,-0.54639808,0.27898362,-0.76629524,0.23436889,-0.44972782,-0.83103401,0.38178870,-0.03680602
10.94000000,-0.46202370,0.72062156,-0.41789030,-0.08050067,0.70023246,0.30502406,-0.54682264,0.27899379,-0.76660735,0.23445527,-0.45040588,-0.83155027,0.38195572,-0.03682749
10.96000000,-0.46200639,0.72094341,-0.41793502,-0.08137611,0.70073575,0.30564251,-0.54723533,0.27900367,-0.76691074,0.23453923,-0.45106497,-0.83205209,0.38211808,-0.03684837
10.98000000,-0.46198958,0.72125601,-0.41797845,-0.08222638,0.70122457,0.30624319,-0.54763616,0.27901327,-0.76720540,0.23462078,-0.45170512,-0.83253949,0.38227577,-0.03686864
11.00000000,-0.46197326,0.72155937,-0.41802060,-0.08305152,0.70169895,0.30682611,-0.54802514,0.27902259,-0.76749135,0.23469992,-0.45232634,-0.83301248,0.38242880,-0.03688831
11.02000000,-0.46195744,0.72185350,-0.41806147,-0.08385158,0.70215891,0.30739131,-0.54840229,0.27903162,-0.76776862,0.23477665,-0.45292869,-0.83347110,0.38257718,-0.03690739
11.04000000,-0.46194212,0.72213845,-0.41810105,-0.08462662,0.70260449,0.30793885,-0.54876766,0.27904037,-0.76803721,0.23485099,-0.45351220,-0.83391537,0.38272092,-0.03692587
11.06000000,-0.46192729,0.72241422,-0.41813937,-0.08537673,0.70303573,0.30846876,-0.54912127,0.27904884,-0.76829716,0.23492293,-0.45407694,-0.83434536,0.38286003,-0.03694376
11.08000000,-0.46191295,0.72268086,-0.41817642,-0.08610200,0.70345269,0.30898113,-0.54946317,0.27905703,-0.76854851,0.23499249,-0.45462298,-0.83476110,0.38299454,-0.03696105
11.10000000,-0.46189910,0.72293842,-0.41821220,-0.08680254,0.70385543,0.30947603,-0.54979341,0.27906494,-0.76879128,0.23505968,-0.45515040,-0.83516267,0.38312446,-0.03697775
11.12000000,-0.46188573,0.72318692,-0.41824673,-0.08747849,0.70424404,0.30995355,-0.55011206,0.27907257,-0.76902553,0.23512451,-0.45565930,-0.83555014,0.38324982,-0.03699387
11.14000000,-0.46187285,0.72342644,-0.41828000,-0.08812997,0.70461858,0.31041380,-0.55041918,0.27907992,-0.76925131,0.23518699,-0.45614979,-0.83592359,0.38337064,-0.03700940
11.16000000,-0.46186045,0.72365702,-0.41831204,-0.08875717,0.70497915,0.31085688,-0.55071485,0.27908700,-0.76946866,0.23524715,-0.45662199,-0.83628311,0.38348696,-0.03702436
11.18000000,-0.46184852,0.72387874,-0.41834284,-0.08936024,0.70532587,0.31128292,-0.55099914,0.27909381,-0.76967766,0.23530499,-0.45707603,-0.83662881,0.38359881,-0.03703874
11.20000000,-0.46183707,0.72409167,-0.41837243,-0.08993939,0.70565882,0.31169207,-0.55127216,0.27910035,-0.76987836,0.23536053,-0.45751206,-0.83696079,0.38370622,-0.03705255
11.22000000,-0.46182609,0.72429587,-0.41840080,-0.09049483,0.70597815,0.31208446,-0.55153400,0.27910662,-0.77007085,0.23541380,-0.45793024,-0.83727919,0.38380923,-0.03706579
11.24000000,-0.46181557,0.72449144,-0.41842797,-0.09102679,0.70628397,0.31246026,-0.55178477,0.27911263,-0.77025520,0.23546482,-0.45833073,-0.83758412,0.38390788,-0.03707848
11.26000000,-0.46180551,0.72467847,-0.41845396,-0.09153551,0.70657644,0.31281965,-0.55202459,0.27911837,-0.77043150,0.23551361,-0.45871374,-0.83787573,0.38400223,-0.03709061
11.28000000,-0.46179591,0.72485705,-0.41847877,-0.09202126,0.70685569,0.31316280,-0.55225357,0.27912385,-0.77059984,0.23556020,-0.45907944,-0.83815417,0.38409232,-0.03710219
11.30000000,-0.46178676,0.72502729,-0.41850242,-0.09248431,0.70712191,0.31348993,-0.55247186,0.27912908,-0.77076031,0.23560461,-0.45942806,-0.83841961,0.38417819,-0.03711323
11.32000000,-0.46177804,0.72518930,-0.41852493,-0.09292497,0.70737524,0.31380124,-0.55267960,0.27913405,-0.77091302,0.23564688,-0.45975983,-0.83867221,0.38425992,-0.03712374
11.34000000,-0.46176977,0.72534319,-0.41854631,-0.09334356,0.70761589,0.31409695,-0.55287692,0.27913878,-0.77105809,0.23568702,-0.46007497,-0.83891215,0.38433755,-0.03713372
11.36000000,-0.46176192,0.72548910,-0.41856658,-0.09374041,0.70784404,0.31437731,-0.55306400,0.27914326,-0.77119562,0.23572509,-0.46037375,-0.83913964,0.38441115,-0.03714318
11.38000000,-0.46175450,0.72562714,-0.41858576,-0.09411588,0.70805990,0.31464256,-0.55324101,0.27914750,-0.77132574,0.23576110,-0.46065644,-0.83935487,0.38448078,-0.03715213
11.40000000,-0.46174749,0.72575745,-0.41860387,-0.09447034,0.70826368,0.31489297,-0.55340810,0.27915150,-0.77144858,0.23579509,-0.46092330,-0.83955805,0.38454652,-0.03716058
11.42000000,-0.46174089,0.72588019,-0.41862092,-0.09480419,0.70845561,0.31512881,-0.55356548,0.27915527,-0.77156427,0.23582711,-0.46117465,-0.83974942,0.38460843,-0.03716854
11.44000000,-0.46173468,0.72599550,-0.41863694,-0.09511783,0.70863593,0.31535039,-0.55371334,0.27915881,-0.77167297,0.23585719,-0.46141078,-0.83992921,0.38466660,-0.03717602
11.46000000,-0.46172887,0.72610354,-0.41865195,-0.09541171,0.70880488,0.31555800,-0.55385187,0.27916213,-0.77177481,0.23588538,-0.46163203,-0.84009767,0.38472110,-0.03718303
11.48000000,-0.46172345,0.72620448,-0.41866597,-0.09568626,0.70896272,0.31575196,-0.55398130,0.27916523,-0.77186996,0.23591171,-0.46183874,-0.84025505,0.38477202,-0.03718958
11.50000000,-0.46171839,0.72629849,-0.41867904,-0.09594197,0.70910973,0.31593260,-0.55410185,0.27916811,-0.77195857,0.23593624,-0.46203126,-0.84040163,0.38481945,-0.03719567
11.52000000,-0.46171370,0.72638575,-0.41869116,-0.09617933,0.70924619,0.31610029,-0.55421374,0.27917079,-0.77204083,0.23595900,-0.46220996,-0.84053769,0.38486347,-0.03720133
11.54000000,-0.46170936,0.72646646,-0.41870237,-0.09639884,0.70937239,0.31625536,-0.55431722,0.27917327,-0.77211690,0.23598005,-0.46237522,-0.84066352,0.38490418,-0.03720657
