gracetata/LocomotionHEC/legged_lab/Reference Data/ArmHack/StandPerturb/VisualizationSuite/synthesized_trajectory_03_seed20260714_50hz.csv
time_s,left_shoulder_pitch_joint,left_shoulder_roll_joint,left_shoulder_yaw_joint,left_elbow_joint,left_wrist_roll_joint,left_wrist_pitch_joint,left_wrist_yaw_joint,right_shoulder_pitch_joint,right_shoulder_roll_joint,right_shoulder_yaw_joint,right_elbow_joint,right_wrist_roll_joint,right_wrist_pitch_joint,right_wrist_yaw_joint
0.00000000,0.17351018,0.58424852,-0.16897679,0.39606700,0.55353504,0.09231835,-0.02300972,0.19377785,-0.56646923,0.12777803,0.47708192,-0.49355920,0.09044708,0.06583026
0.02000000,0.17351018,0.58424852,-0.16897679,0.39606700,0.55353504,0.09231835,-0.02300972,0.19377785,-0.56646923,0.12777803,0.47708192,-0.49355920,0.09044708,0.06583026
0.04000000,0.17351018,0.58424852,-0.16897679,0.39606700,0.55353504,0.09231835,-0.02300972,0.19377785,-0.56646923,0.12777803,0.47708192,-0.49355920,0.09044708,0.06583026
0.06000000,0.17351018,0.58424852,-0.16897679,0.39606700,0.55353504,0.09231835,-0.02300972,0.19377785,-0.56646923,0.12777803,0.47708192,-0.49355920,0.09044708,0.06583026
0.08000000,0.17351018,0.58424852,-0.16897679,0.39606700,0.55353504,0.09231835,-0.02300972,0.19377785,-0.56646923,0.12777803,0.47708192,-0.49355920,0.09044708,0.06583026
0.10000000,0.17351018,0.58424852,-0.16897679,0.39606700,0.55353504,0.09231835,-0.02300972,0.19377785,-0.56646923,0.12777803,0.47708192,-0.49355920,0.09044708,0.06583026
0.12000000,0.17351018,0.58424852,-0.16897679,0.39606700,0.55353504,0.09231835,-0.02300972,0.19377785,-0.56646923,0.12777803,0.47708192,-0.49355920,0.09044708,0.06583026
0.14000000,0.17351018,0.58424852,-0.16897679,0.39606700,0.55353504,0.09231835,-0.02300972,0.19377785,-0.56646923,0.12777803,0.47708192,-0.49355920,0.09044708,0.06583026
0.16000000,0.17351018,0.58424852,-0.16897679,0.39606700,0.55353504,0.09231835,-0.02300972,0.19377785,-0.56646923,0.12777803,0.47708192,-0.49355920,0.09044708,0.06583026
0.18000000,0.17351018,0.58424852,-0.16897679,0.39606700,0.55353504,0.09231835,-0.02300972,0.19377785,-0.56646923,0.12777803,0.47708192,-0.49355920,0.09044708,0.06583026
0.20000000,0.17351018,0.58424852,-0.16897679,0.39606700,0.55353504,0.09231835,-0.02300972,0.19377785,-0.56646923,0.12777803,0.47708192,-0.49355920,0.09044708,0.06583026
0.22000000,0.17351018,0.58424852,-0.16897679,0.39606700,0.55353504,0.09231835,-0.02300972,0.19377785,-0.56646923,0.12777803,0.47708192,-0.49355920,0.09044708,0.06583026
0.24000000,0.17351018,0.58424852,-0.16897679,0.39606700,0.55353504,0.09231835,-0.02300972,0.19377785,-0.56646923,0.12777803,0.47708192,-0.49355920,0.09044708,0.06583026
0.26000000,0.17351018,0.58424852,-0.16897679,0.39606700,0.55353504,0.09231835,-0.02300972,0.19377785,-0.56646923,0.12777803,0.47708192,-0.49355920,0.09044708,0.06583026
0.28000000,0.17351018,0.58424852,-0.16897679,0.39606700,0.55353504,0.09231835,-0.02300972,0.19377785,-0.56646923,0.12777803,0.47708192,-0.49355920,0.09044708,0.06583026
0.30000000,0.17351018,0.58424852,-0.16897679,0.39606700,0.55353504,0.09231835,-0.02300972,0.19377785,-0.56646923,0.12777803,0.47708192,-0.49355920,0.09044708,0.06583026
0.32000000,0.17351018,0.58424852,-0.16897679,0.39606700,0.55353504,0.09231835,-0.02300972,0.19377785,-0.56646923,0.12777803,0.47708192,-0.49355920,0.09044708,0.06583026
0.34000000,0.17351018,0.58424852,-0.16897679,0.39606700,0.55353504,0.09231835,-0.02300972,0.19377785,-0.56646923,0.12777803,0.47708192,-0.49355920,0.09044708,0.06583026
0.36000000,0.17351018,0.58424852,-0.16897679,0.39606700,0.55353504,0.09231835,-0.02300972,0.19377785,-0.56646923,0.12777803,0.47708192,-0.49355920,0.09044708,0.06583026
0.38000000,0.17351018,0.58424852,-0.16897679,0.39606700,0.55353504,0.09231835,-0.02300972,0.19377785,-0.56646923,0.12777803,0.47708192,-0.49355920,0.09044708,0.06583026
0.40000000,0.17351018,0.58424852,-0.16897679,0.39606700,0.55353504,0.09231835,-0.02300972,0.19377785,-0.56646923,0.12777803,0.47708192,-0.49355920,0.09044708,0.06583026
0.42000000,0.17351018,0.58424852,-0.16897679,0.39606700,0.55353504,0.09231835,-0.02300972,0.19377785,-0.56646923,0.12777803,0.47708192,-0.49355920,0.09044708,0.06583026
0.44000000,0.17351018,0.58424852,-0.16897679,0.39606700,0.55353504,0.09231835,-0.02300972,0.19377785,-0.56646923,0.12777803,0.47708192,-0.49355920,0.09044708,0.06583026
0.46000000,0.17351018,0.58424852,-0.16897679,0.39606700,0.55353504,0.09231835,-0.02300972,0.19377785,-0.56646923,0.12777803,0.47708192,-0.49355920,0.09044708,0.06583026
0.48000000,0.17351018,0.58424852,-0.16897679,0.39606700,0.55353504,0.09231835,-0.02300972,0.19377785,-0.56646923,0.12777803,0.47708192,-0.49355920,0.09044708,0.06583026
0.50000000,0.17351018,0.58424852,-0.16897679,0.39606700,0.55353504,0.09231835,-0.02300972,0.19377785,-0.56646923,0.12777803,0.47708192,-0.49355920,0.09044708,0.06583026
0.52000000,0.17351018,0.58424852,-0.16897679,0.39606700,0.55353504,0.09231835,-0.02300972,0.19377785,-0.56646923,0.12777803,0.47708192,-0.49355920,0.09044708,0.06583026
0.54000000,0.17351018,0.58424852,-0.16897679,0.39606700,0.55353504,0.09231835,-0.02300972,0.19377785,-0.56646923,0.12777803,0.47708192,-0.49355920,0.09044708,0.06583026
0.56000000,0.17351018,0.58424852,-0.16897679,0.39606700,0.55353504,0.09231835,-0.02300972,0.19377785,-0.56646923,0.12777803,0.47708192,-0.49355920,0.09044708,0.06583026
0.58000000,0.17351018,0.58424852,-0.16897679,0.39606700,0.55353504,0.09231835,-0.02300972,0.19377785,-0.56646923,0.12777803,0.47708192,-0.49355920,0.09044708,0.06583026
0.60000000,0.17351018,0.58424852,-0.16897679,0.39606700,0.55353504,0.09231835,-0.02300972,0.19377785,-0.56646923,0.12777803,0.47708192,-0.49355920,0.09044708,0.06583026
0.62000000,0.17351018,0.58424852,-0.16897679,0.39606700,0.55353504,0.09231835,-0.02300972,0.19377785,-0.56646923,0.12777803,0.47708192,-0.49355920,0.09044708,0.06583026
0.64000000,0.17351018,0.58424852,-0.16897679,0.39606700,0.55353504,0.09231835,-0.02300972,0.19377785,-0.56646923,0.12777803,0.47708192,-0.49355920,0.09044708,0.06583026
0.66000000,0.17351018,0.58424852,-0.16897679,0.39606700,0.55353504,0.09231835,-0.02300972,0.19377785,-0.56646923,0.12777803,0.47708192,-0.49355920,0.09044708,0.06583026
0.68000000,0.17351018,0.58424852,-0.16897679,0.39606700,0.55353504,0.09231835,-0.02300972,0.19377785,-0.56646923,0.12777803,0.47708192,-0.49355920,0.09044708,0.06583026
0.70000000,0.17351018,0.58424852,-0.16897679,0.39606700,0.55353504,0.09231835,-0.02300972,0.19377785,-0.56646923,0.12777803,0.47708192,-0.49355920,0.09044708,0.06583026
0.72000000,0.17351018,0.58424852,-0.16897679,0.39606700,0.55353504,0.09231835,-0.02300972,0.19377785,-0.56646923,0.12777803,0.47708192,-0.49355920,0.09044708,0.06583026
0.74000000,0.17351018,0.58424852,-0.16897679,0.39606700,0.55353504,0.09231835,-0.02300972,0.19377785,-0.56646923,0.12777803,0.47708192,-0.49355920,0.09044708,0.06583026
0.76000000,0.17351018,0.58424852,-0.16897679,0.39606700,0.55353504,0.09231835,-0.02300972,0.19377785,-0.56646923,0.12777803,0.47708192,-0.49355920,0.09044708,0.06583026
0.78000000,0.17351018,0.58424852,-0.16897679,0.39606700,0.55353504,0.09231835,-0.02300972,0.19377785,-0.56646923,0.12777803,0.47708192,-0.49355920,0.09044708,0.06583026
0.80000000,0.17351018,0.58424852,-0.16897679,0.39606700,0.55353504,0.09231835,-0.02300972,0.19377785,-0.56646923,0.12777803,0.47708192,-0.49355920,0.09044708,0.06583026
0.82000000,0.17351018,0.58424852,-0.16897679,0.39606700,0.55353504,0.09231835,-0.02300972,0.19377785,-0.56646923,0.12777803,0.47708192,-0.49355920,0.09044708,0.06583026
0.84000000,0.17351018,0.58424852,-0.16897679,0.39606700,0.55353504,0.09231835,-0.02300972,0.19377785,-0.56646923,0.12777803,0.47708192,-0.49355920,0.09044708,0.06583026
0.86000000,0.17351018,0.58424852,-0.16897679,0.39606700,0.55353504,0.09231835,-0.02300972,0.19377785,-0.56646923,0.12777803,0.47708192,-0.49355920,0.09044708,0.06583026
0.88000000,0.17351018,0.58424852,-0.16897679,0.39606700,0.55353504,0.09231835,-0.02300972,0.19377785,-0.56646923,0.12777803,0.47708192,-0.49355920,0.09044708,0.06583026
0.90000000,0.17351018,0.58424852,-0.16897679,0.39606700,0.55353504,0.09231835,-0.02300972,0.19377785,-0.56646923,0.12777803,0.47708192,-0.49355920,0.09044708,0.06583026
0.92000000,0.17351018,0.58424852,-0.16897679,0.39606700,0.55353504,0.09231835,-0.02300972,0.19377785,-0.56646923,0.12777803,0.47708192,-0.49355920,0.09044708,0.06583026
0.94000000,0.17351018,0.58424852,-0.16897679,0.39606700,0.55353504,0.09231835,-0.02300972,0.19377785,-0.56646923,0.12777803,0.47708192,-0.49355920,0.09044708,0.06583026
0.96000000,0.17351018,0.58424852,-0.16897679,0.39606700,0.55353504,0.09231835,-0.02300972,0.19377785,-0.56646923,0.12777803,0.47708192,-0.49355920,0.09044708,0.06583026
0.98000000,0.17351018,0.58424852,-0.16897679,0.39606700,0.55353504,0.09231835,-0.02300972,0.19377785,-0.56646923,0.12777803,0.47708192,-0.49355920,0.09044708,0.06583026
1.00000000,0.17351018,0.58424852,-0.16897679,0.39606700,0.55353504,0.09231835,-0.02300972,0.19377785,-0.56646923,0.12777803,0.47708192,-0.49355920,0.09044708,0.06583026
1.02000000,0.17351018,0.58424852,-0.16897679,0.39606700,0.55353504,0.09231835,-0.02300972,0.19377785,-0.56646923,0.12777803,0.47708192,-0.49355920,0.09044708,0.06583026
1.04000000,0.17351018,0.58424852,-0.16897679,0.39606700,0.55353504,0.09231835,-0.02300972,0.19377785,-0.56646923,0.12777803,0.47708192,-0.49355920,0.09044708,0.06583026
1.06000000,0.17351018,0.58424852,-0.16897679,0.39606700,0.55353504,0.09231835,-0.02300972,0.19377785,-0.56646923,0.12777803,0.47708192,-0.49355920,0.09044708,0.06583026
1.08000000,0.17351018,0.58424852,-0.16897679,0.39606700,0.55353504,0.09231835,-0.02300972,0.19377785,-0.56646923,0.12777803,0.47708192,-0.49355920,0.09044708,0.06583026
1.10000000,0.17351018,0.58424852,-0.16897679,0.39606700,0.55353504,0.09231835,-0.02300972,0.19377785,-0.56646923,0.12777803,0.47708192,-0.49355920,0.09044708,0.06583026
1.12000000,0.17351018,0.58424852,-0.16897679,0.39606700,0.55353504,0.09231835,-0.02300972,0.19377785,-0.56646923,0.12777803,0.47708192,-0.49355920,0.09044708,0.06583026
1.14000000,0.17351018,0.58424852,-0.16897679,0.39606700,0.55353504,0.09231835,-0.02300972,0.19377785,-0.56646923,0.12777803,0.47708192,-0.49355920,0.09044708,0.06583026
1.16000000,0.17351018,0.58424852,-0.16897679,0.39606700,0.55353504,0.09231835,-0.02300972,0.19377785,-0.56646923,0.12777803,0.47708192,-0.49355920,0.09044708,0.06583026
1.18000000,0.17351018,0.58424852,-0.16897679,0.39606700,0.55353504,0.09231835,-0.02300972,0.19377785,-0.56646923,0.12777803,0.47708192,-0.49355920,0.09044708,0.06583026
1.20000000,0.17351018,0.58424852,-0.16897679,0.39606700,0.55353504,0.09231835,-0.02300972,0.19377785,-0.56646923,0.12777803,0.47708192,-0.49355920,0.09044708,0.06583026
1.22000000,0.17351018,0.58424852,-0.16897679,0.39606700,0.55353504,0.09231835,-0.02300972,0.19377785,-0.56646923,0.12777803,0.47708192,-0.49355920,0.09044708,0.06583026
1.24000000,0.17351018,0.58424852,-0.16897679,0.39606700,0.55353504,0.09231835,-0.02300972,0.19377785,-0.56646923,0.12777803,0.47708192,-0.49355920,0.09044708,0.06583026
1.26000000,0.17351018,0.58424852,-0.16897679,0.39606700,0.55353504,0.09231835,-0.02300972,0.19377785,-0.56646923,0.12777803,0.47708192,-0.49355920,0.09044708,0.06583026
1.28000000,0.17351018,0.58424852,-0.16897679,0.39606700,0.55353504,0.09231835,-0.02300972,0.19377785,-0.56646923,0.12777803,0.47708192,-0.49355920,0.09044708,0.06583026
1.30000000,0.17351018,0.58424852,-0.16897679,0.39606700,0.55353504,0.09231835,-0.02300972,0.19377785,-0.56646923,0.12777803,0.47708192,-0.49355920,0.09044708,0.06583026
1.32000000,0.17351018,0.58424852,-0.16897679,0.39606700,0.55353504,0.09231835,-0.02300972,0.19377785,-0.56646923,0.12777803,0.47708192,-0.49355920,0.09044708,0.06583026
1.34000000,0.17351018,0.58424852,-0.16897679,0.39606700,0.55353504,0.09231835,-0.02300972,0.19377785,-0.56646923,0.12777803,0.47708192,-0.49355920,0.09044708,0.06583026
1.36000000,0.17351018,0.58424852,-0.16897679,0.39606700,0.55353504,0.09231835,-0.02300972,0.19377785,-0.56646923,0.12777803,0.47708192,-0.49355920,0.09044708,0.06583026
1.38000000,0.17351018,0.58424852,-0.16897679,0.39606700,0.55353504,0.09231835,-0.02300972,0.19377785,-0.56646923,0.12777803,0.47708192,-0.49355920,0.09044708,0.06583026
1.40000000,0.17351018,0.58424852,-0.16897679,0.39606700,0.55353504,0.09231835,-0.02300972,0.19377785,-0.56646923,0.12777803,0.47708192,-0.49355920,0.09044708,0.06583026
1.42000000,0.17351018,0.58424852,-0.16897679,0.39606700,0.55353504,0.09231835,-0.02300972,0.19377785,-0.56646923,0.12777803,0.47708192,-0.49355920,0.09044708,0.06583026
1.44000000,0.17351018,0.58424852,-0.16897679,0.39606700,0.55353504,0.09231835,-0.02300972,0.19377785,-0.56646923,0.12777803,0.47708192,-0.49355920,0.09044708,0.06583026
1.46000000,0.17351018,0.58424852,-0.16897679,0.39606700,0.55353504,0.09231835,-0.02300972,0.19377785,-0.56646923,0.12777803,0.47708192,-0.49355920,0.09044708,0.06583026
1.48000000,0.17351018,0.58424852,-0.16897679,0.39606700,0.55353504,0.09231835,-0.02300972,0.19377785,-0.56646923,0.12777803,0.47708192,-0.49355920,0.09044708,0.06583026
1.50000000,0.17351018,0.58424852,-0.16897679,0.39606700,0.55353504,0.09231835,-0.02300972,0.19377785,-0.56646923,0.12777803,0.47708192,-0.49355920,0.09044708,0.06583026
1.52000000,0.17351018,0.58424852,-0.16897679,0.39606700,0.55353504,0.09231835,-0.02300972,0.19377785,-0.56646923,0.12777803,0.47708192,-0.49355920,0.09044708,0.06583026
1.54000000,0.17351018,0.58424852,-0.16897679,0.39606700,0.55353504,0.09231835,-0.02300972,0.19377785,-0.56646923,0.12777803,0.47708192,-0.49355920,0.09044708,0.06583026
1.56000000,0.17351018,0.58424852,-0.16897679,0.39606700,0.55353504,0.09231835,-0.02300972,0.19377785,-0.56646923,0.12777803,0.47708192,-0.49355920,0.09044708,0.06583026
1.58000000,0.17351018,0.58424852,-0.16897679,0.39606700,0.55353504,0.09231835,-0.02300972,0.19377785,-0.56646923,0.12777803,0.47708192,-0.49355920,0.09044708,0.06583026
1.60000000,0.17351018,0.58424852,-0.16897679,0.39606700,0.55353504,0.09231835,-0.02300972,0.19377785,-0.56646923,0.12777803,0.47708192,-0.49355920,0.09044708,0.06583026
1.62000000,0.17351018,0.58424852,-0.16897679,0.39606700,0.55353504,0.09231835,-0.02300972,0.19377785,-0.56646923,0.12777803,0.47708192,-0.49355920,0.09044708,0.06583026
1.64000000,0.17351018,0.58424852,-0.16897679,0.39606700,0.55353504,0.09231835,-0.02300972,0.19377785,-0.56646923,0.12777803,0.47708192,-0.49355920,0.09044708,0.06583026
1.66000000,0.17351018,0.58424852,-0.16897679,0.39606700,0.55353504,0.09231835,-0.02300972,0.19377785,-0.56646923,0.12777803,0.47708192,-0.49355920,0.09044708,0.06583026
1.68000000,0.17351018,0.58424852,-0.16897679,0.39606700,0.55353504,0.09231835,-0.02300972,0.19377785,-0.56646923,0.12777803,0.47708192,-0.49355920,0.09044708,0.06583026
1.70000000,0.17351018,0.58424852,-0.16897679,0.39606700,0.55353504,0.09231835,-0.02300972,0.19377785,-0.56646923,0.12777803,0.47708192,-0.49355920,0.09044708,0.06583026
1.72000000,0.17351018,0.58424852,-0.16897679,0.39606700,0.55353504,0.09231835,-0.02300972,0.19377785,-0.56646923,0.12777803,0.47708192,-0.49355920,0.09044708,0.06583026
1.74000000,0.17351018,0.58424852,-0.16897679,0.39606700,0.55353504,0.09231835,-0.02300972,0.19377785,-0.56646923,0.12777803,0.47708192,-0.49355920,0.09044708,0.06583026
1.76000000,0.17351018,0.58424852,-0.16897679,0.39606700,0.55353504,0.09231835,-0.02300972,0.19377785,-0.56646923,0.12777803,0.47708192,-0.49355920,0.09044708,0.06583026
1.78000000,0.17351018,0.58424852,-0.16897679,0.39606700,0.55353504,0.09231835,-0.02300972,0.19377785,-0.56646923,0.12777803,0.47708192,-0.49355920,0.09044708,0.06583026
1.80000000,0.17351018,0.58424852,-0.16897679,0.39606700,0.55353504,0.09231835,-0.02300972,0.19377785,-0.56646923,0.12777803,0.47708192,-0.49355920,0.09044708,0.06583026
1.82000000,0.17351018,0.58424852,-0.16897679,0.39606700,0.55353504,0.09231835,-0.02300972,0.19377785,-0.56646923,0.12777803,0.47708192,-0.49355920,0.09044708,0.06583026
1.84000000,0.17351018,0.58424852,-0.16897679,0.39606700,0.55353504,0.09231835,-0.02300972,0.19377785,-0.56646923,0.12777803,0.47708192,-0.49355920,0.09044708,0.06583026
1.86000000,0.17351018,0.58424852,-0.16897679,0.39606700,0.55353504,0.09231835,-0.02300972,0.19377785,-0.56646923,0.12777803,0.47708192,-0.49355920,0.09044708,0.06583026
1.88000000,0.17351018,0.58424852,-0.16897679,0.39606700,0.55353504,0.09231835,-0.02300972,0.19377785,-0.56646923,0.12777803,0.47708192,-0.49355920,0.09044708,0.06583026
1.90000000,0.17351018,0.58424852,-0.16897679,0.39606700,0.55353504,0.09231835,-0.02300972,0.19377785,-0.56646923,0.12777803,0.47708192,-0.49355920,0.09044708,0.06583026
1.92000000,0.17351018,0.58424852,-0.16897679,0.39606700,0.55353504,0.09231835,-0.02300972,0.19377785,-0.56646923,0.12777803,0.47708192,-0.49355920,0.09044708,0.06583026
1.94000000,0.17351018,0.58424852,-0.16897679,0.39606700,0.55353504,0.09231835,-0.02300972,0.19377785,-0.56646923,0.12777803,0.47708192,-0.49355920,0.09044708,0.06583026
1.96000000,0.17351018,0.58424852,-0.16897679,0.39606700,0.55353504,0.09231835,-0.02300972,0.19377785,-0.56646923,0.12777803,0.47708192,-0.49355920,0.09044708,0.06583026
1.98000000,0.17351018,0.58424852,-0.16897679,0.39606700,0.55353504,0.09231835,-0.02300972,0.19377785,-0.56646923,0.12777803,0.47708192,-0.49355920,0.09044708,0.06583026
2.00000000,0.17350982,0.58424860,-0.16897695,0.39606673,0.55353515,0.09231846,-0.02300997,0.19377788,-0.56646936,0.12777810,0.47708130,-0.49355943,0.09044728,0.06583019
2.02000000,0.17350731,0.58424915,-0.16897806,0.39606489,0.55353591,0.09231925,-0.02301169,0.19377814,-0.56647030,0.12777855,0.47707702,-0.49356101,0.09044869,0.06582969
2.04000000,0.17350056,0.58425062,-0.16898103,0.39605993,0.55353797,0.09232138,-0.02301632,0.19377882,-0.56647282,0.12777977,0.47706549,-0.49356527,0.09045250,0.06582835
2.06000000,0.17348753,0.58425348,-0.16898678,0.39605034,0.55354195,0.09232550,-0.02302527,0.19378014,-0.56647769,0.12778213,0.47704322,-0.49357351,0.09045987,0.06582576
2.08000000,0.17346621,0.58425814,-0.16899618,0.39603466,0.55354845,0.09233223,-0.02303990,0.19378230,-0.56648565,0.12778600,0.47700678,-0.49358697,0.09047190,0.06582152
2.10000000,0.17343466,0.58426504,-0.16901009,0.39601146,0.55355808,0.09234218,-0.02306155,0.19378549,-0.56649743,0.12779172,0.47695288,-0.49360690,0.09048972,0.06581525
2.12000000,0.17339099,0.58427460,-0.16902935,0.39597934,0.55357140,0.09235597,-0.02309152,0.19378991,-0.56651374,0.12779963,0.47687825,-0.49363449,0.09051437,0.06580658
2.14000000,0.17333335,0.58428721,-0.16905476,0.39593695,0.55358898,0.09237416,-0.02313108,0.19379575,-0.56653526,0.12781008,0.47677976,-0.49367089,0.09054692,0.06579512
2.16000000,0.17325995,0.58430327,-0.16908713,0.39588297,0.55361138,0.09239733,-0.02318146,0.19380318,-0.56656268,0.12782338,0.47665433,-0.49371726,0.09058836,0.06578054
2.18000000,0.17316904,0.58432317,-0.16912722,0.39581611,0.55363911,0.09242602,-0.02324385,0.19381238,-0.56659663,0.12783986,0.47649898,-0.49377468,0.09063970,0.06576248
2.20000000,0.17305892,0.58434726,-0.16917577,0.39573512,0.55367270,0.09246078,-0.02331943,0.19382353,-0.56663775,0.12785982,0.47631081,-0.49384424,0.09070187,0.06574060
2.22000000,0.17292794,0.58437592,-0.16923353,0.39563879,0.55371266,0.09250212,-0.02340932,0.19383679,-0.56668666,0.12788356,0.47608699,-0.49392698,0.09077583,0.06571457
2.24000000,0.17277450,0.58440950,-0.16930118,0.39552595,0.55375947,0.09255055,-0.02351463,0.19385233,-0.56674396,0.12791136,0.47582480,-0.49402390,0.09086246,0.06568408
2.26000000,0.17259705,0.58444833,-0.16937943,0.39539544,0.55381361,0.09260656,-0.02363641,0.19387029,-0.56681023,0.12794353,0.47552156,-0.49413599,0.09096266,0.06564882
2.28000000,0.17239407,0.58449274,-0.16946893,0.39524616,0.55387553,0.09267062,-0.02377572,0.19389084,-0.56688603,0.12798032,0.47517471,-0.49426420,0.09107727,0.06560849
2.30000000,0.17216411,0.58454306,-0.16957033,0.39507703,0.55394568,0.09274320,-0.02393355,0.19391412,-0.56697191,0.12802199,0.47478174,-0.49440946,0.09120711,0.06556280
2.32000000,0.17190574,0.58459960,-0.16968426,0.39488701,0.55402450,0.09282475,-0.02411087,0.19394028,-0.56706839,0.12806882,0.47434024,-0.49457266,0.09135300,0.06551146
2.34000000,0.17161760,0.58466265,-0.16981131,0.39467510,0.55411240,0.09291570,-0.02430863,0.19396945,-0.56717600,0.12812105,0.47384786,-0.49475467,0.09151569,0.06545421
2.36000000,0.17129836,0.58473250,-0.16995208,0.39444031,0.55420979,0.09301646,-0.02452773,0.19400178,-0.56729521,0.12817891,0.47330234,-0.49495632,0.09169595,0.06539078
2.38000000,0.17094673,0.58480944,-0.17010713,0.39418171,0.55431706,0.09312744,-0.02476905,0.19403737,-0.56742652,0.12824263,0.47270148,-0.49517843,0.09189449,0.06532091
2.40000000,0.17056150,0.58489374,-0.17027699,0.39389839,0.55443459,0.09324903,-0.02503344,0.19407638,-0.56757039,0.12831246,0.47204318,-0.49542177,0.09211200,0.06524437
2.42000000,0.17014145,0.58498565,-0.17046221,0.39358946,0.55456273,0.09338161,-0.02532173,0.19411890,-0.56772725,0.12838859,0.47132540,-0.49568710,0.09234918,0.06516090
2.44000000,0.16968544,0.58508543,-0.17066329,0.39325409,0.55470184,0.09352554,-0.02563469,0.19416507,-0.56789754,0.12847124,0.47054617,-0.49597514,0.09260666,0.06507030
2.46000000,0.16919236,0.58519332,-0.17088070,0.39289146,0.55485226,0.09368116,-0.02597310,0.19421499,-0.56808168,0.12856060,0.46970359,-0.49628660,0.09288506,0.06497233
2.48000000,0.16866116,0.58530956,-0.17111494,0.39250078,0.55501432,0.09384883,-0.02633767,0.19426877,-0.56828005,0.12865688,0.46879587,-0.49662214,0.09318500,0.06486678
2.50000000,0.16809080,0.58543436,-0.17136643,0.39208131,0.55518831,0.09402884,-0.02672911,0.19432651,-0.56849304,0.12876025,0.46782124,-0.49698241,0.09350704,0.06475345
2.52000000,0.16748032,0.58556795,-0.17163562,0.39163233,0.55537455,0.09422153,-0.02714810,0.19438832,-0.56872102,0.12887090,0.46677803,-0.49736803,0.09385174,0.06463215
2.54000000,0.16682876,0.58571052,-0.17192292,0.39115314,0.55557332,0.09442718,-0.02759527,0.19445429,-0.56896434,0.12898899,0.46566465,-0.49777960,0.09421964,0.06450269
2.56000000,0.16613524,0.58586227,-0.17222872,0.39064309,0.55578489,0.09464607,-0.02807124,0.19452450,-0.56922333,0.12911468,0.46447955,-0.49821767,0.09461122,0.06436489
2.58000000,0.16539889,0.58602339,-0.17255341,0.39010154,0.55600953,0.09487848,-0.02857661,0.19459905,-0.56949831,0.12924814,0.46322127,-0.49868279,0.09502699,0.06421858
2.60000000,0.16461891,0.58619407,-0.17289734,0.38952790,0.55624748,0.09512467,-0.02911192,0.19467802,-0.56978959,0.12938951,0.46188842,-0.49917548,0.09546740,0.06406360
2.62000000,0.16379450,0.58637446,-0.17326086,0.38892159,0.55649898,0.09538487,-0.02967772,0.19476148,-0.57009746,0.12953892,0.46047967,-0.49969623,0.09593289,0.06389979
2.64000000,0.16292494,0.58656473,-0.17364429,0.38828207,0.55676425,0.09565933,-0.03027452,0.19484952,-0.57042219,0.12969653,0.45899375,-0.50024550,0.09642387,0.06372701
2.66000000,0.16200952,0.58676504,-0.17404793,0.38760882,0.55704352,0.09594826,-0.03090278,0.19494220,-0.57076404,0.12986244,0.45742947,-0.50082373,0.09694075,0.06354512
2.68000000,0.16104758,0.58697553,-0.17447209,0.38690137,0.55733697,0.09625187,-0.03156297,0.19503959,-0.57112327,0.13003678,0.45578571,-0.50143135,0.09748389,0.06335399
2.70000000,0.16003851,0.58719633,-0.17491704,0.38615924,0.55764481,0.09657036,-0.03225551,0.19514175,-0.57150010,0.13021967,0.45406139,-0.50206874,0.09805365,0.06315349
2.72000000,0.15898171,0.58742757,-0.17538303,0.38538202,0.55796720,0.09690391,-0.03298080,0.19524874,-0.57189475,0.13041121,0.45225552,-0.50273628,0.09865035,0.06294351
2.74000000,0.15787664,0.58766938,-0.17587030,0.38456929,0.55830432,0.09725270,-0.03373923,0.19536062,-0.57230743,0.13061149,0.45036717,-0.50343431,0.09927432,0.06272393
2.76000000,0.15672279,0.58792186,-0.17637908,0.38372069,0.55865633,0.09761689,-0.03453113,0.19547744,-0.57273832,0.13082062,0.44839545,-0.50416316,0.09992582,0.06249467
2.78000000,0.15551967,0.58818512,-0.17690959,0.38283586,0.55902336,0.09799662,-0.03535684,0.19559924,-0.57318762,0.13103868,0.44633956,-0.50492312,0.10060514,0.06225561
2.80000000,0.15426687,0.58845925,-0.17746201,0.38191447,0.55940555,0.09839204,-0.03621666,0.19572608,-0.57365547,0.13126574,0.44419874,-0.50571447,0.10131252,0.06200668
2.82000000,0.15296395,0.58874435,-0.17803652,0.38095625,0.55980303,0.09880328,-0.03711087,0.19585799,-0.57414203,0.13150188,0.44197232,-0.50653747,0.10204819,0.06174780
2.84000000,0.15161057,0.58904049,-0.17863328,0.37996090,0.56021590,0.09923044,-0.03803971,0.19599501,-0.57464743,0.13174717,0.43965965,-0.50739235,0.10281235,0.06147889
2.86000000,0.15020639,0.58934775,-0.17925245,0.37892819,0.56064427,0.09967363,-0.03900342,0.19613717,-0.57517181,0.13200167,0.43726016,-0.50827932,0.10360520,0.06119988
2.88000000,0.14875111,0.58966619,-0.17989414,0.37785790,0.56108823,0.10013296,-0.04000220,0.19628451,-0.57571527,0.13226543,0.43477336,-0.50919857,0.10442691,0.06091072
2.90000000,0.14724445,0.58999587,-0.18055849,0.37674983,0.56154786,0.10060850,-0.04103624,0.19643705,-0.57627792,0.13253850,0.43219877,-0.51015026,0.10527762,0.06061136
2.92000000,0.14568620,0.59033684,-0.18124560,0.37560381,0.56202323,0.10110033,-0.04210569,0.19659481,-0.57685984,0.13282092,0.42953601,-0.51113455,0.10615746,0.06030174
2.94000000,0.14407615,0.59068914,-0.18195554,0.37441969,0.56251441,0.10160850,-0.04321069,0.19675781,-0.57746110,0.13311273,0.42678473,-0.51215156,0.10706656,0.05998183
2.96000000,0.14241413,0.59105282,-0.18268840,0.37319736,0.56302144,0.10213308,-0.04435136,0.19692608,-0.57808176,0.13341396,0.42394466,-0.51320140,0.10800499,0.05965159
2.98000000,0.14070001,0.59142789,-0.18344423,0.37193671,0.56354436,0.10267410,-0.04552778,0.19709962,-0.57872188,0.13372463,0.42101555,-0.51428414,0.10897284,0.05931100
3.00000000,0.13893368,0.59181439,-0.18422308,0.37063766,0.56408321,0.10323160,-0.04674003,0.19727845,-0.57938150,0.13404476,0.41799723,-0.51539986,0.10997017,0.05896004
3.02000000,0.13711508,0.59221233,-0.18502497,0.36930017,0.56463800,0.10380560,-0.04798816,0.19746257,-0.58006064,0.13437437,0.41488959,-0.51654861,0.11099701,0.05859869
3.04000000,0.13524417,0.59262171,-0.18584994,0.36792420,0.56520876,0.10439611,-0.04927219,0.19765198,-0.58075932,0.13471346,0.41169255,-0.51773039,0.11205340,0.05822695
3.06000000,0.13332093,0.59304255,-0.18669798,0.36650975,0.56579548,0.10500313,-0.05059214,0.19784670,-0.58147753,0.13506203,0.40840610,-0.51894523,0.11313933,0.05784480
3.08000000,0.13134538,0.59347483,-0.18756909,0.36505683,0.56639815,0.10562666,-0.05194798,0.19804671,-0.58221528,0.13542009,0.40503026,-0.52019311,0.11425479,0.05745227
3.10000000,0.12931758,0.59391854,-0.18846323,0.36356548,0.56701677,0.10626669,-0.05333969,0.19825200,-0.58297255,0.13578761,0.40156513,-0.52147399,0.11539976,0.05704935
3.12000000,0.12723760,0.59437368,-0.18938039,0.36203576,0.56765130,0.10692319,-0.05476721,0.19846259,-0.58374929,0.13616459,0.39801084,-0.52278784,0.11657419,0.05663607
3.14000000,0.12510555,0.59484020,-0.19032050,0.36046774,0.56830172,0.10759612,-0.05623046,0.19867844,-0.58454549,0.13655101,0.39436757,-0.52413457,0.11777802,0.05621244
3.16000000,0.12292157,0.59531809,-0.19128351,0.35886152,0.56896798,0.10828544,-0.05772936,0.19889955,-0.58536108,0.13694684,0.39063556,-0.52551411,0.11901117,0.05577849
3.18000000,0.12068581,0.59580731,-0.19226935,0.35721724,0.56965004,0.10899110,-0.05926378,0.19912590,-0.58619600,0.13735205,0.38681509,-0.52692635,0.12027355,0.05533426
3.20000000,0.11839849,0.59630781,-0.19327794,0.35553502,0.57034783,0.10971304,-0.06083361,0.19935748,-0.58705018,0.13776662,0.38290647,-0.52837117,0.12156506,0.05487977
3.22000000,0.11605980,0.59681955,-0.19430917,0.35381503,0.57106129,0.11045119,-0.06243868,0.19959425,-0.58792354,0.13819049,0.37891010,-0.52984843,0.12288556,0.05441508
3.24000000,0.11367000,0.59734248,-0.19536293,0.35205744,0.57179034,0.11120548,-0.06407883,0.19983620,-0.58881599,0.13862362,0.37482638,-0.53135798,0.12423493,0.05394024
3.26000000,0.11122936,0.59787653,-0.19643912,0.35026247,0.57253490,0.11197581,-0.06575388,0.20008330,-0.58972742,0.13906597,0.37065579,-0.53289964,0.12561300,0.05345529
3.28000000,0.10873817,0.59842164,-0.19753759,0.34843032,0.57329488,0.11276209,-0.06746361,0.20033551,-0.59065773,0.13951748,0.36639882,-0.53447323,0.12701961,0.05296030
3.30000000,0.10619676,0.59897774,-0.19865821,0.34656124,0.57407018,0.11356423,-0.06920781,0.20059281,-0.59160680,0.13997809,0.36205604,-0.53607854,0.12845457,0.05245534
3.32000000,0.10360549,0.59954475,-0.19980081,0.34465548,0.57486069,0.11438210,-0.07098624,0.20085516,-0.59257449,0.14044774,0.35762804,-0.53771535,0.12991770,0.05194046
3.34000000,0.10096471,0.60012259,-0.20096525,0.34271332,0.57566631,0.11521560,-0.07279864,0.20112251,-0.59356066,0.14092636,0.35311545,-0.53938343,0.13140877,0.05141575
3.36000000,0.09827483,0.60071118,-0.20215133,0.34073504,0.57648690,0.11606460,-0.07464474,0.20139484,-0.59456517,0.14141388,0.34851896,-0.54108252,0.13292757,0.05088128
3.38000000,0.09553627,0.60131042,-0.20335888,0.33872096,0.57732235,0.11692896,-0.07652425,0.20167210,-0.59558786,0.14191022,0.34383928,-0.54281237,0.13447386,0.05033714
3.40000000,0.09274947,0.60192021,-0.20458770,0.33667141,0.57817251,0.11780854,-0.07843687,0.20195424,-0.59662856,0.14241531,0.33907717,-0.54457268,0.13604738,0.04978341
3.42000000,0.08991491,0.60254046,-0.20583759,0.33458672,0.57903724,0.11870321,-0.08038227,0.20224122,-0.59768711,0.14292905,0.33423343,-0.54636317,0.13764788,0.04922019
3.44000000,0.08703306,0.60317105,-0.20710832,0.33246727,0.57991640,0.11961279,-0.08236011,0.20253299,-0.59876330,0.14345137,0.32930891,-0.54818352,0.13927507,0.04864758
3.46000000,0.08410445,0.60381188,-0.20839967,0.33031341,0.58080983,0.12053714,-0.08437006,0.20282948,-0.59985697,0.14398216,0.32430446,-0.55003342,0.14092866,0.04806568
3.48000000,0.08112960,0.60446282,-0.20971141,0.32812556,0.58171735,0.12147608,-0.08641174,0.20313066,-0.60096790,0.14452132,0.31922101,-0.55191251,0.14260836,0.04747458
3.50000000,0.07810908,0.60512376,-0.21104329,0.32590411,0.58263882,0.12242944,-0.08848476,0.20343647,-0.60209588,0.14506877,0.31405950,-0.55382047,0.14431386,0.04687442
3.52000000,0.07504345,0.60579456,-0.21239506,0.32364949,0.58357404,0.12339703,-0.09058874,0.20374684,-0.60324071,0.14562440,0.30882093,-0.55575691,0.14604482,0.04626529
3.54000000,0.07193332,0.60647511,-0.21376645,0.32136213,0.58452284,0.12437867,-0.09272327,0.20406172,-0.60440216,0.14618808,0.30350630,-0.55772146,0.14780091,0.04564732
3.56000000,0.06877929,0.60716526,-0.21515720,0.31904250,0.58548503,0.12537416,-0.09488792,0.20438104,-0.60558000,0.14675973,0.29811666,-0.55971374,0.14958178,0.04502062
3.58000000,0.06558201,0.60786487,-0.21656702,0.31669106,0.58646042,0.12638331,-0.09708225,0.20470474,-0.60677400,0.14733921,0.29265312,-0.56173334,0.15138708,0.04438534
3.60000000,0.06234213,0.60857381,-0.21799562,0.31430828,0.58744880,0.12740590,-0.09930583,0.20503275,-0.60798390,0.14792641,0.28711678,-0.56377985,0.15321642,0.04374158
3.62000000,0.05906033,0.60929192,-0.21944271,0.31189468,0.58844997,0.12844172,-0.10155817,0.20536501,-0.60920946,0.14852122,0.28150881,-0.56585284,0.15506944,0.04308950
3.64000000,0.05573730,0.61001905,-0.22090798,0.30945075,0.58946372,0.12949056,-0.10383881,0.20570144,-0.61045042,0.14912349,0.27583037,-0.56795187,0.15694574,0.04242923
3.66000000,0.05237374,0.61075504,-0.22239112,0.30697701,0.59048983,0.13055218,-0.10614727,0.20604197,-0.61170650,0.14973311,0.27008269,-0.57007650,0.15884493,0.04176090
3.68000000,0.04897039,0.61149975,-0.22389181,0.30447401,0.59152809,0.13162637,-0.10848303,0.20638654,-0.61297745,0.15034994,0.26426701,-0.57222627,0.16076657,0.04108467
3.70000000,0.04552799,0.61225300,-0.22540971,0.30194230,0.59257825,0.13271288,-0.11084559,0.20673505,-0.61426299,0.15097385,0.25838460,-0.57440070,0.16271027,0.04040068
3.72000000,0.04204731,0.61301463,-0.22694450,0.29938242,0.59364009,0.13381148,-0.11323443,0.20708745,-0.61556282,0.15160470,0.25243677,-0.57659932,0.16467559,0.03970908
3.74000000,0.03852911,0.61378446,-0.22849582,0.29679496,0.59471338,0.13492191,-0.11564902,0.20744364,-0.61687665,0.15224235,0.24642484,-0.57882163,0.16666209,0.03901003
3.76000000,0.03497420,0.61456233,-0.23006334,0.29418049,0.59579787,0.13604393,-0.11808880,0.20780354,-0.61820420,0.15288665,0.24035017,-0.58106714,0.16866931,0.03830368
3.78000000,0.03138339,0.61534806,-0.23164668,0.29153962,0.59689331,0.13717729,-0.12055322,0.20816708,-0.61954516,0.15353746,0.23421414,-0.58333532,0.17069681,0.03759020
3.80000000,0.02775749,0.61614146,-0.23324550,0.28887295,0.59799945,0.13832172,-0.12304173,0.20853418,-0.62089921,0.15419463,0.22801817,-0.58562566,0.17274412,0.03686974
3.82000000,0.02409735,0.61694236,-0.23485941,0.28618109,0.59911604,0.13947696,-0.12555373,0.20890474,-0.62226606,0.15485800,0.22176369,-0.58793763,0.17481076,0.03614249
3.84000000,0.02040382,0.61775056,-0.23648805,0.28346468,0.60024282,0.14064273,-0.12808865,0.20927868,-0.62364537,0.15552742,0.21545215,-0.59027069,0.17689626,0.03540860
3.86000000,0.01667777,0.61856588,-0.23813103,0.28072435,0.60137952,0.14181877,-0.13064588,0.20965592,-0.62503683,0.15620274,0.20908503,-0.59262430,0.17900011,0.03466825
3.88000000,0.01292008,0.61938812,-0.23978796,0.27796075,0.60252587,0.14300480,-0.13322484,0.21003635,-0.62644011,0.15688380,0.20266384,-0.59499789,0.18112184,0.03392161
3.90000000,0.00913164,0.62021709,-0.24145845,0.27517453,0.60368160,0.14420053,-0.13582490,0.21041990,-0.62785487,0.15757042,0.19619012,-0.59739091,0.18326092,0.03316886
3.92000000,0.00531335,0.62105259,-0.24314210,0.27236637,0.60484643,0.14540568,-0.13844544,0.21080647,-0.62928077,0.15826246,0.18966539,-0.59980277,0.18541686,0.03241018
3.94000000,0.00146614,0.62189441,-0.24483850,0.26953694,0.60602009,0.14661996,-0.14108583,0.21119597,-0.63071747,0.15895974,0.18309124,-0.60223291,0.18758913,0.03164575
3.96000000,-0.00240906,0.62274237,-0.24654724,0.26668691,0.60720229,0.14784307,-0.14374543,0.21158831,-0.63216463,0.15966209,0.17646925,-0.60468073,0.18977720,0.03087576
3.98000000,-0.00631132,0.62359624,-0.24826792,0.26381699,0.60839274,0.14907473,-0.14642360,0.21198338,-0.63362189,0.16036934,0.16980103,-0.60714564,0.19198055,0.03010040
4.00000000,-0.01023968,0.62445583,-0.25000010,0.26092787,0.60959116,0.15031462,-0.14911968,0.21238110,-0.63508890,0.16108133,0.16308821,-0.60962703,0.19419864,0.02931985
4.02000000,-0.01419318,0.62532092,-0.25174337,0.25802026,0.61079724,0.15156245,-0.15183302,0.21278136,-0.63656530,0.16179787,0.15633243,-0.61212431,0.19643093,0.02853430
4.04000000,-0.01817084,0.62619129,-0.25349730,0.25509488,0.61201070,0.15281791,-0.15456295,0.21318407,-0.63805072,0.16251880,0.14953535,-0.61463685,0.19867685,0.02774396
4.06000000,-0.02217170,0.62706674,-0.25526145,0.25215245,0.61323123,0.15408068,-0.15730879,0.21358912,-0.63954480,0.16324392,0.14269865,-0.61716404,0.20093588,0.02694900
4.08000000,-0.02619475,0.62794704,-0.25703539,0.24919369,0.61445853,0.15535046,-0.16006986,0.21399643,-0.64104717,0.16397307,0.13582402,-0.61970525,0.20320743,0.02614964
4.10000000,-0.03023899,0.62883199,-0.25881867,0.24621935,0.61569230,0.15662693,-0.16284548,0.21440587,-0.64255746,0.16470606,0.12891317,-0.62225984,0.20549095,0.02534606
4.12000000,-0.03430342,0.62972135,-0.26061086,0.24323015,0.61693222,0.15790977,-0.16563495,0.21481737,-0.64407528,0.16544271,0.12196783,-0.62482719,0.20778587,0.02453847
4.14000000,-0.03838702,0.63061490,-0.26241149,0.24022686,0.61817800,0.15919866,-0.16843758,0.21523080,-0.64560027,0.16618283,0.11498973,-0.62740664,0.21009161,0.02372708
4.16000000,-0.04248877,0.63151243,-0.26422013,0.23721023,0.61942931,0.16049328,-0.17125266,0.21564607,-0.64713203,0.16692624,0.10798062,-0.62999756,0.21240760,0.02291208
4.18000000,-0.04660763,0.63241370,-0.26603632,0.23418100,0.62068584,0.16179330,-0.17407949,0.21606307,-0.64867018,0.16767275,0.10094226,-0.63259929,0.21473326,0.02209367
4.20000000,-0.05074258,0.63331849,-0.26785960,0.23113995,0.62194728,0.16309840,-0.17691736,0.21648170,-0.65021433,0.16842218,0.09387643,-0.63521118,0.21706799,0.02127208
4.22000000,-0.05489255,0.63422657,-0.26968950,0.22808784,0.62321330,0.16440824,-0.17976555,0.21690186,-0.65176410,0.16917433,0.08678490,-0.63783257,0.21941121,0.02044749
4.24000000,-0.05905652,0.63513771,-0.27152558,0.22502545,0.62448359,0.16572250,-0.18262333,0.21732343,-0.65331910,0.16992902,0.07966947,-0.64046278,0.22176233,0.01962013
4.26000000,-0.06323341,0.63605168,-0.27336735,0.22195354,0.62575783,0.16704083,-0.18548999,0.21774630,-0.65487892,0.17068605,0.07253195,-0.64310117,0.22412075,0.01879019
4.28000000,-0.06742218,0.63696825,-0.27521436,0.21887291,0.62703568,0.16836292,-0.18836479,0.21817039,-0.65644318,0.17144524,0.06537414,-0.64574706,0.22648587,0.01795790
4.30000000,-0.07162175,0.63788718,-0.27706613,0.21578432,0.62831684,0.16968841,-0.19124702,0.21859556,-0.65801147,0.17220638,0.05819786,-0.64839977,0.22885710,0.01712346
4.32000000,-0.07583106,0.63880824,-0.27892220,0.21268858,0.62960096,0.17101698,-0.19413592,0.21902172,-0.65958340,0.17296928,0.05100495,-0.65105863,0.23123382,0.01628709
4.34000000,-0.08004904,0.63973120,-0.28078209,0.20958646,0.63088773,0.17234829,-0.19703078,0.21944876,-0.66115856,0.17373376,0.04379723,-0.65372297,0.23361544,0.01544899
4.36000000,-0.08427460,0.64065582,-0.28264533,0.20647876,0.63217681,0.17368198,-0.19993084,0.21987656,-0.66273656,0.17449961,0.03657654,-0.65639209,0.23600134,0.01460939
4.38000000,-0.08850668,0.64158186,-0.28451143,0.20336628,0.63346788,0.17501774,-0.20283537,0.22030503,-0.66431699,0.17526665,0.02934472,-0.65906534,0.23839092,0.01376849
4.40000000,-0.09274418,0.64250909,-0.28637993,0.20024980,0.63476060,0.17635521,-0.20574362,0.22073404,-0.66589944,0.17603466,0.02210363,-0.66174201,0.24078356,0.01292651
4.42000000,-0.09698603,0.64343727,-0.28825035,0.19713012,0.63605465,0.17769405,-0.20865486,0.22116350,-0.66748352,0.17680347,0.01485511,-0.66442142,0.24317865,0.01208367
4.44000000,-0.10123114,0.64436617,-0.29012220,0.19400805,0.63734970,0.17903391,-0.21156834,0.22159328,-0.66906882,0.17757286,0.00760102,-0.66710290,0.24557559,0.01124019
4.46000000,-0.10547843,0.64529554,-0.29199502,0.19088438,0.63864541,0.18037447,-0.21448330,0.22202329,-0.67065493,0.17834265,0.00034321,-0.66978575,0.24797376,0.01039627
4.48000000,-0.10972680,0.64622515,-0.29386831,0.18775990,0.63994145,0.18171537,-0.21739902,0.22245340,-0.67224144,0.17911264,-0.00691645,-0.67246929,0.25037254,0.00955213
4.50000000,-0.11397518,0.64715476,-0.29574160,0.18463543,0.64123749,0.18305626,-0.22031473,0.22288352,-0.67382796,0.17988262,-0.01417612,-0.67515282,0.25277132,0.00870799
4.52000000,-0.11822246,0.64808413,-0.29761442,0.18151176,0.64253320,0.18439682,-0.22322970,0.22331352,-0.67541407,0.18065241,-0.02143393,-0.67783567,0.25516948,0.00786407
4.54000000,-0.12246757,0.64901303,-0.29948627,0.17838968,0.64382825,0.18573669,-0.22614318,0.22374331,-0.67699937,0.18142181,-0.02868802,-0.68051715,0.25756642,0.00702059
4.56000000,-0.12670942,0.64994121,-0.30135669,0.17527001,0.64512230,0.18707553,-0.22905442,0.22417276,-0.67858345,0.18219061,-0.03593654,-0.68319657,0.25996152,0.00617775
4.58000000,-0.13094693,0.65086844,-0.30322519,0.17215353,0.64641502,0.18841299,-0.23196267,0.22460178,-0.68016590,0.18295863,-0.04317763,-0.68587324,0.26235416,0.00533577
4.60000000,-0.13517900,0.65179449,-0.30509129,0.16904104,0.64770609,0.18974875,-0.23486720,0.22503024,-0.68174633,0.18372566,-0.05040945,-0.68854648,0.26474374,0.00449487
4.62000000,-0.13940457,0.65271910,-0.30695453,0.16593334,0.64899517,0.19108245,-0.23776726,0.22545805,-0.68332433,0.18449151,-0.05763014,-0.69121561,0.26712964,0.00365527
4.64000000,-0.14362254,0.65364206,-0.30881442,0.16283123,0.65028194,0.19241375,-0.24066211,0.22588508,-0.68489949,0.18525599,-0.06483786,-0.69387994,0.26951125,0.00281717
4.66000000,-0.14783185,0.65456313,-0.31067049,0.15973548,0.65156606,0.19374232,-0.24355102,0.22631124,-0.68647142,0.18601889,-0.07203077,-0.69653881,0.27188798,0.00198080
4.68000000,-0.15203143,0.65548206,-0.31252226,0.15664690,0.65284722,0.19506781,-0.24643324,0.22673642,-0.68803971,0.18678004,-0.07920705,-0.69919152,0.27425920,0.00114636
4.70000000,-0.15622019,0.65639862,-0.31436927,0.15356626,0.65412507,0.19638990,-0.24930805,0.22716050,-0.68960397,0.18753922,-0.08636485,-0.70183740,0.27662432,0.00031407
4.72000000,-0.16039709,0.65731259,-0.31621105,0.15049436,0.65539931,0.19770824,-0.25217471,0.22758338,-0.69116379,0.18829625,-0.09350238,-0.70447579,0.27898274,-0.00051587
4.74000000,-0.16456105,0.65822373,-0.31804712,0.14743196,0.65666960,0.19902249,-0.25503249,0.22800495,-0.69271878,0.18905094,-0.10061780,-0.70710601,0.28133386,-0.00134323
4.76000000,-0.16871103,0.65913181,-0.31987703,0.14437986,0.65793562,0.20033234,-0.25788068,0.22842510,-0.69426856,0.18980309,-0.10770933,-0.70972739,0.28367709,-0.00216782
4.78000000,-0.17284598,0.66003660,-0.32170030,0.14133881,0.65919706,0.20163743,-0.26071854,0.22884373,-0.69581271,0.19055252,-0.11477517,-0.71233928,0.28601182,-0.00298941
4.80000000,-0.17696484,0.66093787,-0.32351649,0.13830958,0.66045359,0.20293745,-0.26354537,0.22926073,-0.69735086,0.19129903,-0.12181353,-0.71494101,0.28833747,-0.00380782
4.82000000,-0.18106659,0.66183540,-0.32532513,0.13529294,0.66170490,0.20423207,-0.26636046,0.22967600,-0.69888262,0.19204244,-0.12882264,-0.71753193,0.29065346,-0.00462282
4.84000000,-0.18515019,0.66272895,-0.32712577,0.13228965,0.66295068,0.20552096,-0.26916309,0.23008944,-0.70040761,0.19278257,-0.13580074,-0.72011139,0.29295921,-0.00543422
4.86000000,-0.18921462,0.66361831,-0.32891795,0.12930046,0.66419060,0.20680381,-0.27195256,0.23050093,-0.70192543,0.19351921,-0.14274608,-0.72267873,0.29525413,-0.00624180
4.88000000,-0.19325886,0.66450326,-0.33070123,0.12632611,0.66542437,0.20808027,-0.27472818,0.23091038,-0.70343571,0.19425220,-0.14965693,-0.72523333,0.29753765,-0.00704538
4.90000000,-0.19728191,0.66538356,-0.33247517,0.12336736,0.66665167,0.20935005,-0.27748925,0.23131768,-0.70493808,0.19498135,-0.15653155,-0.72777454,0.29980920,-0.00784474
4.92000000,-0.20128276,0.66625901,-0.33423932,0.12042492,0.66787220,0.21061283,-0.28023509,0.23172273,-0.70643217,0.19570648,-0.16336825,-0.73030172,0.30206822,-0.00863970
4.94000000,-0.20526043,0.66712939,-0.33599325,0.11749954,0.66908566,0.21186828,-0.28296501,0.23212544,-0.70791759,0.19642740,-0.17016533,-0.73281427,0.30431415,-0.00943005
4.96000000,-0.20921393,0.66799447,-0.33773652,0.11459193,0.67029174,0.21311611,-0.28567835,0.23252570,-0.70939399,0.19714394,-0.17692112,-0.73531154,0.30654643,-0.01021559
4.98000000,-0.21314229,0.66885406,-0.33946870,0.11170282,0.67149016,0.21435601,-0.28837444,0.23292342,-0.71086100,0.19785593,-0.18363394,-0.73779294,0.30876452,-0.01099614
5.00000000,-0.21704455,0.66970793,-0.34118938,0.10883289,0.67268061,0.21558766,-0.29105261,0.23331849,-0.71231826,0.19856318,-0.19030216,-0.74025785,0.31096787,-0.01177151
5.02000000,-0.22091975,0.67055589,-0.34289812,0.10598287,0.67386281,0.21681078,-0.29371221,0.23371083,-0.71376542,0.19926553,-0.19692415,-0.74270567,0.31315595,-0.01254149
5.04000000,-0.22476696,0.67139772,-0.34459452,0.10315343,0.67503647,0.21802506,-0.29635260,0.23410033,-0.71520212,0.19996281,-0.20349830,-0.74513580,0.31532821,-0.01330592
5.06000000,-0.22858524,0.67223322,-0.34627817,0.10034527,0.67620130,0.21923021,-0.29897314,0.23448690,-0.71662802,0.20065485,-0.21002302,-0.74754767,0.31748415,-0.01406460
5.08000000,-0.23237368,0.67306218,-0.34794866,0.09755906,0.67735703,0.22042594,-0.30157320,0.23487045,-0.71804278,0.20134147,-0.21649675,-0.74994068,0.31962324,-0.01481735
5.10000000,-0.23613138,0.67388443,-0.34960559,0.09479545,0.67850338,0.22161196,-0.30415215,0.23525089,-0.71944606,0.20202253,-0.22291794,-0.75231427,0.32174496,-0.01556399
5.12000000,-0.23985743,0.67469974,-0.35124857,0.09205512,0.67964008,0.22278800,-0.30670939,0.23562812,-0.72083751,0.20269785,-0.22928505,-0.75466788,0.32384882,-0.01630434
5.14000000,-0.24355096,0.67550794,-0.35287721,0.08933871,0.68076686,0.22395378,-0.30924431,0.23600206,-0.72221683,0.20336727,-0.23559659,-0.75700094,0.32593431,-0.01703823
5.16000000,-0.24721110,0.67630884,-0.35449112,0.08664686,0.68188345,0.22510901,-0.31175631,0.23637262,-0.72358367,0.20403065,-0.24185108,-0.75931291,0.32800096,-0.01776549
5.18000000,-0.25083699,0.67710224,-0.35608994,0.08398018,0.68298959,0.22625344,-0.31424481,0.23673972,-0.72493773,0.20468781,-0.24804705,-0.76160326,0.33004826,-0.01848594
5.20000000,-0.25442781,0.67788797,-0.35767329,0.08133931,0.68408503,0.22738680,-0.31670924,0.23710326,-0.72627869,0.20533862,-0.25418308,-0.76387144,0.33207576,-0.01919942
5.22000000,-0.25798272,0.67866584,-0.35924080,0.07872485,0.68516952,0.22850882,-0.31914902,0.23746317,-0.72760624,0.20598292,-0.26025774,-0.76611694,0.33408299,-0.01990577
5.24000000,-0.26150092,0.67943567,-0.36079213,0.07613739,0.68624281,0.22961926,-0.32156360,0.23781936,-0.72892007,0.20662057,-0.26626967,-0.76833925,0.33606949,-0.02060482
5.26000000,-0.26498160,0.68019730,-0.36232691,0.07357751,0.68730465,0.23071785,-0.32395244,0.23817175,-0.73021990,0.20725142,-0.27221751,-0.77053787,0.33803480,-0.02129642
5.28000000,-0.26842400,0.68095055,-0.36384481,0.07104579,0.68835481,0.23180436,-0.32631501,0.23852027,-0.73150544,0.20787533,-0.27809991,-0.77271230,0.33997850,-0.02198041
5.30000000,-0.27182735,0.68169526,-0.36534550,0.06854279,0.68939307,0.23287855,-0.32865077,0.23886483,-0.73277638,0.20849216,-0.28391560,-0.77486207,0.34190015,-0.02265664
5.32000000,-0.27519091,0.68243125,-0.36682864,0.06606906,0.69041918,0.23394018,-0.33095923,0.23920536,-0.73403247,0.20910178,-0.28966328,-0.77698670,0.34379933,-0.02332497
5.34000000,-0.27851394,0.68315839,-0.36829391,0.06362513,0.69143293,0.23498901,-0.33323987,0.23954179,-0.73527343,0.20970405,-0.29534171,-0.77908574,0.34567563,-0.02398524
5.36000000,-0.28179574,0.68387650,-0.36974100,0.06121152,0.69243410,0.23602484,-0.33549221,0.23987405,-0.73649899,0.21029886,-0.30094969,-0.78115873,0.34752865,-0.02463733
5.38000000,-0.28503562,0.68458543,-0.37116960,0.05882875,0.69342248,0.23704743,-0.33771578,0.24020206,-0.73770889,0.21088606,-0.30648603,-0.78320524,0.34935800,-0.02528108
5.40000000,-0.28823290,0.68528504,-0.37257942,0.05647731,0.69439787,0.23805657,-0.33991012,0.24052576,-0.73890288,0.21146554,-0.31194957,-0.78522484,0.35116329,-0.02591636
5.42000000,-0.29138692,0.68597519,-0.37397017,0.05415767,0.69536006,0.23905206,-0.34207477,0.24084508,-0.74008073,0.21203719,-0.31733920,-0.78721711,0.35294417,-0.02654306
5.44000000,-0.29449706,0.68665574,-0.37534156,0.05187032,0.69630886,0.24003370,-0.34420929,0.24115996,-0.74124218,0.21260088,-0.32265383,-0.78918167,0.35470026,-0.02716103
5.46000000,-0.29756269,0.68732655,-0.37669333,0.04961570,0.69724408,0.24100130,-0.34631327,0.24147033,-0.74238701,0.21315650,-0.32789241,-0.79111811,0.35643122,-0.02777016
5.48000000,-0.30058321,0.68798748,-0.37802521,0.04739425,0.69816555,0.24195465,-0.34838630,0.24177614,-0.74351499,0.21370395,-0.33305392,-0.79302606,0.35813671,-0.02837033
5.50000000,-0.30355806,0.68863843,-0.37933695,0.04520639,0.69907307,0.24289359,-0.35042798,0.24207732,-0.74462592,0.21424312,-0.33813737,-0.79490516,0.35981641,-0.02896142
5.52000000,-0.30648667,0.68927925,-0.38062830,0.04305254,0.69996650,0.24381794,-0.35243792,0.24237382,-0.74571959,0.21477390,-0.34314181,-0.79675505,0.36147001,-0.02954332
5.54000000,-0.30936852,0.68990984,-0.38189903,0.04093308,0.70084566,0.24472753,-0.35441577,0.24266558,-0.74679578,0.21529622,-0.34806634,-0.79857541,0.36309720,-0.03011593
5.56000000,-0.31220308,0.69053009,-0.38314892,0.03884840,0.70171039,0.24562219,-0.35636117,0.24295256,-0.74785433,0.21580996,-0.35291008,-0.80036589,0.36469769,-0.03067915
5.58000000,-0.31498988,0.69113989,-0.38437774,0.03679884,0.70256055,0.24650177,-0.35827379,0.24323470,-0.74889503,0.21631505,-0.35767218,-0.80212621,0.36627122,-0.03123288
5.60000000,-0.31772844,0.69173912,-0.38558529,0.03478476,0.70339600,0.24736614,-0.36015330,0.24351196,-0.74991772,0.21681139,-0.36235186,-0.80385605,0.36781750,-0.03177702
5.62000000,-0.32041832,0.69232771,-0.38677137,0.03280649,0.70421659,0.24821513,-0.36199940,0.24378429,-0.75092223,0.21729891,-0.36694836,-0.80555515,0.36933630,-0.03231149
5.64000000,-0.32305909,0.69290555,-0.38793581,0.03086432,0.70502221,0.24904863,-0.36381180,0.24405165,-0.75190840,0.21777753,-0.37146095,-0.80722323,0.37082738,-0.03283620
5.66000000,-0.32565037,0.69347257,-0.38907841,0.02895856,0.70581272,0.24986651,-0.36559023,0.24431399,-0.75287609,0.21824718,-0.37588895,-0.80886004,0.37229050,-0.03335108
5.68000000,-0.32819178,0.69402867,-0.39019903,0.02708948,0.70658802,0.25066864,-0.36733443,0.24457129,-0.75382516,0.21870779,-0.38023173,-0.81046535,0.37372547,-0.03385604
5.70000000,-0.33068296,0.69457378,-0.39129750,0.02525734,0.70734800,0.25145492,-0.36904416,0.24482351,-0.75475547,0.21915930,-0.38448869,-0.81203894,0.37513208,-0.03435103
5.72000000,-0.33312361,0.69510783,-0.39237369,0.02346236,0.70809256,0.25222525,-0.37071921,0.24507060,-0.75566690,0.21960165,-0.38865929,-0.81358060,0.37651015,-0.03483598
5.74000000,-0.33551341,0.69563075,-0.39342746,0.02170478,0.70882161,0.25297954,-0.37235936,0.24531255,-0.75655935,0.22003479,-0.39274301,-0.81509014,0.37785951,-0.03531082
5.76000000,-0.33785209,0.69614249,-0.39445868,0.01998479,0.70953507,0.25371769,-0.37396443,0.24554932,-0.75743271,0.22045866,-0.39673938,-0.81656740,0.37918002,-0.03577551
5.78000000,-0.34013942,0.69664299,-0.39546727,0.01830257,0.71023286,0.25443963,-0.37553425,0.24578090,-0.75828689,0.22087322,-0.40064799,-0.81801222,0.38047152,-0.03623000
5.80000000,-0.34237517,0.69713221,-0.39645311,0.01665828,0.71091492,0.25514529,-0.37706868,0.24600725,-0.75912181,0.22127843,-0.40446847,-0.81942446,0.38173391,-0.03667423
5.82000000,-0.34455916,0.69761010,-0.39741612,0.01505207,0.71158118,0.25583461,-0.37856758,0.24622836,-0.75993740,0.22167426,-0.40820048,-0.82080400,0.38296706,-0.03710818
5.84000000,-0.34669121,0.69807663,-0.39835623,0.01348405,0.71223160,0.25650754,-0.38003083,0.24644422,-0.76073359,0.22206068,-0.41184375,-0.82215074,0.38417089,-0.03753181
5.86000000,-0.34877118,0.69853176,-0.39927339,0.01195432,0.71286613,0.25716404,-0.38145835,0.24665480,-0.76151034,0.22243766,-0.41539804,-0.82346458,0.38534532,-0.03794510
5.88000000,-0.35079899,0.69897547,-0.40016753,0.01046297,0.71348475,0.25780407,-0.38285005,0.24686010,-0.76226761,0.22280518,-0.41886317,-0.82474547,0.38649029,-0.03834801
5.90000000,-0.35277453,0.69940775,-0.40103864,0.00901006,0.71408742,0.25842760,-0.38420590,0.24706011,-0.76300536,0.22316324,-0.42223901,-0.82599334,0.38760575,-0.03874055
5.92000000,-0.35469777,0.69982859,-0.40188668,0.00759560,0.71467414,0.25903463,-0.38552584,0.24725482,-0.76372357,0.22351181,-0.42552546,-0.82720818,0.38869168,-0.03912269
5.94000000,-0.35656869,0.70023797,-0.40271165,0.00621964,0.71524490,0.25962514,-0.38680988,0.24744424,-0.76442225,0.22385090,-0.42872250,-0.82838997,0.38974806,-0.03949443
5.96000000,-0.35838729,0.70063591,-0.40351355,0.00488215,0.71579969,0.26019914,-0.38805801,0.24762835,-0.76510139,0.22418051,-0.43183014,-0.82953871,0.39077491,-0.03985578
5.98000000,-0.36015361,0.70102241,-0.40429240,0.00358310,0.71633854,0.26075663,-0.38927026,0.24780718,-0.76576101,0.22450064,-0.43484845,-0.83065443,0.39177223,-0.04020674
6.00000000,-0.36186773,0.70139748,-0.40504823,0.00232245,0.71686146,0.26129765,-0.39044668,0.24798072,-0.76640113,0.22481131,-0.43777756,-0.83173718,0.39274009,-0.04054733
6.02000000,-0.36352975,0.70176116,-0.40578108,0.00110011,0.71736849,0.26182223,-0.39158735,0.24814899,-0.76702179,0.22511254,-0.44061764,-0.83278701,0.39367852,-0.04087757
6.04000000,-0.36513981,0.70211347,-0.40649103,-0.00008401,0.71785967,0.26233041,-0.39269235,0.24831199,-0.76762305,0.22540435,-0.44336892,-0.83380402,0.39458761,-0.04119748
6.06000000,-0.36669806,0.70245444,-0.40717813,-0.00123003,0.71833504,0.26282223,-0.39376180,0.24846976,-0.76820497,0.22568677,-0.44603168,-0.83478831,0.39546746,-0.04150710
6.08000000,-0.36820471,0.70278411,-0.40784248,-0.00233810,0.71879467,0.26329777,-0.39479584,0.24862229,-0.76876761,0.22595984,-0.44860626,-0.83574001,0.39631817,-0.04180647
6.10000000,-0.36966000,0.70310255,-0.40848418,-0.00340839,0.71923863,0.26375710,-0.39579462,0.24876963,-0.76931108,0.22622360,-0.45109307,-0.83665925,0.39713987,-0.04209562
6.12000000,-0.37106418,0.70340981,-0.40910334,-0.00444110,0.71966700,0.26420030,-0.39675833,0.24891179,-0.76983546,0.22647810,-0.45349255,-0.83754622,0.39793272,-0.04237463
6.14000000,-0.37241756,0.70370595,-0.40970010,-0.00543644,0.72007987,0.26462746,-0.39768717,0.24904881,-0.77034086,0.22672339,-0.45580522,-0.83840110,0.39869689,-0.04264354
6.16000000,-0.37372047,0.70399105,-0.41027461,-0.00639467,0.72047735,0.26503869,-0.39858137,0.24918072,-0.77082742,0.22695953,-0.45803165,-0.83922410,0.39943255,-0.04290243
6.18000000,-0.37497328,0.70426518,-0.41082703,-0.00731605,0.72085954,0.26543411,-0.39944119,0.24930756,-0.77129527,0.22718660,-0.46017246,-0.84001545,0.40013993,-0.04315135
6.20000000,-0.37617639,0.70452844,-0.41135754,-0.00820088,0.72122657,0.26581384,-0.40026690,0.24942936,-0.77174456,0.22740465,-0.46222836,-0.84077542,0.40081925,-0.04339041
6.22000000,-0.37733025,0.70478092,-0.41186632,-0.00904949,0.72157858,0.26617803,-0.40105881,0.24954618,-0.77217546,0.22761378,-0.46420007,-0.84150426,0.40147076,-0.04361967
6.24000000,-0.37843532,0.70502273,-0.41235360,-0.00986221,0.72191570,0.26652682,-0.40181723,0.24965806,-0.77258814,0.22781406,-0.46608843,-0.84220229,0.40209472,-0.04383925
6.26000000,-0.37949212,0.70525397,-0.41281958,-0.01063943,0.72223809,0.26686037,-0.40254253,0.24976506,-0.77298279,0.22800560,-0.46789430,-0.84286983,0.40269143,-0.04404923
6.28000000,-0.38050119,0.70547477,-0.41326453,-0.01138156,0.72254593,0.26717886,-0.40323507,0.24986722,-0.77335962,0.22818849,-0.46961861,-0.84350723,0.40326118,-0.04424973
6.30000000,-0.38146313,0.70568526,-0.41368869,-0.01208902,0.72283938,0.26748247,-0.40389526,0.24996460,-0.77371884,0.22836283,-0.47126238,-0.84411484,0.40380433,-0.04444086
6.32000000,-0.38237854,0.70588557,-0.41409234,-0.01276226,0.72311865,0.26777140,-0.40452352,0.25005728,-0.77406070,0.22852875,-0.47282665,-0.84469308,0.40432120,-0.04462275
6.34000000,-0.38324811,0.70607584,-0.41447576,-0.01340178,0.72338392,0.26804586,-0.40512031,0.25014532,-0.77438543,0.22868635,-0.47431257,-0.84524235,0.40481219,-0.04479553
6.36000000,-0.38407251,0.70625623,-0.41483928,-0.01400809,0.72363542,0.26830607,-0.40568612,0.25022878,-0.77469330,0.22883576,-0.47572133,-0.84576309,0.40527768,-0.04495934
6.38000000,-0.38485250,0.70642691,-0.41518321,-0.01458174,0.72387337,0.26855225,-0.40622143,0.25030775,-0.77498458,0.22897713,-0.47705418,-0.84625578,0.40571809,-0.04511432
6.40000000,-0.38558885,0.70658803,-0.41550790,-0.01512329,0.72409801,0.26878466,-0.40672680,0.25038230,-0.77525956,0.22911059,-0.47831246,-0.84672091,0.40613385,-0.04526063
6.42000000,-0.38628237,0.70673979,-0.41581370,-0.01563334,0.72430958,0.26900355,-0.40720277,0.25045252,-0.77551855,0.22923628,-0.47949756,-0.84715898,0.40652544,-0.04539843
6.44000000,-0.38693393,0.70688236,-0.41610100,-0.01611253,0.72450835,0.26920920,-0.40764994,0.25051848,-0.77576186,0.22935437,-0.48061094,-0.84757054,0.40689333,-0.04552789
6.46000000,-0.38754441,0.70701594,-0.41637019,-0.01656151,0.72469459,0.26940189,-0.40806893,0.25058029,-0.77598984,0.22946502,-0.48165415,-0.84795616,0.40723803,-0.04564919
6.48000000,-0.38811477,0.70714074,-0.41662169,-0.01698098,0.72486858,0.26958191,-0.40846037,0.25063803,-0.77620284,0.22956839,-0.48262877,-0.84831643,0.40756007,-0.04576252
6.50000000,-0.38864597,0.70725698,-0.41685592,-0.01737165,0.72503064,0.26974957,-0.40882494,0.25069181,-0.77640121,0.22966467,-0.48353650,-0.84865198,0.40786001,-0.04586807
6.52000000,-0.38913905,0.70736487,-0.41707333,-0.01773428,0.72518106,0.26990520,-0.40916334,0.25074173,-0.77658535,0.22975404,-0.48437907,-0.84896343,0.40813842,-0.04596604
6.54000000,-0.38959505,0.70746465,-0.41727441,-0.01806966,0.72532017,0.27004912,-0.40947631,0.25078790,-0.77675564,0.22983668,-0.48515830,-0.84925147,0.40839590,-0.04605665
6.56000000,-0.39001510,0.70755656,-0.41745963,-0.01837858,0.72544831,0.27018170,-0.40976459,0.25083043,-0.77691250,0.22991282,-0.48587609,-0.84951680,0.40863307,-0.04614011
6.58000000,-0.39040034,0.70764086,-0.41762950,-0.01866191,0.72556584,0.27030329,-0.41002899,0.25086943,-0.77705637,0.22998264,-0.48653439,-0.84976014,0.40885059,-0.04621665
6.60000000,-0.39075196,0.70771780,-0.41778454,-0.01892051,0.72567311,0.27041428,-0.41027031,0.25090503,-0.77718768,0.23004637,-0.48713524,-0.84998225,0.40904913,-0.04628652
6.62000000,-0.39107121,0.70778766,-0.41792531,-0.01915529,0.72577050,0.27051504,-0.41048941,0.25093735,-0.77730689,0.23010423,-0.48768077,-0.85018390,0.40922938,-0.04634995
6.64000000,-0.39135935,0.70785071,-0.41805236,-0.01936721,0.72585840,0.27060598,-0.41068717,0.25096652,-0.77741450,0.23015645,-0.48817315,-0.85036591,0.40939208,-0.04640720
6.66000000,-0.39161772,0.70790724,-0.41816629,-0.01955723,0.72593722,0.27068753,-0.41086449,0.25099268,-0.77751098,0.23020328,-0.48861465,-0.85052911,0.40953796,-0.04645854
6.68000000,-0.39184768,0.70795756,-0.41826769,-0.01972635,0.72600737,0.27076011,-0.41102232,0.25101596,-0.77759686,0.23024496,-0.48900762,-0.85067437,0.40966781,-0.04650423
6.70000000,-0.39205066,0.70800198,-0.41835719,-0.01987563,0.72606929,0.27082418,-0.41116162,0.25103651,-0.77767266,0.23028174,-0.48935447,-0.85080259,0.40978242,-0.04654457
6.72000000,-0.39222811,0.70804081,-0.41843544,-0.02000614,0.72612343,0.27088019,-0.41128341,0.25105448,-0.77773893,0.23031391,-0.48965770,-0.85091468,0.40988261,-0.04657982
6.74000000,-0.39238155,0.70807438,-0.41850310,-0.02011899,0.72617024,0.27092862,-0.41138872,0.25107001,-0.77779623,0.23034172,-0.48991990,-0.85101160,0.40996925,-0.04661031
6.76000000,-0.39251253,0.70810304,-0.41856085,-0.02021532,0.72621020,0.27096996,-0.41147861,0.25108327,-0.77784514,0.23036545,-0.49014371,-0.85109433,0.41004320,-0.04663634
6.78000000,-0.39262265,0.70812714,-0.41860941,-0.02029630,0.72624379,0.27100471,-0.41155419,0.25109442,-0.77788626,0.23038541,-0.49033188,-0.85116389,0.41010538,-0.04665822
6.80000000,-0.39271356,0.70814703,-0.41864949,-0.02036316,0.72627152,0.27103341,-0.41161658,0.25110362,-0.77792021,0.23040189,-0.49048723,-0.85122132,0.41015671,-0.04667628
6.82000000,-0.39278696,0.70816309,-0.41868186,-0.02041715,0.72629392,0.27105657,-0.41166696,0.25111106,-0.77794762,0.23041519,-0.49061266,-0.85126768,0.41019816,-0.04669087
6.84000000,-0.39284460,0.70817570,-0.41870727,-0.02045954,0.72631150,0.27107477,-0.41170651,0.25111689,-0.77796915,0.23042564,-0.49071116,-0.85130409,0.41023070,-0.04670232
6.86000000,-0.39288827,0.70818526,-0.41872653,-0.02049166,0.72632482,0.27108855,-0.41173648,0.25112131,-0.77798546,0.23043355,-0.49078578,-0.85133167,0.41025536,-0.04671099
6.88000000,-0.39291982,0.70819216,-0.41874044,-0.02051486,0.72633445,0.27109851,-0.41175814,0.25112451,-0.77799724,0.23043927,-0.49083969,-0.85135160,0.41027317,-0.04671726
6.90000000,-0.39294114,0.70819683,-0.41874984,-0.02053054,0.72634095,0.27110524,-0.41177277,0.25112666,-0.77800520,0.23044314,-0.49087612,-0.85136507,0.41028521,-0.04672150
6.92000000,-0.39295417,0.70819968,-0.41875559,-0.02054012,0.72634493,0.27110935,-0.41178172,0.25112798,-0.77801007,0.23044550,-0.49089840,-0.85137330,0.41029257,-0.04672409
6.94000000,-0.39296092,0.70820115,-0.41875857,-0.02054509,0.72634699,0.27111148,-0.41178635,0.25112867,-0.77801259,0.23044672,-0.49090993,-0.85137756,0.41029638,-0.04672543
6.96000000,-0.39296342,0.70820170,-0.41875967,-0.02054693,0.72634775,0.27111227,-0.41178807,0.25112892,-0.77801352,0.23044718,-0.49091421,-0.85137915,0.41029780,-0.04672593
6.98000000,-0.39296378,0.70820178,-0.41875983,-0.02054719,0.72634786,0.27111238,-0.41178831,0.25112896,-0.77801366,0.23044724,-0.49091483,-0.85137937,0.41029800,-0.04672600
7.00000000,-0.39296336,0.70820177,-0.41875969,-0.02054734,0.72634785,0.27111243,-0.41178802,0.25112862,-0.77801368,0.23044724,-0.49091469,-0.85137915,0.41029795,-0.04672563
7.02000000,-0.39296043,0.70820171,-0.41875873,-0.02054836,0.72634777,0.27111276,-0.41178602,0.25112631,-0.77801384,0.23044722,-0.49091378,-0.85137756,0.41029761,-0.04672304
7.04000000,-0.39295252,0.70820154,-0.41875614,-0.02055110,0.72634755,0.27111365,-0.41178061,0.25112007,-0.77801427,0.23044718,-0.49091131,-0.85137330,0.41029669,-0.04671608
7.06000000,-0.39293726,0.70820122,-0.41875115,-0.02055639,0.72634713,0.27111536,-0.41177016,0.25110801,-0.77801509,0.23044711,-0.49090653,-0.85136507,0.41029491,-0.04670263
7.08000000,-0.39291228,0.70820069,-0.41874297,-0.02056505,0.72634644,0.27111816,-0.41175307,0.25108830,-0.77801644,0.23044698,-0.49089872,-0.85135160,0.41029201,-0.04668064
7.10000000,-0.39287533,0.70819991,-0.41873088,-0.02057786,0.72634543,0.27112231,-0.41172778,0.25105913,-0.77801843,0.23044680,-0.49088717,-0.85133167,0.41028772,-0.04664809
7.12000000,-0.39282418,0.70819883,-0.41871414,-0.02059560,0.72634402,0.27112804,-0.41169277,0.25101875,-0.77802119,0.23044654,-0.49087117,-0.85130409,0.41028177,-0.04660303
7.14000000,-0.39275667,0.70819741,-0.41869204,-0.02061900,0.72634216,0.27113562,-0.41164657,0.25096545,-0.77802483,0.23044620,-0.49085006,-0.85126768,0.41027392,-0.04654356
7.16000000,-0.39267069,0.70819559,-0.41866390,-0.02064881,0.72633980,0.27114526,-0.41158774,0.25089758,-0.77802947,0.23044576,-0.49082318,-0.85122132,0.41026393,-0.04646783
7.18000000,-0.39256420,0.70819335,-0.41862905,-0.02068573,0.72633687,0.27115720,-0.41151486,0.25081352,-0.77803521,0.23044523,-0.49078988,-0.85116389,0.41025155,-0.04637404
7.20000000,-0.39243522,0.70819062,-0.41858683,-0.02073045,0.72633332,0.27117167,-0.41142660,0.25071170,-0.77804217,0.23044458,-0.49074954,-0.85109433,0.41023655,-0.04626042
7.22000000,-0.39228180,0.70818738,-0.41853662,-0.02078364,0.72632910,0.27118888,-0.41132161,0.25059059,-0.77805044,0.23044380,-0.49070157,-0.85101160,0.41021872,-0.04612529
7.24000000,-0.39210208,0.70818359,-0.41847779,-0.02084595,0.72632415,0.27120904,-0.41119861,0.25044871,-0.77806014,0.23044290,-0.49064537,-0.85091468,0.41019783,-0.04596698
7.26000000,-0.39189423,0.70817920,-0.41840976,-0.02091801,0.72631843,0.27123235,-0.41105637,0.25028462,-0.77807135,0.23044185,-0.49058037,-0.85080259,0.41017366,-0.04578390
7.28000000,-0.39165648,0.70817418,-0.41833194,-0.02100044,0.72631189,0.27125902,-0.41089367,0.25009694,-0.77808417,0.23044065,-0.49050603,-0.85067437,0.41014603,-0.04557448
7.30000000,-0.39138711,0.70816849,-0.41824378,-0.02109382,0.72630448,0.27128923,-0.41070933,0.24988430,-0.77809870,0.23043929,-0.49042180,-0.85052911,0.41011471,-0.04533722
7.32000000,-0.39108448,0.70816210,-0.41814473,-0.02119875,0.72629615,0.27132317,-0.41050223,0.24964539,-0.77811503,0.23043777,-0.49032717,-0.85036591,0.41007953,-0.04507065
7.34000000,-0.39074698,0.70815498,-0.41803426,-0.02131576,0.72628687,0.27136103,-0.41027126,0.24937896,-0.77813323,0.23043606,-0.49022163,-0.85018390,0.41004030,-0.04477337
7.36000000,-0.39037305,0.70814708,-0.41791187,-0.02144540,0.72627658,0.27140297,-0.41001537,0.24908377,-0.77815340,0.23043418,-0.49010470,-0.84998225,0.40999683,-0.04444400
7.38000000,-0.38996119,0.70813839,-0.41777707,-0.02158819,0.72626525,0.27144917,-0.40973352,0.24875863,-0.77817562,0.23043210,-0.48997591,-0.84976014,0.40994895,-0.04408122
7.40000000,-0.38950995,0.70812886,-0.41762938,-0.02174463,0.72625283,0.27149978,-0.40942472,0.24840242,-0.77819995,0.23042983,-0.48983481,-0.84951680,0.40989650,-0.04368375
7.42000000,-0.38901794,0.70811847,-0.41746834,-0.02191521,0.72623929,0.27155496,-0.40908801,0.24801401,-0.77822649,0.23042735,-0.48968096,-0.84925147,0.40983930,-0.04325037
7.44000000,-0.38848381,0.70810720,-0.41729352,-0.02210040,0.72622460,0.27161487,-0.40872249,0.24759236,-0.77825530,0.23042465,-0.48951393,-0.84896343,0.40977721,-0.04277990
7.46000000,-0.38790626,0.70809500,-0.41710449,-0.02230063,0.72620871,0.27167965,-0.40832725,0.24713643,-0.77828646,0.23042174,-0.48933333,-0.84865198,0.40971007,-0.04227118
7.48000000,-0.38728406,0.70808187,-0.41690084,-0.02251635,0.72619159,0.27174944,-0.40790145,0.24664525,-0.77832002,0.23041861,-0.48913877,-0.84831643,0.40963774,-0.04172312
7.50000000,-0.38661599,0.70806776,-0.41668218,-0.02274797,0.72617320,0.27182437,-0.40744427,0.24611786,-0.77835605,0.23041524,-0.48892986,-0.84795616,0.40956008,-0.04113466
7.52000000,-0.38590092,0.70805267,-0.41644814,-0.02299588,0.72615353,0.27190458,-0.40695491,0.24555337,-0.77839462,0.23041163,-0.48870626,-0.84757054,0.40947695,-0.04050481
7.54000000,-0.38513774,0.70803655,-0.41619835,-0.02326047,0.72613253,0.27199018,-0.40643264,0.24495090,-0.77843579,0.23040778,-0.48846761,-0.84715898,0.40938824,-0.03983258
7.56000000,-0.38432541,0.70801940,-0.41593247,-0.02354211,0.72611018,0.27208129,-0.40587673,0.24430962,-0.77847960,0.23040369,-0.48821360,-0.84672091,0.40929380,-0.03911705
7.58000000,-0.38346292,0.70800119,-0.41565017,-0.02384113,0.72608645,0.27217803,-0.40528649,0.24362875,-0.77852612,0.23039934,-0.48794389,-0.84625578,0.40919354,-0.03835733
7.60000000,-0.38254930,0.70798190,-0.41535115,-0.02415788,0.72606131,0.27228051,-0.40466127,0.24290752,-0.77857540,0.23039473,-0.48765821,-0.84576309,0.40908734,-0.03755260
7.62000000,-0.38158366,0.70796152,-0.41503509,-0.02449267,0.72603474,0.27238882,-0.40400044,0.24214522,-0.77862749,0.23038987,-0.48735625,-0.84524235,0.40897508,-0.03670203
7.64000000,-0.38056513,0.70794001,-0.41470172,-0.02484579,0.72600672,0.27250306,-0.40330342,0.24134117,-0.77868243,0.23038473,-0.48703775,-0.84469308,0.40885668,-0.03580487
7.66000000,-0.37949289,0.70791737,-0.41435077,-0.02521754,0.72597722,0.27262333,-0.40256964,0.24049471,-0.77874026,0.23037932,-0.48670246,-0.84411484,0.40873203,-0.03486041
7.68000000,-0.37836616,0.70789359,-0.41398199,-0.02560817,0.72594622,0.27274970,-0.40179858,0.23960525,-0.77880104,0.23037364,-0.48635013,-0.84350723,0.40860105,-0.03386795
7.70000000,-0.37718422,0.70786863,-0.41359514,-0.02601795,0.72591370,0.27288228,-0.40098972,0.23867219,-0.77886479,0.23036768,-0.48598054,-0.84286983,0.40846366,-0.03282686
7.72000000,-0.37594637,0.70784250,-0.41318999,-0.02644711,0.72587964,0.27302112,-0.40014262,0.23769501,-0.77893156,0.23036144,-0.48559346,-0.84220229,0.40831976,-0.03173653
7.74000000,-0.37465199,0.70781517,-0.41276634,-0.02689587,0.72584402,0.27316630,-0.39925682,0.23667319,-0.77900137,0.23035492,-0.48518871,-0.84150426,0.40816929,-0.03059639
7.76000000,-0.37330046,0.70778663,-0.41232398,-0.02736444,0.72580684,0.27331789,-0.39833192,0.23560626,-0.77907427,0.23034810,-0.48476608,-0.84077542,0.40801218,-0.02940592
7.78000000,-0.37189124,0.70775688,-0.41186274,-0.02785302,0.72576806,0.27347595,-0.39736753,0.23449379,-0.77915029,0.23034100,-0.48432542,-0.84001545,0.40784836,-0.02816463
7.80000000,-0.37042380,0.70772590,-0.41138244,-0.02836178,0.72572769,0.27364055,-0.39636330,0.23333536,-0.77922944,0.23033360,-0.48386655,-0.83922410,0.40767777,-0.02687207
7.82000000,-0.36889768,0.70769368,-0.41088294,-0.02889088,0.72568570,0.27381172,-0.39531892,0.23213061,-0.77931175,0.23032590,-0.48338933,-0.83840110,0.40750036,-0.02552782
7.84000000,-0.36731245,0.70766021,-0.41036409,-0.02944048,0.72564208,0.27398953,-0.39423408,0.23087919,-0.77939726,0.23031791,-0.48289362,-0.83754622,0.40731608,-0.02413149
7.86000000,-0.36566771,0.70762549,-0.40982576,-0.03001071,0.72559683,0.27417401,-0.39310852,0.22958079,-0.77948598,0.23030962,-0.48237931,-0.83665925,0.40712488,-0.02268275
7.88000000,-0.36396311,0.70758950,-0.40926784,-0.03060169,0.72554992,0.27436520,-0.39194199,0.22823514,-0.77957792,0.23030103,-0.48184628,-0.83574001,0.40692673,-0.02118129
7.90000000,-0.36219834,0.70755224,-0.40869023,-0.03121353,0.72550137,0.27456314,-0.39073430,0.22684199,-0.77967311,0.23029213,-0.48129444,-0.83478831,0.40672158,-0.01962683
7.92000000,-0.36037314,0.70751370,-0.40809284,-0.03184633,0.72545115,0.27476786,-0.38948523,0.22540113,-0.77977156,0.23028293,-0.48072369,-0.83380402,0.40650940,-0.01801913
7.94000000,-0.35848726,0.70747389,-0.40747558,-0.03250016,0.72539926,0.27497939,-0.38819465,0.22391237,-0.77987328,0.23027342,-0.48013398,-0.83278701,0.40629017,-0.01635799
7.96000000,-0.35654051,0.70743279,-0.40683841,-0.03317510,0.72534570,0.27519775,-0.38686241,0.22237556,-0.77997829,0.23026360,-0.47952523,-0.83173718,0.40606387,-0.01464323
7.98000000,-0.35453273,0.70739040,-0.40618126,-0.03387119,0.72529045,0.27542294,-0.38548841,0.22079058,-0.78008658,0.23025348,-0.47889739,-0.83065443,0.40583047,-0.01287472
8.00000000,-0.35246381,0.70734672,-0.40550410,-0.03458848,0.72523353,0.27565500,-0.38407257,0.21915732,-0.78019818,0.23024305,-0.47825044,-0.82953871,0.40558996,-0.01105234
8.02000000,-0.35033366,0.70730174,-0.40480689,-0.03532700,0.72517492,0.27589393,-0.38261482,0.21747573,-0.78031308,0.23023231,-0.47758434,-0.82838997,0.40534233,-0.00917604
8.04000000,-0.34814223,0.70725547,-0.40408963,-0.03608677,0.72511462,0.27613973,-0.38111513,0.21574576,-0.78043128,0.23022126,-0.47689907,-0.82720818,0.40508758,-0.00724576
8.06000000,-0.34588951,0.70720791,-0.40335231,-0.03686778,0.72505264,0.27639240,-0.37957351,0.21396741,-0.78055279,0.23020990,-0.47619464,-0.82599334,0.40482571,-0.00526149
8.08000000,-0.34357552,0.70715906,-0.40259494,-0.03767004,0.72498897,0.27665194,-0.37798995,0.21214069,-0.78067760,0.23019823,-0.47547106,-0.82474547,0.40455671,-0.00322325
8.10000000,-0.34120032,0.70710891,-0.40181753,-0.03849352,0.72492362,0.27691835,-0.37636451,0.21026566,-0.78080572,0.23018626,-0.47472833,-0.82346458,0.40428060,-0.00113111
8.12000000,-0.33876401,0.70705747,-0.40102012,-0.03933818,0.72485659,0.27719162,-0.37469725,0.20834237,-0.78093713,0.23017398,-0.47396649,-0.82215074,0.40399738,0.00101487
8.14000000,-0.33626671,0.70700475,-0.40020275,-0.04020399,0.72478788,0.27747173,-0.37298824,0.20637094,-0.78107183,0.23016138,-0.47318558,-0.82080400,0.40370708,0.00321458
8.16000000,-0.33370858,0.70695074,-0.39936547,-0.04109090,0.72471749,0.27775865,-0.37123761,0.20435150,-0.78120981,0.23014849,-0.47238565,-0.81942446,0.40340970,0.00546786
8.18000000,-0.33108981,0.70689545,-0.39850834,-0.04199882,0.72464544,0.27805238,-0.36944548,0.20228418,-0.78135107,0.23013528,-0.47156676,-0.81801222,0.40310527,0.00777455
8.20000000,-0.32841063,0.70683889,-0.39763143,-0.04292769,0.72457172,0.27835289,-0.36761201,0.20016917,-0.78149558,0.23012178,-0.47072898,-0.81656740,0.40279382,0.01013446
8.22000000,-0.32567129,0.70678105,-0.39673484,-0.04387741,0.72449635,0.27866014,-0.36573737,0.19800667,-0.78164333,0.23010796,-0.46987238,-0.81509014,0.40247538,0.01254736
8.24000000,-0.32287208,0.70672195,-0.39581865,-0.04484790,0.72441933,0.27897411,-0.36382176,0.19579690,-0.78179432,0.23009385,-0.46899707,-0.81358060,0.40214998,0.01501299
8.26000000,-0.32001331,0.70666160,-0.39488298,-0.04583903,0.72434067,0.27929476,-0.36186540,0.19354013,-0.78194852,0.23007944,-0.46810313,-0.81203894,0.40181765,0.01753108
8.28000000,-0.31709535,0.70659999,-0.39392792,-0.04685068,0.72426039,0.27962205,-0.35986852,0.19123662,-0.78210591,0.23006473,-0.46719068,-0.81046535,0.40147844,0.02010131
8.30000000,-0.31411856,0.70653714,-0.39295361,-0.04788273,0.72417848,0.27995594,-0.35783138,0.18888667,-0.78226647,0.23004972,-0.46625983,-0.80886004,0.40113240,0.02272336
8.32000000,-0.31108336,0.70647306,-0.39196018,-0.04893503,0.72409497,0.28029638,-0.35575427,0.18649061,-0.78243019,0.23003441,-0.46531072,-0.80722323,0.40077956,0.02539686
8.34000000,-0.30799018,0.70640775,-0.39094778,-0.05000743,0.72400987,0.28064332,-0.35363749,0.18404878,-0.78259703,0.23001882,-0.46434348,-0.80555515,0.40041999,0.02812144
8.36000000,-0.30483948,0.70634123,-0.38991655,-0.05109977,0.72392318,0.28099671,-0.35148134,0.18156155,-0.78276698,0.23000293,-0.46335825,-0.80385605,0.40005372,0.03089667
8.38000000,-0.30163177,0.70627351,-0.38886665,-0.05221188,0.72383492,0.28135650,-0.34928617,0.17902930,-0.78294000,0.22998676,-0.46235520,-0.80212621,0.39968083,0.03372213
8.40000000,-0.29836755,0.70620459,-0.38779827,-0.05334358,0.72374511,0.28172263,-0.34705234,0.17645245,-0.78311606,0.22997030,-0.46133447,-0.80036589,0.39930137,0.03659735
8.42000000,-0.29504738,0.70613450,-0.38671157,-0.05449468,0.72365375,0.28209503,-0.34478021,0.17383143,-0.78329515,0.22995356,-0.46029625,-0.79857541,0.39891541,0.03952186
8.44000000,-0.29167183,0.70606323,-0.38560674,-0.05566498,0.72356088,0.28247364,-0.34247019,0.17116669,-0.78347722,0.22993654,-0.45924071,-0.79675505,0.39852301,0.04249515
8.46000000,-0.28824150,0.70599080,-0.38448399,-0.05685427,0.72346649,0.28285840,-0.34012268,0.16845871,-0.78366225,0.22991925,-0.45816805,-0.79490516,0.39812424,0.04551670
8.48000000,-0.28475702,0.70591724,-0.38334351,-0.05806234,0.72337062,0.28324923,-0.33773811,0.16570798,-0.78385020,0.22990168,-0.45707844,-0.79302606,0.39771918,0.04858594
8.50000000,-0.28121903,0.70584254,-0.38218552,-0.05928895,0.72327328,0.28364606,-0.33531692,0.16291501,-0.78404103,0.22988384,-0.45597211,-0.79111811,0.39730789,0.05170231
8.52000000,-0.27762821,0.70576673,-0.38101024,-0.06053388,0.72317448,0.28404882,-0.33285958,0.16008033,-0.78423472,0.22986574,-0.45484926,-0.78918167,0.39689047,0.05486521
8.54000000,-0.27398527,0.70568982,-0.37981789,-0.06179689,0.72307424,0.28445743,-0.33036657,0.15720450,-0.78443121,0.22984737,-0.45371010,-0.78721711,0.39646698,0.05807404
8.56000000,-0.27029091,0.70561182,-0.37860872,-0.06307772,0.72297260,0.28487180,-0.32783837,0.15428809,-0.78463048,0.22982875,-0.45255488,-0.78522484,0.39603752,0.06132814
8.58000000,-0.26654589,0.70553275,-0.37738297,-0.06437611,0.72286955,0.28529185,-0.32527550,0.15133168,-0.78483249,0.22980986,-0.45138380,-0.78320524,0.39560217,0.06462688
8.60000000,-0.26275097,0.70545263,-0.37614088,-0.06569180,0.72276514,0.28571751,-0.32267849,0.14833588,-0.78503718,0.22979073,-0.45019713,-0.78115873,0.39516102,0.06796956
8.62000000,-0.25890695,0.70537147,-0.37488272,-0.06702452,0.72265937,0.28614866,-0.32004787,0.14530132,-0.78524452,0.22977135,-0.44899510,-0.77908574,0.39471416,0.07135550
8.64000000,-0.25501463,0.70528929,-0.37360876,-0.06837398,0.72255228,0.28658524,-0.31738420,0.14222863,-0.78545447,0.22975172,-0.44777796,-0.77698670,0.39426168,0.07478398
8.66000000,-0.25107484,0.70520611,-0.37231926,-0.06973990,0.72244388,0.28702714,-0.31468805,0.13911847,-0.78566697,0.22973186,-0.44654599,-0.77486207,0.39380369,0.07825426
8.68000000,-0.24708845,0.70512195,-0.37101450,-0.07112198,0.72233419,0.28747427,-0.31196000,0.13597151,-0.78588200,0.22971176,-0.44529944,-0.77271230,0.39334028,0.08176561
8.70000000,-0.24305631,0.70503682,-0.36969478,-0.07251991,0.72222325,0.28792653,-0.30920065,0.13278845,-0.78609948,0.22969143,-0.44403858,-0.77053787,0.39287155,0.08531724
8.72000000,-0.23897933,0.70495074,-0.36836037,-0.07393340,0.72211108,0.28838382,-0.30641061,0.12956999,-0.78631939,0.22967088,-0.44276371,-0.76833925,0.39239761,0.08890837
8.74000000,-0.23485842,0.70486374,-0.36701159,-0.07536211,0.72199769,0.28884603,-0.30359050,0.12631684,-0.78654167,0.22965010,-0.44147509,-0.76611694,0.39191856,0.09253820
8.76000000,-0.23069450,0.70477583,-0.36564873,-0.07680574,0.72188313,0.28931307,-0.30074097,0.12302974,-0.78676627,0.22962911,-0.44017303,-0.76387144,0.39143452,0.09620591
8.78000000,-0.22648852,0.70468703,-0.36427210,-0.07826395,0.72176740,0.28978483,-0.29786265,0.11970945,-0.78699313,0.22960790,-0.43885782,-0.76160326,0.39094558,0.09991067
8.80000000,-0.22224145,0.70459736,-0.36288203,-0.07973640,0.72165055,0.29026119,-0.29495621,0.11635671,-0.78722221,0.22958649,-0.43752975,-0.75931291,0.39045187,0.10365162
8.82000000,-0.21795427,0.70450685,-0.36147882,-0.08122276,0.72153259,0.29074206,-0.29202232,0.11297231,-0.78745346,0.22956487,-0.43618915,-0.75700094,0.38995349,0.10742791
8.84000000,-0.21362799,0.70441551,-0.36006282,-0.08272268,0.72141355,0.29122731,-0.28906167,0.10955704,-0.78768681,0.22954306,-0.43483631,-0.75466788,0.38945057,0.11123864
8.86000000,-0.20926361,0.70432336,-0.35863435,-0.08423580,0.72129347,0.29171683,-0.28607495,0.10611169,-0.78792222,0.22952106,-0.43347157,-0.75231427,0.38894322,0.11508292
8.88000000,-0.20486217,0.70423044,-0.35719375,-0.08576177,0.72117237,0.29221052,-0.28306287,0.10263709,-0.78815963,0.22949886,-0.43209523,-0.74994068,0.38843156,0.11895985
8.90000000,-0.20042471,0.70413675,-0.35574136,-0.08730024,0.72105027,0.29270824,-0.28002614,0.09913405,-0.78839898,0.22947649,-0.43070763,-0.74754767,0.38791571,0.12286850
8.92000000,-0.19595229,0.70404232,-0.35427752,-0.08885082,0.72092722,0.29320988,-0.27696549,0.09560343,-0.78864022,0.22945394,-0.42930910,-0.74513580,0.38739580,0.12680795
8.94000000,-0.19144600,0.70394718,-0.35280260,-0.09041314,0.72080323,0.29371532,-0.27388165,0.09204605,-0.78888328,0.22943122,-0.42789998,-0.74270567,0.38687196,0.13077723
8.96000000,-0.18690692,0.70385135,-0.35131695,-0.09198684,0.72067834,0.29422444,-0.27077538,0.08846279,-0.78912811,0.22940834,-0.42648060,-0.74025785,0.38634430,0.13477540
8.98000000,-0.18233614,0.70375485,-0.34982093,-0.09357152,0.72055258,0.29473711,-0.26764742,0.08485451,-0.78937466,0.22938529,-0.42505132,-0.73779294,0.38581295,0.13880148
9.00000000,-0.17773479,0.70365770,-0.34831490,-0.09516680,0.72042597,0.29525322,-0.26449853,0.08122210,-0.78962285,0.22936209,-0.42361247,-0.73531154,0.38527806,0.14285449
9.02000000,-0.17310400,0.70355993,-0.34679923,-0.09677229,0.72029856,0.29577262,-0.26132949,0.07756644,-0.78987263,0.22933874,-0.42216441,-0.73281427,0.38473974,0.14693344
9.04000000,-0.16844490,0.70346157,-0.34527429,-0.09838759,0.72017037,0.29629520,-0.25814108,0.07388844,-0.79012393,0.22931525,-0.42070751,-0.73030172,0.38419812,0.15103733
9.06000000,-0.16375864,0.70336263,-0.34374047,-0.10001231,0.72004143,0.29682083,-0.25493409,0.07018899,-0.79037670,0.22929163,-0.41924211,-0.72777454,0.38365336,0.15516513
9.08000000,-0.15904638,0.70326314,-0.34219814,-0.10164605,0.71991177,0.29734937,-0.25170930,0.06646903,-0.79063088,0.22926787,-0.41776858,-0.72523333,0.38310556,0.15931584
9.10000000,-0.15430930,0.70316313,-0.34064768,-0.10328839,0.71978144,0.29788070,-0.24846753,0.06272946,-0.79088639,0.22924398,-0.41628729,-0.72267873,0.38255489,0.16348841
9.12000000,-0.14954857,0.70306261,-0.33908948,-0.10493892,0.71965045,0.29841468,-0.24520957,0.05897123,-0.79114318,0.22921998,-0.41479860,-0.72011139,0.38200146,0.16768181
9.14000000,-0.14476539,0.70296163,-0.33752393,-0.10659725,0.71951884,0.29895118,-0.24193625,0.05519527,-0.79140118,0.22919587,-0.41330290,-0.71753193,0.38144543,0.17189499
9.16000000,-0.13996095,0.70286019,-0.33595143,-0.10826294,0.71938665,0.29949006,-0.23864838,0.05140253,-0.79166032,0.22917164,-0.41180054,-0.71494101,0.38088692,0.17612689
9.18000000,-0.13513646,0.70275833,-0.33437237,-0.10993558,0.71925391,0.30003119,-0.23534679,0.04759397,-0.79192055,0.22914732,-0.41029192,-0.71233928,0.38032608,0.18037646
9.20000000,-0.13029314,0.70265608,-0.33278713,-0.11161476,0.71912065,0.30057444,-0.23203231,0.04377053,-0.79218179,0.22912290,-0.40877741,-0.70972739,0.37976306,0.18464261
9.22000000,-0.12543220,0.70255345,-0.33119614,-0.11330004,0.71898690,0.30111966,-0.22870578,0.03993320,-0.79244398,0.22909839,-0.40725739,-0.70710601,0.37919798,0.18892427
9.24000000,-0.12055489,0.70245048,-0.32959978,-0.11499100,0.71885271,0.30166671,-0.22536804,0.03608293,-0.79270706,0.22907380,-0.40573225,-0.70447579,0.37863101,0.19322036
9.26000000,-0.11566243,0.70234718,-0.32799847,-0.11668720,0.71871809,0.30221547,-0.22201993,0.03222071,-0.79297095,0.22904913,-0.40420237,-0.70183740,0.37806227,0.19752980
9.28000000,-0.11075606,0.70224360,-0.32639261,-0.11838824,0.71858310,0.30276578,-0.21866231,0.02834750,-0.79323560,0.22902440,-0.40266814,-0.69919152,0.37749191,0.20185148
9.30000000,-0.10583704,0.70213974,-0.32478260,-0.12009365,0.71844775,0.30331752,-0.21529603,0.02446431,-0.79350092,0.22899960,-0.40112996,-0.69653881,0.37692008,0.20618431
9.32000000,-0.10090661,0.70203565,-0.32316886,-0.12180303,0.71831210,0.30387053,-0.21192194,0.02057211,-0.79376687,0.22897474,-0.39958821,-0.69387994,0.37634693,0.21052719
9.34000000,-0.09596603,0.70193134,-0.32155180,-0.12351592,0.71817616,0.30442468,-0.20854090,0.01667190,-0.79403335,0.22894983,-0.39804328,-0.69121561,0.37577260,0.21487900
9.36000000,-0.09101656,0.70182684,-0.31993182,-0.12523189,0.71803998,0.30497983,-0.20515379,0.01276468,-0.79430032,0.22892487,-0.39649558,-0.68854648,0.37519723,0.21923865
9.38000000,-0.08605947,0.70172218,-0.31830936,-0.12695051,0.71790359,0.30553584,-0.20176145,0.00885143,-0.79456770,0.22889988,-0.39494549,-0.68587324,0.37462098,0.22360502
9.40000000,-0.08109602,0.70161739,-0.31668481,-0.12867133,0.71776702,0.30609256,-0.19836476,0.00493316,-0.79483542,0.22887486,-0.39339341,-0.68319657,0.37404399,0.22797698
9.42000000,-0.07612747,0.70151249,-0.31505859,-0.13039392,0.71763031,0.30664985,-0.19496459,0.00101088,-0.79510342,0.22884981,-0.39183974,-0.68051715,0.37346641,0.23235343
9.44000000,-0.07115511,0.70140751,-0.31343113,-0.13211783,0.71749350,0.30720756,-0.19156180,-0.00291442,-0.79537162,0.22882474,-0.39028488,-0.67783567,0.37288838,0.23673325
9.46000000,-0.06618020,0.70130248,-0.31180283,-0.13384263,0.71735662,0.30776557,-0.18815727,-0.00684174,-0.79563997,0.22879965,-0.38872922,-0.67515282,0.37231006,0.24111531
9.48000000,-0.06120401,0.70119742,-0.31017411,-0.13556786,0.71721970,0.30832371,-0.18475187,-0.01077005,-0.79590837,0.22877456,-0.38717316,-0.67246929,0.37173158,0.24549849
9.50000000,-0.05622783,0.70109235,-0.30854539,-0.13729310,0.71708279,0.30888186,-0.18134647,-0.01469837,-0.79617678,0.22874947,-0.38561710,-0.66978575,0.37115311,0.24988167
9.52000000,-0.05125292,0.70098732,-0.30691709,-0.13901789,0.71694591,0.30943986,-0.17794194,-0.01862568,-0.79644512,0.22872439,-0.38406144,-0.66710290,0.37057479,0.25426372
9.54000000,-0.04628056,0.70088234,-0.30528963,-0.14074181,0.71680910,0.30999758,-0.17453915,-0.02255098,-0.79671333,0.22869932,-0.38250658,-0.66442142,0.36999676,0.25864354
9.56000000,-0.04131201,0.70077744,-0.30366341,-0.14246439,0.71667239,0.31055487,-0.17113898,-0.02647327,-0.79698132,0.22867427,-0.38095291,-0.66174201,0.36941918,0.26301999
9.58000000,-0.03634856,0.70067265,-0.30203886,-0.14418522,0.71653582,0.31111159,-0.16774229,-0.03039154,-0.79724905,0.22864925,-0.37940083,-0.65906534,0.36884219,0.26739196
9.60000000,-0.03139147,0.70056799,-0.30041640,-0.14590383,0.71639943,0.31166759,-0.16434995,-0.03430478,-0.79751643,0.22862425,-0.37785074,-0.65639209,0.36826593,0.27175832
9.62000000,-0.02644200,0.70046349,-0.29879642,-0.14761981,0.71626325,0.31222274,-0.16096284,-0.03821201,-0.79778339,0.22859930,-0.37630304,-0.65372297,0.36769057,0.27611797
9.64000000,-0.02150142,0.70035918,-0.29717936,-0.14933270,0.71612731,0.31277689,-0.15758180,-0.04211222,-0.79804988,0.22857439,-0.37475811,-0.65105863,0.36711624,0.28046979
9.66000000,-0.01657099,0.70025509,-0.29556562,-0.15104207,0.71599166,0.31332991,-0.15420771,-0.04600442,-0.79831582,0.22854953,-0.37321636,-0.64839977,0.36654308,0.28481266
9.68000000,-0.01165197,0.70015123,-0.29395561,-0.15274749,0.71585631,0.31388164,-0.15084143,-0.04988761,-0.79858115,0.22852473,-0.37167818,-0.64574706,0.36597126,0.28914549
9.70000000,-0.00674560,0.70004765,-0.29234975,-0.15444852,0.71572132,0.31443196,-0.14748381,-0.05376081,-0.79884579,0.22849999,-0.37014395,-0.64310117,0.36540090,0.29346718
9.72000000,-0.00185314,0.69994435,-0.29074844,-0.15614473,0.71558670,0.31498071,-0.14413570,-0.05762304,-0.79910969,0.22847533,-0.36861407,-0.64046278,0.36483216,0.29777661
9.74000000,0.00302417,0.69984138,-0.28915208,-0.15783569,0.71545251,0.31552777,-0.14079796,-0.06147330,-0.79937276,0.22845074,-0.36708893,-0.63783257,0.36426518,0.30207270
9.76000000,0.00788511,0.69973875,-0.28756109,-0.15952097,0.71531876,0.31607299,-0.13747143,-0.06531064,-0.79963496,0.22842623,-0.36556891,-0.63521118,0.36370011,0.30635437
9.78000000,0.01272843,0.69963650,-0.28597586,-0.16120014,0.71518550,0.31661623,-0.13415695,-0.06913407,-0.79989620,0.22840181,-0.36405440,-0.63259929,0.36313708,0.31062052
9.80000000,0.01755292,0.69953464,-0.28439679,-0.16287279,0.71505276,0.31715736,-0.13085536,-0.07294264,-0.80015643,0.22837748,-0.36254577,-0.62999756,0.36257625,0.31487008
9.82000000,0.02235736,0.69943320,-0.28282429,-0.16453848,0.71492057,0.31769625,-0.12756749,-0.07673538,-0.80041557,0.22835326,-0.36104342,-0.62740664,0.36201774,0.31910198
9.84000000,0.02714054,0.69933222,-0.28125874,-0.16619680,0.71478896,0.31823275,-0.12429417,-0.08051133,-0.80067357,0.22832914,-0.35954771,-0.62482719,0.36146171,0.32331516
9.86000000,0.03190127,0.69923171,-0.27970054,-0.16784734,0.71465797,0.31876673,-0.12103621,-0.08426957,-0.80093036,0.22830514,-0.35805903,-0.62225984,0.36090828,0.32750856
9.88000000,0.03663835,0.69913169,-0.27815008,-0.16948968,0.71452764,0.31929805,-0.11779444,-0.08800913,-0.80118587,0.22828126,-0.35657774,-0.61970525,0.36035760,0.33168113
9.90000000,0.04135061,0.69903220,-0.27660775,-0.17112341,0.71439798,0.31982660,-0.11456965,-0.09172910,-0.80144005,0.22825750,-0.35510421,-0.61716404,0.35980981,0.33583184
9.92000000,0.04603687,0.69893326,-0.27507393,-0.17274813,0.71426904,0.32035222,-0.11136266,-0.09542854,-0.80169282,0.22823387,-0.35363881,-0.61463685,0.35926504,0.33995964
9.94000000,0.05069597,0.69883490,-0.27354899,-0.17436344,0.71414085,0.32087480,-0.10817425,-0.09910655,-0.80194412,0.22821038,-0.35218190,-0.61212431,0.35872343,0.34406353
9.96000000,0.05532677,0.69873713,-0.27203332,-0.17596893,0.71401344,0.32139421,-0.10500521,-0.10276221,-0.80219390,0.22818703,-0.35073385,-0.60962703,0.35818511,0.34814248
9.98000000,0.05992811,0.69863998,-0.27052729,-0.17756421,0.71388683,0.32191031,-0.10185632,-0.10639462,-0.80244209,0.22816384,-0.34929500,-0.60714564,0.35765021,0.35219549
10.00000000,0.06449889,0.69854348,-0.26903127,-0.17914889,0.71376107,0.32242299,-0.09872836,-0.11000290,-0.80268863,0.22814079,-0.34786571,-0.60468073,0.35711887,0.35622157
10.02000000,0.06903797,0.69844765,-0.26754562,-0.18072259,0.71363618,0.32293211,-0.09562208,-0.11358616,-0.80293347,0.22811790,-0.34644634,-0.60223291,0.35659121,0.36021974
10.04000000,0.07354426,0.69835251,-0.26607070,-0.18228491,0.71351219,0.32343755,-0.09253825,-0.11714353,-0.80317653,0.22809518,-0.34503721,-0.59980277,0.35606736,0.36418903
10.06000000,0.07801668,0.69825808,-0.26460686,-0.18383549,0.71338914,0.32393919,-0.08947760,-0.12067416,-0.80341777,0.22807264,-0.34363869,-0.59739091,0.35554746,0.36812847
10.08000000,0.08245414,0.69816439,-0.26315447,-0.18537395,0.71326704,0.32443691,-0.08644087,-0.12417720,-0.80365712,0.22805026,-0.34225109,-0.59499789,0.35503161,0.37203712
10.10000000,0.08685558,0.69807147,-0.26171387,-0.18689993,0.71314594,0.32493059,-0.08342878,-0.12765180,-0.80389453,0.22802807,-0.34087475,-0.59262430,0.35451995,0.37591405
10.12000000,0.09121996,0.69797932,-0.26028540,-0.18841305,0.71302586,0.32542012,-0.08044206,-0.13109714,-0.80412994,0.22800607,-0.33951000,-0.59027069,0.35401260,0.37975834
10.14000000,0.09554624,0.69788798,-0.25886940,-0.18991297,0.71290682,0.32590537,-0.07748141,-0.13451242,-0.80436329,0.22798425,-0.33815717,-0.58793763,0.35350968,0.38356907
10.16000000,0.09983342,0.69779747,-0.25746620,-0.19139933,0.71278886,0.32638623,-0.07454753,-0.13789682,-0.80459454,0.22796264,-0.33681656,-0.58562566,0.35301130,0.38734535
10.18000000,0.10408049,0.69770780,-0.25607612,-0.19287178,0.71267201,0.32686260,-0.07164109,-0.14124955,-0.80482362,0.22794123,-0.33548850,-0.58333532,0.35251759,0.39108630
10.20000000,0.10828647,0.69761900,-0.25469949,-0.19432999,0.71255628,0.32733435,-0.06876277,-0.14456985,-0.80505048,0.22792002,-0.33417329,-0.58106714,0.35202865,0.39479106
10.22000000,0.11245039,0.69753109,-0.25333663,-0.19577361,0.71244172,0.32780139,-0.06591324,-0.14785695,-0.80527508,0.22789903,-0.33287122,-0.57882163,0.35154460,0.39845877
10.24000000,0.11657130,0.69744409,-0.25198785,-0.19720233,0.71232833,0.32826361,-0.06309313,-0.15111009,-0.80549736,0.22787825,-0.33158261,-0.57659932,0.35106556,0.40208860
10.26000000,0.12064828,0.69735801,-0.25065344,-0.19861581,0.71221616,0.32872090,-0.06030309,-0.15432856,-0.80571726,0.22785769,-0.33030773,-0.57440070,0.35059162,0.40567974
10.28000000,0.12468042,0.69727288,-0.24933372,-0.20001375,0.71210522,0.32917316,-0.05754374,-0.15751162,-0.80593475,0.22783736,-0.32904688,-0.57222627,0.35012289,0.40923137
10.30000000,0.12866681,0.69718872,-0.24802896,-0.20139583,0.71199553,0.32962028,-0.05481569,-0.16065858,-0.80614977,0.22781727,-0.32780033,-0.57007650,0.34965948,0.41274271
10.32000000,0.13260660,0.69710554,-0.24673946,-0.20276174,0.71188713,0.33006218,-0.05211954,-0.16376874,-0.80636228,0.22779740,-0.32656835,-0.56795187,0.34920149,0.41621300
10.34000000,0.13649892,0.69702336,-0.24546550,-0.20411121,0.71178004,0.33049876,-0.04945587,-0.16684142,-0.80657223,0.22777778,-0.32535122,-0.56585284,0.34874901,0.41964148
10.36000000,0.14034294,0.69694220,-0.24420734,-0.20544392,0.71167427,0.33092992,-0.04682525,-0.16987599,-0.80677957,0.22775840,-0.32414919,-0.56377985,0.34830215,0.42302741
10.38000000,0.14413786,0.69686208,-0.24296525,-0.20675962,0.71156986,0.33135557,-0.04422823,-0.17287179,-0.80698426,0.22773926,-0.32296251,-0.56173334,0.34786100,0.42637010
10.40000000,0.14788288,0.69678301,-0.24173950,-0.20805801,0.71146681,0.33177563,-0.04166537,-0.17582819,-0.80718627,0.22772038,-0.32179144,-0.55971374,0.34742565,0.42966883
10.42000000,0.15157724,0.69670501,-0.24053033,-0.20933884,0.71136517,0.33219000,-0.03913717,-0.17874461,-0.80738553,0.22770176,-0.32063621,-0.55772146,0.34699619,0.43292294
10.44000000,0.15522018,0.69662810,-0.23933798,-0.21060184,0.71126493,0.33259860,-0.03664416,-0.18162044,-0.80758203,0.22768339,-0.31949706,-0.55575691,0.34657270,0.43613176
10.46000000,0.15881100,0.69655229,-0.23816270,-0.21184678,0.71116613,0.33300136,-0.03418682,-0.18445511,-0.80777571,0.22766528,-0.31837421,-0.55382047,0.34615528,0.43929466
10.48000000,0.16234899,0.69647759,-0.23700471,-0.21307339,0.71106879,0.33339819,-0.03176563,-0.18724808,-0.80796655,0.22764745,-0.31726787,-0.55191251,0.34574399,0.44241103
10.50000000,0.16583347,0.69640403,-0.23586423,-0.21428146,0.71097292,0.33378903,-0.02938106,-0.18999882,-0.80815450,0.22762988,-0.31617827,-0.55003342,0.34533893,0.44548028
10.52000000,0.16926380,0.69633160,-0.23474148,-0.21547075,0.71087853,0.33417378,-0.02703355,-0.19270680,-0.80833953,0.22761258,-0.31510560,-0.54818352,0.34494016,0.44850182
10.54000000,0.17263935,0.69626034,-0.23363665,-0.21664105,0.71078566,0.33455240,-0.02472353,-0.19537154,-0.80852160,0.22759556,-0.31405006,-0.54636317,0.34454776,0.45147511
10.56000000,0.17595952,0.69619024,-0.23254995,-0.21779214,0.71069430,0.33492480,-0.02245140,-0.19799256,-0.80870068,0.22757882,-0.31301184,-0.54457268,0.34416179,0.45439962
10.58000000,0.17922374,0.69612132,-0.23148157,-0.21892384,0.71060449,0.33529093,-0.02021757,-0.20056941,-0.80887675,0.22756237,-0.31199112,-0.54281237,0.34378234,0.45727485
10.60000000,0.18243145,0.69605360,-0.23043167,-0.22003595,0.71051623,0.33565071,-0.01802240,-0.20310166,-0.80904977,0.22754619,-0.31098806,-0.54108252,0.34340944,0.46010030
10.62000000,0.18558215,0.69598708,-0.22940044,-0.22112830,0.71042954,0.33600411,-0.01586625,-0.20558889,-0.80921972,0.22753031,-0.31000284,-0.53938343,0.34304318,0.46287554
10.64000000,0.18867533,0.69592177,-0.22838804,-0.22220070,0.71034444,0.33635105,-0.01374947,-0.20803072,-0.80938656,0.22751471,-0.30903559,-0.53771535,0.34268361,0.46560011
10.66000000,0.19171053,0.69585769,-0.22739461,-0.22325300,0.71026093,0.33669149,-0.01167236,-0.21042678,-0.80955028,0.22749941,-0.30808648,-0.53607854,0.34233077,0.46827361
10.68000000,0.19468732,0.69579484,-0.22642030,-0.22428505,0.71017902,0.33702537,-0.00963522,-0.21277673,-0.80971084,0.22748440,-0.30715564,-0.53447323,0.34198472,0.47089566
10.70000000,0.19760528,0.69573324,-0.22546524,-0.22529670,0.71009874,0.33735266,-0.00763834,-0.21508024,-0.80986823,0.22746969,-0.30624319,-0.53289964,0.34164552,0.47346589
10.72000000,0.20046405,0.69567288,-0.22452957,-0.22628783,0.71002008,0.33767331,-0.00568198,-0.21733701,-0.81002243,0.22745528,-0.30534925,-0.53135798,0.34131319,0.47598398
10.74000000,0.20326326,0.69561378,-0.22361338,-0.22725831,0.70994306,0.33798728,-0.00376637,-0.21954677,-0.81017341,0.22744116,-0.30447393,-0.52984843,0.34098779,0.47844961
10.76000000,0.20600260,0.69555595,-0.22271679,-0.22820804,0.70986769,0.33829454,-0.00189173,-0.22170927,-0.81032117,0.22742735,-0.30361734,-0.52837117,0.34066935,0.48086251
10.78000000,0.20868178,0.69549938,-0.22183988,-0.22913691,0.70979397,0.33859504,-0.00005826,-0.22382428,-0.81046568,0.22741384,-0.30277956,-0.52692635,0.34035790,0.48322242
10.80000000,0.21130055,0.69544409,-0.22098275,-0.23004483,0.70972192,0.33888877,0.00173387,-0.22589160,-0.81060694,0.22740064,-0.30196066,-0.52551411,0.34005347,0.48552911
10.82000000,0.21385868,0.69539008,-0.22014547,-0.23093173,0.70965153,0.33917570,0.00348450,-0.22791105,-0.81074492,0.22738774,-0.30116073,-0.52413457,0.33975609,0.48778240
10.84000000,0.21635598,0.69533736,-0.21932810,-0.23179754,0.70958282,0.33945581,0.00519351,-0.22988248,-0.81087962,0.22737515,-0.30037982,-0.52278784,0.33946579,0.48998210
10.86000000,0.21879229,0.69528592,-0.21853069,-0.23264221,0.70951579,0.33972907,0.00686077,-0.23180576,-0.81101103,0.22736287,-0.29961799,-0.52147399,0.33918257,0.49212808
10.88000000,0.22116749,0.69523577,-0.21775328,-0.23346569,0.70945044,0.33999548,0.00848621,-0.23368080,-0.81113915,0.22735089,-0.29887526,-0.52019311,0.33890646,0.49422023
10.90000000,0.22348148,0.69518692,-0.21699591,-0.23426794,0.70938677,0.34025503,0.01006977,-0.23550751,-0.81126396,0.22733923,-0.29815167,-0.51894523,0.33863746,0.49625846
10.92000000,0.22573420,0.69513936,-0.21625859,-0.23504896,0.70932479,0.34050770,0.01161139,-0.23728587,-0.81138547,0.22732787,-0.29744724,-0.51773039,0.33837559,0.49824273
10.94000000,0.22792563,0.69509309,-0.21554133,-0.23580872,0.70926449,0.34075350,0.01311108,-0.23901583,-0.81150367,0.22731682,-0.29676198,-0.51654861,0.33812084,0.50017301
10.96000000,0.23005578,0.69504812,-0.21484412,-0.23654725,0.70920588,0.34099242,0.01456883,-0.24069743,-0.81161857,0.22730608,-0.29609588,-0.51539986,0.33787321,0.50204932
10.98000000,0.23212470,0.69500444,-0.21416696,-0.23726454,0.70914896,0.34122448,0.01598467,-0.24233068,-0.81173017,0.22729565,-0.29544893,-0.51428414,0.33763270,0.50387169
11.00000000,0.23413248,0.69496205,-0.21350981,-0.23796063,0.70909371,0.34144968,0.01735867,-0.24391567,-0.81183846,0.22728553,-0.29482109,-0.51320140,0.33739930,0.50564020
11.02000000,0.23607923,0.69492094,-0.21287264,-0.23863557,0.70904015,0.34166803,0.01869091,-0.24545248,-0.81194347,0.22727571,-0.29421234,-0.51215156,0.33717300,0.50735496
11.04000000,0.23796511,0.69488113,-0.21225538,-0.23928940,0.70898826,0.34187956,0.01998149,-0.24694124,-0.81204519,0.22726620,-0.29362262,-0.51113455,0.33695377,0.50901610
11.06000000,0.23979031,0.69484259,-0.21165799,-0.23992220,0.70893804,0.34208428,0.02123056,-0.24838210,-0.81214364,0.22725700,-0.29305188,-0.51015026,0.33674159,0.51062380
11.08000000,0.24155508,0.69480533,-0.21108038,-0.24053404,0.70888949,0.34228223,0.02243826,-0.24977525,-0.81223883,0.22724810,-0.29250004,-0.50919857,0.33653644,0.51217826
11.10000000,0.24325968,0.69476934,-0.21052246,-0.24112502,0.70884258,0.34247342,0.02360478,-0.25112090,-0.81233077,0.22723951,-0.29196701,-0.50827932,0.33633828,0.51367973
11.12000000,0.24490442,0.69473462,-0.20998413,-0.24169525,0.70879733,0.34265790,0.02473034,-0.25241929,-0.81241949,0.22723121,-0.29145269,-0.50739235,0.33614709,0.51512847
11.14000000,0.24648965,0.69470115,-0.20946528,-0.24224485,0.70875371,0.34283570,0.02581518,-0.25367071,-0.81250499,0.22722322,-0.29095699,-0.50653747,0.33596281,0.51652479
11.16000000,0.24801577,0.69466893,-0.20896578,-0.24277395,0.70871172,0.34300688,0.02685956,-0.25487547,-0.81258731,0.22721553,-0.29047977,-0.50571447,0.33578540,0.51786904
11.18000000,0.24948321,0.69463795,-0.20848548,-0.24328271,0.70867135,0.34317147,0.02786379,-0.25603390,-0.81266646,0.22720813,-0.29002090,-0.50492312,0.33561481,0.51916161
11.20000000,0.25089243,0.69460820,-0.20802424,-0.24377128,0.70863257,0.34332953,0.02882818,-0.25714637,-0.81274247,0.22720102,-0.28958023,-0.50416316,0.33545099,0.52040290
11.22000000,0.25224396,0.69457966,-0.20758188,-0.24423986,0.70859539,0.34348113,0.02975308,-0.25821330,-0.81281537,0.22719421,-0.28915761,-0.50343431,0.33529388,0.52159336
11.24000000,0.25353834,0.69455233,-0.20715823,-0.24468862,0.70855977,0.34362631,0.03063888,-0.25923512,-0.81288519,0.22718768,-0.28875286,-0.50273628,0.33514341,0.52273350
11.26000000,0.25477619,0.69452620,-0.20675308,-0.24511778,0.70852571,0.34376515,0.03148599,-0.26021230,-0.81295196,0.22718144,-0.28836578,-0.50206874,0.33499951,0.52382383
11.28000000,0.25595813,0.69450125,-0.20636623,-0.24552756,0.70849319,0.34389772,0.03229484,-0.26114535,-0.81301571,0.22717548,-0.28799618,-0.50143135,0.33486211,0.52486492
11.30000000,0.25708486,0.69447746,-0.20599745,-0.24591819,0.70846219,0.34402410,0.03306590,-0.26203482,-0.81307649,0.22716980,-0.28764386,-0.50082373,0.33473113,0.52585738
11.32000000,0.25815710,0.69445482,-0.20564650,-0.24628994,0.70843269,0.34414437,0.03379968,-0.26288127,-0.81313432,0.22716440,-0.28730856,-0.50024550,0.33460649,0.52680185
11.34000000,0.25917563,0.69443332,-0.20531313,-0.24664306,0.70840467,0.34425861,0.03449670,-0.26368533,-0.81318926,0.22715926,-0.28699007,-0.49969623,0.33448809,0.52769900
11.36000000,0.26014127,0.69441293,-0.20499707,-0.24697785,0.70837810,0.34436692,0.03515753,-0.26444763,-0.81324135,0.22715439,-0.28668811,-0.49917548,0.33437583,0.52854957
11.38000000,0.26105489,0.69439364,-0.20469805,-0.24729459,0.70835296,0.34446939,0.03578275,-0.26516885,-0.81329062,0.22714979,-0.28640242,-0.49868279,0.33426963,0.52935431
11.40000000,0.26191738,0.69437543,-0.20441575,-0.24759362,0.70832923,0.34456613,0.03637299,-0.26584973,-0.81333715,0.22714544,-0.28613272,-0.49821767,0.33416936,0.53011402
11.42000000,0.26272971,0.69435828,-0.20414987,-0.24787525,0.70830688,0.34465725,0.03692890,-0.26649100,-0.81338096,0.22714134,-0.28587870,-0.49777960,0.33407493,0.53082955
11.44000000,0.26349289,0.69434217,-0.20390008,-0.24813985,0.70828588,0.34474285,0.03745117,-0.26709347,-0.81342213,0.22713749,-0.28564006,-0.49736803,0.33398621,0.53150178
11.46000000,0.26420796,0.69432707,-0.20366604,-0.24838776,0.70826621,0.34482305,0.03794053,-0.26765797,-0.81346070,0.22713389,-0.28541645,-0.49698241,0.33390309,0.53213164
11.48000000,0.26487603,0.69431296,-0.20344738,-0.24861938,0.70824782,0.34489798,0.03839771,-0.26818535,-0.81349673,0.22713052,-0.28520755,-0.49662214,0.33382543,0.53272009
11.50000000,0.26549824,0.69429983,-0.20324373,-0.24883510,0.70823070,0.34496777,0.03882351,-0.26867654,-0.81353029,0.22712738,-0.28501298,-0.49628660,0.33375310,0.53326815
11.52000000,0.26607578,0.69428763,-0.20305470,-0.24903533,0.70821481,0.34503255,0.03921875,-0.26913247,-0.81356145,0.22712447,-0.28483238,-0.49597514,0.33368596,0.53377687
11.54000000,0.26660991,0.69427636,-0.20287988,-0.24922051,0.70820012,0.34509246,0.03958427,-0.26955412,-0.81359026,0.22712178,-0.28466536,-0.49568710,0.33362387,0.53424735
11.56000000,0.26710192,0.69426597,-0.20271884,-0.24939109,0.70818658,0.34514765,0.03992098,-0.26994252,-0.81361679,0.22711930,-0.28451151,-0.49542177,0.33356667,0.53468073
11.58000000,0.26755316,0.69425644,-0.20257115,-0.24954754,0.70817416,0.34519826,0.04022978,-0.27029874,-0.81364113,0.22711702,-0.28437041,-0.49517843,0.33351422,0.53507819
11.60000000,0.26796502,0.69424775,-0.20243635,-0.24969033,0.70816283,0.34524446,0.04051163,-0.27062387,-0.81366335,0.22711495,-0.28424162,-0.49495632,0.33346634,0.53544097
11.62000000,0.26833895,0.69423985,-0.20231396,-0.24981997,0.70815254,0.34528640,0.04076752,-0.27091906,-0.81368352,0.22711306,-0.28412469,-0.49475467,0.33342287,0.53577034
