gracetata/LocomotionHEC/legged_lab/Reference Data/ArmHack/StandPerturb/VisualizationSuite/synthesized_poses_sequence_50hz.csv
time_s,left_shoulder_pitch_joint,left_shoulder_roll_joint,left_shoulder_yaw_joint,left_elbow_joint,left_wrist_roll_joint,left_wrist_pitch_joint,left_wrist_yaw_joint,right_shoulder_pitch_joint,right_shoulder_roll_joint,right_shoulder_yaw_joint,right_elbow_joint,right_wrist_roll_joint,right_wrist_pitch_joint,right_wrist_yaw_joint
0.00000000,0.20369017,0.82535746,-0.21070884,-0.53911961,0.81590514,0.45459751,-0.11675103,-0.30329909,-0.90881157,0.21083033,-0.51795548,-0.54287989,0.34643582,0.59745418
0.02000000,0.20369017,0.82535746,-0.21070884,-0.53911961,0.81590514,0.45459751,-0.11675103,-0.30329909,-0.90881157,0.21083033,-0.51795548,-0.54287989,0.34643582,0.59745418
0.04000000,0.20369017,0.82535746,-0.21070884,-0.53911961,0.81590514,0.45459751,-0.11675103,-0.30329909,-0.90881157,0.21083033,-0.51795548,-0.54287989,0.34643582,0.59745418
0.06000000,0.20369017,0.82535746,-0.21070884,-0.53911961,0.81590514,0.45459751,-0.11675103,-0.30329909,-0.90881157,0.21083033,-0.51795548,-0.54287989,0.34643582,0.59745418
0.08000000,0.20369017,0.82535746,-0.21070884,-0.53911961,0.81590514,0.45459751,-0.11675103,-0.30329909,-0.90881157,0.21083033,-0.51795548,-0.54287989,0.34643582,0.59745418
0.10000000,0.20369017,0.82535746,-0.21070884,-0.53911961,0.81590514,0.45459751,-0.11675103,-0.30329909,-0.90881157,0.21083033,-0.51795548,-0.54287989,0.34643582,0.59745418
0.12000000,0.20369017,0.82535746,-0.21070884,-0.53911961,0.81590514,0.45459751,-0.11675103,-0.30329909,-0.90881157,0.21083033,-0.51795548,-0.54287989,0.34643582,0.59745418
0.14000000,0.20369017,0.82535746,-0.21070884,-0.53911961,0.81590514,0.45459751,-0.11675103,-0.30329909,-0.90881157,0.21083033,-0.51795548,-0.54287989,0.34643582,0.59745418
0.16000000,0.20369017,0.82535746,-0.21070884,-0.53911961,0.81590514,0.45459751,-0.11675103,-0.30329909,-0.90881157,0.21083033,-0.51795548,-0.54287989,0.34643582,0.59745418
0.18000000,0.20369017,0.82535746,-0.21070884,-0.53911961,0.81590514,0.45459751,-0.11675103,-0.30329909,-0.90881157,0.21083033,-0.51795548,-0.54287989,0.34643582,0.59745418
0.20000000,0.20369017,0.82535746,-0.21070884,-0.53911961,0.81590514,0.45459751,-0.11675103,-0.30329909,-0.90881157,0.21083033,-0.51795548,-0.54287989,0.34643582,0.59745418
0.22000000,0.20369017,0.82535746,-0.21070884,-0.53911961,0.81590514,0.45459751,-0.11675103,-0.30329909,-0.90881157,0.21083033,-0.51795548,-0.54287989,0.34643582,0.59745418
0.24000000,0.20369017,0.82535746,-0.21070884,-0.53911961,0.81590514,0.45459751,-0.11675103,-0.30329909,-0.90881157,0.21083033,-0.51795548,-0.54287989,0.34643582,0.59745418
0.26000000,0.20369017,0.82535746,-0.21070884,-0.53911961,0.81590514,0.45459751,-0.11675103,-0.30329909,-0.90881157,0.21083033,-0.51795548,-0.54287989,0.34643582,0.59745418
0.28000000,0.20369017,0.82535746,-0.21070884,-0.53911961,0.81590514,0.45459751,-0.11675103,-0.30329909,-0.90881157,0.21083033,-0.51795548,-0.54287989,0.34643582,0.59745418
0.30000000,0.20369017,0.82535746,-0.21070884,-0.53911961,0.81590514,0.45459751,-0.11675103,-0.30329909,-0.90881157,0.21083033,-0.51795548,-0.54287989,0.34643582,0.59745418
0.32000000,0.20369017,0.82535746,-0.21070884,-0.53911961,0.81590514,0.45459751,-0.11675103,-0.30329909,-0.90881157,0.21083033,-0.51795548,-0.54287989,0.34643582,0.59745418
0.34000000,0.20369017,0.82535746,-0.21070884,-0.53911961,0.81590514,0.45459751,-0.11675103,-0.30329909,-0.90881157,0.21083033,-0.51795548,-0.54287989,0.34643582,0.59745418
0.36000000,0.20369017,0.82535746,-0.21070884,-0.53911961,0.81590514,0.45459751,-0.11675103,-0.30329909,-0.90881157,0.21083033,-0.51795548,-0.54287989,0.34643582,0.59745418
0.38000000,0.20369017,0.82535746,-0.21070884,-0.53911961,0.81590514,0.45459751,-0.11675103,-0.30329909,-0.90881157,0.21083033,-0.51795548,-0.54287989,0.34643582,0.59745418
0.40000000,0.20369017,0.82535746,-0.21070884,-0.53911961,0.81590514,0.45459751,-0.11675103,-0.30329909,-0.90881157,0.21083033,-0.51795548,-0.54287989,0.34643582,0.59745418
0.42000000,0.20369017,0.82535746,-0.21070884,-0.53911961,0.81590514,0.45459751,-0.11675103,-0.30329909,-0.90881157,0.21083033,-0.51795548,-0.54287989,0.34643582,0.59745418
0.44000000,0.20369017,0.82535746,-0.21070884,-0.53911961,0.81590514,0.45459751,-0.11675103,-0.30329909,-0.90881157,0.21083033,-0.51795548,-0.54287989,0.34643582,0.59745418
0.46000000,0.20369017,0.82535746,-0.21070884,-0.53911961,0.81590514,0.45459751,-0.11675103,-0.30329909,-0.90881157,0.21083033,-0.51795548,-0.54287989,0.34643582,0.59745418
0.48000000,0.20369017,0.82535746,-0.21070884,-0.53911961,0.81590514,0.45459751,-0.11675103,-0.30329909,-0.90881157,0.21083033,-0.51795548,-0.54287989,0.34643582,0.59745418
0.50000000,0.20369017,0.82535746,-0.21070884,-0.53911961,0.81590514,0.45459751,-0.11675103,-0.30329909,-0.90881157,0.21083033,-0.51795548,-0.54287989,0.34643582,0.59745418
0.52000000,0.20369017,0.82535746,-0.21070884,-0.53911961,0.81590514,0.45459751,-0.11675103,-0.30329909,-0.90881157,0.21083033,-0.51795548,-0.54287989,0.34643582,0.59745418
0.54000000,0.20369017,0.82535746,-0.21070884,-0.53911961,0.81590514,0.45459751,-0.11675103,-0.30329909,-0.90881157,0.21083033,-0.51795548,-0.54287989,0.34643582,0.59745418
0.56000000,0.20369017,0.82535746,-0.21070884,-0.53911961,0.81590514,0.45459751,-0.11675103,-0.30329909,-0.90881157,0.21083033,-0.51795548,-0.54287989,0.34643582,0.59745418
0.58000000,0.20369017,0.82535746,-0.21070884,-0.53911961,0.81590514,0.45459751,-0.11675103,-0.30329909,-0.90881157,0.21083033,-0.51795548,-0.54287989,0.34643582,0.59745418
0.60000000,0.20369017,0.82535746,-0.21070884,-0.53911961,0.81590514,0.45459751,-0.11675103,-0.30329909,-0.90881157,0.21083033,-0.51795548,-0.54287989,0.34643582,0.59745418
0.62000000,0.20369017,0.82535746,-0.21070884,-0.53911961,0.81590514,0.45459751,-0.11675103,-0.30329909,-0.90881157,0.21083033,-0.51795548,-0.54287989,0.34643582,0.59745418
0.64000000,0.20369017,0.82535746,-0.21070884,-0.53911961,0.81590514,0.45459751,-0.11675103,-0.30329909,-0.90881157,0.21083033,-0.51795548,-0.54287989,0.34643582,0.59745418
0.66000000,0.20369017,0.82535746,-0.21070884,-0.53911961,0.81590514,0.45459751,-0.11675103,-0.30329909,-0.90881157,0.21083033,-0.51795548,-0.54287989,0.34643582,0.59745418
0.68000000,0.20369017,0.82535746,-0.21070884,-0.53911961,0.81590514,0.45459751,-0.11675103,-0.30329909,-0.90881157,0.21083033,-0.51795548,-0.54287989,0.34643582,0.59745418
0.70000000,0.20369017,0.82535746,-0.21070884,-0.53911961,0.81590514,0.45459751,-0.11675103,-0.30329909,-0.90881157,0.21083033,-0.51795548,-0.54287989,0.34643582,0.59745418
0.72000000,0.20369017,0.82535746,-0.21070884,-0.53911961,0.81590514,0.45459751,-0.11675103,-0.30329909,-0.90881157,0.21083033,-0.51795548,-0.54287989,0.34643582,0.59745418
0.74000000,0.20369017,0.82535746,-0.21070884,-0.53911961,0.81590514,0.45459751,-0.11675103,-0.30329909,-0.90881157,0.21083033,-0.51795548,-0.54287989,0.34643582,0.59745418
0.76000000,0.20369017,0.82535746,-0.21070884,-0.53911961,0.81590514,0.45459751,-0.11675103,-0.30329909,-0.90881157,0.21083033,-0.51795548,-0.54287989,0.34643582,0.59745418
0.78000000,0.20369017,0.82535746,-0.21070884,-0.53911961,0.81590514,0.45459751,-0.11675103,-0.30329909,-0.90881157,0.21083033,-0.51795548,-0.54287989,0.34643582,0.59745418
0.80000000,0.20369017,0.82535746,-0.21070884,-0.53911961,0.81590514,0.45459751,-0.11675103,-0.30329909,-0.90881157,0.21083033,-0.51795548,-0.54287989,0.34643582,0.59745418
0.82000000,0.20369017,0.82535746,-0.21070884,-0.53911961,0.81590514,0.45459751,-0.11675103,-0.30329909,-0.90881157,0.21083033,-0.51795548,-0.54287989,0.34643582,0.59745418
0.84000000,0.20369017,0.82535746,-0.21070884,-0.53911961,0.81590514,0.45459751,-0.11675103,-0.30329909,-0.90881157,0.21083033,-0.51795548,-0.54287989,0.34643582,0.59745418
0.86000000,0.20369017,0.82535746,-0.21070884,-0.53911961,0.81590514,0.45459751,-0.11675103,-0.30329909,-0.90881157,0.21083033,-0.51795548,-0.54287989,0.34643582,0.59745418
0.88000000,0.20369017,0.82535746,-0.21070884,-0.53911961,0.81590514,0.45459751,-0.11675103,-0.30329909,-0.90881157,0.21083033,-0.51795548,-0.54287989,0.34643582,0.59745418
0.90000000,0.20369017,0.82535746,-0.21070884,-0.53911961,0.81590514,0.45459751,-0.11675103,-0.30329909,-0.90881157,0.21083033,-0.51795548,-0.54287989,0.34643582,0.59745418
0.92000000,0.20369017,0.82535746,-0.21070884,-0.53911961,0.81590514,0.45459751,-0.11675103,-0.30329909,-0.90881157,0.21083033,-0.51795548,-0.54287989,0.34643582,0.59745418
0.94000000,0.20369017,0.82535746,-0.21070884,-0.53911961,0.81590514,0.45459751,-0.11675103,-0.30329909,-0.90881157,0.21083033,-0.51795548,-0.54287989,0.34643582,0.59745418
0.96000000,0.20369017,0.82535746,-0.21070884,-0.53911961,0.81590514,0.45459751,-0.11675103,-0.30329909,-0.90881157,0.21083033,-0.51795548,-0.54287989,0.34643582,0.59745418
0.98000000,0.20369017,0.82535746,-0.21070884,-0.53911961,0.81590514,0.45459751,-0.11675103,-0.30329909,-0.90881157,0.21083033,-0.51795548,-0.54287989,0.34643582,0.59745418
1.00000000,0.20369017,0.82535746,-0.21070884,-0.53911961,0.81590514,0.45459751,-0.11675103,-0.30329909,-0.90881157,0.21083033,-0.51795548,-0.54287989,0.34643582,0.59745418
1.02000000,0.20369017,0.82535746,-0.21070884,-0.53911961,0.81590514,0.45459751,-0.11675103,-0.30329909,-0.90881157,0.21083033,-0.51795548,-0.54287989,0.34643582,0.59745418
1.04000000,0.20369017,0.82535746,-0.21070884,-0.53911961,0.81590514,0.45459751,-0.11675103,-0.30329909,-0.90881157,0.21083033,-0.51795548,-0.54287989,0.34643582,0.59745418
1.06000000,0.20369017,0.82535746,-0.21070884,-0.53911961,0.81590514,0.45459751,-0.11675103,-0.30329909,-0.90881157,0.21083033,-0.51795548,-0.54287989,0.34643582,0.59745418
1.08000000,0.20369017,0.82535746,-0.21070884,-0.53911961,0.81590514,0.45459751,-0.11675103,-0.30329909,-0.90881157,0.21083033,-0.51795548,-0.54287989,0.34643582,0.59745418
1.10000000,0.20369017,0.82535746,-0.21070884,-0.53911961,0.81590514,0.45459751,-0.11675103,-0.30329909,-0.90881157,0.21083033,-0.51795548,-0.54287989,0.34643582,0.59745418
1.12000000,0.20369017,0.82535746,-0.21070884,-0.53911961,0.81590514,0.45459751,-0.11675103,-0.30329909,-0.90881157,0.21083033,-0.51795548,-0.54287989,0.34643582,0.59745418
1.14000000,0.20369017,0.82535746,-0.21070884,-0.53911961,0.81590514,0.45459751,-0.11675103,-0.30329909,-0.90881157,0.21083033,-0.51795548,-0.54287989,0.34643582,0.59745418
1.16000000,0.20369017,0.82535746,-0.21070884,-0.53911961,0.81590514,0.45459751,-0.11675103,-0.30329909,-0.90881157,0.21083033,-0.51795548,-0.54287989,0.34643582,0.59745418
1.18000000,0.20369017,0.82535746,-0.21070884,-0.53911961,0.81590514,0.45459751,-0.11675103,-0.30329909,-0.90881157,0.21083033,-0.51795548,-0.54287989,0.34643582,0.59745418
1.20000000,0.20369017,0.82535746,-0.21070884,-0.53911961,0.81590514,0.45459751,-0.11675103,-0.30329909,-0.90881157,0.21083033,-0.51795548,-0.54287989,0.34643582,0.59745418
1.22000000,0.20369017,0.82535746,-0.21070884,-0.53911961,0.81590514,0.45459751,-0.11675103,-0.30329909,-0.90881157,0.21083033,-0.51795548,-0.54287989,0.34643582,0.59745418
1.24000000,0.20369017,0.82535746,-0.21070884,-0.53911961,0.81590514,0.45459751,-0.11675103,-0.30329909,-0.90881157,0.21083033,-0.51795548,-0.54287989,0.34643582,0.59745418
1.26000000,0.20369017,0.82535746,-0.21070884,-0.53911961,0.81590514,0.45459751,-0.11675103,-0.30329909,-0.90881157,0.21083033,-0.51795548,-0.54287989,0.34643582,0.59745418
1.28000000,0.20369017,0.82535746,-0.21070884,-0.53911961,0.81590514,0.45459751,-0.11675103,-0.30329909,-0.90881157,0.21083033,-0.51795548,-0.54287989,0.34643582,0.59745418
1.30000000,0.20369017,0.82535746,-0.21070884,-0.53911961,0.81590514,0.45459751,-0.11675103,-0.30329909,-0.90881157,0.21083033,-0.51795548,-0.54287989,0.34643582,0.59745418
1.32000000,0.20369017,0.82535746,-0.21070884,-0.53911961,0.81590514,0.45459751,-0.11675103,-0.30329909,-0.90881157,0.21083033,-0.51795548,-0.54287989,0.34643582,0.59745418
1.34000000,0.20369017,0.82535746,-0.21070884,-0.53911961,0.81590514,0.45459751,-0.11675103,-0.30329909,-0.90881157,0.21083033,-0.51795548,-0.54287989,0.34643582,0.59745418
1.36000000,0.20369017,0.82535746,-0.21070884,-0.53911961,0.81590514,0.45459751,-0.11675103,-0.30329909,-0.90881157,0.21083033,-0.51795548,-0.54287989,0.34643582,0.59745418
1.38000000,0.20369017,0.82535746,-0.21070884,-0.53911961,0.81590514,0.45459751,-0.11675103,-0.30329909,-0.90881157,0.21083033,-0.51795548,-0.54287989,0.34643582,0.59745418
1.40000000,0.20369017,0.82535746,-0.21070884,-0.53911961,0.81590514,0.45459751,-0.11675103,-0.30329909,-0.90881157,0.21083033,-0.51795548,-0.54287989,0.34643582,0.59745418
1.42000000,0.20369017,0.82535746,-0.21070884,-0.53911961,0.81590514,0.45459751,-0.11675103,-0.30329909,-0.90881157,0.21083033,-0.51795548,-0.54287989,0.34643582,0.59745418
1.44000000,0.20369017,0.82535746,-0.21070884,-0.53911961,0.81590514,0.45459751,-0.11675103,-0.30329909,-0.90881157,0.21083033,-0.51795548,-0.54287989,0.34643582,0.59745418
1.46000000,0.20369017,0.82535746,-0.21070884,-0.53911961,0.81590514,0.45459751,-0.11675103,-0.30329909,-0.90881157,0.21083033,-0.51795548,-0.54287989,0.34643582,0.59745418
1.48000000,0.20369017,0.82535746,-0.21070884,-0.53911961,0.81590514,0.45459751,-0.11675103,-0.30329909,-0.90881157,0.21083033,-0.51795548,-0.54287989,0.34643582,0.59745418
1.50000000,0.20369017,0.82535746,-0.21070884,-0.53911961,0.81590514,0.45459751,-0.11675103,-0.30329909,-0.90881157,0.21083033,-0.51795548,-0.54287989,0.34643582,0.59745418
1.52000000,0.20369017,0.82535746,-0.21070884,-0.53911961,0.81590514,0.45459751,-0.11675103,-0.30329909,-0.90881157,0.21083033,-0.51795548,-0.54287989,0.34643582,0.59745418
1.54000000,0.20369017,0.82535746,-0.21070884,-0.53911961,0.81590514,0.45459751,-0.11675103,-0.30329909,-0.90881157,0.21083033,-0.51795548,-0.54287989,0.34643582,0.59745418
1.56000000,0.20369017,0.82535746,-0.21070884,-0.53911961,0.81590514,0.45459751,-0.11675103,-0.30329909,-0.90881157,0.21083033,-0.51795548,-0.54287989,0.34643582,0.59745418
1.58000000,0.20369017,0.82535746,-0.21070884,-0.53911961,0.81590514,0.45459751,-0.11675103,-0.30329909,-0.90881157,0.21083033,-0.51795548,-0.54287989,0.34643582,0.59745418
1.60000000,0.20369017,0.82535746,-0.21070884,-0.53911961,0.81590514,0.45459751,-0.11675103,-0.30329909,-0.90881157,0.21083033,-0.51795548,-0.54287989,0.34643582,0.59745418
1.62000000,0.20369017,0.82535746,-0.21070884,-0.53911961,0.81590514,0.45459751,-0.11675103,-0.30329909,-0.90881157,0.21083033,-0.51795548,-0.54287989,0.34643582,0.59745418
1.64000000,0.20369017,0.82535746,-0.21070884,-0.53911961,0.81590514,0.45459751,-0.11675103,-0.30329909,-0.90881157,0.21083033,-0.51795548,-0.54287989,0.34643582,0.59745418
1.66000000,0.20369017,0.82535746,-0.21070884,-0.53911961,0.81590514,0.45459751,-0.11675103,-0.30329909,-0.90881157,0.21083033,-0.51795548,-0.54287989,0.34643582,0.59745418
1.68000000,0.20369017,0.82535746,-0.21070884,-0.53911961,0.81590514,0.45459751,-0.11675103,-0.30329909,-0.90881157,0.21083033,-0.51795548,-0.54287989,0.34643582,0.59745418
1.70000000,0.20369017,0.82535746,-0.21070884,-0.53911961,0.81590514,0.45459751,-0.11675103,-0.30329909,-0.90881157,0.21083033,-0.51795548,-0.54287989,0.34643582,0.59745418
1.72000000,0.20369017,0.82535746,-0.21070884,-0.53911961,0.81590514,0.45459751,-0.11675103,-0.30329909,-0.90881157,0.21083033,-0.51795548,-0.54287989,0.34643582,0.59745418
1.74000000,0.20369017,0.82535746,-0.21070884,-0.53911961,0.81590514,0.45459751,-0.11675103,-0.30329909,-0.90881157,0.21083033,-0.51795548,-0.54287989,0.34643582,0.59745418
1.76000000,0.20369017,0.82535746,-0.21070884,-0.53911961,0.81590514,0.45459751,-0.11675103,-0.30329909,-0.90881157,0.21083033,-0.51795548,-0.54287989,0.34643582,0.59745418
1.78000000,0.20369017,0.82535746,-0.21070884,-0.53911961,0.81590514,0.45459751,-0.11675103,-0.30329909,-0.90881157,0.21083033,-0.51795548,-0.54287989,0.34643582,0.59745418
1.80000000,0.20369017,0.82535746,-0.21070884,-0.53911961,0.81590514,0.45459751,-0.11675103,-0.30329909,-0.90881157,0.21083033,-0.51795548,-0.54287989,0.34643582,0.59745418
1.82000000,0.20369017,0.82535746,-0.21070884,-0.53911961,0.81590514,0.45459751,-0.11675103,-0.30329909,-0.90881157,0.21083033,-0.51795548,-0.54287989,0.34643582,0.59745418
1.84000000,0.20369017,0.82535746,-0.21070884,-0.53911961,0.81590514,0.45459751,-0.11675103,-0.30329909,-0.90881157,0.21083033,-0.51795548,-0.54287989,0.34643582,0.59745418
1.86000000,0.20369017,0.82535746,-0.21070884,-0.53911961,0.81590514,0.45459751,-0.11675103,-0.30329909,-0.90881157,0.21083033,-0.51795548,-0.54287989,0.34643582,0.59745418
1.88000000,0.20369017,0.82535746,-0.21070884,-0.53911961,0.81590514,0.45459751,-0.11675103,-0.30329909,-0.90881157,0.21083033,-0.51795548,-0.54287989,0.34643582,0.59745418
1.90000000,0.20369017,0.82535746,-0.21070884,-0.53911961,0.81590514,0.45459751,-0.11675103,-0.30329909,-0.90881157,0.21083033,-0.51795548,-0.54287989,0.34643582,0.59745418
1.92000000,0.20369017,0.82535746,-0.21070884,-0.53911961,0.81590514,0.45459751,-0.11675103,-0.30329909,-0.90881157,0.21083033,-0.51795548,-0.54287989,0.34643582,0.59745418
1.94000000,0.20369017,0.82535746,-0.21070884,-0.53911961,0.81590514,0.45459751,-0.11675103,-0.30329909,-0.90881157,0.21083033,-0.51795548,-0.54287989,0.34643582,0.59745418
1.96000000,0.20369017,0.82535746,-0.21070884,-0.53911961,0.81590514,0.45459751,-0.11675103,-0.30329909,-0.90881157,0.21083033,-0.51795548,-0.54287989,0.34643582,0.59745418
1.98000000,0.20369017,0.82535746,-0.21070884,-0.53911961,0.81590514,0.45459751,-0.11675103,-0.30329909,-0.90881157,0.21083033,-0.51795548,-0.54287989,0.34643582,0.59745418
2.00000000,0.20369017,0.82535746,-0.21070884,-0.53911961,0.81590514,0.45459751,-0.11675103,-0.30329909,-0.90881157,0.21083033,-0.51795548,-0.54287989,0.34643582,0.59745418
2.02000000,0.20369017,0.82535746,-0.21070884,-0.53911961,0.81590514,0.45459751,-0.11675103,-0.30329909,-0.90881157,0.21083033,-0.51795548,-0.54287989,0.34643582,0.59745418
2.04000000,0.20369017,0.82535746,-0.21070884,-0.53911961,0.81590514,0.45459751,-0.11675103,-0.30329909,-0.90881157,0.21083033,-0.51795548,-0.54287989,0.34643582,0.59745418
2.06000000,0.20369017,0.82535746,-0.21070884,-0.53911961,0.81590514,0.45459751,-0.11675103,-0.30329909,-0.90881157,0.21083033,-0.51795548,-0.54287989,0.34643582,0.59745418
2.08000000,0.20369017,0.82535746,-0.21070884,-0.53911961,0.81590514,0.45459751,-0.11675103,-0.30329909,-0.90881157,0.21083033,-0.51795548,-0.54287989,0.34643582,0.59745418
2.10000000,0.20369017,0.82535746,-0.21070884,-0.53911961,0.81590514,0.45459751,-0.11675103,-0.30329909,-0.90881157,0.21083033,-0.51795548,-0.54287989,0.34643582,0.59745418
2.12000000,0.20369017,0.82535746,-0.21070884,-0.53911961,0.81590514,0.45459751,-0.11675103,-0.30329909,-0.90881157,0.21083033,-0.51795548,-0.54287989,0.34643582,0.59745418
2.14000000,0.20369017,0.82535746,-0.21070884,-0.53911961,0.81590514,0.45459751,-0.11675103,-0.30329909,-0.90881157,0.21083033,-0.51795548,-0.54287989,0.34643582,0.59745418
2.16000000,0.20369017,0.82535746,-0.21070884,-0.53911961,0.81590514,0.45459751,-0.11675103,-0.30329909,-0.90881157,0.21083033,-0.51795548,-0.54287989,0.34643582,0.59745418
2.18000000,0.20369017,0.82535746,-0.21070884,-0.53911961,0.81590514,0.45459751,-0.11675103,-0.30329909,-0.90881157,0.21083033,-0.51795548,-0.54287989,0.34643582,0.59745418
2.20000000,0.20369017,0.82535746,-0.21070884,-0.53911961,0.81590514,0.45459751,-0.11675103,-0.30329909,-0.90881157,0.21083033,-0.51795548,-0.54287989,0.34643582,0.59745418
2.22000000,0.20369017,0.82535746,-0.21070884,-0.53911961,0.81590514,0.45459751,-0.11675103,-0.30329909,-0.90881157,0.21083033,-0.51795548,-0.54287989,0.34643582,0.59745418
2.24000000,0.20369017,0.82535746,-0.21070884,-0.53911961,0.81590514,0.45459751,-0.11675103,-0.30329909,-0.90881157,0.21083033,-0.51795548,-0.54287989,0.34643582,0.59745418
2.26000000,0.20369017,0.82535746,-0.21070884,-0.53911961,0.81590514,0.45459751,-0.11675103,-0.30329909,-0.90881157,0.21083033,-0.51795548,-0.54287989,0.34643582,0.59745418
2.28000000,0.20369017,0.82535746,-0.21070884,-0.53911961,0.81590514,0.45459751,-0.11675103,-0.30329909,-0.90881157,0.21083033,-0.51795548,-0.54287989,0.34643582,0.59745418
2.30000000,0.20369017,0.82535746,-0.21070884,-0.53911961,0.81590514,0.45459751,-0.11675103,-0.30329909,-0.90881157,0.21083033,-0.51795548,-0.54287989,0.34643582,0.59745418
2.32000000,0.20369017,0.82535746,-0.21070884,-0.53911961,0.81590514,0.45459751,-0.11675103,-0.30329909,-0.90881157,0.21083033,-0.51795548,-0.54287989,0.34643582,0.59745418
2.34000000,0.20369017,0.82535746,-0.21070884,-0.53911961,0.81590514,0.45459751,-0.11675103,-0.30329909,-0.90881157,0.21083033,-0.51795548,-0.54287989,0.34643582,0.59745418
2.36000000,0.20369017,0.82535746,-0.21070884,-0.53911961,0.81590514,0.45459751,-0.11675103,-0.30329909,-0.90881157,0.21083033,-0.51795548,-0.54287989,0.34643582,0.59745418
2.38000000,0.20369017,0.82535746,-0.21070884,-0.53911961,0.81590514,0.45459751,-0.11675103,-0.30329909,-0.90881157,0.21083033,-0.51795548,-0.54287989,0.34643582,0.59745418
2.40000000,0.20369017,0.82535746,-0.21070884,-0.53911961,0.81590514,0.45459751,-0.11675103,-0.30329909,-0.90881157,0.21083033,-0.51795548,-0.54287989,0.34643582,0.59745418
2.42000000,0.20369017,0.82535746,-0.21070884,-0.53911961,0.81590514,0.45459751,-0.11675103,-0.30329909,-0.90881157,0.21083033,-0.51795548,-0.54287989,0.34643582,0.59745418
2.44000000,0.20369017,0.82535746,-0.21070884,-0.53911961,0.81590514,0.45459751,-0.11675103,-0.30329909,-0.90881157,0.21083033,-0.51795548,-0.54287989,0.34643582,0.59745418
2.46000000,0.20369017,0.82535746,-0.21070884,-0.53911961,0.81590514,0.45459751,-0.11675103,-0.30329909,-0.90881157,0.21083033,-0.51795548,-0.54287989,0.34643582,0.59745418
2.48000000,0.20369017,0.82535746,-0.21070884,-0.53911961,0.81590514,0.45459751,-0.11675103,-0.30329909,-0.90881157,0.21083033,-0.51795548,-0.54287989,0.34643582,0.59745418
2.50000000,0.20369017,0.82535746,-0.21070884,-0.53911961,0.81590514,0.45459751,-0.11675103,-0.30329909,-0.90881157,0.21083033,-0.51795548,-0.54287989,0.34643582,0.59745418
2.52000000,0.20369017,0.82535746,-0.21070884,-0.53911961,0.81590514,0.45459751,-0.11675103,-0.30329909,-0.90881157,0.21083033,-0.51795548,-0.54287989,0.34643582,0.59745418
2.54000000,0.20369017,0.82535746,-0.21070884,-0.53911961,0.81590514,0.45459751,-0.11675103,-0.30329909,-0.90881157,0.21083033,-0.51795548,-0.54287989,0.34643582,0.59745418
2.56000000,0.20369017,0.82535746,-0.21070884,-0.53911961,0.81590514,0.45459751,-0.11675103,-0.30329909,-0.90881157,0.21083033,-0.51795548,-0.54287989,0.34643582,0.59745418
2.58000000,0.20369017,0.82535746,-0.21070884,-0.53911961,0.81590514,0.45459751,-0.11675103,-0.30329909,-0.90881157,0.21083033,-0.51795548,-0.54287989,0.34643582,0.59745418
2.60000000,0.20369017,0.82535746,-0.21070884,-0.53911961,0.81590514,0.45459751,-0.11675103,-0.30329909,-0.90881157,0.21083033,-0.51795548,-0.54287989,0.34643582,0.59745418
2.62000000,0.20369017,0.82535746,-0.21070884,-0.53911961,0.81590514,0.45459751,-0.11675103,-0.30329909,-0.90881157,0.21083033,-0.51795548,-0.54287989,0.34643582,0.59745418
2.64000000,0.20369017,0.82535746,-0.21070884,-0.53911961,0.81590514,0.45459751,-0.11675103,-0.30329909,-0.90881157,0.21083033,-0.51795548,-0.54287989,0.34643582,0.59745418
2.66000000,0.20369017,0.82535746,-0.21070884,-0.53911961,0.81590514,0.45459751,-0.11675103,-0.30329909,-0.90881157,0.21083033,-0.51795548,-0.54287989,0.34643582,0.59745418
2.68000000,0.20369017,0.82535746,-0.21070884,-0.53911961,0.81590514,0.45459751,-0.11675103,-0.30329909,-0.90881157,0.21083033,-0.51795548,-0.54287989,0.34643582,0.59745418
2.70000000,0.20369017,0.82535746,-0.21070884,-0.53911961,0.81590514,0.45459751,-0.11675103,-0.30329909,-0.90881157,0.21083033,-0.51795548,-0.54287989,0.34643582,0.59745418
2.72000000,0.20369017,0.82535746,-0.21070884,-0.53911961,0.81590514,0.45459751,-0.11675103,-0.30329909,-0.90881157,0.21083033,-0.51795548,-0.54287989,0.34643582,0.59745418
2.74000000,0.20369017,0.82535746,-0.21070884,-0.53911961,0.81590514,0.45459751,-0.11675103,-0.30329909,-0.90881157,0.21083033,-0.51795548,-0.54287989,0.34643582,0.59745418
2.76000000,0.20369017,0.82535746,-0.21070884,-0.53911961,0.81590514,0.45459751,-0.11675103,-0.30329909,-0.90881157,0.21083033,-0.51795548,-0.54287989,0.34643582,0.59745418
2.78000000,0.20369017,0.82535746,-0.21070884,-0.53911961,0.81590514,0.45459751,-0.11675103,-0.30329909,-0.90881157,0.21083033,-0.51795548,-0.54287989,0.34643582,0.59745418
2.80000000,0.20369017,0.82535746,-0.21070884,-0.53911961,0.81590514,0.45459751,-0.11675103,-0.30329909,-0.90881157,0.21083033,-0.51795548,-0.54287989,0.34643582,0.59745418
2.82000000,0.20369017,0.82535746,-0.21070884,-0.53911961,0.81590514,0.45459751,-0.11675103,-0.30329909,-0.90881157,0.21083033,-0.51795548,-0.54287989,0.34643582,0.59745418
2.84000000,0.20369017,0.82535746,-0.21070884,-0.53911961,0.81590514,0.45459751,-0.11675103,-0.30329909,-0.90881157,0.21083033,-0.51795548,-0.54287989,0.34643582,0.59745418
2.86000000,0.20369017,0.82535746,-0.21070884,-0.53911961,0.81590514,0.45459751,-0.11675103,-0.30329909,-0.90881157,0.21083033,-0.51795548,-0.54287989,0.34643582,0.59745418
2.88000000,0.20369017,0.82535746,-0.21070884,-0.53911961,0.81590514,0.45459751,-0.11675103,-0.30329909,-0.90881157,0.21083033,-0.51795548,-0.54287989,0.34643582,0.59745418
2.90000000,0.20369017,0.82535746,-0.21070884,-0.53911961,0.81590514,0.45459751,-0.11675103,-0.30329909,-0.90881157,0.21083033,-0.51795548,-0.54287989,0.34643582,0.59745418
2.92000000,0.20369017,0.82535746,-0.21070884,-0.53911961,0.81590514,0.45459751,-0.11675103,-0.30329909,-0.90881157,0.21083033,-0.51795548,-0.54287989,0.34643582,0.59745418
2.94000000,0.20369017,0.82535746,-0.21070884,-0.53911961,0.81590514,0.45459751,-0.11675103,-0.30329909,-0.90881157,0.21083033,-0.51795548,-0.54287989,0.34643582,0.59745418
2.96000000,0.20369017,0.82535746,-0.21070884,-0.53911961,0.81590514,0.45459751,-0.11675103,-0.30329909,-0.90881157,0.21083033,-0.51795548,-0.54287989,0.34643582,0.59745418
2.98000000,0.20369017,0.82535746,-0.21070884,-0.53911961,0.81590514,0.45459751,-0.11675103,-0.30329909,-0.90881157,0.21083033,-0.51795548,-0.54287989,0.34643582,0.59745418
3.00000000,0.20369017,0.82535746,-0.21070884,-0.53911961,0.81590514,0.45459751,-0.11675103,-0.30329909,-0.90881157,0.21083033,-0.51795548,-0.54287989,0.34643582,0.59745418
3.02000000,0.20369017,0.82535746,-0.21070884,-0.53911961,0.81590514,0.45459751,-0.11675103,-0.30329909,-0.90881157,0.21083033,-0.51795548,-0.54287989,0.34643582,0.59745418
3.04000000,0.20369017,0.82535746,-0.21070884,-0.53911961,0.81590514,0.45459751,-0.11675103,-0.30329909,-0.90881157,0.21083033,-0.51795548,-0.54287989,0.34643582,0.59745418
3.06000000,0.20369017,0.82535746,-0.21070884,-0.53911961,0.81590514,0.45459751,-0.11675103,-0.30329909,-0.90881157,0.21083033,-0.51795548,-0.54287989,0.34643582,0.59745418
3.08000000,0.20369017,0.82535746,-0.21070884,-0.53911961,0.81590514,0.45459751,-0.11675103,-0.30329909,-0.90881157,0.21083033,-0.51795548,-0.54287989,0.34643582,0.59745418
3.10000000,0.20369017,0.82535746,-0.21070884,-0.53911961,0.81590514,0.45459751,-0.11675103,-0.30329909,-0.90881157,0.21083033,-0.51795548,-0.54287989,0.34643582,0.59745418
3.12000000,0.20369017,0.82535746,-0.21070884,-0.53911961,0.81590514,0.45459751,-0.11675103,-0.30329909,-0.90881157,0.21083033,-0.51795548,-0.54287989,0.34643582,0.59745418
3.14000000,0.20369017,0.82535746,-0.21070884,-0.53911961,0.81590514,0.45459751,-0.11675103,-0.30329909,-0.90881157,0.21083033,-0.51795548,-0.54287989,0.34643582,0.59745418
3.16000000,0.20369017,0.82535746,-0.21070884,-0.53911961,0.81590514,0.45459751,-0.11675103,-0.30329909,-0.90881157,0.21083033,-0.51795548,-0.54287989,0.34643582,0.59745418
3.18000000,0.20369017,0.82535746,-0.21070884,-0.53911961,0.81590514,0.45459751,-0.11675103,-0.30329909,-0.90881157,0.21083033,-0.51795548,-0.54287989,0.34643582,0.59745418
3.20000000,0.20369017,0.82535746,-0.21070884,-0.53911961,0.81590514,0.45459751,-0.11675103,-0.30329909,-0.90881157,0.21083033,-0.51795548,-0.54287989,0.34643582,0.59745418
3.22000000,0.20369017,0.82535746,-0.21070884,-0.53911961,0.81590514,0.45459751,-0.11675103,-0.30329909,-0.90881157,0.21083033,-0.51795548,-0.54287989,0.34643582,0.59745418
3.24000000,0.20369017,0.82535746,-0.21070884,-0.53911961,0.81590514,0.45459751,-0.11675103,-0.30329909,-0.90881157,0.21083033,-0.51795548,-0.54287989,0.34643582,0.59745418
3.26000000,0.20369017,0.82535746,-0.21070884,-0.53911961,0.81590514,0.45459751,-0.11675103,-0.30329909,-0.90881157,0.21083033,-0.51795548,-0.54287989,0.34643582,0.59745418
3.28000000,0.20369017,0.82535746,-0.21070884,-0.53911961,0.81590514,0.45459751,-0.11675103,-0.30329909,-0.90881157,0.21083033,-0.51795548,-0.54287989,0.34643582,0.59745418
3.30000000,0.20369017,0.82535746,-0.21070884,-0.53911961,0.81590514,0.45459751,-0.11675103,-0.30329909,-0.90881157,0.21083033,-0.51795548,-0.54287989,0.34643582,0.59745418
3.32000000,0.20369017,0.82535746,-0.21070884,-0.53911961,0.81590514,0.45459751,-0.11675103,-0.30329909,-0.90881157,0.21083033,-0.51795548,-0.54287989,0.34643582,0.59745418
3.34000000,0.20369017,0.82535746,-0.21070884,-0.53911961,0.81590514,0.45459751,-0.11675103,-0.30329909,-0.90881157,0.21083033,-0.51795548,-0.54287989,0.34643582,0.59745418
3.36000000,0.20369017,0.82535746,-0.21070884,-0.53911961,0.81590514,0.45459751,-0.11675103,-0.30329909,-0.90881157,0.21083033,-0.51795548,-0.54287989,0.34643582,0.59745418
3.38000000,0.20369017,0.82535746,-0.21070884,-0.53911961,0.81590514,0.45459751,-0.11675103,-0.30329909,-0.90881157,0.21083033,-0.51795548,-0.54287989,0.34643582,0.59745418
3.40000000,0.20369017,0.82535746,-0.21070884,-0.53911961,0.81590514,0.45459751,-0.11675103,-0.30329909,-0.90881157,0.21083033,-0.51795548,-0.54287989,0.34643582,0.59745418
3.42000000,0.20369017,0.82535746,-0.21070884,-0.53911961,0.81590514,0.45459751,-0.11675103,-0.30329909,-0.90881157,0.21083033,-0.51795548,-0.54287989,0.34643582,0.59745418
3.44000000,0.20369017,0.82535746,-0.21070884,-0.53911961,0.81590514,0.45459751,-0.11675103,-0.30329909,-0.90881157,0.21083033,-0.51795548,-0.54287989,0.34643582,0.59745418
3.46000000,0.20369017,0.82535746,-0.21070884,-0.53911961,0.81590514,0.45459751,-0.11675103,-0.30329909,-0.90881157,0.21083033,-0.51795548,-0.54287989,0.34643582,0.59745418
3.48000000,0.20369017,0.82535746,-0.21070884,-0.53911961,0.81590514,0.45459751,-0.11675103,-0.30329909,-0.90881157,0.21083033,-0.51795548,-0.54287989,0.34643582,0.59745418
3.50000000,0.20369017,0.82535746,-0.21070884,-0.53911961,0.81590514,0.45459751,-0.11675103,-0.30329909,-0.90881157,0.21083033,-0.51795548,-0.54287989,0.34643582,0.59745418
3.52000000,0.20369017,0.82535746,-0.21070884,-0.53911961,0.81590514,0.45459751,-0.11675103,-0.30329909,-0.90881157,0.21083033,-0.51795548,-0.54287989,0.34643582,0.59745418
3.54000000,0.20369017,0.82535746,-0.21070884,-0.53911961,0.81590514,0.45459751,-0.11675103,-0.30329909,-0.90881157,0.21083033,-0.51795548,-0.54287989,0.34643582,0.59745418
3.56000000,0.20369017,0.82535746,-0.21070884,-0.53911961,0.81590514,0.45459751,-0.11675103,-0.30329909,-0.90881157,0.21083033,-0.51795548,-0.54287989,0.34643582,0.59745418
3.58000000,0.20369017,0.82535746,-0.21070884,-0.53911961,0.81590514,0.45459751,-0.11675103,-0.30329909,-0.90881157,0.21083033,-0.51795548,-0.54287989,0.34643582,0.59745418
3.60000000,0.20369017,0.82535746,-0.21070884,-0.53911961,0.81590514,0.45459751,-0.11675103,-0.30329909,-0.90881157,0.21083033,-0.51795548,-0.54287989,0.34643582,0.59745418
3.62000000,0.20369017,0.82535746,-0.21070884,-0.53911961,0.81590514,0.45459751,-0.11675103,-0.30329909,-0.90881157,0.21083033,-0.51795548,-0.54287989,0.34643582,0.59745418
3.64000000,0.20369017,0.82535746,-0.21070884,-0.53911961,0.81590514,0.45459751,-0.11675103,-0.30329909,-0.90881157,0.21083033,-0.51795548,-0.54287989,0.34643582,0.59745418
3.66000000,0.20369017,0.82535746,-0.21070884,-0.53911961,0.81590514,0.45459751,-0.11675103,-0.30329909,-0.90881157,0.21083033,-0.51795548,-0.54287989,0.34643582,0.59745418
3.68000000,0.20369017,0.82535746,-0.21070884,-0.53911961,0.81590514,0.45459751,-0.11675103,-0.30329909,-0.90881157,0.21083033,-0.51795548,-0.54287989,0.34643582,0.59745418
3.70000000,0.20369017,0.82535746,-0.21070884,-0.53911961,0.81590514,0.45459751,-0.11675103,-0.30329909,-0.90881157,0.21083033,-0.51795548,-0.54287989,0.34643582,0.59745418
3.72000000,0.20369017,0.82535746,-0.21070884,-0.53911961,0.81590514,0.45459751,-0.11675103,-0.30329909,-0.90881157,0.21083033,-0.51795548,-0.54287989,0.34643582,0.59745418
3.74000000,0.20369017,0.82535746,-0.21070884,-0.53911961,0.81590514,0.45459751,-0.11675103,-0.30329909,-0.90881157,0.21083033,-0.51795548,-0.54287989,0.34643582,0.59745418
3.76000000,0.20369017,0.82535746,-0.21070884,-0.53911961,0.81590514,0.45459751,-0.11675103,-0.30329909,-0.90881157,0.21083033,-0.51795548,-0.54287989,0.34643582,0.59745418
3.78000000,0.20369017,0.82535746,-0.21070884,-0.53911961,0.81590514,0.45459751,-0.11675103,-0.30329909,-0.90881157,0.21083033,-0.51795548,-0.54287989,0.34643582,0.59745418
3.80000000,0.20369017,0.82535746,-0.21070884,-0.53911961,0.81590514,0.45459751,-0.11675103,-0.30329909,-0.90881157,0.21083033,-0.51795548,-0.54287989,0.34643582,0.59745418
3.82000000,0.20369017,0.82535746,-0.21070884,-0.53911961,0.81590514,0.45459751,-0.11675103,-0.30329909,-0.90881157,0.21083033,-0.51795548,-0.54287989,0.34643582,0.59745418
3.84000000,0.20369017,0.82535746,-0.21070884,-0.53911961,0.81590514,0.45459751,-0.11675103,-0.30329909,-0.90881157,0.21083033,-0.51795548,-0.54287989,0.34643582,0.59745418
3.86000000,0.20369017,0.82535746,-0.21070884,-0.53911961,0.81590514,0.45459751,-0.11675103,-0.30329909,-0.90881157,0.21083033,-0.51795548,-0.54287989,0.34643582,0.59745418
3.88000000,0.20369017,0.82535746,-0.21070884,-0.53911961,0.81590514,0.45459751,-0.11675103,-0.30329909,-0.90881157,0.21083033,-0.51795548,-0.54287989,0.34643582,0.59745418
3.90000000,0.20369017,0.82535746,-0.21070884,-0.53911961,0.81590514,0.45459751,-0.11675103,-0.30329909,-0.90881157,0.21083033,-0.51795548,-0.54287989,0.34643582,0.59745418
3.92000000,0.20369017,0.82535746,-0.21070884,-0.53911961,0.81590514,0.45459751,-0.11675103,-0.30329909,-0.90881157,0.21083033,-0.51795548,-0.54287989,0.34643582,0.59745418
3.94000000,0.20369017,0.82535746,-0.21070884,-0.53911961,0.81590514,0.45459751,-0.11675103,-0.30329909,-0.90881157,0.21083033,-0.51795548,-0.54287989,0.34643582,0.59745418
3.96000000,0.20369017,0.82535746,-0.21070884,-0.53911961,0.81590514,0.45459751,-0.11675103,-0.30329909,-0.90881157,0.21083033,-0.51795548,-0.54287989,0.34643582,0.59745418
3.98000000,0.20369017,0.82535746,-0.21070884,-0.53911961,0.81590514,0.45459751,-0.11675103,-0.30329909,-0.90881157,0.21083033,-0.51795548,-0.54287989,0.34643582,0.59745418
4.00000000,0.20368465,0.82535683,-0.21070997,-0.53911650,0.81590255,0.45459482,-0.11675521,-0.30329361,-0.90880967,0.21083042,-0.51795365,-0.54288187,0.34643606,0.59744802
4.02000000,0.20364672,0.82535245,-0.21071777,-0.53909509,0.81588477,0.45457635,-0.11678404,-0.30325591,-0.90879659,0.21083108,-0.51794106,-0.54289548,0.34643768,0.59740564
4.04000000,0.20354577,0.82534080,-0.21073853,-0.53903813,0.81583745,0.45452719,-0.11686076,-0.30315557,-0.90876178,0.21083284,-0.51790756,-0.54293170,0.34644200,0.59729283
4.06000000,0.20335312,0.82531856,-0.21077815,-0.53892941,0.81574713,0.45443338,-0.11700716,-0.30296409,-0.90869534,0.21083619,-0.51784363,-0.54300082,0.34645024,0.59707755
4.08000000,0.20304199,0.82528264,-0.21084213,-0.53875384,0.81560128,0.45428187,-0.11724360,-0.30265484,-0.90858806,0.21084161,-0.51774039,-0.54311245,0.34646355,0.59672987
4.10000000,0.20258746,0.82523018,-0.21093560,-0.53849734,0.81538820,0.45406053,-0.11758901,-0.30220305,-0.90843132,0.21084953,-0.51758956,-0.54327553,0.34648299,0.59622195
4.12000000,0.20196641,0.82515849,-0.21106331,-0.53814687,0.81509706,0.45375811,-0.11806097,-0.30158575,-0.90821716,0.21086034,-0.51738346,-0.54349835,0.34650956,0.59552795
4.14000000,0.20115750,0.82506512,-0.21122965,-0.53769039,0.81471784,0.45336420,-0.11867570,-0.30078173,-0.90793822,0.21087443,-0.51711503,-0.54378858,0.34654416,0.59462402
4.16000000,0.20014112,0.82494780,-0.21143866,-0.53711684,0.81424138,0.45286926,-0.11944808,-0.29977150,-0.90758773,0.21089212,-0.51677775,-0.54415324,0.34658763,0.59348826
4.18000000,0.19889937,0.82480447,-0.21169402,-0.53641610,0.81365925,0.45226457,-0.12039174,-0.29853725,-0.90715953,0.21091375,-0.51636569,-0.54459877,0.34664075,0.59210064
4.20000000,0.19741597,0.82463324,-0.21199907,-0.53557899,0.81296384,0.45154221,-0.12151904,-0.29706281,-0.90664800,0.21093958,-0.51587343,-0.54513099,0.34670420,0.59044300
4.22000000,0.19567627,0.82443243,-0.21235682,-0.53459726,0.81214829,0.45069505,-0.12284110,-0.29533363,-0.90604809,0.21096987,-0.51529612,-0.54575517,0.34677862,0.58849895
4.24000000,0.19366720,0.82420053,-0.21276996,-0.53346351,0.81120645,0.44971671,-0.12436787,-0.29333670,-0.90535530,0.21100485,-0.51462943,-0.54647599,0.34686456,0.58625389
4.26000000,0.19137720,0.82393620,-0.21324088,-0.53217124,0.81013292,0.44860157,-0.12610813,-0.29106054,-0.90456563,0.21104473,-0.51386951,-0.54729761,0.34696252,0.58369491
4.28000000,0.18879623,0.82363828,-0.21377163,-0.53071476,0.80892298,0.44734473,-0.12806951,-0.28849516,-0.90367561,0.21108967,-0.51301303,-0.54822363,0.34707292,0.58081076
4.30000000,0.18591566,0.82330578,-0.21436399,-0.52908922,0.80757259,0.44594200,-0.13025857,-0.28563201,-0.90268230,0.21113983,-0.51205713,-0.54925714,0.34719614,0.57759184
4.32000000,0.18272832,0.82293787,-0.21501944,-0.52729056,0.80607839,0.44438989,-0.13268076,-0.28246393,-0.90158319,0.21119533,-0.51099943,-0.55040071,0.34733248,0.57403011
4.34000000,0.17922836,0.82253388,-0.21573917,-0.52531548,0.80443764,0.44268554,-0.13534051,-0.27898512,-0.90037628,0.21125628,-0.50983800,-0.55165645,0.34748219,0.57011904
4.36000000,0.17541130,0.82209328,-0.21652412,-0.52316146,0.80264823,0.44082678,-0.13824124,-0.27519113,-0.89906002,0.21132274,-0.50857133,-0.55302596,0.34764547,0.56585361
4.38000000,0.17127392,0.82161571,-0.21737493,-0.52082669,0.80070866,0.43881204,-0.14138540,-0.27107876,-0.89763331,0.21139478,-0.50719837,-0.55451039,0.34782245,0.56123025
4.40000000,0.16681428,0.82110094,-0.21829201,-0.51831005,0.79861802,0.43664036,-0.14477446,-0.26664607,-0.89609547,0.21147244,-0.50571847,-0.55611045,0.34801321,0.55624677
4.42000000,0.16203161,0.82054889,-0.21927552,-0.51561113,0.79637594,0.43431138,-0.14840899,-0.26189230,-0.89444624,0.21155572,-0.50413137,-0.55782640,0.34821779,0.55090232
4.44000000,0.15692634,0.81995959,-0.22032537,-0.51273016,0.79398263,0.43182531,-0.15228868,-0.25681789,-0.89268576,0.21164462,-0.50243722,-0.55965810,0.34843618,0.54519738
4.46000000,0.15150003,0.81933324,-0.22144124,-0.50966801,0.79143882,0.42918290,-0.15641236,-0.25142437,-0.89081458,0.21173910,-0.50063654,-0.56160498,0.34866829,0.53913368
4.48000000,0.14575529,0.81867014,-0.22262259,-0.50642618,0.78874573,0.42638544,-0.16077800,-0.24571436,-0.88883359,0.21183914,-0.49873019,-0.56366611,0.34891403,0.53271416
4.50000000,0.13969583,0.81797071,-0.22386866,-0.50300675,0.78590510,0.42343471,-0.16538283,-0.23969151,-0.88674408,0.21194465,-0.49671940,-0.56584016,0.34917322,0.52594293
4.52000000,0.13332632,0.81723548,-0.22517849,-0.49941235,0.78291913,0.42033301,-0.17022326,-0.23336050,-0.88454765,0.21205556,-0.49460572,-0.56812545,0.34944568,0.51882525
4.54000000,0.12665244,0.81646513,-0.22655091,-0.49564618,0.77979047,0.41708308,-0.17529501,-0.22672695,-0.88224626,0.21217177,-0.49239103,-0.57051995,0.34973116,0.51136743
4.56000000,0.11968075,0.81566040,-0.22798457,-0.49171197,0.77652220,0.41368813,-0.18059307,-0.21979740,-0.87984218,0.21229317,-0.49007753,-0.57302129,0.35002938,0.50357684
4.58000000,0.11241874,0.81482216,-0.22947794,-0.48761392,0.77311782,0.41015181,-0.18611176,-0.21257927,-0.87733798,0.21241962,-0.48766768,-0.57562680,0.35034002,0.49546182
4.60000000,0.10487472,0.81395136,-0.23102929,-0.48335673,0.76958125,0.40647816,-0.19184475,-0.20508085,-0.87473654,0.21255098,-0.48516425,-0.57833349,0.35066272,0.48703166
4.62000000,0.09705782,0.81304907,-0.23263676,-0.47894554,0.76591674,0.40267163,-0.19778512,-0.19731119,-0.87204100,0.21268710,-0.48257026,-0.58113809,0.35099709,0.47829657
4.64000000,0.08897792,0.81211642,-0.23429832,-0.47438595,0.76212895,0.39873703,-0.20392535,-0.18928012,-0.86925476,0.21282779,-0.47988900,-0.58403704,0.35134272,0.46926759
4.66000000,0.08064564,0.81115464,-0.23601177,-0.46968393,0.75822285,0.39467953,-0.21025738,-0.18099820,-0.86638150,0.21297288,-0.47712399,-0.58702654,0.35169914,0.45995658
4.68000000,0.07207228,0.81016503,-0.23777480,-0.46484587,0.75420373,0.39050463,-0.21677261,-0.17247666,-0.86342511,0.21312216,-0.47427898,-0.59010255,0.35206587,0.45037618
4.70000000,0.06326979,0.80914898,-0.23958495,-0.45987851,0.75007719,0.38621815,-0.22346197,-0.16372736,-0.86038970,0.21327544,-0.47135793,-0.59326076,0.35244240,0.44053973
4.72000000,0.05425071,0.80810792,-0.24143964,-0.45478892,0.74584911,0.38182620,-0.23031592,-0.15476279,-0.85727961,0.21343249,-0.46836501,-0.59649668,0.35282820,0.43046125
4.74000000,0.04502816,0.80704338,-0.24333617,-0.44958451,0.74152566,0.37733517,-0.23732450,-0.14559597,-0.85409935,0.21359308,-0.46530457,-0.59980560,0.35322270,0.42015539
4.76000000,0.03561577,0.80595692,-0.24527174,-0.44427297,0.73711320,0.37275170,-0.24447735,-0.13624047,-0.85085362,0.21375698,-0.46218113,-0.60318263,0.35362532,0.40963740
4.78000000,0.02602766,0.80485018,-0.24724344,-0.43886227,0.73261837,0.36808265,-0.25176372,-0.12671031,-0.84754731,0.21392393,-0.45899939,-0.60662271,0.35403546,0.39892306
4.80000000,0.01627840,0.80372484,-0.24924828,-0.43336063,0.72804800,0.36333514,-0.25917257,-0.11701997,-0.84418542,0.21409369,-0.45576416,-0.61012061,0.35445249,0.38802863
4.82000000,0.00638296,0.80258263,-0.25128319,-0.42777650,0.72340909,0.35851643,-0.26669250,-0.10718433,-0.84077313,0.21426600,-0.45248043,-0.61367095,0.35487577,0.37697085
4.84000000,-0.00364334,0.80142531,-0.25334500,-0.42211853,0.71870885,0.35363401,-0.27431188,-0.09721863,-0.83731571,0.21444059,-0.44915327,-0.61726825,0.35530465,0.36576684
4.86000000,-0.01378485,0.80025469,-0.25543050,-0.41639554,0.71395459,0.34869548,-0.28201881,-0.08713841,-0.83381856,0.21461718,-0.44578788,-0.62090688,0.35573846,0.35443409
4.88000000,-0.02402562,0.79907262,-0.25753642,-0.41061653,0.70915380,0.34370862,-0.28980117,-0.07695953,-0.83028718,0.21479550,-0.44238955,-0.62458113,0.35617652,0.34299041
4.90000000,-0.03434949,0.79788095,-0.25965943,-0.40479064,0.70431405,0.33868129,-0.29764668,-0.06669805,-0.82672715,0.21497527,-0.43896364,-0.62828519,0.35661813,0.33145388
4.92000000,-0.04474007,0.79668158,-0.26179615,-0.39892709,0.69944303,0.33362147,-0.30554290,-0.05637027,-0.82314411,0.21515620,-0.43551560,-0.63201318,0.35706260,0.31984279
4.94000000,-0.05518084,0.79547642,-0.26394320,-0.39303522,0.69454848,0.32853722,-0.31347724,-0.04599260,-0.81954377,0.21533800,-0.43205090,-0.63575918,0.35750921,0.30817563
4.96000000,-0.06565513,0.79426740,-0.26609713,-0.38712444,0.68963822,0.32343664,-0.32143706,-0.03558162,-0.81593187,0.21552039,-0.42857508,-0.63951721,0.35795725,0.29647102
4.98000000,-0.07614619,0.79305643,-0.26825452,-0.38120419,0.68472009,0.31832789,-0.32940963,-0.02515396,-0.81231418,0.21570307,-0.42509369,-0.64328126,0.35840601,0.28474765
5.00000000,-0.08663726,0.79184546,-0.27041191,-0.37528395,0.67980196,0.31321914,-0.33738221,-0.01472629,-0.80869650,0.21588575,-0.42161230,-0.64704530,0.35885478,0.27302428
5.02000000,-0.09711154,0.79063643,-0.27256584,-0.36937317,0.67489170,0.30811857,-0.34534203,-0.00431531,-0.80508460,0.21606813,-0.41813648,-0.65080333,0.35930282,0.26131966
5.04000000,-0.10755231,0.78943127,-0.27471289,-0.36348130,0.66999715,0.30303431,-0.35327637,0.00606235,-0.80148426,0.21624994,-0.41467178,-0.65454933,0.35974943,0.24965250
5.06000000,-0.11794289,0.78823191,-0.27684961,-0.35761775,0.66512613,0.29797449,-0.36117259,0.01639014,-0.79790122,0.21643086,-0.41122374,-0.65827733,0.36019390,0.23804142
5.08000000,-0.12826676,0.78704024,-0.27897262,-0.35179186,0.66028638,0.29294716,-0.36901810,0.02665162,-0.79434119,0.21661063,-0.40779783,-0.66198139,0.36063551,0.22650488
5.10000000,-0.13850754,0.78585817,-0.28107854,-0.34601285,0.65548559,0.28796030,-0.37680046,0.03683050,-0.79080981,0.21678895,-0.40439950,-0.66565563,0.36107356,0.21506121
5.12000000,-0.14864904,0.78468755,-0.28316404,-0.34028986,0.65073133,0.28302177,-0.38450739,0.04691071,-0.78731266,0.21696555,-0.40103411,-0.66929426,0.36150737,0.20372846
5.14000000,-0.15867534,0.78353023,-0.28522585,-0.33463189,0.64603108,0.27813935,-0.39212677,0.05687642,-0.78385524,0.21714013,-0.39770695,-0.67289156,0.36193625,0.19252445
5.16000000,-0.16857078,0.78238802,-0.28726076,-0.32904776,0.64139218,0.27332064,-0.39964670,0.06671206,-0.78044295,0.21731244,-0.39442322,-0.67644190,0.36235954,0.18146667
5.18000000,-0.17832004,0.78126268,-0.28926560,-0.32354612,0.63682180,0.26857313,-0.40705555,0.07640240,-0.77708106,0.21748220,-0.39118799,-0.67993980,0.36277657,0.17057224
5.20000000,-0.18790815,0.78015594,-0.29123730,-0.31813542,0.63232698,0.26390409,-0.41434192,0.08593256,-0.77377475,0.21764916,-0.38800625,-0.68337988,0.36318671,0.15985789
5.22000000,-0.19732054,0.77906948,-0.29317287,-0.31282388,0.62791452,0.25932061,-0.42149477,0.09528806,-0.77052902,0.21781305,-0.38488281,-0.68675691,0.36358933,0.14933990
5.24000000,-0.20654309,0.77800494,-0.29506940,-0.30761947,0.62359106,0.25482958,-0.42850335,0.10445488,-0.76734876,0.21797364,-0.38182237,-0.69006584,0.36398383,0.13903405
5.26000000,-0.21556217,0.77696388,-0.29692409,-0.30252988,0.61936299,0.25043763,-0.43535730,0.11341945,-0.76423867,0.21813069,-0.37882945,-0.69330176,0.36436963,0.12895557
5.28000000,-0.22436466,0.77594782,-0.29873424,-0.29756252,0.61523645,0.24615116,-0.44204666,0.12216874,-0.76120326,0.21828397,-0.37590840,-0.69645997,0.36474616,0.11911912
5.30000000,-0.23293802,0.77495822,-0.30049727,-0.29272446,0.61121733,0.24197626,-0.44856189,0.13069029,-0.75824687,0.21843325,-0.37306339,-0.69953597,0.36511289,0.10953871
5.32000000,-0.24127030,0.77399644,-0.30221072,-0.28802244,0.60731122,0.23791876,-0.45489391,0.13897221,-0.75537360,0.21857834,-0.37029838,-0.70252547,0.36546931,0.10022771
5.34000000,-0.24935020,0.77306379,-0.30387228,-0.28346285,0.60352343,0.23398415,-0.46103415,0.14700328,-0.75258737,0.21871904,-0.36761712,-0.70542443,0.36581493,0.09119873
5.36000000,-0.25716710,0.77216149,-0.30547975,-0.27905166,0.59985893,0.23017762,-0.46697452,0.15477294,-0.74989183,0.21885515,-0.36502313,-0.70822902,0.36614931,0.08246364
5.38000000,-0.26471112,0.77129070,-0.30703110,-0.27479447,0.59632236,0.22650397,-0.47270751,0.16227136,-0.74729039,0.21898651,-0.36251970,-0.71093571,0.36647201,0.07403348
5.40000000,-0.27197313,0.77045246,-0.30852447,-0.27069642,0.59291798,0.22296765,-0.47822620,0.16948949,-0.74478619,0.21911297,-0.36010985,-0.71354122,0.36678265,0.06591846
5.42000000,-0.27894482,0.76964773,-0.30995813,-0.26676221,0.58964971,0.21957271,-0.48352426,0.17641904,-0.74238211,0.21923436,-0.35779635,-0.71604256,0.36708086,0.05812786
5.44000000,-0.28561871,0.76887737,-0.31133055,-0.26299604,0.58652105,0.21632278,-0.48859601,0.18305259,-0.74008072,0.21935057,-0.35558166,-0.71843706,0.36736634,0.05067005
5.46000000,-0.29198821,0.76814215,-0.31264038,-0.25940164,0.58353507,0.21322107,-0.49343644,0.18938360,-0.73788429,0.21946148,-0.35346799,-0.72072235,0.36763880,0.04355236
5.48000000,-0.29804768,0.76744272,-0.31388645,-0.25598221,0.58069444,0.21027034,-0.49804127,0.19540645,-0.73579478,0.21956700,-0.35145719,-0.72289640,0.36789800,0.03678114
5.50000000,-0.30379241,0.76677961,-0.31506780,-0.25274038,0.57800136,0.20747288,-0.50240691,0.20111646,-0.73381379,0.21966703,-0.34955084,-0.72495753,0.36814374,0.03036162
5.52000000,-0.30921873,0.76615326,-0.31618367,-0.24967823,0.57545755,0.20483047,-0.50653059,0.20650998,-0.73194261,0.21976152,-0.34775016,-0.72690442,0.36837585,0.02429792
5.54000000,-0.31432399,0.76556397,-0.31723352,-0.24679726,0.57306424,0.20234440,-0.51041028,0.21158439,-0.73018213,0.21985041,-0.34605601,-0.72873611,0.36859423,0.01859298
5.56000000,-0.31910666,0.76501192,-0.31821703,-0.24409834,0.57082216,0.20001542,-0.51404481,0.21633815,-0.72853290,0.21993369,-0.34446891,-0.73045207,0.36879881,0.01324853
5.58000000,-0.32356630,0.76449715,-0.31913411,-0.24158170,0.56873152,0.19784375,-0.51743387,0.22077085,-0.72699506,0.22001135,-0.34298901,-0.73205212,0.36898958,0.00826504
5.60000000,-0.32770368,0.76401958,-0.31998492,-0.23924693,0.56679195,0.19582900,-0.52057802,0.22488322,-0.72556835,0.22008339,-0.34161605,-0.73353656,0.36916656,0.00364168
5.62000000,-0.33152074,0.76357898,-0.32076987,-0.23709291,0.56500254,0.19397024,-0.52347876,0.22867721,-0.72425209,0.22014986,-0.34034938,-0.73490607,0.36932984,-0.00062374
5.64000000,-0.33502070,0.76317499,-0.32148960,-0.23511783,0.56336179,0.19226589,-0.52613851,0.23215602,-0.72304518,0.22021080,-0.33918795,-0.73616180,0.36947955,-0.00453481
5.66000000,-0.33820804,0.76280708,-0.32214505,-0.23331917,0.56186759,0.19071378,-0.52856070,0.23532410,-0.72194607,0.22026630,-0.33813025,-0.73730538,0.36961589,-0.00809655
5.68000000,-0.34108861,0.76247458,-0.32273741,-0.23169363,0.56051720,0.18931105,-0.53074976,0.23818725,-0.72095275,0.22031646,-0.33717435,-0.73833888,0.36973911,-0.01131547
5.70000000,-0.34366958,0.76217666,-0.32326816,-0.23023715,0.55930726,0.18805422,-0.53271114,0.24075263,-0.72006274,0.22036140,-0.33631787,-0.73926490,0.36984951,-0.01419961
5.72000000,-0.34595958,0.76191233,-0.32373908,-0.22894488,0.55823373,0.18693908,-0.53445140,0.24302879,-0.71927307,0.22040128,-0.33555795,-0.74008652,0.36994747,-0.01675859
5.74000000,-0.34796865,0.76168043,-0.32415222,-0.22781113,0.55729189,0.18596074,-0.53597817,0.24502572,-0.71858027,0.22043626,-0.33489126,-0.74080734,0.37003341,-0.01900366
5.76000000,-0.34970835,0.76147962,-0.32450997,-0.22682940,0.55647633,0.18511357,-0.53730023,0.24675490,-0.71798037,0.22046655,-0.33431395,-0.74143152,0.37010782,-0.02094770
5.78000000,-0.35119175,0.76130839,-0.32481502,-0.22599229,0.55578093,0.18439121,-0.53842753,0.24822934,-0.71746884,0.22049239,-0.33382169,-0.74196375,0.37017128,-0.02260535
5.80000000,-0.35243351,0.76116506,-0.32507038,-0.22529155,0.55519880,0.18378652,-0.53937119,0.24946359,-0.71704064,0.22051401,-0.33340963,-0.74240927,0.37022439,-0.02399296
5.82000000,-0.35344988,0.76104774,-0.32527939,-0.22471800,0.55472233,0.18329158,-0.54014357,0.25047382,-0.71669015,0.22053171,-0.33307235,-0.74277393,0.37026787,-0.02512872
5.84000000,-0.35425879,0.76095437,-0.32544573,-0.22426152,0.55434312,0.18289768,-0.54075830,0.25127784,-0.71641121,0.22054579,-0.33280392,-0.74306416,0.37030247,-0.02603265
5.86000000,-0.35487984,0.76088268,-0.32557344,-0.22391105,0.55405198,0.18259525,-0.54123026,0.25189514,-0.71619705,0.22055661,-0.33259783,-0.74328698,0.37032904,-0.02672665
5.88000000,-0.35533438,0.76083021,-0.32566691,-0.22365455,0.55383890,0.18237391,-0.54157567,0.25234693,-0.71604031,0.22056452,-0.33244699,-0.74345006,0.37034848,-0.02723458
5.90000000,-0.35564550,0.76079430,-0.32573089,-0.22347898,0.55369304,0.18222240,-0.54181211,0.25265617,-0.71593303,0.22056994,-0.33234375,-0.74356169,0.37036179,-0.02758225
5.92000000,-0.35583815,0.76077206,-0.32577051,-0.22337026,0.55360273,0.18212859,-0.54195851,0.25284766,-0.71586659,0.22057329,-0.33227982,-0.74363081,0.37037003,-0.02779753
5.94000000,-0.35593911,0.76076041,-0.32579127,-0.22331330,0.55355540,0.18207943,-0.54203523,0.25294800,-0.71583178,0.22057505,-0.33224632,-0.74366703,0.37037435,-0.02791034
5.96000000,-0.35597703,0.76075603,-0.32579907,-0.22329189,0.55353762,0.18206096,-0.54206406,0.25298570,-0.71581870,0.22057571,-0.33223373,-0.74368064,0.37037597,-0.02795272
5.98000000,-0.35598255,0.76075540,-0.32580020,-0.22328878,0.55353504,0.18205827,-0.54206824,0.25299118,-0.71581680,0.22057581,-0.33223190,-0.74368262,0.37037621,-0.02795888
6.00000000,-0.35598255,0.76075540,-0.32580020,-0.22328878,0.55353504,0.18205827,-0.54206824,0.25299118,-0.71581680,0.22057581,-0.33223190,-0.74368262,0.37037621,-0.02795888
6.02000000,-0.35598255,0.76075540,-0.32580020,-0.22328878,0.55353504,0.18205827,-0.54206824,0.25299118,-0.71581680,0.22057581,-0.33223190,-0.74368262,0.37037621,-0.02795888
6.04000000,-0.35598255,0.76075540,-0.32580020,-0.22328878,0.55353504,0.18205827,-0.54206824,0.25299118,-0.71581680,0.22057581,-0.33223190,-0.74368262,0.37037621,-0.02795888
6.06000000,-0.35598255,0.76075540,-0.32580020,-0.22328878,0.55353504,0.18205827,-0.54206824,0.25299118,-0.71581680,0.22057581,-0.33223190,-0.74368262,0.37037621,-0.02795888
6.08000000,-0.35598255,0.76075540,-0.32580020,-0.22328878,0.55353504,0.18205827,-0.54206824,0.25299118,-0.71581680,0.22057581,-0.33223190,-0.74368262,0.37037621,-0.02795888
6.10000000,-0.35598255,0.76075540,-0.32580020,-0.22328878,0.55353504,0.18205827,-0.54206824,0.25299118,-0.71581680,0.22057581,-0.33223190,-0.74368262,0.37037621,-0.02795888
6.12000000,-0.35598255,0.76075540,-0.32580020,-0.22328878,0.55353504,0.18205827,-0.54206824,0.25299118,-0.71581680,0.22057581,-0.33223190,-0.74368262,0.37037621,-0.02795888
6.14000000,-0.35598255,0.76075540,-0.32580020,-0.22328878,0.55353504,0.18205827,-0.54206824,0.25299118,-0.71581680,0.22057581,-0.33223190,-0.74368262,0.37037621,-0.02795888
6.16000000,-0.35598255,0.76075540,-0.32580020,-0.22328878,0.55353504,0.18205827,-0.54206824,0.25299118,-0.71581680,0.22057581,-0.33223190,-0.74368262,0.37037621,-0.02795888
6.18000000,-0.35598255,0.76075540,-0.32580020,-0.22328878,0.55353504,0.18205827,-0.54206824,0.25299118,-0.71581680,0.22057581,-0.33223190,-0.74368262,0.37037621,-0.02795888
6.20000000,-0.35598255,0.76075540,-0.32580020,-0.22328878,0.55353504,0.18205827,-0.54206824,0.25299118,-0.71581680,0.22057581,-0.33223190,-0.74368262,0.37037621,-0.02795888
6.22000000,-0.35598255,0.76075540,-0.32580020,-0.22328878,0.55353504,0.18205827,-0.54206824,0.25299118,-0.71581680,0.22057581,-0.33223190,-0.74368262,0.37037621,-0.02795888
6.24000000,-0.35598255,0.76075540,-0.32580020,-0.22328878,0.55353504,0.18205827,-0.54206824,0.25299118,-0.71581680,0.22057581,-0.33223190,-0.74368262,0.37037621,-0.02795888
6.26000000,-0.35598255,0.76075540,-0.32580020,-0.22328878,0.55353504,0.18205827,-0.54206824,0.25299118,-0.71581680,0.22057581,-0.33223190,-0.74368262,0.37037621,-0.02795888
6.28000000,-0.35598255,0.76075540,-0.32580020,-0.22328878,0.55353504,0.18205827,-0.54206824,0.25299118,-0.71581680,0.22057581,-0.33223190,-0.74368262,0.37037621,-0.02795888
6.30000000,-0.35598255,0.76075540,-0.32580020,-0.22328878,0.55353504,0.18205827,-0.54206824,0.25299118,-0.71581680,0.22057581,-0.33223190,-0.74368262,0.37037621,-0.02795888
6.32000000,-0.35598255,0.76075540,-0.32580020,-0.22328878,0.55353504,0.18205827,-0.54206824,0.25299118,-0.71581680,0.22057581,-0.33223190,-0.74368262,0.37037621,-0.02795888
6.34000000,-0.35598255,0.76075540,-0.32580020,-0.22328878,0.55353504,0.18205827,-0.54206824,0.25299118,-0.71581680,0.22057581,-0.33223190,-0.74368262,0.37037621,-0.02795888
6.36000000,-0.35598255,0.76075540,-0.32580020,-0.22328878,0.55353504,0.18205827,-0.54206824,0.25299118,-0.71581680,0.22057581,-0.33223190,-0.74368262,0.37037621,-0.02795888
6.38000000,-0.35598255,0.76075540,-0.32580020,-0.22328878,0.55353504,0.18205827,-0.54206824,0.25299118,-0.71581680,0.22057581,-0.33223190,-0.74368262,0.37037621,-0.02795888
6.40000000,-0.35598255,0.76075540,-0.32580020,-0.22328878,0.55353504,0.18205827,-0.54206824,0.25299118,-0.71581680,0.22057581,-0.33223190,-0.74368262,0.37037621,-0.02795888
6.42000000,-0.35598255,0.76075540,-0.32580020,-0.22328878,0.55353504,0.18205827,-0.54206824,0.25299118,-0.71581680,0.22057581,-0.33223190,-0.74368262,0.37037621,-0.02795888
6.44000000,-0.35598255,0.76075540,-0.32580020,-0.22328878,0.55353504,0.18205827,-0.54206824,0.25299118,-0.71581680,0.22057581,-0.33223190,-0.74368262,0.37037621,-0.02795888
6.46000000,-0.35598255,0.76075540,-0.32580020,-0.22328878,0.55353504,0.18205827,-0.54206824,0.25299118,-0.71581680,0.22057581,-0.33223190,-0.74368262,0.37037621,-0.02795888
6.48000000,-0.35598255,0.76075540,-0.32580020,-0.22328878,0.55353504,0.18205827,-0.54206824,0.25299118,-0.71581680,0.22057581,-0.33223190,-0.74368262,0.37037621,-0.02795888
6.50000000,-0.35598255,0.76075540,-0.32580020,-0.22328878,0.55353504,0.18205827,-0.54206824,0.25299118,-0.71581680,0.22057581,-0.33223190,-0.74368262,0.37037621,-0.02795888
6.52000000,-0.35598255,0.76075540,-0.32580020,-0.22328878,0.55353504,0.18205827,-0.54206824,0.25299118,-0.71581680,0.22057581,-0.33223190,-0.74368262,0.37037621,-0.02795888
6.54000000,-0.35598255,0.76075540,-0.32580020,-0.22328878,0.55353504,0.18205827,-0.54206824,0.25299118,-0.71581680,0.22057581,-0.33223190,-0.74368262,0.37037621,-0.02795888
6.56000000,-0.35598255,0.76075540,-0.32580020,-0.22328878,0.55353504,0.18205827,-0.54206824,0.25299118,-0.71581680,0.22057581,-0.33223190,-0.74368262,0.37037621,-0.02795888
6.58000000,-0.35598255,0.76075540,-0.32580020,-0.22328878,0.55353504,0.18205827,-0.54206824,0.25299118,-0.71581680,0.22057581,-0.33223190,-0.74368262,0.37037621,-0.02795888
6.60000000,-0.35598255,0.76075540,-0.32580020,-0.22328878,0.55353504,0.18205827,-0.54206824,0.25299118,-0.71581680,0.22057581,-0.33223190,-0.74368262,0.37037621,-0.02795888
6.62000000,-0.35598255,0.76075540,-0.32580020,-0.22328878,0.55353504,0.18205827,-0.54206824,0.25299118,-0.71581680,0.22057581,-0.33223190,-0.74368262,0.37037621,-0.02795888
6.64000000,-0.35598255,0.76075540,-0.32580020,-0.22328878,0.55353504,0.18205827,-0.54206824,0.25299118,-0.71581680,0.22057581,-0.33223190,-0.74368262,0.37037621,-0.02795888
6.66000000,-0.35598255,0.76075540,-0.32580020,-0.22328878,0.55353504,0.18205827,-0.54206824,0.25299118,-0.71581680,0.22057581,-0.33223190,-0.74368262,0.37037621,-0.02795888
6.68000000,-0.35598255,0.76075540,-0.32580020,-0.22328878,0.55353504,0.18205827,-0.54206824,0.25299118,-0.71581680,0.22057581,-0.33223190,-0.74368262,0.37037621,-0.02795888
6.70000000,-0.35598255,0.76075540,-0.32580020,-0.22328878,0.55353504,0.18205827,-0.54206824,0.25299118,-0.71581680,0.22057581,-0.33223190,-0.74368262,0.37037621,-0.02795888
6.72000000,-0.35598255,0.76075540,-0.32580020,-0.22328878,0.55353504,0.18205827,-0.54206824,0.25299118,-0.71581680,0.22057581,-0.33223190,-0.74368262,0.37037621,-0.02795888
6.74000000,-0.35598255,0.76075540,-0.32580020,-0.22328878,0.55353504,0.18205827,-0.54206824,0.25299118,-0.71581680,0.22057581,-0.33223190,-0.74368262,0.37037621,-0.02795888
6.76000000,-0.35598255,0.76075540,-0.32580020,-0.22328878,0.55353504,0.18205827,-0.54206824,0.25299118,-0.71581680,0.22057581,-0.33223190,-0.74368262,0.37037621,-0.02795888
6.78000000,-0.35598255,0.76075540,-0.32580020,-0.22328878,0.55353504,0.18205827,-0.54206824,0.25299118,-0.71581680,0.22057581,-0.33223190,-0.74368262,0.37037621,-0.02795888
6.80000000,-0.35598255,0.76075540,-0.32580020,-0.22328878,0.55353504,0.18205827,-0.54206824,0.25299118,-0.71581680,0.22057581,-0.33223190,-0.74368262,0.37037621,-0.02795888
6.82000000,-0.35598255,0.76075540,-0.32580020,-0.22328878,0.55353504,0.18205827,-0.54206824,0.25299118,-0.71581680,0.22057581,-0.33223190,-0.74368262,0.37037621,-0.02795888
6.84000000,-0.35598255,0.76075540,-0.32580020,-0.22328878,0.55353504,0.18205827,-0.54206824,0.25299118,-0.71581680,0.22057581,-0.33223190,-0.74368262,0.37037621,-0.02795888
6.86000000,-0.35598255,0.76075540,-0.32580020,-0.22328878,0.55353504,0.18205827,-0.54206824,0.25299118,-0.71581680,0.22057581,-0.33223190,-0.74368262,0.37037621,-0.02795888
6.88000000,-0.35598255,0.76075540,-0.32580020,-0.22328878,0.55353504,0.18205827,-0.54206824,0.25299118,-0.71581680,0.22057581,-0.33223190,-0.74368262,0.37037621,-0.02795888
6.90000000,-0.35598255,0.76075540,-0.32580020,-0.22328878,0.55353504,0.18205827,-0.54206824,0.25299118,-0.71581680,0.22057581,-0.33223190,-0.74368262,0.37037621,-0.02795888
6.92000000,-0.35598255,0.76075540,-0.32580020,-0.22328878,0.55353504,0.18205827,-0.54206824,0.25299118,-0.71581680,0.22057581,-0.33223190,-0.74368262,0.37037621,-0.02795888
6.94000000,-0.35598255,0.76075540,-0.32580020,-0.22328878,0.55353504,0.18205827,-0.54206824,0.25299118,-0.71581680,0.22057581,-0.33223190,-0.74368262,0.37037621,-0.02795888
6.96000000,-0.35598255,0.76075540,-0.32580020,-0.22328878,0.55353504,0.18205827,-0.54206824,0.25299118,-0.71581680,0.22057581,-0.33223190,-0.74368262,0.37037621,-0.02795888
6.98000000,-0.35598255,0.76075540,-0.32580020,-0.22328878,0.55353504,0.18205827,-0.54206824,0.25299118,-0.71581680,0.22057581,-0.33223190,-0.74368262,0.37037621,-0.02795888
7.00000000,-0.35598255,0.76075540,-0.32580020,-0.22328878,0.55353504,0.18205827,-0.54206824,0.25299118,-0.71581680,0.22057581,-0.33223190,-0.74368262,0.37037621,-0.02795888
7.02000000,-0.35598255,0.76075540,-0.32580020,-0.22328878,0.55353504,0.18205827,-0.54206824,0.25299118,-0.71581680,0.22057581,-0.33223190,-0.74368262,0.37037621,-0.02795888
7.04000000,-0.35598255,0.76075540,-0.32580020,-0.22328878,0.55353504,0.18205827,-0.54206824,0.25299118,-0.71581680,0.22057581,-0.33223190,-0.74368262,0.37037621,-0.02795888
7.06000000,-0.35598255,0.76075540,-0.32580020,-0.22328878,0.55353504,0.18205827,-0.54206824,0.25299118,-0.71581680,0.22057581,-0.33223190,-0.74368262,0.37037621,-0.02795888
7.08000000,-0.35598255,0.76075540,-0.32580020,-0.22328878,0.55353504,0.18205827,-0.54206824,0.25299118,-0.71581680,0.22057581,-0.33223190,-0.74368262,0.37037621,-0.02795888
7.10000000,-0.35598255,0.76075540,-0.32580020,-0.22328878,0.55353504,0.18205827,-0.54206824,0.25299118,-0.71581680,0.22057581,-0.33223190,-0.74368262,0.37037621,-0.02795888
7.12000000,-0.35598255,0.76075540,-0.32580020,-0.22328878,0.55353504,0.18205827,-0.54206824,0.25299118,-0.71581680,0.22057581,-0.33223190,-0.74368262,0.37037621,-0.02795888
7.14000000,-0.35598255,0.76075540,-0.32580020,-0.22328878,0.55353504,0.18205827,-0.54206824,0.25299118,-0.71581680,0.22057581,-0.33223190,-0.74368262,0.37037621,-0.02795888
7.16000000,-0.35598255,0.76075540,-0.32580020,-0.22328878,0.55353504,0.18205827,-0.54206824,0.25299118,-0.71581680,0.22057581,-0.33223190,-0.74368262,0.37037621,-0.02795888
7.18000000,-0.35598255,0.76075540,-0.32580020,-0.22328878,0.55353504,0.18205827,-0.54206824,0.25299118,-0.71581680,0.22057581,-0.33223190,-0.74368262,0.37037621,-0.02795888
7.20000000,-0.35598255,0.76075540,-0.32580020,-0.22328878,0.55353504,0.18205827,-0.54206824,0.25299118,-0.71581680,0.22057581,-0.33223190,-0.74368262,0.37037621,-0.02795888
7.22000000,-0.35598255,0.76075540,-0.32580020,-0.22328878,0.55353504,0.18205827,-0.54206824,0.25299118,-0.71581680,0.22057581,-0.33223190,-0.74368262,0.37037621,-0.02795888
7.24000000,-0.35598255,0.76075540,-0.32580020,-0.22328878,0.55353504,0.18205827,-0.54206824,0.25299118,-0.71581680,0.22057581,-0.33223190,-0.74368262,0.37037621,-0.02795888
7.26000000,-0.35598255,0.76075540,-0.32580020,-0.22328878,0.55353504,0.18205827,-0.54206824,0.25299118,-0.71581680,0.22057581,-0.33223190,-0.74368262,0.37037621,-0.02795888
7.28000000,-0.35598255,0.76075540,-0.32580020,-0.22328878,0.55353504,0.18205827,-0.54206824,0.25299118,-0.71581680,0.22057581,-0.33223190,-0.74368262,0.37037621,-0.02795888
7.30000000,-0.35598255,0.76075540,-0.32580020,-0.22328878,0.55353504,0.18205827,-0.54206824,0.25299118,-0.71581680,0.22057581,-0.33223190,-0.74368262,0.37037621,-0.02795888
7.32000000,-0.35598255,0.76075540,-0.32580020,-0.22328878,0.55353504,0.18205827,-0.54206824,0.25299118,-0.71581680,0.22057581,-0.33223190,-0.74368262,0.37037621,-0.02795888
7.34000000,-0.35598255,0.76075540,-0.32580020,-0.22328878,0.55353504,0.18205827,-0.54206824,0.25299118,-0.71581680,0.22057581,-0.33223190,-0.74368262,0.37037621,-0.02795888
7.36000000,-0.35598255,0.76075540,-0.32580020,-0.22328878,0.55353504,0.18205827,-0.54206824,0.25299118,-0.71581680,0.22057581,-0.33223190,-0.74368262,0.37037621,-0.02795888
7.38000000,-0.35598255,0.76075540,-0.32580020,-0.22328878,0.55353504,0.18205827,-0.54206824,0.25299118,-0.71581680,0.22057581,-0.33223190,-0.74368262,0.37037621,-0.02795888
7.40000000,-0.35598255,0.76075540,-0.32580020,-0.22328878,0.55353504,0.18205827,-0.54206824,0.25299118,-0.71581680,0.22057581,-0.33223190,-0.74368262,0.37037621,-0.02795888
7.42000000,-0.35598255,0.76075540,-0.32580020,-0.22328878,0.55353504,0.18205827,-0.54206824,0.25299118,-0.71581680,0.22057581,-0.33223190,-0.74368262,0.37037621,-0.02795888
7.44000000,-0.35598255,0.76075540,-0.32580020,-0.22328878,0.55353504,0.18205827,-0.54206824,0.25299118,-0.71581680,0.22057581,-0.33223190,-0.74368262,0.37037621,-0.02795888
7.46000000,-0.35598255,0.76075540,-0.32580020,-0.22328878,0.55353504,0.18205827,-0.54206824,0.25299118,-0.71581680,0.22057581,-0.33223190,-0.74368262,0.37037621,-0.02795888
7.48000000,-0.35598255,0.76075540,-0.32580020,-0.22328878,0.55353504,0.18205827,-0.54206824,0.25299118,-0.71581680,0.22057581,-0.33223190,-0.74368262,0.37037621,-0.02795888
7.50000000,-0.35598255,0.76075540,-0.32580020,-0.22328878,0.55353504,0.18205827,-0.54206824,0.25299118,-0.71581680,0.22057581,-0.33223190,-0.74368262,0.37037621,-0.02795888
7.52000000,-0.35598255,0.76075540,-0.32580020,-0.22328878,0.55353504,0.18205827,-0.54206824,0.25299118,-0.71581680,0.22057581,-0.33223190,-0.74368262,0.37037621,-0.02795888
7.54000000,-0.35598255,0.76075540,-0.32580020,-0.22328878,0.55353504,0.18205827,-0.54206824,0.25299118,-0.71581680,0.22057581,-0.33223190,-0.74368262,0.37037621,-0.02795888
7.56000000,-0.35598255,0.76075540,-0.32580020,-0.22328878,0.55353504,0.18205827,-0.54206824,0.25299118,-0.71581680,0.22057581,-0.33223190,-0.74368262,0.37037621,-0.02795888
7.58000000,-0.35598255,0.76075540,-0.32580020,-0.22328878,0.55353504,0.18205827,-0.54206824,0.25299118,-0.71581680,0.22057581,-0.33223190,-0.74368262,0.37037621,-0.02795888
7.60000000,-0.35598255,0.76075540,-0.32580020,-0.22328878,0.55353504,0.18205827,-0.54206824,0.25299118,-0.71581680,0.22057581,-0.33223190,-0.74368262,0.37037621,-0.02795888
7.62000000,-0.35598255,0.76075540,-0.32580020,-0.22328878,0.55353504,0.18205827,-0.54206824,0.25299118,-0.71581680,0.22057581,-0.33223190,-0.74368262,0.37037621,-0.02795888
7.64000000,-0.35598255,0.76075540,-0.32580020,-0.22328878,0.55353504,0.18205827,-0.54206824,0.25299118,-0.71581680,0.22057581,-0.33223190,-0.74368262,0.37037621,-0.02795888
7.66000000,-0.35598255,0.76075540,-0.32580020,-0.22328878,0.55353504,0.18205827,-0.54206824,0.25299118,-0.71581680,0.22057581,-0.33223190,-0.74368262,0.37037621,-0.02795888
7.68000000,-0.35598255,0.76075540,-0.32580020,-0.22328878,0.55353504,0.18205827,-0.54206824,0.25299118,-0.71581680,0.22057581,-0.33223190,-0.74368262,0.37037621,-0.02795888
7.70000000,-0.35598255,0.76075540,-0.32580020,-0.22328878,0.55353504,0.18205827,-0.54206824,0.25299118,-0.71581680,0.22057581,-0.33223190,-0.74368262,0.37037621,-0.02795888
7.72000000,-0.35598255,0.76075540,-0.32580020,-0.22328878,0.55353504,0.18205827,-0.54206824,0.25299118,-0.71581680,0.22057581,-0.33223190,-0.74368262,0.37037621,-0.02795888
7.74000000,-0.35598255,0.76075540,-0.32580020,-0.22328878,0.55353504,0.18205827,-0.54206824,0.25299118,-0.71581680,0.22057581,-0.33223190,-0.74368262,0.37037621,-0.02795888
7.76000000,-0.35598255,0.76075540,-0.32580020,-0.22328878,0.55353504,0.18205827,-0.54206824,0.25299118,-0.71581680,0.22057581,-0.33223190,-0.74368262,0.37037621,-0.02795888
7.78000000,-0.35598255,0.76075540,-0.32580020,-0.22328878,0.55353504,0.18205827,-0.54206824,0.25299118,-0.71581680,0.22057581,-0.33223190,-0.74368262,0.37037621,-0.02795888
7.80000000,-0.35598255,0.76075540,-0.32580020,-0.22328878,0.55353504,0.18205827,-0.54206824,0.25299118,-0.71581680,0.22057581,-0.33223190,-0.74368262,0.37037621,-0.02795888
7.82000000,-0.35598255,0.76075540,-0.32580020,-0.22328878,0.55353504,0.18205827,-0.54206824,0.25299118,-0.71581680,0.22057581,-0.33223190,-0.74368262,0.37037621,-0.02795888
7.84000000,-0.35598255,0.76075540,-0.32580020,-0.22328878,0.55353504,0.18205827,-0.54206824,0.25299118,-0.71581680,0.22057581,-0.33223190,-0.74368262,0.37037621,-0.02795888
7.86000000,-0.35598255,0.76075540,-0.32580020,-0.22328878,0.55353504,0.18205827,-0.54206824,0.25299118,-0.71581680,0.22057581,-0.33223190,-0.74368262,0.37037621,-0.02795888
7.88000000,-0.35598255,0.76075540,-0.32580020,-0.22328878,0.55353504,0.18205827,-0.54206824,0.25299118,-0.71581680,0.22057581,-0.33223190,-0.74368262,0.37037621,-0.02795888
7.90000000,-0.35598255,0.76075540,-0.32580020,-0.22328878,0.55353504,0.18205827,-0.54206824,0.25299118,-0.71581680,0.22057581,-0.33223190,-0.74368262,0.37037621,-0.02795888
7.92000000,-0.35598255,0.76075540,-0.32580020,-0.22328878,0.55353504,0.18205827,-0.54206824,0.25299118,-0.71581680,0.22057581,-0.33223190,-0.74368262,0.37037621,-0.02795888
7.94000000,-0.35598255,0.76075540,-0.32580020,-0.22328878,0.55353504,0.18205827,-0.54206824,0.25299118,-0.71581680,0.22057581,-0.33223190,-0.74368262,0.37037621,-0.02795888
7.96000000,-0.35598255,0.76075540,-0.32580020,-0.22328878,0.55353504,0.18205827,-0.54206824,0.25299118,-0.71581680,0.22057581,-0.33223190,-0.74368262,0.37037621,-0.02795888
7.98000000,-0.35598255,0.76075540,-0.32580020,-0.22328878,0.55353504,0.18205827,-0.54206824,0.25299118,-0.71581680,0.22057581,-0.33223190,-0.74368262,0.37037621,-0.02795888
8.00000000,-0.35598255,0.76075540,-0.32580020,-0.22328878,0.55353504,0.18205827,-0.54206824,0.25299118,-0.71581680,0.22057581,-0.33223190,-0.74368262,0.37037621,-0.02795888
8.02000000,-0.35598255,0.76075540,-0.32580020,-0.22328878,0.55353504,0.18205827,-0.54206824,0.25299118,-0.71581680,0.22057581,-0.33223190,-0.74368262,0.37037621,-0.02795888
8.04000000,-0.35598255,0.76075540,-0.32580020,-0.22328878,0.55353504,0.18205827,-0.54206824,0.25299118,-0.71581680,0.22057581,-0.33223190,-0.74368262,0.37037621,-0.02795888
8.06000000,-0.35598255,0.76075540,-0.32580020,-0.22328878,0.55353504,0.18205827,-0.54206824,0.25299118,-0.71581680,0.22057581,-0.33223190,-0.74368262,0.37037621,-0.02795888
8.08000000,-0.35598255,0.76075540,-0.32580020,-0.22328878,0.55353504,0.18205827,-0.54206824,0.25299118,-0.71581680,0.22057581,-0.33223190,-0.74368262,0.37037621,-0.02795888
8.10000000,-0.35598255,0.76075540,-0.32580020,-0.22328878,0.55353504,0.18205827,-0.54206824,0.25299118,-0.71581680,0.22057581,-0.33223190,-0.74368262,0.37037621,-0.02795888
8.12000000,-0.35598255,0.76075540,-0.32580020,-0.22328878,0.55353504,0.18205827,-0.54206824,0.25299118,-0.71581680,0.22057581,-0.33223190,-0.74368262,0.37037621,-0.02795888
8.14000000,-0.35598255,0.76075540,-0.32580020,-0.22328878,0.55353504,0.18205827,-0.54206824,0.25299118,-0.71581680,0.22057581,-0.33223190,-0.74368262,0.37037621,-0.02795888
8.16000000,-0.35598255,0.76075540,-0.32580020,-0.22328878,0.55353504,0.18205827,-0.54206824,0.25299118,-0.71581680,0.22057581,-0.33223190,-0.74368262,0.37037621,-0.02795888
8.18000000,-0.35598255,0.76075540,-0.32580020,-0.22328878,0.55353504,0.18205827,-0.54206824,0.25299118,-0.71581680,0.22057581,-0.33223190,-0.74368262,0.37037621,-0.02795888
8.20000000,-0.35598255,0.76075540,-0.32580020,-0.22328878,0.55353504,0.18205827,-0.54206824,0.25299118,-0.71581680,0.22057581,-0.33223190,-0.74368262,0.37037621,-0.02795888
8.22000000,-0.35598255,0.76075540,-0.32580020,-0.22328878,0.55353504,0.18205827,-0.54206824,0.25299118,-0.71581680,0.22057581,-0.33223190,-0.74368262,0.37037621,-0.02795888
8.24000000,-0.35598255,0.76075540,-0.32580020,-0.22328878,0.55353504,0.18205827,-0.54206824,0.25299118,-0.71581680,0.22057581,-0.33223190,-0.74368262,0.37037621,-0.02795888
8.26000000,-0.35598255,0.76075540,-0.32580020,-0.22328878,0.55353504,0.18205827,-0.54206824,0.25299118,-0.71581680,0.22057581,-0.33223190,-0.74368262,0.37037621,-0.02795888
8.28000000,-0.35598255,0.76075540,-0.32580020,-0.22328878,0.55353504,0.18205827,-0.54206824,0.25299118,-0.71581680,0.22057581,-0.33223190,-0.74368262,0.37037621,-0.02795888
8.30000000,-0.35598255,0.76075540,-0.32580020,-0.22328878,0.55353504,0.18205827,-0.54206824,0.25299118,-0.71581680,0.22057581,-0.33223190,-0.74368262,0.37037621,-0.02795888
8.32000000,-0.35598255,0.76075540,-0.32580020,-0.22328878,0.55353504,0.18205827,-0.54206824,0.25299118,-0.71581680,0.22057581,-0.33223190,-0.74368262,0.37037621,-0.02795888
8.34000000,-0.35598255,0.76075540,-0.32580020,-0.22328878,0.55353504,0.18205827,-0.54206824,0.25299118,-0.71581680,0.22057581,-0.33223190,-0.74368262,0.37037621,-0.02795888
8.36000000,-0.35598255,0.76075540,-0.32580020,-0.22328878,0.55353504,0.18205827,-0.54206824,0.25299118,-0.71581680,0.22057581,-0.33223190,-0.74368262,0.37037621,-0.02795888
8.38000000,-0.35598255,0.76075540,-0.32580020,-0.22328878,0.55353504,0.18205827,-0.54206824,0.25299118,-0.71581680,0.22057581,-0.33223190,-0.74368262,0.37037621,-0.02795888
8.40000000,-0.35598255,0.76075540,-0.32580020,-0.22328878,0.55353504,0.18205827,-0.54206824,0.25299118,-0.71581680,0.22057581,-0.33223190,-0.74368262,0.37037621,-0.02795888
8.42000000,-0.35598255,0.76075540,-0.32580020,-0.22328878,0.55353504,0.18205827,-0.54206824,0.25299118,-0.71581680,0.22057581,-0.33223190,-0.74368262,0.37037621,-0.02795888
8.44000000,-0.35598255,0.76075540,-0.32580020,-0.22328878,0.55353504,0.18205827,-0.54206824,0.25299118,-0.71581680,0.22057581,-0.33223190,-0.74368262,0.37037621,-0.02795888
8.46000000,-0.35598255,0.76075540,-0.32580020,-0.22328878,0.55353504,0.18205827,-0.54206824,0.25299118,-0.71581680,0.22057581,-0.33223190,-0.74368262,0.37037621,-0.02795888
8.48000000,-0.35598255,0.76075540,-0.32580020,-0.22328878,0.55353504,0.18205827,-0.54206824,0.25299118,-0.71581680,0.22057581,-0.33223190,-0.74368262,0.37037621,-0.02795888
8.50000000,-0.35598255,0.76075540,-0.32580020,-0.22328878,0.55353504,0.18205827,-0.54206824,0.25299118,-0.71581680,0.22057581,-0.33223190,-0.74368262,0.37037621,-0.02795888
8.52000000,-0.35598255,0.76075540,-0.32580020,-0.22328878,0.55353504,0.18205827,-0.54206824,0.25299118,-0.71581680,0.22057581,-0.33223190,-0.74368262,0.37037621,-0.02795888
8.54000000,-0.35598255,0.76075540,-0.32580020,-0.22328878,0.55353504,0.18205827,-0.54206824,0.25299118,-0.71581680,0.22057581,-0.33223190,-0.74368262,0.37037621,-0.02795888
8.56000000,-0.35598255,0.76075540,-0.32580020,-0.22328878,0.55353504,0.18205827,-0.54206824,0.25299118,-0.71581680,0.22057581,-0.33223190,-0.74368262,0.37037621,-0.02795888
8.58000000,-0.35598255,0.76075540,-0.32580020,-0.22328878,0.55353504,0.18205827,-0.54206824,0.25299118,-0.71581680,0.22057581,-0.33223190,-0.74368262,0.37037621,-0.02795888
8.60000000,-0.35598255,0.76075540,-0.32580020,-0.22328878,0.55353504,0.18205827,-0.54206824,0.25299118,-0.71581680,0.22057581,-0.33223190,-0.74368262,0.37037621,-0.02795888
8.62000000,-0.35598255,0.76075540,-0.32580020,-0.22328878,0.55353504,0.18205827,-0.54206824,0.25299118,-0.71581680,0.22057581,-0.33223190,-0.74368262,0.37037621,-0.02795888
8.64000000,-0.35598255,0.76075540,-0.32580020,-0.22328878,0.55353504,0.18205827,-0.54206824,0.25299118,-0.71581680,0.22057581,-0.33223190,-0.74368262,0.37037621,-0.02795888
8.66000000,-0.35598255,0.76075540,-0.32580020,-0.22328878,0.55353504,0.18205827,-0.54206824,0.25299118,-0.71581680,0.22057581,-0.33223190,-0.74368262,0.37037621,-0.02795888
8.68000000,-0.35598255,0.76075540,-0.32580020,-0.22328878,0.55353504,0.18205827,-0.54206824,0.25299118,-0.71581680,0.22057581,-0.33223190,-0.74368262,0.37037621,-0.02795888
8.70000000,-0.35598255,0.76075540,-0.32580020,-0.22328878,0.55353504,0.18205827,-0.54206824,0.25299118,-0.71581680,0.22057581,-0.33223190,-0.74368262,0.37037621,-0.02795888
8.72000000,-0.35598255,0.76075540,-0.32580020,-0.22328878,0.55353504,0.18205827,-0.54206824,0.25299118,-0.71581680,0.22057581,-0.33223190,-0.74368262,0.37037621,-0.02795888
8.74000000,-0.35598255,0.76075540,-0.32580020,-0.22328878,0.55353504,0.18205827,-0.54206824,0.25299118,-0.71581680,0.22057581,-0.33223190,-0.74368262,0.37037621,-0.02795888
8.76000000,-0.35598255,0.76075540,-0.32580020,-0.22328878,0.55353504,0.18205827,-0.54206824,0.25299118,-0.71581680,0.22057581,-0.33223190,-0.74368262,0.37037621,-0.02795888
8.78000000,-0.35598255,0.76075540,-0.32580020,-0.22328878,0.55353504,0.18205827,-0.54206824,0.25299118,-0.71581680,0.22057581,-0.33223190,-0.74368262,0.37037621,-0.02795888
8.80000000,-0.35598255,0.76075540,-0.32580020,-0.22328878,0.55353504,0.18205827,-0.54206824,0.25299118,-0.71581680,0.22057581,-0.33223190,-0.74368262,0.37037621,-0.02795888
8.82000000,-0.35598255,0.76075540,-0.32580020,-0.22328878,0.55353504,0.18205827,-0.54206824,0.25299118,-0.71581680,0.22057581,-0.33223190,-0.74368262,0.37037621,-0.02795888
8.84000000,-0.35598255,0.76075540,-0.32580020,-0.22328878,0.55353504,0.18205827,-0.54206824,0.25299118,-0.71581680,0.22057581,-0.33223190,-0.74368262,0.37037621,-0.02795888
8.86000000,-0.35598255,0.76075540,-0.32580020,-0.22328878,0.55353504,0.18205827,-0.54206824,0.25299118,-0.71581680,0.22057581,-0.33223190,-0.74368262,0.37037621,-0.02795888
8.88000000,-0.35598255,0.76075540,-0.32580020,-0.22328878,0.55353504,0.18205827,-0.54206824,0.25299118,-0.71581680,0.22057581,-0.33223190,-0.74368262,0.37037621,-0.02795888
8.90000000,-0.35598255,0.76075540,-0.32580020,-0.22328878,0.55353504,0.18205827,-0.54206824,0.25299118,-0.71581680,0.22057581,-0.33223190,-0.74368262,0.37037621,-0.02795888
8.92000000,-0.35598255,0.76075540,-0.32580020,-0.22328878,0.55353504,0.18205827,-0.54206824,0.25299118,-0.71581680,0.22057581,-0.33223190,-0.74368262,0.37037621,-0.02795888
8.94000000,-0.35598255,0.76075540,-0.32580020,-0.22328878,0.55353504,0.18205827,-0.54206824,0.25299118,-0.71581680,0.22057581,-0.33223190,-0.74368262,0.37037621,-0.02795888
8.96000000,-0.35598255,0.76075540,-0.32580020,-0.22328878,0.55353504,0.18205827,-0.54206824,0.25299118,-0.71581680,0.22057581,-0.33223190,-0.74368262,0.37037621,-0.02795888
8.98000000,-0.35598255,0.76075540,-0.32580020,-0.22328878,0.55353504,0.18205827,-0.54206824,0.25299118,-0.71581680,0.22057581,-0.33223190,-0.74368262,0.37037621,-0.02795888
9.00000000,-0.35598255,0.76075540,-0.32580020,-0.22328878,0.55353504,0.18205827,-0.54206824,0.25299118,-0.71581680,0.22057581,-0.33223190,-0.74368262,0.37037621,-0.02795888
9.02000000,-0.35598255,0.76075540,-0.32580020,-0.22328878,0.55353504,0.18205827,-0.54206824,0.25299118,-0.71581680,0.22057581,-0.33223190,-0.74368262,0.37037621,-0.02795888
9.04000000,-0.35598255,0.76075540,-0.32580020,-0.22328878,0.55353504,0.18205827,-0.54206824,0.25299118,-0.71581680,0.22057581,-0.33223190,-0.74368262,0.37037621,-0.02795888
9.06000000,-0.35598255,0.76075540,-0.32580020,-0.22328878,0.55353504,0.18205827,-0.54206824,0.25299118,-0.71581680,0.22057581,-0.33223190,-0.74368262,0.37037621,-0.02795888
9.08000000,-0.35598255,0.76075540,-0.32580020,-0.22328878,0.55353504,0.18205827,-0.54206824,0.25299118,-0.71581680,0.22057581,-0.33223190,-0.74368262,0.37037621,-0.02795888
9.10000000,-0.35598255,0.76075540,-0.32580020,-0.22328878,0.55353504,0.18205827,-0.54206824,0.25299118,-0.71581680,0.22057581,-0.33223190,-0.74368262,0.37037621,-0.02795888
9.12000000,-0.35598255,0.76075540,-0.32580020,-0.22328878,0.55353504,0.18205827,-0.54206824,0.25299118,-0.71581680,0.22057581,-0.33223190,-0.74368262,0.37037621,-0.02795888
9.14000000,-0.35598255,0.76075540,-0.32580020,-0.22328878,0.55353504,0.18205827,-0.54206824,0.25299118,-0.71581680,0.22057581,-0.33223190,-0.74368262,0.37037621,-0.02795888
9.16000000,-0.35598255,0.76075540,-0.32580020,-0.22328878,0.55353504,0.18205827,-0.54206824,0.25299118,-0.71581680,0.22057581,-0.33223190,-0.74368262,0.37037621,-0.02795888
9.18000000,-0.35598255,0.76075540,-0.32580020,-0.22328878,0.55353504,0.18205827,-0.54206824,0.25299118,-0.71581680,0.22057581,-0.33223190,-0.74368262,0.37037621,-0.02795888
9.20000000,-0.35598255,0.76075540,-0.32580020,-0.22328878,0.55353504,0.18205827,-0.54206824,0.25299118,-0.71581680,0.22057581,-0.33223190,-0.74368262,0.37037621,-0.02795888
9.22000000,-0.35598255,0.76075540,-0.32580020,-0.22328878,0.55353504,0.18205827,-0.54206824,0.25299118,-0.71581680,0.22057581,-0.33223190,-0.74368262,0.37037621,-0.02795888
9.24000000,-0.35598255,0.76075540,-0.32580020,-0.22328878,0.55353504,0.18205827,-0.54206824,0.25299118,-0.71581680,0.22057581,-0.33223190,-0.74368262,0.37037621,-0.02795888
9.26000000,-0.35598255,0.76075540,-0.32580020,-0.22328878,0.55353504,0.18205827,-0.54206824,0.25299118,-0.71581680,0.22057581,-0.33223190,-0.74368262,0.37037621,-0.02795888
9.28000000,-0.35598255,0.76075540,-0.32580020,-0.22328878,0.55353504,0.18205827,-0.54206824,0.25299118,-0.71581680,0.22057581,-0.33223190,-0.74368262,0.37037621,-0.02795888
9.30000000,-0.35598255,0.76075540,-0.32580020,-0.22328878,0.55353504,0.18205827,-0.54206824,0.25299118,-0.71581680,0.22057581,-0.33223190,-0.74368262,0.37037621,-0.02795888
9.32000000,-0.35598255,0.76075540,-0.32580020,-0.22328878,0.55353504,0.18205827,-0.54206824,0.25299118,-0.71581680,0.22057581,-0.33223190,-0.74368262,0.37037621,-0.02795888
9.34000000,-0.35598255,0.76075540,-0.32580020,-0.22328878,0.55353504,0.18205827,-0.54206824,0.25299118,-0.71581680,0.22057581,-0.33223190,-0.74368262,0.37037621,-0.02795888
9.36000000,-0.35598255,0.76075540,-0.32580020,-0.22328878,0.55353504,0.18205827,-0.54206824,0.25299118,-0.71581680,0.22057581,-0.33223190,-0.74368262,0.37037621,-0.02795888
9.38000000,-0.35598255,0.76075540,-0.32580020,-0.22328878,0.55353504,0.18205827,-0.54206824,0.25299118,-0.71581680,0.22057581,-0.33223190,-0.74368262,0.37037621,-0.02795888
9.40000000,-0.35598255,0.76075540,-0.32580020,-0.22328878,0.55353504,0.18205827,-0.54206824,0.25299118,-0.71581680,0.22057581,-0.33223190,-0.74368262,0.37037621,-0.02795888
9.42000000,-0.35598255,0.76075540,-0.32580020,-0.22328878,0.55353504,0.18205827,-0.54206824,0.25299118,-0.71581680,0.22057581,-0.33223190,-0.74368262,0.37037621,-0.02795888
9.44000000,-0.35598255,0.76075540,-0.32580020,-0.22328878,0.55353504,0.18205827,-0.54206824,0.25299118,-0.71581680,0.22057581,-0.33223190,-0.74368262,0.37037621,-0.02795888
9.46000000,-0.35598255,0.76075540,-0.32580020,-0.22328878,0.55353504,0.18205827,-0.54206824,0.25299118,-0.71581680,0.22057581,-0.33223190,-0.74368262,0.37037621,-0.02795888
9.48000000,-0.35598255,0.76075540,-0.32580020,-0.22328878,0.55353504,0.18205827,-0.54206824,0.25299118,-0.71581680,0.22057581,-0.33223190,-0.74368262,0.37037621,-0.02795888
9.50000000,-0.35598255,0.76075540,-0.32580020,-0.22328878,0.55353504,0.18205827,-0.54206824,0.25299118,-0.71581680,0.22057581,-0.33223190,-0.74368262,0.37037621,-0.02795888
9.52000000,-0.35598255,0.76075540,-0.32580020,-0.22328878,0.55353504,0.18205827,-0.54206824,0.25299118,-0.71581680,0.22057581,-0.33223190,-0.74368262,0.37037621,-0.02795888
9.54000000,-0.35598255,0.76075540,-0.32580020,-0.22328878,0.55353504,0.18205827,-0.54206824,0.25299118,-0.71581680,0.22057581,-0.33223190,-0.74368262,0.37037621,-0.02795888
9.56000000,-0.35598255,0.76075540,-0.32580020,-0.22328878,0.55353504,0.18205827,-0.54206824,0.25299118,-0.71581680,0.22057581,-0.33223190,-0.74368262,0.37037621,-0.02795888
9.58000000,-0.35598255,0.76075540,-0.32580020,-0.22328878,0.55353504,0.18205827,-0.54206824,0.25299118,-0.71581680,0.22057581,-0.33223190,-0.74368262,0.37037621,-0.02795888
9.60000000,-0.35598255,0.76075540,-0.32580020,-0.22328878,0.55353504,0.18205827,-0.54206824,0.25299118,-0.71581680,0.22057581,-0.33223190,-0.74368262,0.37037621,-0.02795888
9.62000000,-0.35598255,0.76075540,-0.32580020,-0.22328878,0.55353504,0.18205827,-0.54206824,0.25299118,-0.71581680,0.22057581,-0.33223190,-0.74368262,0.37037621,-0.02795888
9.64000000,-0.35598255,0.76075540,-0.32580020,-0.22328878,0.55353504,0.18205827,-0.54206824,0.25299118,-0.71581680,0.22057581,-0.33223190,-0.74368262,0.37037621,-0.02795888
9.66000000,-0.35598255,0.76075540,-0.32580020,-0.22328878,0.55353504,0.18205827,-0.54206824,0.25299118,-0.71581680,0.22057581,-0.33223190,-0.74368262,0.37037621,-0.02795888
9.68000000,-0.35598255,0.76075540,-0.32580020,-0.22328878,0.55353504,0.18205827,-0.54206824,0.25299118,-0.71581680,0.22057581,-0.33223190,-0.74368262,0.37037621,-0.02795888
9.70000000,-0.35598255,0.76075540,-0.32580020,-0.22328878,0.55353504,0.18205827,-0.54206824,0.25299118,-0.71581680,0.22057581,-0.33223190,-0.74368262,0.37037621,-0.02795888
9.72000000,-0.35598255,0.76075540,-0.32580020,-0.22328878,0.55353504,0.18205827,-0.54206824,0.25299118,-0.71581680,0.22057581,-0.33223190,-0.74368262,0.37037621,-0.02795888
9.74000000,-0.35598255,0.76075540,-0.32580020,-0.22328878,0.55353504,0.18205827,-0.54206824,0.25299118,-0.71581680,0.22057581,-0.33223190,-0.74368262,0.37037621,-0.02795888
9.76000000,-0.35598255,0.76075540,-0.32580020,-0.22328878,0.55353504,0.18205827,-0.54206824,0.25299118,-0.71581680,0.22057581,-0.33223190,-0.74368262,0.37037621,-0.02795888
9.78000000,-0.35598255,0.76075540,-0.32580020,-0.22328878,0.55353504,0.18205827,-0.54206824,0.25299118,-0.71581680,0.22057581,-0.33223190,-0.74368262,0.37037621,-0.02795888
9.80000000,-0.35598255,0.76075540,-0.32580020,-0.22328878,0.55353504,0.18205827,-0.54206824,0.25299118,-0.71581680,0.22057581,-0.33223190,-0.74368262,0.37037621,-0.02795888
9.82000000,-0.35598255,0.76075540,-0.32580020,-0.22328878,0.55353504,0.18205827,-0.54206824,0.25299118,-0.71581680,0.22057581,-0.33223190,-0.74368262,0.37037621,-0.02795888
9.84000000,-0.35598255,0.76075540,-0.32580020,-0.22328878,0.55353504,0.18205827,-0.54206824,0.25299118,-0.71581680,0.22057581,-0.33223190,-0.74368262,0.37037621,-0.02795888
9.86000000,-0.35598255,0.76075540,-0.32580020,-0.22328878,0.55353504,0.18205827,-0.54206824,0.25299118,-0.71581680,0.22057581,-0.33223190,-0.74368262,0.37037621,-0.02795888
9.88000000,-0.35598255,0.76075540,-0.32580020,-0.22328878,0.55353504,0.18205827,-0.54206824,0.25299118,-0.71581680,0.22057581,-0.33223190,-0.74368262,0.37037621,-0.02795888
9.90000000,-0.35598255,0.76075540,-0.32580020,-0.22328878,0.55353504,0.18205827,-0.54206824,0.25299118,-0.71581680,0.22057581,-0.33223190,-0.74368262,0.37037621,-0.02795888
9.92000000,-0.35598255,0.76075540,-0.32580020,-0.22328878,0.55353504,0.18205827,-0.54206824,0.25299118,-0.71581680,0.22057581,-0.33223190,-0.74368262,0.37037621,-0.02795888
9.94000000,-0.35598255,0.76075540,-0.32580020,-0.22328878,0.55353504,0.18205827,-0.54206824,0.25299118,-0.71581680,0.22057581,-0.33223190,-0.74368262,0.37037621,-0.02795888
9.96000000,-0.35598255,0.76075540,-0.32580020,-0.22328878,0.55353504,0.18205827,-0.54206824,0.25299118,-0.71581680,0.22057581,-0.33223190,-0.74368262,0.37037621,-0.02795888
9.98000000,-0.35598255,0.76075540,-0.32580020,-0.22328878,0.55353504,0.18205827,-0.54206824,0.25299118,-0.71581680,0.22057581,-0.33223190,-0.74368262,0.37037621,-0.02795888
10.00000000,-0.35598201,0.76075597,-0.32580042,-0.22329020,0.55353574,0.18205885,-0.54206786,0.25299087,-0.71581749,0.22057597,-0.33223340,-0.74368343,0.37037660,-0.02795872
10.02000000,-0.35597830,0.76075994,-0.32580193,-0.22329997,0.55354059,0.18206283,-0.54206523,0.25298877,-0.71582220,0.22057710,-0.33224375,-0.74368901,0.37037935,-0.02795761
10.04000000,-0.35596841,0.76077049,-0.32580595,-0.22332598,0.55355348,0.18207343,-0.54205822,0.25298316,-0.71583473,0.22058012,-0.33227130,-0.74370385,0.37038664,-0.02795464
10.06000000,-0.35594956,0.76079063,-0.32581361,-0.22337562,0.55357807,0.18209365,-0.54204485,0.25297246,-0.71585865,0.22058588,-0.33232386,-0.74373217,0.37040057,-0.02794898
10.08000000,-0.35591911,0.76082316,-0.32582599,-0.22345578,0.55361780,0.18212630,-0.54202325,0.25295518,-0.71589728,0.22059518,-0.33240874,-0.74377791,0.37042305,-0.02793984
10.10000000,-0.35587462,0.76087068,-0.32584407,-0.22357289,0.55367583,0.18217401,-0.54199169,0.25292993,-0.71595372,0.22060876,-0.33253275,-0.74384474,0.37045590,-0.02792648
10.12000000,-0.35581384,0.76093561,-0.32586877,-0.22373291,0.55375513,0.18223919,-0.54194858,0.25289544,-0.71603083,0.22062732,-0.33270219,-0.74393604,0.37050079,-0.02790823
10.14000000,-0.35573467,0.76102018,-0.32590095,-0.22394132,0.55385841,0.18232409,-0.54189243,0.25285051,-0.71613127,0.22065149,-0.33292289,-0.74405496,0.37055925,-0.02788446
10.16000000,-0.35563519,0.76112644,-0.32594137,-0.22420319,0.55398817,0.18243076,-0.54182187,0.25279405,-0.71625747,0.22068186,-0.33320019,-0.74420439,0.37063271,-0.02785459
10.18000000,-0.35551366,0.76125626,-0.32599077,-0.22452313,0.55414672,0.18256109,-0.54173567,0.25272508,-0.71641165,0.22071897,-0.33353897,-0.74438695,0.37072246,-0.02781810
10.20000000,-0.35536848,0.76141134,-0.32604977,-0.22490532,0.55433612,0.18271678,-0.54163269,0.25264269,-0.71659583,0.22076329,-0.33394369,-0.74460504,0.37082967,-0.02777451
10.22000000,-0.35519821,0.76159322,-0.32611897,-0.22535356,0.55455824,0.18289937,-0.54151192,0.25254606,-0.71681184,0.22081528,-0.33441833,-0.74486080,0.37095540,-0.02772339
10.24000000,-0.35500158,0.76180326,-0.32619889,-0.22587119,0.55481475,0.18311023,-0.54137245,0.25243447,-0.71706130,0.22087531,-0.33496647,-0.74515617,0.37110061,-0.02766436
10.26000000,-0.35477745,0.76204268,-0.32628998,-0.22646121,0.55510714,0.18335057,-0.54121348,0.25230727,-0.71734564,0.22094374,-0.33559125,-0.74549284,0.37126612,-0.02759707
10.28000000,-0.35452485,0.76231251,-0.32639264,-0.22712619,0.55543667,0.18362146,-0.54103431,0.25216392,-0.71766610,0.22102087,-0.33629541,-0.74587229,0.37145265,-0.02752122
10.30000000,-0.35424292,0.76261366,-0.32650722,-0.22786837,0.55580445,0.18392379,-0.54083434,0.25200392,-0.71802376,0.22110695,-0.33708132,-0.74629578,0.37166084,-0.02743658
10.32000000,-0.35393097,0.76294689,-0.32663400,-0.22868959,0.55621141,0.18425831,-0.54061307,0.25182688,-0.71841952,0.22120219,-0.33795092,-0.74676438,0.37189121,-0.02734292
10.34000000,-0.35358842,0.76331280,-0.32677322,-0.22959135,0.55665828,0.18462565,-0.54037010,0.25163248,-0.71885409,0.22130678,-0.33890582,-0.74727893,0.37214416,-0.02724007
10.36000000,-0.35321483,0.76371186,-0.32692505,-0.23057481,0.55714563,0.18502626,-0.54010512,0.25142047,-0.71932803,0.22142084,-0.33994722,-0.74784011,0.37242004,-0.02712791
10.38000000,-0.35280990,0.76414441,-0.32708962,-0.23164081,0.55767388,0.18546050,-0.53981791,0.25119066,-0.71984175,0.22154447,-0.34107602,-0.74844838,0.37271907,-0.02700633
10.40000000,-0.35237343,0.76461065,-0.32726701,-0.23278983,0.55824328,0.18592856,-0.53950832,0.25094296,-0.72039548,0.22167774,-0.34229275,-0.74910402,0.37304138,-0.02687528
10.42000000,-0.35190534,0.76511066,-0.32745725,-0.23402208,0.55885392,0.18643052,-0.53917630,0.25067731,-0.72098932,0.22182066,-0.34359760,-0.74980716,0.37338705,-0.02673474
10.44000000,-0.35140567,0.76564440,-0.32766032,-0.23533745,0.55950576,0.18696634,-0.53882190,0.25039375,-0.72162321,0.22197321,-0.34499047,-0.75055772,0.37375602,-0.02658473
10.46000000,-0.35087459,0.76621170,-0.32787617,-0.23673554,0.56019858,0.18753586,-0.53844520,0.25009235,-0.72229697,0.22213536,-0.34647094,-0.75135548,0.37414821,-0.02642527
10.48000000,-0.35031234,0.76681229,-0.32810467,-0.23821566,0.56093205,0.18813879,-0.53804640,0.24977327,-0.72301026,0.22230703,-0.34803827,-0.75220006,0.37456340,-0.02625646
10.50000000,-0.34971929,0.76744579,-0.32834570,-0.23977688,0.56170571,0.18877476,-0.53762575,0.24943670,-0.72376263,0.22248810,-0.34969148,-0.75309091,0.37500135,-0.02607841
10.52000000,-0.34909589,0.76811170,-0.32859906,-0.24141798,0.56251896,0.18944327,-0.53718358,0.24908292,-0.72455349,0.22267843,-0.35142927,-0.75402734,0.37546170,-0.02589124
10.54000000,-0.34844270,0.76880943,-0.32886453,-0.24313750,0.56337107,0.19014372,-0.53672028,0.24871222,-0.72538215,0.22287786,-0.35325010,-0.75500852,0.37594405,-0.02569513
10.56000000,-0.34776037,0.76953830,-0.32914184,-0.24493375,0.56426120,0.19087543,-0.53623630,0.24832499,-0.72624779,0.22308619,-0.35515219,-0.75603348,0.37644792,-0.02549026
10.58000000,-0.34704962,0.77029752,-0.32943070,-0.24680480,0.56518840,0.19163761,-0.53573217,0.24792163,-0.72714948,0.22330320,-0.35713348,-0.75710112,0.37697278,-0.02527687
10.60000000,-0.34631127,0.77108622,-0.32973077,-0.24874852,0.56615161,0.19242938,-0.53520847,0.24750261,-0.72808617,0.22352863,-0.35919172,-0.75821022,0.37751802,-0.02505519
10.62000000,-0.34554622,0.77190345,-0.33004171,-0.25076254,0.56714965,0.19324980,-0.53466582,0.24706843,-0.72905676,0.22376221,-0.36132441,-0.75935944,0.37808298,-0.02482549
10.64000000,-0.34475542,0.77274818,-0.33036310,-0.25284432,0.56818128,0.19409782,-0.53410491,0.24661964,-0.73005999,0.22400366,-0.36352884,-0.76054733,0.37866694,-0.02458806
10.66000000,-0.34393992,0.77361929,-0.33069453,-0.25499112,0.56924513,0.19497233,-0.53352648,0.24615684,-0.73109457,0.22425265,-0.36580214,-0.76177232,0.37926915,-0.02434322
10.68000000,-0.34310083,0.77451560,-0.33103555,-0.25720004,0.57033976,0.19587214,-0.53293132,0.24568064,-0.73215907,0.22450884,-0.36814121,-0.76303276,0.37988879,-0.02409129
10.70000000,-0.34223931,0.77543588,-0.33138569,-0.25946800,0.57146364,0.19679600,-0.53232025,0.24519172,-0.73325203,0.22477187,-0.37054279,-0.76432688,0.38052498,-0.02383263
10.72000000,-0.34135659,0.77637879,-0.33174444,-0.26179176,0.57261518,0.19774259,-0.53169414,0.24469077,-0.73437188,0.22504138,-0.37300347,-0.76565284,0.38117683,-0.02356760
10.74000000,-0.34045396,0.77734298,-0.33211129,-0.26416795,0.57379270,0.19871054,-0.53105391,0.24417851,-0.73551699,0.22531697,-0.37551966,-0.76700872,0.38184338,-0.02329659
10.76000000,-0.33953275,0.77832701,-0.33248568,-0.26659304,0.57499446,0.19969841,-0.53040050,0.24365572,-0.73668568,0.22559824,-0.37808764,-0.76839250,0.38252365,-0.02302001
10.78000000,-0.33859434,0.77932942,-0.33286707,-0.26906341,0.57621865,0.20070473,-0.52973489,0.24312316,-0.73787618,0.22588475,-0.38070356,-0.76980212,0.38321663,-0.02273826
10.80000000,-0.33764016,0.78034867,-0.33325486,-0.27157530,0.57746342,0.20172795,-0.52905810,0.24258165,-0.73908669,0.22617608,-0.38336345,-0.77123544,0.38392125,-0.02245178
10.82000000,-0.33667168,0.78138320,-0.33364847,-0.27412486,0.57872685,0.20276652,-0.52837116,0.24203202,-0.74031536,0.22647178,-0.38606323,-0.77269024,0.38463643,-0.02216100
10.84000000,-0.33569038,0.78243142,-0.33404729,-0.27670813,0.58000699,0.20381883,-0.52767513,0.24147512,-0.74156027,0.22677139,-0.38879870,-0.77416428,0.38536107,-0.02186638
10.86000000,-0.33469781,0.78349168,-0.33445068,-0.27932108,0.58130183,0.20488322,-0.52697110,0.24091182,-0.74281948,0.22707444,-0.39156561,-0.77565526,0.38609404,-0.02156837
10.88000000,-0.33369552,0.78456232,-0.33485803,-0.28195961,0.58260936,0.20595804,-0.52626019,0.24034301,-0.74409102,0.22738045,-0.39435960,-0.77716083,0.38683419,-0.02126745
10.90000000,-0.33268511,0.78564164,-0.33526868,-0.28461954,0.58392749,0.20704157,-0.52554350,0.23976959,-0.74537288,0.22768895,-0.39717626,-0.77867862,0.38758034,-0.02096408
10.92000000,-0.33166816,0.78672794,-0.33568199,-0.28729667,0.58525414,0.20813211,-0.52482219,0.23919246,-0.74666302,0.22799945,-0.40001113,-0.78020622,0.38833131,-0.02065875
10.94000000,-0.33064630,0.78781949,-0.33609729,-0.28998673,0.58658719,0.20922791,-0.52409739,0.23861254,-0.74795940,0.22831144,-0.40285968,-0.78174120,0.38908591,-0.02035195
10.96000000,-0.32962116,0.78891454,-0.33651392,-0.29268542,0.58792453,0.21032723,-0.52337026,0.23803076,-0.74925993,0.22862443,-0.40571738,-0.78328110,0.38984293,-0.02004416
10.98000000,-0.32859437,0.79001135,-0.33693122,-0.29538844,0.58926401,0.21142832,-0.52264197,0.23744805,-0.75056255,0.22893793,-0.40857966,-0.78482347,0.39060116,-0.01973588
11.00000000,-0.32756759,0.79110815,-0.33734853,-0.29809145,0.59060349,0.21252940,-0.52191368,0.23686534,-0.75186517,0.22925142,-0.41144193,-0.78636584,0.39135939,-0.01942760
11.02000000,-0.32654245,0.79220321,-0.33776516,-0.30079015,0.59194083,0.21362872,-0.52118656,0.23628356,-0.75316570,0.22956442,-0.41429963,-0.78790575,0.39211641,-0.01911982
11.04000000,-0.32552059,0.79329475,-0.33818046,-0.30348020,0.59327388,0.21472453,-0.52046176,0.23570364,-0.75446208,0.22987641,-0.41714819,-0.78944072,0.39287101,-0.01881301
11.06000000,-0.32450364,0.79438105,-0.33859377,-0.30615733,0.59460053,0.21581506,-0.51974044,0.23512651,-0.75575222,0.23018691,-0.41998305,-0.79096832,0.39362198,-0.01850769
11.08000000,-0.32349323,0.79546038,-0.33900442,-0.30881727,0.59591867,0.21689860,-0.51902376,0.23455308,-0.75703408,0.23049541,-0.42279971,-0.79248611,0.39436813,-0.01820432
11.10000000,-0.32249094,0.79653102,-0.33941176,-0.31145580,0.59722619,0.21797341,-0.51831284,0.23398427,-0.75830562,0.23080142,-0.42559370,-0.79399168,0.39510828,-0.01790339
11.12000000,-0.32149837,0.79759128,-0.33981516,-0.31406875,0.59852104,0.21903781,-0.51760882,0.23342098,-0.75956483,0.23110447,-0.42836061,-0.79548266,0.39584125,-0.01760538
11.14000000,-0.32051707,0.79863949,-0.34021398,-0.31665202,0.59980117,0.22009011,-0.51691279,0.23286408,-0.76080974,0.23140408,-0.43109608,-0.79695671,0.39656589,-0.01731076
11.16000000,-0.31954859,0.79967403,-0.34060759,-0.31920157,0.60106461,0.22112868,-0.51622585,0.23231445,-0.76203841,0.23169978,-0.43379586,-0.79841151,0.39728108,-0.01701998
11.18000000,-0.31859441,0.80069328,-0.34099538,-0.32171346,0.60230937,0.22215191,-0.51554905,0.23177294,-0.76324892,0.23199111,-0.43645575,-0.79984482,0.39798570,-0.01673350
11.20000000,-0.31765600,0.80169569,-0.34137677,-0.32418383,0.60353356,0.22315822,-0.51488345,0.23124038,-0.76443942,0.23227762,-0.43907167,-0.80125444,0.39867867,-0.01645175
11.22000000,-0.31673479,0.80267972,-0.34175116,-0.32660893,0.60473532,0.22414609,-0.51423004,0.23071758,-0.76560811,0.23255888,-0.44163965,-0.80263823,0.39935894,-0.01617517
11.24000000,-0.31583216,0.80364391,-0.34211801,-0.32898512,0.60591284,0.22511404,-0.51358981,0.23020533,-0.76675322,0.23283447,-0.44415584,-0.80399410,0.40002549,-0.01590417
11.26000000,-0.31494944,0.80458682,-0.34247676,-0.33130888,0.60706438,0.22606063,-0.51296370,0.22970438,-0.76787307,0.23310398,-0.44661652,-0.80532007,0.40067734,-0.01563914
11.28000000,-0.31408792,0.80550709,-0.34282689,-0.33357683,0.60818826,0.22698449,-0.51235263,0.22921545,-0.76896603,0.23336702,-0.44901810,-0.80661419,0.40131353,-0.01538048
11.30000000,-0.31324883,0.80640341,-0.34316792,-0.33578575,0.60928289,0.22788430,-0.51175747,0.22873926,-0.77003053,0.23362321,-0.45135717,-0.80787462,0.40193317,-0.01512855
11.32000000,-0.31243333,0.80727452,-0.34349935,-0.33793256,0.61034674,0.22875881,-0.51117904,0.22827645,-0.77106511,0.23387220,-0.45363047,-0.80909961,0.40253538,-0.01488371
11.34000000,-0.31164253,0.80811925,-0.34382074,-0.34001434,0.61137837,0.22960683,-0.51061813,0.22782767,-0.77206834,0.23411364,-0.45583491,-0.81028750,0.40311934,-0.01464628
11.36000000,-0.31087748,0.80893648,-0.34413167,-0.34202836,0.61237641,0.23042725,-0.51007548,0.22739349,-0.77303893,0.23434723,-0.45796759,-0.81143672,0.40368430,-0.01441658
11.38000000,-0.31013913,0.80972518,-0.34443175,-0.34397207,0.61333962,0.23121903,-0.50955177,0.22697446,-0.77397563,0.23457266,-0.46002583,-0.81254583,0.40422954,-0.01419490
11.40000000,-0.30942838,0.81048440,-0.34472061,-0.34584312,0.61426682,0.23198121,-0.50904764,0.22657111,-0.77487731,0.23478967,-0.46200712,-0.81361347,0.40475440,-0.01398150
11.42000000,-0.30874605,0.81121326,-0.34499792,-0.34763937,0.61515695,0.23271292,-0.50856367,0.22618387,-0.77574295,0.23499800,-0.46390921,-0.81463843,0.40525827,-0.01377664
11.44000000,-0.30809286,0.81191100,-0.34526339,-0.34935890,0.61600906,0.23341337,-0.50810037,0.22581318,-0.77657161,0.23519743,-0.46573004,-0.81561961,0.40574062,-0.01358053
11.46000000,-0.30746946,0.81257691,-0.34551675,-0.35100000,0.61682231,0.23408188,-0.50765820,0.22545939,-0.77736247,0.23538776,-0.46746784,-0.81655604,0.40620097,-0.01339336
11.48000000,-0.30687641,0.81321040,-0.34575777,-0.35256121,0.61759597,0.23471784,-0.50723755,0.22512283,-0.77811484,0.23556883,-0.46912104,-0.81744688,0.40663892,-0.01321530
11.50000000,-0.30631416,0.81381100,-0.34598628,-0.35404134,0.61832944,0.23532078,-0.50683875,0.22480375,-0.77882814,0.23574050,-0.47068838,-0.81829146,0.40705411,-0.01304649
11.52000000,-0.30578308,0.81437830,-0.34620212,-0.35543943,0.61902227,0.23589029,-0.50646205,0.22450235,-0.77950189,0.23590265,-0.47216884,-0.81908922,0.40744630,-0.01288704
