gracetata/LocomotionHEC/legged_lab/Reference Data/ArmHack/StandPerturb/VisualizationSuite/synthesized_trajectory_02_seed20260714_50hz.csv
time_s,left_shoulder_pitch_joint,left_shoulder_roll_joint,left_shoulder_yaw_joint,left_elbow_joint,left_wrist_roll_joint,left_wrist_pitch_joint,left_wrist_yaw_joint,right_shoulder_pitch_joint,right_shoulder_roll_joint,right_shoulder_yaw_joint,right_elbow_joint,right_wrist_roll_joint,right_wrist_pitch_joint,right_wrist_yaw_joint
0.00000000,0.23198031,0.58424852,-0.09673416,0.39606700,0.55353504,0.13037685,-0.12468556,0.18013161,-0.56646923,0.15131880,0.47518809,-0.49355920,0.09886733,0.05845025
0.02000000,0.23198031,0.58424852,-0.09673416,0.39606700,0.55353504,0.13037685,-0.12468556,0.18013161,-0.56646923,0.15131880,0.47518809,-0.49355920,0.09886733,0.05845025
0.04000000,0.23198031,0.58424852,-0.09673416,0.39606700,0.55353504,0.13037685,-0.12468556,0.18013161,-0.56646923,0.15131880,0.47518809,-0.49355920,0.09886733,0.05845025
0.06000000,0.23198031,0.58424852,-0.09673416,0.39606700,0.55353504,0.13037685,-0.12468556,0.18013161,-0.56646923,0.15131880,0.47518809,-0.49355920,0.09886733,0.05845025
0.08000000,0.23198031,0.58424852,-0.09673416,0.39606700,0.55353504,0.13037685,-0.12468556,0.18013161,-0.56646923,0.15131880,0.47518809,-0.49355920,0.09886733,0.05845025
0.10000000,0.23198031,0.58424852,-0.09673416,0.39606700,0.55353504,0.13037685,-0.12468556,0.18013161,-0.56646923,0.15131880,0.47518809,-0.49355920,0.09886733,0.05845025
0.12000000,0.23198031,0.58424852,-0.09673416,0.39606700,0.55353504,0.13037685,-0.12468556,0.18013161,-0.56646923,0.15131880,0.47518809,-0.49355920,0.09886733,0.05845025
0.14000000,0.23198031,0.58424852,-0.09673416,0.39606700,0.55353504,0.13037685,-0.12468556,0.18013161,-0.56646923,0.15131880,0.47518809,-0.49355920,0.09886733,0.05845025
0.16000000,0.23198031,0.58424852,-0.09673416,0.39606700,0.55353504,0.13037685,-0.12468556,0.18013161,-0.56646923,0.15131880,0.47518809,-0.49355920,0.09886733,0.05845025
0.18000000,0.23198031,0.58424852,-0.09673416,0.39606700,0.55353504,0.13037685,-0.12468556,0.18013161,-0.56646923,0.15131880,0.47518809,-0.49355920,0.09886733,0.05845025
0.20000000,0.23198031,0.58424852,-0.09673416,0.39606700,0.55353504,0.13037685,-0.12468556,0.18013161,-0.56646923,0.15131880,0.47518809,-0.49355920,0.09886733,0.05845025
0.22000000,0.23198031,0.58424852,-0.09673416,0.39606700,0.55353504,0.13037685,-0.12468556,0.18013161,-0.56646923,0.15131880,0.47518809,-0.49355920,0.09886733,0.05845025
0.24000000,0.23198031,0.58424852,-0.09673416,0.39606700,0.55353504,0.13037685,-0.12468556,0.18013161,-0.56646923,0.15131880,0.47518809,-0.49355920,0.09886733,0.05845025
0.26000000,0.23198031,0.58424852,-0.09673416,0.39606700,0.55353504,0.13037685,-0.12468556,0.18013161,-0.56646923,0.15131880,0.47518809,-0.49355920,0.09886733,0.05845025
0.28000000,0.23198031,0.58424852,-0.09673416,0.39606700,0.55353504,0.13037685,-0.12468556,0.18013161,-0.56646923,0.15131880,0.47518809,-0.49355920,0.09886733,0.05845025
0.30000000,0.23198031,0.58424852,-0.09673416,0.39606700,0.55353504,0.13037685,-0.12468556,0.18013161,-0.56646923,0.15131880,0.47518809,-0.49355920,0.09886733,0.05845025
0.32000000,0.23198031,0.58424852,-0.09673416,0.39606700,0.55353504,0.13037685,-0.12468556,0.18013161,-0.56646923,0.15131880,0.47518809,-0.49355920,0.09886733,0.05845025
0.34000000,0.23198031,0.58424852,-0.09673416,0.39606700,0.55353504,0.13037685,-0.12468556,0.18013161,-0.56646923,0.15131880,0.47518809,-0.49355920,0.09886733,0.05845025
0.36000000,0.23198031,0.58424852,-0.09673416,0.39606700,0.55353504,0.13037685,-0.12468556,0.18013161,-0.56646923,0.15131880,0.47518809,-0.49355920,0.09886733,0.05845025
0.38000000,0.23198031,0.58424852,-0.09673416,0.39606700,0.55353504,0.13037685,-0.12468556,0.18013161,-0.56646923,0.15131880,0.47518809,-0.49355920,0.09886733,0.05845025
0.40000000,0.23198031,0.58424852,-0.09673416,0.39606700,0.55353504,0.13037685,-0.12468556,0.18013161,-0.56646923,0.15131880,0.47518809,-0.49355920,0.09886733,0.05845025
0.42000000,0.23198031,0.58424852,-0.09673416,0.39606700,0.55353504,0.13037685,-0.12468556,0.18013161,-0.56646923,0.15131880,0.47518809,-0.49355920,0.09886733,0.05845025
0.44000000,0.23198031,0.58424852,-0.09673416,0.39606700,0.55353504,0.13037685,-0.12468556,0.18013161,-0.56646923,0.15131880,0.47518809,-0.49355920,0.09886733,0.05845025
0.46000000,0.23198031,0.58424852,-0.09673416,0.39606700,0.55353504,0.13037685,-0.12468556,0.18013161,-0.56646923,0.15131880,0.47518809,-0.49355920,0.09886733,0.05845025
0.48000000,0.23198031,0.58424852,-0.09673416,0.39606700,0.55353504,0.13037685,-0.12468556,0.18013161,-0.56646923,0.15131880,0.47518809,-0.49355920,0.09886733,0.05845025
0.50000000,0.23198031,0.58424852,-0.09673416,0.39606700,0.55353504,0.13037685,-0.12468556,0.18013161,-0.56646923,0.15131880,0.47518809,-0.49355920,0.09886733,0.05845025
0.52000000,0.23198031,0.58424852,-0.09673416,0.39606700,0.55353504,0.13037685,-0.12468556,0.18013161,-0.56646923,0.15131880,0.47518809,-0.49355920,0.09886733,0.05845025
0.54000000,0.23198031,0.58424852,-0.09673416,0.39606700,0.55353504,0.13037685,-0.12468556,0.18013161,-0.56646923,0.15131880,0.47518809,-0.49355920,0.09886733,0.05845025
0.56000000,0.23198031,0.58424852,-0.09673416,0.39606700,0.55353504,0.13037685,-0.12468556,0.18013161,-0.56646923,0.15131880,0.47518809,-0.49355920,0.09886733,0.05845025
0.58000000,0.23198031,0.58424852,-0.09673416,0.39606700,0.55353504,0.13037685,-0.12468556,0.18013161,-0.56646923,0.15131880,0.47518809,-0.49355920,0.09886733,0.05845025
0.60000000,0.23198031,0.58424852,-0.09673416,0.39606700,0.55353504,0.13037685,-0.12468556,0.18013161,-0.56646923,0.15131880,0.47518809,-0.49355920,0.09886733,0.05845025
0.62000000,0.23198031,0.58424852,-0.09673416,0.39606700,0.55353504,0.13037685,-0.12468556,0.18013161,-0.56646923,0.15131880,0.47518809,-0.49355920,0.09886733,0.05845025
0.64000000,0.23198031,0.58424852,-0.09673416,0.39606700,0.55353504,0.13037685,-0.12468556,0.18013161,-0.56646923,0.15131880,0.47518809,-0.49355920,0.09886733,0.05845025
0.66000000,0.23198031,0.58424852,-0.09673416,0.39606700,0.55353504,0.13037685,-0.12468556,0.18013161,-0.56646923,0.15131880,0.47518809,-0.49355920,0.09886733,0.05845025
0.68000000,0.23198031,0.58424852,-0.09673416,0.39606700,0.55353504,0.13037685,-0.12468556,0.18013161,-0.56646923,0.15131880,0.47518809,-0.49355920,0.09886733,0.05845025
0.70000000,0.23198031,0.58424852,-0.09673416,0.39606700,0.55353504,0.13037685,-0.12468556,0.18013161,-0.56646923,0.15131880,0.47518809,-0.49355920,0.09886733,0.05845025
0.72000000,0.23198031,0.58424852,-0.09673416,0.39606700,0.55353504,0.13037685,-0.12468556,0.18013161,-0.56646923,0.15131880,0.47518809,-0.49355920,0.09886733,0.05845025
0.74000000,0.23198031,0.58424852,-0.09673416,0.39606700,0.55353504,0.13037685,-0.12468556,0.18013161,-0.56646923,0.15131880,0.47518809,-0.49355920,0.09886733,0.05845025
0.76000000,0.23198031,0.58424852,-0.09673416,0.39606700,0.55353504,0.13037685,-0.12468556,0.18013161,-0.56646923,0.15131880,0.47518809,-0.49355920,0.09886733,0.05845025
0.78000000,0.23198031,0.58424852,-0.09673416,0.39606700,0.55353504,0.13037685,-0.12468556,0.18013161,-0.56646923,0.15131880,0.47518809,-0.49355920,0.09886733,0.05845025
0.80000000,0.23198031,0.58424852,-0.09673416,0.39606700,0.55353504,0.13037685,-0.12468556,0.18013161,-0.56646923,0.15131880,0.47518809,-0.49355920,0.09886733,0.05845025
0.82000000,0.23198031,0.58424852,-0.09673416,0.39606700,0.55353504,0.13037685,-0.12468556,0.18013161,-0.56646923,0.15131880,0.47518809,-0.49355920,0.09886733,0.05845025
0.84000000,0.23198031,0.58424852,-0.09673416,0.39606700,0.55353504,0.13037685,-0.12468556,0.18013161,-0.56646923,0.15131880,0.47518809,-0.49355920,0.09886733,0.05845025
0.86000000,0.23198031,0.58424852,-0.09673416,0.39606700,0.55353504,0.13037685,-0.12468556,0.18013161,-0.56646923,0.15131880,0.47518809,-0.49355920,0.09886733,0.05845025
0.88000000,0.23198031,0.58424852,-0.09673416,0.39606700,0.55353504,0.13037685,-0.12468556,0.18013161,-0.56646923,0.15131880,0.47518809,-0.49355920,0.09886733,0.05845025
0.90000000,0.23198031,0.58424852,-0.09673416,0.39606700,0.55353504,0.13037685,-0.12468556,0.18013161,-0.56646923,0.15131880,0.47518809,-0.49355920,0.09886733,0.05845025
0.92000000,0.23198031,0.58424852,-0.09673416,0.39606700,0.55353504,0.13037685,-0.12468556,0.18013161,-0.56646923,0.15131880,0.47518809,-0.49355920,0.09886733,0.05845025
0.94000000,0.23198031,0.58424852,-0.09673416,0.39606700,0.55353504,0.13037685,-0.12468556,0.18013161,-0.56646923,0.15131880,0.47518809,-0.49355920,0.09886733,0.05845025
0.96000000,0.23198031,0.58424852,-0.09673416,0.39606700,0.55353504,0.13037685,-0.12468556,0.18013161,-0.56646923,0.15131880,0.47518809,-0.49355920,0.09886733,0.05845025
0.98000000,0.23198031,0.58424852,-0.09673416,0.39606700,0.55353504,0.13037685,-0.12468556,0.18013161,-0.56646923,0.15131880,0.47518809,-0.49355920,0.09886733,0.05845025
1.00000000,0.23198031,0.58424852,-0.09673416,0.39606700,0.55353504,0.13037685,-0.12468556,0.18013161,-0.56646923,0.15131880,0.47518809,-0.49355920,0.09886733,0.05845025
1.02000000,0.23198031,0.58424852,-0.09673416,0.39606700,0.55353504,0.13037685,-0.12468556,0.18013161,-0.56646923,0.15131880,0.47518809,-0.49355920,0.09886733,0.05845025
1.04000000,0.23198031,0.58424852,-0.09673416,0.39606700,0.55353504,0.13037685,-0.12468556,0.18013161,-0.56646923,0.15131880,0.47518809,-0.49355920,0.09886733,0.05845025
1.06000000,0.23198031,0.58424852,-0.09673416,0.39606700,0.55353504,0.13037685,-0.12468556,0.18013161,-0.56646923,0.15131880,0.47518809,-0.49355920,0.09886733,0.05845025
1.08000000,0.23198031,0.58424852,-0.09673416,0.39606700,0.55353504,0.13037685,-0.12468556,0.18013161,-0.56646923,0.15131880,0.47518809,-0.49355920,0.09886733,0.05845025
1.10000000,0.23198031,0.58424852,-0.09673416,0.39606700,0.55353504,0.13037685,-0.12468556,0.18013161,-0.56646923,0.15131880,0.47518809,-0.49355920,0.09886733,0.05845025
1.12000000,0.23198031,0.58424852,-0.09673416,0.39606700,0.55353504,0.13037685,-0.12468556,0.18013161,-0.56646923,0.15131880,0.47518809,-0.49355920,0.09886733,0.05845025
1.14000000,0.23198031,0.58424852,-0.09673416,0.39606700,0.55353504,0.13037685,-0.12468556,0.18013161,-0.56646923,0.15131880,0.47518809,-0.49355920,0.09886733,0.05845025
1.16000000,0.23198031,0.58424852,-0.09673416,0.39606700,0.55353504,0.13037685,-0.12468556,0.18013161,-0.56646923,0.15131880,0.47518809,-0.49355920,0.09886733,0.05845025
1.18000000,0.23198031,0.58424852,-0.09673416,0.39606700,0.55353504,0.13037685,-0.12468556,0.18013161,-0.56646923,0.15131880,0.47518809,-0.49355920,0.09886733,0.05845025
1.20000000,0.23198031,0.58424852,-0.09673416,0.39606700,0.55353504,0.13037685,-0.12468556,0.18013161,-0.56646923,0.15131880,0.47518809,-0.49355920,0.09886733,0.05845025
1.22000000,0.23198031,0.58424852,-0.09673416,0.39606700,0.55353504,0.13037685,-0.12468556,0.18013161,-0.56646923,0.15131880,0.47518809,-0.49355920,0.09886733,0.05845025
1.24000000,0.23198031,0.58424852,-0.09673416,0.39606700,0.55353504,0.13037685,-0.12468556,0.18013161,-0.56646923,0.15131880,0.47518809,-0.49355920,0.09886733,0.05845025
1.26000000,0.23198031,0.58424852,-0.09673416,0.39606700,0.55353504,0.13037685,-0.12468556,0.18013161,-0.56646923,0.15131880,0.47518809,-0.49355920,0.09886733,0.05845025
1.28000000,0.23198031,0.58424852,-0.09673416,0.39606700,0.55353504,0.13037685,-0.12468556,0.18013161,-0.56646923,0.15131880,0.47518809,-0.49355920,0.09886733,0.05845025
1.30000000,0.23198031,0.58424852,-0.09673416,0.39606700,0.55353504,0.13037685,-0.12468556,0.18013161,-0.56646923,0.15131880,0.47518809,-0.49355920,0.09886733,0.05845025
1.32000000,0.23198031,0.58424852,-0.09673416,0.39606700,0.55353504,0.13037685,-0.12468556,0.18013161,-0.56646923,0.15131880,0.47518809,-0.49355920,0.09886733,0.05845025
1.34000000,0.23198031,0.58424852,-0.09673416,0.39606700,0.55353504,0.13037685,-0.12468556,0.18013161,-0.56646923,0.15131880,0.47518809,-0.49355920,0.09886733,0.05845025
1.36000000,0.23198031,0.58424852,-0.09673416,0.39606700,0.55353504,0.13037685,-0.12468556,0.18013161,-0.56646923,0.15131880,0.47518809,-0.49355920,0.09886733,0.05845025
1.38000000,0.23198031,0.58424852,-0.09673416,0.39606700,0.55353504,0.13037685,-0.12468556,0.18013161,-0.56646923,0.15131880,0.47518809,-0.49355920,0.09886733,0.05845025
1.40000000,0.23198031,0.58424852,-0.09673416,0.39606700,0.55353504,0.13037685,-0.12468556,0.18013161,-0.56646923,0.15131880,0.47518809,-0.49355920,0.09886733,0.05845025
1.42000000,0.23198031,0.58424852,-0.09673416,0.39606700,0.55353504,0.13037685,-0.12468556,0.18013161,-0.56646923,0.15131880,0.47518809,-0.49355920,0.09886733,0.05845025
1.44000000,0.23198031,0.58424852,-0.09673416,0.39606700,0.55353504,0.13037685,-0.12468556,0.18013161,-0.56646923,0.15131880,0.47518809,-0.49355920,0.09886733,0.05845025
1.46000000,0.23198031,0.58424852,-0.09673416,0.39606700,0.55353504,0.13037685,-0.12468556,0.18013161,-0.56646923,0.15131880,0.47518809,-0.49355920,0.09886733,0.05845025
1.48000000,0.23198031,0.58424852,-0.09673416,0.39606700,0.55353504,0.13037685,-0.12468556,0.18013161,-0.56646923,0.15131880,0.47518809,-0.49355920,0.09886733,0.05845025
1.50000000,0.23198031,0.58424852,-0.09673416,0.39606700,0.55353504,0.13037685,-0.12468556,0.18013161,-0.56646923,0.15131880,0.47518809,-0.49355920,0.09886733,0.05845025
1.52000000,0.23198031,0.58424852,-0.09673416,0.39606700,0.55353504,0.13037685,-0.12468556,0.18013161,-0.56646923,0.15131880,0.47518809,-0.49355920,0.09886733,0.05845025
1.54000000,0.23198031,0.58424852,-0.09673416,0.39606700,0.55353504,0.13037685,-0.12468556,0.18013161,-0.56646923,0.15131880,0.47518809,-0.49355920,0.09886733,0.05845025
1.56000000,0.23198031,0.58424852,-0.09673416,0.39606700,0.55353504,0.13037685,-0.12468556,0.18013161,-0.56646923,0.15131880,0.47518809,-0.49355920,0.09886733,0.05845025
1.58000000,0.23198031,0.58424852,-0.09673416,0.39606700,0.55353504,0.13037685,-0.12468556,0.18013161,-0.56646923,0.15131880,0.47518809,-0.49355920,0.09886733,0.05845025
1.60000000,0.23198031,0.58424852,-0.09673416,0.39606700,0.55353504,0.13037685,-0.12468556,0.18013161,-0.56646923,0.15131880,0.47518809,-0.49355920,0.09886733,0.05845025
1.62000000,0.23198031,0.58424852,-0.09673416,0.39606700,0.55353504,0.13037685,-0.12468556,0.18013161,-0.56646923,0.15131880,0.47518809,-0.49355920,0.09886733,0.05845025
1.64000000,0.23198031,0.58424852,-0.09673416,0.39606700,0.55353504,0.13037685,-0.12468556,0.18013161,-0.56646923,0.15131880,0.47518809,-0.49355920,0.09886733,0.05845025
1.66000000,0.23198031,0.58424852,-0.09673416,0.39606700,0.55353504,0.13037685,-0.12468556,0.18013161,-0.56646923,0.15131880,0.47518809,-0.49355920,0.09886733,0.05845025
1.68000000,0.23198031,0.58424852,-0.09673416,0.39606700,0.55353504,0.13037685,-0.12468556,0.18013161,-0.56646923,0.15131880,0.47518809,-0.49355920,0.09886733,0.05845025
1.70000000,0.23198031,0.58424852,-0.09673416,0.39606700,0.55353504,0.13037685,-0.12468556,0.18013161,-0.56646923,0.15131880,0.47518809,-0.49355920,0.09886733,0.05845025
1.72000000,0.23198031,0.58424852,-0.09673416,0.39606700,0.55353504,0.13037685,-0.12468556,0.18013161,-0.56646923,0.15131880,0.47518809,-0.49355920,0.09886733,0.05845025
1.74000000,0.23198031,0.58424852,-0.09673416,0.39606700,0.55353504,0.13037685,-0.12468556,0.18013161,-0.56646923,0.15131880,0.47518809,-0.49355920,0.09886733,0.05845025
1.76000000,0.23198031,0.58424852,-0.09673416,0.39606700,0.55353504,0.13037685,-0.12468556,0.18013161,-0.56646923,0.15131880,0.47518809,-0.49355920,0.09886733,0.05845025
1.78000000,0.23198031,0.58424852,-0.09673416,0.39606700,0.55353504,0.13037685,-0.12468556,0.18013161,-0.56646923,0.15131880,0.47518809,-0.49355920,0.09886733,0.05845025
1.80000000,0.23198031,0.58424852,-0.09673416,0.39606700,0.55353504,0.13037685,-0.12468556,0.18013161,-0.56646923,0.15131880,0.47518809,-0.49355920,0.09886733,0.05845025
1.82000000,0.23198031,0.58424852,-0.09673416,0.39606700,0.55353504,0.13037685,-0.12468556,0.18013161,-0.56646923,0.15131880,0.47518809,-0.49355920,0.09886733,0.05845025
1.84000000,0.23198031,0.58424852,-0.09673416,0.39606700,0.55353504,0.13037685,-0.12468556,0.18013161,-0.56646923,0.15131880,0.47518809,-0.49355920,0.09886733,0.05845025
1.86000000,0.23198031,0.58424852,-0.09673416,0.39606700,0.55353504,0.13037685,-0.12468556,0.18013161,-0.56646923,0.15131880,0.47518809,-0.49355920,0.09886733,0.05845025
1.88000000,0.23198031,0.58424852,-0.09673416,0.39606700,0.55353504,0.13037685,-0.12468556,0.18013161,-0.56646923,0.15131880,0.47518809,-0.49355920,0.09886733,0.05845025
1.90000000,0.23198031,0.58424852,-0.09673416,0.39606700,0.55353504,0.13037685,-0.12468556,0.18013161,-0.56646923,0.15131880,0.47518809,-0.49355920,0.09886733,0.05845025
1.92000000,0.23198031,0.58424852,-0.09673416,0.39606700,0.55353504,0.13037685,-0.12468556,0.18013161,-0.56646923,0.15131880,0.47518809,-0.49355920,0.09886733,0.05845025
1.94000000,0.23198031,0.58424852,-0.09673416,0.39606700,0.55353504,0.13037685,-0.12468556,0.18013161,-0.56646923,0.15131880,0.47518809,-0.49355920,0.09886733,0.05845025
1.96000000,0.23198031,0.58424852,-0.09673416,0.39606700,0.55353504,0.13037685,-0.12468556,0.18013161,-0.56646923,0.15131880,0.47518809,-0.49355920,0.09886733,0.05845025
1.98000000,0.23198031,0.58424852,-0.09673416,0.39606700,0.55353504,0.13037685,-0.12468556,0.18013161,-0.56646923,0.15131880,0.47518809,-0.49355920,0.09886733,0.05845025
2.00000000,0.23198007,0.58424869,-0.09673426,0.39606644,0.55353511,0.13037699,-0.12468581,0.18013167,-0.56646937,0.15131885,0.47518747,-0.49355943,0.09886752,0.05845019
2.02000000,0.23197842,0.58424989,-0.09673498,0.39606258,0.55353561,0.13037796,-0.12468756,0.18013212,-0.56647031,0.15131921,0.47518315,-0.49356099,0.09886887,0.05844972
2.04000000,0.23197396,0.58425311,-0.09673693,0.39605216,0.55353697,0.13038057,-0.12469225,0.18013331,-0.56647287,0.15132017,0.47517152,-0.49356521,0.09887249,0.05844847
2.06000000,0.23196534,0.58425934,-0.09674069,0.39603203,0.55353958,0.13038560,-0.12470131,0.18013562,-0.56647781,0.15132203,0.47514905,-0.49357337,0.09887947,0.05844605
2.08000000,0.23195125,0.58426952,-0.09674683,0.39599912,0.55354385,0.13039384,-0.12471614,0.18013939,-0.56648588,0.15132507,0.47511231,-0.49358671,0.09889090,0.05844209
2.10000000,0.23193040,0.58428459,-0.09675593,0.39595041,0.55355017,0.13040603,-0.12473808,0.18014498,-0.56649782,0.15132957,0.47505794,-0.49360645,0.09890782,0.05843623
2.12000000,0.23190154,0.58430545,-0.09676852,0.39588299,0.55355891,0.13042290,-0.12476844,0.18015271,-0.56651436,0.15133580,0.47498267,-0.49363377,0.09893123,0.05842812
2.14000000,0.23186345,0.58433298,-0.09678514,0.39579400,0.55357046,0.13044517,-0.12480853,0.18016291,-0.56653618,0.15134403,0.47488334,-0.49366983,0.09896213,0.05841742
2.16000000,0.23181494,0.58436804,-0.09680631,0.39568068,0.55358516,0.13047352,-0.12485957,0.18017590,-0.56656397,0.15135450,0.47475683,-0.49371576,0.09900148,0.05840379
2.18000000,0.23175486,0.58441146,-0.09683252,0.39554033,0.55360337,0.13050865,-0.12492279,0.18019199,-0.56659839,0.15136746,0.47460015,-0.49377263,0.09905022,0.05838691
2.20000000,0.23168209,0.58446406,-0.09686427,0.39537032,0.55362543,0.13055119,-0.12499936,0.18021148,-0.56664008,0.15138317,0.47441037,-0.49384153,0.09910926,0.05836647
2.22000000,0.23159553,0.58452662,-0.09690204,0.39516811,0.55365166,0.13060179,-0.12509044,0.18023466,-0.56668967,0.15140185,0.47418464,-0.49392348,0.09917948,0.05834215
2.24000000,0.23149413,0.58459991,-0.09694628,0.39493122,0.55368240,0.13066107,-0.12519714,0.18026182,-0.56674776,0.15142374,0.47392020,-0.49401947,0.09926174,0.05831366
2.26000000,0.23137686,0.58468467,-0.09699744,0.39465726,0.55371794,0.13072962,-0.12532054,0.18029323,-0.56681495,0.15144905,0.47361436,-0.49413050,0.09935688,0.05828071
2.28000000,0.23124271,0.58478162,-0.09705597,0.39434389,0.55375860,0.13080804,-0.12546168,0.18032916,-0.56689180,0.15147800,0.47326454,-0.49425749,0.09946570,0.05824303
2.30000000,0.23109074,0.58489146,-0.09712228,0.39398885,0.55380466,0.13089688,-0.12562160,0.18036986,-0.56697887,0.15151080,0.47286821,-0.49440137,0.09958899,0.05820033
2.32000000,0.23091999,0.58501487,-0.09719678,0.39358997,0.55385641,0.13099670,-0.12580126,0.18041559,-0.56707669,0.15154766,0.47242293,-0.49456302,0.09972750,0.05815236
2.34000000,0.23072957,0.58515250,-0.09727986,0.39314512,0.55391413,0.13110802,-0.12600163,0.18046659,-0.56718578,0.15158876,0.47192633,-0.49474329,0.09988198,0.05809886
2.36000000,0.23051859,0.58530499,-0.09737191,0.39265225,0.55397807,0.13123135,-0.12622363,0.18052309,-0.56730665,0.15163429,0.47137614,-0.49494303,0.10005313,0.05803959
2.38000000,0.23028622,0.58547294,-0.09747329,0.39210940,0.55404850,0.13136720,-0.12646814,0.18058533,-0.56743977,0.15168445,0.47077014,-0.49516302,0.10024165,0.05797430
2.40000000,0.23003162,0.58565695,-0.09758437,0.39151464,0.55412567,0.13151603,-0.12673603,0.18065351,-0.56758563,0.15173940,0.47010620,-0.49540404,0.10044818,0.05790278
2.42000000,0.22975403,0.58585758,-0.09770549,0.39086614,0.55420981,0.13167831,-0.12702812,0.18072786,-0.56774466,0.15179931,0.46938227,-0.49566685,0.10067338,0.05782479
2.44000000,0.22945267,0.58607539,-0.09783697,0.39016213,0.55430115,0.13185448,-0.12734522,0.18080857,-0.56791731,0.15186436,0.46859636,-0.49595215,0.10091785,0.05774012
2.46000000,0.22912681,0.58631091,-0.09797915,0.38940089,0.55439991,0.13204497,-0.12768810,0.18089584,-0.56810400,0.15193469,0.46774658,-0.49626064,0.10118220,0.05764857
2.48000000,0.22877576,0.58656463,-0.09813231,0.38858078,0.55450631,0.13225019,-0.12805749,0.18098986,-0.56830512,0.15201046,0.46683108,-0.49659299,0.10146699,0.05754994
2.50000000,0.22839883,0.58683706,-0.09829677,0.38770023,0.55462056,0.13247054,-0.12845410,0.18109082,-0.56852106,0.15209181,0.46584810,-0.49694983,0.10177277,0.05744405
2.52000000,0.22799538,0.58712866,-0.09847279,0.38675773,0.55474284,0.13270639,-0.12887863,0.18119887,-0.56875219,0.15217889,0.46479596,-0.49733179,0.10210006,0.05733070
2.54000000,0.22756478,0.58743987,-0.09866066,0.38575181,0.55487335,0.13295810,-0.12933171,0.18131419,-0.56899888,0.15227183,0.46367304,-0.49773943,0.10244938,0.05720973
2.56000000,0.22710646,0.58777113,-0.09886063,0.38468111,0.55501226,0.13322603,-0.12981397,0.18143694,-0.56926145,0.15237075,0.46247780,-0.49817333,0.10282119,0.05708096
2.58000000,0.22661983,0.58812284,-0.09907295,0.38354429,0.55515975,0.13351051,-0.13032601,0.18156727,-0.56954024,0.15247578,0.46120874,-0.49863403,0.10321596,0.05694424
2.60000000,0.22610436,0.58849540,-0.09929785,0.38234010,0.55531599,0.13381185,-0.13086840,0.18170533,-0.56983555,0.15258704,0.45986448,-0.49912203,0.10363413,0.05679943
2.62000000,0.22555954,0.58888918,-0.09953556,0.38106733,0.55548112,0.13413034,-0.13144168,0.18185124,-0.57014768,0.15270463,0.45844366,-0.49963782,0.10407611,0.05664636
2.64000000,0.22498487,0.58930452,-0.09978628,0.37972484,0.55565529,0.13446628,-0.13204636,0.18200515,-0.57047691,0.15282867,0.45694502,-0.50018186,0.10454230,0.05648491
2.66000000,0.22437990,0.58974177,-0.10005023,0.37831156,0.55583865,0.13481994,-0.13268293,0.18216718,-0.57082349,0.15295924,0.45536734,-0.50075460,0.10503308,0.05631494
2.68000000,0.22374419,0.59020123,-0.10032760,0.37682646,0.55603133,0.13519157,-0.13335184,0.18233743,-0.57118769,0.15309645,0.45370950,-0.50135643,0.10554879,0.05613634
2.70000000,0.22307733,0.59068321,-0.10061855,0.37526859,0.55623345,0.13558140,-0.13405354,0.18251604,-0.57156974,0.15324038,0.45197042,-0.50198776,0.10608977,0.05594899
2.72000000,0.22237893,0.59118799,-0.10092327,0.37363704,0.55644513,0.13598968,-0.13478842,0.18270308,-0.57196985,0.15339112,0.45014909,-0.50264894,0.10665635,0.05575278
2.74000000,0.22164862,0.59171582,-0.10124190,0.37193096,0.55666648,0.13641661,-0.13555686,0.18289868,-0.57238824,0.15354875,0.44824456,-0.50334033,0.10724880,0.05554760
2.76000000,0.22088608,0.59226695,-0.10157460,0.37014957,0.55689760,0.13686238,-0.13635923,0.18310290,-0.57282510,0.15371333,0.44625596,-0.50406224,0.10786740,0.05533337
2.78000000,0.22009098,0.59284162,-0.10192150,0.36829213,0.55713859,0.13732718,-0.13719586,0.18331585,-0.57328061,0.15388494,0.44418246,-0.50481497,0.10851242,0.05510999
2.80000000,0.21926304,0.59344001,-0.10228274,0.36635797,0.55738953,0.13781118,-0.13806704,0.18353759,-0.57375494,0.15406364,0.44202332,-0.50559879,0.10918407,0.05487738
2.82000000,0.21840199,0.59406235,-0.10265842,0.36434645,0.55765050,0.13831454,-0.13897306,0.18376820,-0.57424823,0.15424948,0.43977782,-0.50641396,0.10988259,0.05463547
2.84000000,0.21750758,0.59470878,-0.10304865,0.36225702,0.55792159,0.13883739,-0.13991418,0.18400774,-0.57476063,0.15444253,0.43744535,-0.50726070,0.11060817,0.05438419
2.86000000,0.21657961,0.59537948,-0.10345353,0.36008915,0.55820285,0.13937988,-0.14089063,0.18425628,-0.57529227,0.15464282,0.43502532,-0.50813923,0.11136098,0.05412348
2.88000000,0.21561786,0.59607460,-0.10387314,0.35784239,0.55849435,0.13994210,-0.14190261,0.18451386,-0.57584326,0.15485040,0.43251721,-0.50904973,0.11214119,0.05385328
2.90000000,0.21462216,0.59679424,-0.10430757,0.35551632,0.55879614,0.14052417,-0.14295031,0.18478053,-0.57641369,0.15506530,0.42992058,-0.50999237,0.11294894,0.05357354
2.92000000,0.21359236,0.59753854,-0.10475687,0.35311059,0.55910826,0.14112618,-0.14403389,0.18505633,-0.57700366,0.15528757,0.42723502,-0.51096729,0.11378435,0.05328422
2.94000000,0.21252833,0.59830757,-0.10522111,0.35062489,0.55943076,0.14174819,-0.14515350,0.18534130,-0.57761324,0.15551723,0.42446018,-0.51197462,0.11464753,0.05298529
2.96000000,0.21142995,0.59910143,-0.10570033,0.34805896,0.55976366,0.14239029,-0.14630924,0.18563547,-0.57824250,0.15575430,0.42159578,-0.51301447,0.11553858,0.05267670
2.98000000,0.21029715,0.59992017,-0.10619458,0.34541259,0.56010701,0.14305251,-0.14750121,0.18593887,-0.57889148,0.15599879,0.41864159,-0.51408691,0.11645755,0.05235844
3.00000000,0.20912984,0.60076385,-0.10670388,0.34268563,0.56046081,0.14373490,-0.14872948,0.18625150,-0.57956023,0.15625074,0.41559743,-0.51519201,0.11740451,0.05203049
3.02000000,0.20792799,0.60163250,-0.10722825,0.33987796,0.56082508,0.14443748,-0.14999410,0.18657338,-0.58024877,0.15651014,0.41246318,-0.51632982,0.11837950,0.05169284
3.04000000,0.20669156,0.60252613,-0.10776771,0.33698953,0.56119983,0.14516028,-0.15129511,0.18690453,-0.58095712,0.15677701,0.40923876,-0.51750036,0.11938254,0.05134547
3.06000000,0.20542056,0.60344476,-0.10832225,0.33402031,0.56158506,0.14590329,-0.15263250,0.18724493,-0.58168528,0.15705134,0.40592416,-0.51870363,0.12041363,0.05098838
3.08000000,0.20411498,0.60438838,-0.10889188,0.33097034,0.56198076,0.14666651,-0.15400626,0.18759459,-0.58243324,0.15733312,0.40251942,-0.51993964,0.12147276,0.05062159
3.10000000,0.20277487,0.60535695,-0.10947657,0.32783969,0.56238694,0.14744992,-0.15541636,0.18795351,-0.58320098,0.15762237,0.39902461,-0.52120833,0.12255991,0.05024509
3.12000000,0.20140028,0.60635044,-0.11007631,0.32462848,0.56280356,0.14825348,-0.15686274,0.18832165,-0.58398848,0.15791905,0.39543989,-0.52250967,0.12367503,0.04985890
3.14000000,0.19999128,0.60736881,-0.11069106,0.32133689,0.56323062,0.14907716,-0.15834533,0.18869902,-0.58479570,0.15822316,0.39176542,-0.52384359,0.12481807,0.04946305
3.16000000,0.19854796,0.60841198,-0.11132078,0.31796512,0.56366808,0.14992091,-0.15986404,0.18908557,-0.58562258,0.15853468,0.38800145,-0.52521000,0.12598894,0.04905755
3.18000000,0.19707043,0.60947988,-0.11196544,0.31451343,0.56411590,0.15078465,-0.16141874,0.18948129,-0.58646905,0.15885359,0.38414826,-0.52660880,0.12718758,0.04864244
3.20000000,0.19555881,0.61057241,-0.11262496,0.31098211,0.56457406,0.15166832,-0.16300931,0.18988614,-0.58733506,0.15917985,0.38020617,-0.52803987,0.12841386,0.04821776
3.22000000,0.19401324,0.61168947,-0.11329929,0.30737150,0.56504251,0.15257183,-0.16463559,0.19030007,-0.58822051,0.15951344,0.37617558,-0.52950307,0.12966768,0.04778354
3.24000000,0.19243390,0.61283095,-0.11398836,0.30368197,0.56552119,0.15349509,-0.16629742,0.19072306,-0.58912531,0.15985431,0.37205689,-0.53099825,0.13094890,0.04733983
3.26000000,0.19082096,0.61399672,-0.11469209,0.29991395,0.56601006,0.15443799,-0.16799460,0.19115504,-0.59004936,0.16020244,0.36785058,-0.53252524,0.13225738,0.04688668
3.28000000,0.18917462,0.61518662,-0.11541040,0.29606791,0.56650905,0.15540042,-0.16972693,0.19159597,-0.59099255,0.16055778,0.36355716,-0.53408385,0.13359296,0.04642414
3.30000000,0.18749509,0.61640052,-0.11614318,0.29214432,0.56701810,0.15638225,-0.17149418,0.19204579,-0.59195475,0.16092028,0.35917719,-0.53567388,0.13495546,0.04595229
3.32000000,0.18578260,0.61763823,-0.11689035,0.28814375,0.56753714,0.15738335,-0.17329611,0.19250443,-0.59293583,0.16128990,0.35471127,-0.53729512,0.13634470,0.04547117
3.34000000,0.18403740,0.61889959,-0.11765178,0.28406675,0.56806609,0.15840357,-0.17513247,0.19297184,-0.59393566,0.16166658,0.35016003,-0.53894732,0.13776048,0.04498086
3.36000000,0.18225974,0.62018440,-0.11842738,0.27991394,0.56860488,0.15944276,-0.17700296,0.19344793,-0.59495407,0.16205026,0.34552418,-0.54063025,0.13920258,0.04448143
3.38000000,0.18044992,0.62149246,-0.11921701,0.27568598,0.56915343,0.16050075,-0.17890731,0.19393265,-0.59599092,0.16244088,0.34080442,-0.54234363,0.14067078,0.04397297
3.40000000,0.17860822,0.62282356,-0.12002055,0.27138355,0.56971163,0.16157738,-0.18084520,0.19442590,-0.59704603,0.16283838,0.33600154,-0.54408719,0.14216484,0.04345555
3.42000000,0.17673494,0.62417748,-0.12083786,0.26700737,0.57027940,0.16267247,-0.18281631,0.19492760,-0.59811922,0.16324270,0.33111632,-0.54586064,0.14368451,0.04292926
3.44000000,0.17483043,0.62555398,-0.12166881,0.26255820,0.57085664,0.16378582,-0.18482030,0.19543768,-0.59921032,0.16365376,0.32614962,-0.54766367,0.14522952,0.04239419
3.46000000,0.17289500,0.62695283,-0.12251324,0.25803682,0.57144325,0.16491724,-0.18685681,0.19595603,-0.60031912,0.16407150,0.32110232,-0.54949596,0.14679961,0.04185044
3.48000000,0.17092903,0.62837375,-0.12337100,0.25344407,0.57203912,0.16606652,-0.18892547,0.19648256,-0.60144542,0.16449582,0.31597534,-0.55135717,0.14839449,0.04129811
3.50000000,0.16893286,0.62981649,-0.12424193,0.24878079,0.57264414,0.16723345,-0.19102589,0.19701718,-0.60258902,0.16492667,0.31076963,-0.55324696,0.15001386,0.04073729
3.52000000,0.16690689,0.63128078,-0.12512587,0.24404788,0.57325819,0.16841781,-0.19315768,0.19755979,-0.60374970,0.16536394,0.30548620,-0.55516498,0.15165741,0.04016810
3.54000000,0.16485150,0.63276632,-0.12602264,0.23924626,0.57388116,0.16961935,-0.19532041,0.19811027,-0.60492723,0.16580757,0.30012605,-0.55711083,0.15332481,0.03959065
3.56000000,0.16276711,0.63427283,-0.12693207,0.23437688,0.57451292,0.17083786,-0.19751367,0.19866851,-0.60612137,0.16625745,0.29469027,-0.55908415,0.15501575,0.03900505
3.58000000,0.16065413,0.63580000,-0.12785397,0.22944072,0.57515335,0.17207307,-0.19973700,0.19923442,-0.60733189,0.16671351,0.28917994,-0.56108453,0.15672988,0.03841141
3.60000000,0.15851300,0.63734751,-0.12878815,0.22443879,0.57580230,0.17332475,-0.20198996,0.19980786,-0.60855854,0.16717564,0.28359619,-0.56311156,0.15846685,0.03780987
3.62000000,0.15634417,0.63891505,-0.12973441,0.21937214,0.57645966,0.17459261,-0.20427207,0.20038873,-0.60980107,0.16764375,0.27794019,-0.56516482,0.16022629,0.03720055
3.64000000,0.15414809,0.64050229,-0.13069257,0.21424183,0.57712527,0.17587641,-0.20658285,0.20097689,-0.61105920,0.16811774,0.27221312,-0.56724388,0.16200784,0.03658356
3.66000000,0.15192522,0.64210888,-0.13166241,0.20904896,0.57779900,0.17717586,-0.20892181,0.20157222,-0.61233268,0.16859751,0.26641622,-0.56934829,0.16381111,0.03595906
3.68000000,0.14967606,0.64373447,-0.13264373,0.20379466,0.57848070,0.17849069,-0.21128844,0.20217460,-0.61362122,0.16908296,0.26055074,-0.57147760,0.16563572,0.03532716
3.70000000,0.14740109,0.64537872,-0.13363630,0.19848006,0.57917022,0.17982060,-0.21368223,0.20278389,-0.61492454,0.16957398,0.25461796,-0.57363134,0.16748126,0.03468802
3.72000000,0.14510082,0.64704126,-0.13463992,0.19310636,0.57986741,0.18116531,-0.21610264,0.20339996,-0.61624237,0.17007046,0.24861919,-0.57580904,0.16934733,0.03404177
3.74000000,0.14277576,0.64872171,-0.13565435,0.18767475,0.58057211,0.18252450,-0.21854913,0.20402266,-0.61757439,0.17057229,0.24255578,-0.57801020,0.17123351,0.03338855
3.76000000,0.14042644,0.65041970,-0.13667937,0.18218646,0.58128417,0.18389788,-0.22102116,0.20465187,-0.61892031,0.17107936,0.23642909,-0.58023433,0.17313937,0.03272851
3.78000000,0.13805339,0.65213484,-0.13771473,0.17664273,0.58200342,0.18528513,-0.22351815,0.20528742,-0.62027983,0.17159155,0.23024052,-0.58248093,0.17506448,0.03206181
3.80000000,0.13565715,0.65386674,-0.13876022,0.17104484,0.58272970,0.18668594,-0.22603954,0.20592919,-0.62165263,0.17210874,0.22399149,-0.58474947,0.17700840,0.03138860
3.82000000,0.13323828,0.65561499,-0.13981558,0.16539409,0.58346284,0.18809997,-0.22858474,0.20657702,-0.62303840,0.17263082,0.21768344,-0.58703944,0.17897068,0.03070903
3.84000000,0.13079735,0.65737919,-0.14088056,0.15969179,0.58420266,0.18952690,-0.23115316,0.20723076,-0.62443680,0.17315765,0.21131785,-0.58935030,0.18095086,0.03002326
3.86000000,0.12833493,0.65915892,-0.14195493,0.15393927,0.58494900,0.19096640,-0.23374419,0.20789025,-0.62584752,0.17368913,0.20489621,-0.59168151,0.18294847,0.02933145
3.88000000,0.12585159,0.66095377,-0.14303841,0.14813791,0.58570167,0.19241812,-0.23635723,0.20855535,-0.62727022,0.17422512,0.19842004,-0.59403251,0.18496305,0.02863376
3.90000000,0.12334793,0.66276330,-0.14413076,0.14228908,0.58646051,0.19388172,-0.23899165,0.20922589,-0.62870456,0.17476550,0.19189087,-0.59640275,0.18699411,0.02793037
3.92000000,0.12082456,0.66458709,-0.14523172,0.13639417,0.58722532,0.19535685,-0.24164682,0.20990171,-0.63015020,0.17531014,0.18531028,-0.59879166,0.18904117,0.02722144
3.94000000,0.11828206,0.66642470,-0.14634102,0.13045461,0.58799593,0.19684315,-0.24432210,0.21058264,-0.63160679,0.17585890,0.17867983,-0.60119867,0.19110374,0.02650713
3.96000000,0.11572107,0.66827567,-0.14745839,0.12447183,0.58877214,0.19834027,-0.24701685,0.21126854,-0.63307398,0.17641165,0.17200113,-0.60362319,0.19318132,0.02578763
3.98000000,0.11314219,0.67013957,-0.14858356,0.11844728,0.58955378,0.19984784,-0.24973042,0.21195922,-0.63455142,0.17696826,0.16527581,-0.60606464,0.19527340,0.02506310
4.00000000,0.11054607,0.67201594,-0.14971625,0.11238243,0.59034064,0.20136550,-0.25246213,0.21265452,-0.63603873,0.17752859,0.15850550,-0.60852242,0.19737948,0.02433373
4.02000000,0.10793333,0.67390431,-0.15085620,0.10627877,0.59113253,0.20289287,-0.25521133,0.21335427,-0.63753557,0.17809252,0.15169187,-0.61099593,0.19949903,0.02359969
4.04000000,0.10530462,0.67580423,-0.15200311,0.10013779,0.59192927,0.20442957,-0.25797733,0.21405830,-0.63904155,0.17865988,0.14483658,-0.61348456,0.20163154,0.02286116
4.06000000,0.10266059,0.67771522,-0.15315671,0.09396103,0.59273065,0.20597523,-0.26075946,0.21476644,-0.64055631,0.17923056,0.13794133,-0.61598770,0.20377648,0.02211833
4.08000000,0.10000189,0.67963682,-0.15431671,0.08774999,0.59353648,0.20752947,-0.26355702,0.21547850,-0.64207948,0.17980440,0.13100783,-0.61850472,0.20593332,0.02137138
4.10000000,0.09732918,0.68156853,-0.15548282,0.08150623,0.59434655,0.20909190,-0.26636932,0.21619431,-0.64361067,0.18038127,0.12403781,-0.62103501,0.20810153,0.02062049
4.12000000,0.09464313,0.68350989,-0.15665475,0.07523131,0.59516067,0.21066212,-0.26919566,0.21691370,-0.64514950,0.18096101,0.11703299,-0.62357792,0.21028055,0.01986586
4.14000000,0.09194442,0.68546041,-0.15783221,0.06892679,0.59597863,0.21223975,-0.27203532,0.21763648,-0.64669559,0.18154349,0.10999513,-0.62613283,0.21246986,0.01910766
4.16000000,0.08923371,0.68741959,-0.15901490,0.06259426,0.59680022,0.21382439,-0.27488761,0.21836247,-0.64824856,0.18212855,0.10292600,-0.62869909,0.21466889,0.01834610
4.18000000,0.08651168,0.68938695,-0.16020252,0.05623529,0.59762524,0.21541564,-0.27775180,0.21909149,-0.64980800,0.18271606,0.09582737,-0.63127606,0.21687710,0.01758136
4.20000000,0.08377904,0.69136199,-0.16139478,0.04985151,0.59845348,0.21701311,-0.28062717,0.21982336,-0.65137353,0.18330586,0.08870102,-0.63386309,0.21909393,0.01681363
4.22000000,0.08103645,0.69334422,-0.16259138,0.04344451,0.59928473,0.21861638,-0.28351300,0.22055789,-0.65294475,0.18389781,0.08154877,-0.63645953,0.22131882,0.01604311
4.24000000,0.07828462,0.69533312,-0.16379201,0.03701592,0.60011878,0.22022506,-0.28640855,0.22129489,-0.65452127,0.18449175,0.07437241,-0.63906472,0.22355121,0.01526999
4.26000000,0.07552425,0.69732820,-0.16499637,0.03056737,0.60095543,0.22183873,-0.28931309,0.22203418,-0.65610268,0.18508754,0.06717376,-0.64167799,0.22579053,0.01449447
4.28000000,0.07275603,0.69932894,-0.16620415,0.02410049,0.60179445,0.22345699,-0.29222589,0.22277557,-0.65768859,0.18568502,0.05995466,-0.64429870,0.22803621,0.01371675
4.30000000,0.06998067,0.70133485,-0.16741505,0.01761692,0.60263563,0.22507943,-0.29514620,0.22351888,-0.65927859,0.18628404,0.05271693,-0.64692616,0.23028769,0.01293703
4.32000000,0.06719888,0.70334541,-0.16862875,0.01111833,0.60347877,0.22670562,-0.29807328,0.22426391,-0.66087228,0.18688445,0.04546242,-0.64955972,0.23254439,0.01215549
4.34000000,0.06441136,0.70536011,-0.16984496,0.00460635,0.60432364,0.22833517,-0.30100639,0.22501047,-0.66246924,0.18748609,0.03819298,-0.65219870,0.23480574,0.01137235
4.36000000,0.06161882,0.70737844,-0.17106335,-0.00191734,0.60517003,0.22996764,-0.30394478,0.22575838,-0.66406908,0.18808882,0.03091045,-0.65484243,0.23707115,0.01058779
4.38000000,0.05882198,0.70939987,-0.17228362,-0.00845109,0.60601773,0.23160263,-0.30688770,0.22650744,-0.66567139,0.18869248,0.02361671,-0.65749023,0.23934005,0.00980203
4.40000000,0.05602155,0.71142390,-0.17350545,-0.01499321,0.60686651,0.23323972,-0.30983438,0.22725746,-0.66727575,0.18929691,0.01631361,-0.66014143,0.24161187,0.00901526
4.42000000,0.05321825,0.71345001,-0.17472854,-0.02154205,0.60771617,0.23487849,-0.31278410,0.22800824,-0.66888176,0.18990196,0.00900301,-0.66279534,0.24388601,0.00822768
4.44000000,0.05041280,0.71547767,-0.17595257,-0.02809592,0.60856648,0.23651851,-0.31573608,0.22875961,-0.67048900,0.19050748,0.00168680,-0.66545130,0.24616191,0.00743950
4.46000000,0.04760591,0.71750637,-0.17717722,-0.03465314,0.60941722,0.23815938,-0.31868957,0.22951136,-0.67209706,0.19111330,-0.00563316,-0.66810862,0.24843897,0.00665091
4.48000000,0.04479830,0.71953559,-0.17840219,-0.04121205,0.61026818,0.23980067,-0.32164382,0.23026331,-0.67370554,0.19171928,-0.01295499,-0.67076661,0.25071661,0.00586213
4.50000000,0.04199069,0.72156481,-0.17962716,-0.04777095,0.61111914,0.24144196,-0.32459806,0.23101525,-0.67531401,0.19232526,-0.02027682,-0.67342461,0.25299425,0.00507334
4.52000000,0.03918379,0.72359351,-0.18085181,-0.05432818,0.61196988,0.24308282,-0.32755155,0.23176700,-0.67692208,0.19293109,-0.02759678,-0.67608193,0.25527131,0.00428475
4.54000000,0.03637834,0.72562117,-0.18207584,-0.06088205,0.61282019,0.24472285,-0.33050353,0.23251837,-0.67852932,0.19353661,-0.03491300,-0.67873789,0.25754720,0.00349657
4.56000000,0.03357504,0.72764727,-0.18329893,-0.06743089,0.61366984,0.24636162,-0.33345325,0.23326915,-0.68013532,0.19414166,-0.04222359,-0.68139180,0.25982135,0.00270899
4.58000000,0.03077461,0.72967130,-0.18452076,-0.07397301,0.61451863,0.24799870,-0.33639993,0.23401917,-0.68173969,0.19474609,-0.04952669,-0.68404300,0.26209316,0.00192222
4.60000000,0.02797777,0.73169273,-0.18574103,-0.08050676,0.61536632,0.24963369,-0.33934285,0.23476823,-0.68334199,0.19534975,-0.05682043,-0.68669080,0.26436207,0.00113646
4.62000000,0.02518524,0.73371106,-0.18695942,-0.08703045,0.61621272,0.25126617,-0.34228124,0.23551614,-0.68494183,0.19595247,-0.06410296,-0.68933453,0.26662748,0.00035191
4.64000000,0.02239772,0.73572576,-0.18817563,-0.09354242,0.61705759,0.25289571,-0.34521435,0.23626270,-0.68653880,0.19655412,-0.07137240,-0.69197351,0.26888882,-0.00043124
4.66000000,0.01961592,0.73773632,-0.18938933,-0.10004102,0.61790072,0.25452191,-0.34814143,0.23700773,-0.68813248,0.19715453,-0.07862691,-0.69460707,0.27114552,-0.00121277
4.68000000,0.01684056,0.73974223,-0.19060023,-0.10652458,0.61874191,0.25614434,-0.35106174,0.23775104,-0.68972248,0.19775355,-0.08586464,-0.69723453,0.27339700,-0.00199250
4.70000000,0.01407234,0.74174298,-0.19180801,-0.11299147,0.61958093,0.25776260,-0.35397454,0.23849243,-0.69130839,0.19835103,-0.09308374,-0.69985524,0.27564269,-0.00277022
4.72000000,0.01131197,0.74373805,-0.19301237,-0.11944002,0.62041758,0.25937628,-0.35687908,0.23923172,-0.69288981,0.19894681,-0.10028239,-0.70246851,0.27788201,-0.00354574
4.74000000,0.00856014,0.74572696,-0.19421300,-0.12586861,0.62125163,0.26098495,-0.35977463,0.23996873,-0.69446632,0.19954075,-0.10745875,-0.70507370,0.28011440,-0.00431886
4.76000000,0.00581756,0.74770918,-0.19540959,-0.13227561,0.62208288,0.26258823,-0.36266046,0.24070325,-0.69603755,0.20013270,-0.11461101,-0.70767014,0.28233929,-0.00508937
4.78000000,0.00308491,0.74968422,-0.19660186,-0.13865939,0.62291112,0.26418569,-0.36553583,0.24143512,-0.69760308,0.20072250,-0.12173735,-0.71025717,0.28455612,-0.00585710
4.80000000,0.00036289,0.75165158,-0.19778948,-0.14501835,0.62373614,0.26577695,-0.36840002,0.24216414,-0.69916252,0.20131001,-0.12883598,-0.71283414,0.28676433,-0.00662184
4.82000000,-0.00234782,0.75361076,-0.19897217,-0.15135089,0.62455773,0.26736159,-0.37125231,0.24289013,-0.70071548,0.20189508,-0.13590511,-0.71540040,0.28896336,-0.00738341
4.84000000,-0.00504654,0.75556128,-0.20014963,-0.15765541,0.62537569,0.26893922,-0.37409197,0.24361291,-0.70226157,0.20247756,-0.14294297,-0.71795531,0.29115266,-0.00814160
4.86000000,-0.00773259,0.75750264,-0.20132156,-0.16393033,0.62618980,0.27050944,-0.37691831,0.24433230,-0.70380041,0.20305730,-0.14994779,-0.72049822,0.29333169,-0.00889624
4.88000000,-0.01040530,0.75943436,-0.20248767,-0.17017409,0.62699988,0.27207187,-0.37973061,0.24504811,-0.70533160,0.20363417,-0.15691782,-0.72302850,0.29549989,-0.00964713
4.90000000,-0.01306400,0.76135595,-0.20364767,-0.17638512,0.62780571,0.27362610,-0.38252817,0.24576017,-0.70685476,0.20420801,-0.16385131,-0.72554553,0.29765673,-0.01039408
4.92000000,-0.01570803,0.76326694,-0.20480127,-0.18256189,0.62860709,0.27517176,-0.38531030,0.24646831,-0.70836952,0.20477868,-0.17074656,-0.72804866,0.29980168,-0.01113691
4.94000000,-0.01833674,0.76516686,-0.20594818,-0.18870287,0.62940382,0.27670847,-0.38807630,0.24717234,-0.70987551,0.20534605,-0.17760185,-0.73053729,0.30193419,-0.01187544
4.96000000,-0.02094948,0.76705523,-0.20708813,-0.19480653,0.63019572,0.27823584,-0.39082550,0.24787209,-0.71137234,0.20590997,-0.18441548,-0.73301080,0.30405374,-0.01260948
4.98000000,-0.02354560,0.76893160,-0.20822082,-0.20087138,0.63098258,0.27975349,-0.39355721,0.24856739,-0.71285966,0.20647031,-0.19118579,-0.73546859,0.30615982,-0.01333885
5.00000000,-0.02612447,0.77079550,-0.20934599,-0.20689593,0.63176422,0.28126106,-0.39627078,0.24925807,-0.71433709,0.20702692,-0.19791111,-0.73791004,0.30825190,-0.01406338
5.02000000,-0.02868547,0.77264647,-0.21046336,-0.21287871,0.63254043,0.28275818,-0.39896553,0.24994397,-0.71580428,0.20757967,-0.20458981,-0.74033456,0.31032948,-0.01478288
5.04000000,-0.03122796,0.77448408,-0.21157266,-0.21881827,0.63331104,0.28424449,-0.40164081,0.25062490,-0.71726087,0.20812843,-0.21122026,-0.74274157,0.31239204,-0.01549718
5.06000000,-0.03375134,0.77630787,-0.21267361,-0.22471318,0.63407585,0.28571961,-0.40429598,0.25130072,-0.71870651,0.20867306,-0.21780086,-0.74513048,0.31443911,-0.01620612
5.08000000,-0.03625500,0.77811740,-0.21376597,-0.23056201,0.63483468,0.28718321,-0.40693040,0.25197126,-0.72014085,0.20921344,-0.22433002,-0.74750072,0.31647017,-0.01690951
5.10000000,-0.03873833,0.77991225,-0.21484945,-0.23636337,0.63558736,0.28863494,-0.40954344,0.25263636,-0.72156355,0.20974943,-0.23080620,-0.74985172,0.31848475,-0.01760719
5.12000000,-0.04120076,0.78169198,-0.21592382,-0.24211588,0.63633370,0.29007443,-0.41213447,0.25329585,-0.72297427,0.21028091,-0.23722784,-0.75218293,0.32048236,-0.01829900
5.14000000,-0.04364169,0.78345618,-0.21698880,-0.24781819,0.63707352,0.29150137,-0.41470289,0.25394959,-0.72437268,0.21080775,-0.24359343,-0.75449379,0.32246254,-0.01898478
5.16000000,-0.04606056,0.78520443,-0.21804416,-0.25346894,0.63780666,0.29291540,-0.41724809,0.25459742,-0.72575844,0.21132983,-0.24990147,-0.75678376,0.32442482,-0.01966435
5.18000000,-0.04845679,0.78693633,-0.21908964,-0.25906683,0.63853293,0.29431620,-0.41976948,0.25523919,-0.72713124,0.21184702,-0.25615050,-0.75905230,0.32636874,-0.02033756
5.20000000,-0.05082984,0.78865147,-0.22012501,-0.26461055,0.63925218,0.29570345,-0.42226647,0.25587474,-0.72849076,0.21235921,-0.26233907,-0.76129890,0.32829385,-0.02100426
5.22000000,-0.05317917,0.79034946,-0.22115003,-0.27009885,0.63996424,0.29707683,-0.42473850,0.25650395,-0.72983669,0.21286627,-0.26846576,-0.76352303,0.33019971,-0.02166430
5.24000000,-0.05550423,0.79202991,-0.22216446,-0.27553046,0.64066895,0.29843603,-0.42718499,0.25712665,-0.73116871,0.21336810,-0.27452917,-0.76572419,0.33208589,-0.02231751
5.26000000,-0.05780450,0.79369245,-0.22316807,-0.28090416,0.64136614,0.29978073,-0.42960540,0.25774272,-0.73248653,0.21386458,-0.28052794,-0.76790189,0.33395196,-0.02296377
5.28000000,-0.06007947,0.79533670,-0.22416065,-0.28621875,0.64205566,0.30111064,-0.43199919,0.25835201,-0.73378986,0.21435560,-0.28646072,-0.77005563,0.33579750,-0.02360291
5.30000000,-0.06232863,0.79696229,-0.22514196,-0.29147306,0.64273736,0.30242547,-0.43436582,0.25895439,-0.73507840,0.21484105,-0.29232621,-0.77218493,0.33762211,-0.02423481
5.32000000,-0.06455149,0.79856888,-0.22611181,-0.29666593,0.64341109,0.30372492,-0.43670478,0.25954972,-0.73635187,0.21532082,-0.29812311,-0.77428935,0.33942538,-0.02485931
5.34000000,-0.06674758,0.80015612,-0.22706996,-0.30179624,0.64407670,0.30500872,-0.43901556,0.26013788,-0.73761001,0.21579482,-0.30385017,-0.77636840,0.34120693,-0.02547629
5.36000000,-0.06891641,0.80172366,-0.22801623,-0.30686289,0.64473406,0.30627659,-0.44129767,0.26071875,-0.73885253,0.21626293,-0.30950617,-0.77842167,0.34296637,-0.02608562
5.38000000,-0.07105754,0.80327117,-0.22895041,-0.31186481,0.64538301,0.30752826,-0.44355063,0.26129219,-0.74007918,0.21672506,-0.31508992,-0.78044870,0.34470334,-0.02668716
5.40000000,-0.07317052,0.80479834,-0.22987231,-0.31680097,0.64602344,0.30876348,-0.44577396,0.26185810,-0.74128970,0.21718111,-0.32060025,-0.78244908,0.34641746,-0.02728080
5.42000000,-0.07525491,0.80630485,-0.23078174,-0.32167036,0.64665520,0.30998198,-0.44796722,0.26241634,-0.74248385,0.21763100,-0.32603603,-0.78442239,0.34810840,-0.02786640
5.44000000,-0.07731029,0.80779039,-0.23167851,-0.32647198,0.64727816,0.31118353,-0.45012995,0.26296682,-0.74366137,0.21807462,-0.33139618,-0.78636825,0.34977581,-0.02844385
5.46000000,-0.07933627,0.80925468,-0.23256244,-0.33120489,0.64789222,0.31236788,-0.45226174,0.26350943,-0.74482205,0.21851190,-0.33667962,-0.78828626,0.35141936,-0.02901304
5.48000000,-0.08133243,0.81069742,-0.23343338,-0.33586816,0.64849724,0.31353481,-0.45436216,0.26404405,-0.74596565,0.21894274,-0.34188532,-0.79017606,0.35303872,-0.02957386
5.50000000,-0.08329841,0.81211835,-0.23429114,-0.34046092,0.64909311,0.31468409,-0.45643082,0.26457058,-0.74709196,0.21936707,-0.34701230,-0.79203727,0.35463360,-0.03012619
5.52000000,-0.08523383,0.81351719,-0.23513557,-0.34498229,0.64967972,0.31581551,-0.45846733,0.26508893,-0.74820076,0.21978480,-0.35205960,-0.79386956,0.35620369,-0.03066994
5.54000000,-0.08713835,0.81489369,-0.23596652,-0.34943147,0.65025696,0.31692887,-0.46047132,0.26559901,-0.74929185,0.22019586,-0.35702630,-0.79567259,0.35774871,-0.03120501
5.56000000,-0.08901162,0.81624761,-0.23678383,-0.35380765,0.65082473,0.31802395,-0.46244243,0.26610071,-0.75036505,0.22060018,-0.36191152,-0.79744604,0.35926838,-0.03173130
5.58000000,-0.09085333,0.81757871,-0.23758737,-0.35811008,0.65138293,0.31910058,-0.46438032,0.26659396,-0.75142016,0.22099769,-0.36671441,-0.79918960,0.36076244,-0.03224872
5.60000000,-0.09266315,0.81888677,-0.23837700,-0.36233804,0.65193147,0.32015858,-0.46628467,0.26707868,-0.75245700,0.22138831,-0.37143416,-0.80090298,0.36223064,-0.03275718
5.62000000,-0.09444080,0.82017158,-0.23915260,-0.36649085,0.65247026,0.32119777,-0.46815516,0.26755477,-0.75347542,0.22177199,-0.37607002,-0.80258591,0.36367274,-0.03325661
5.64000000,-0.09618600,0.82143294,-0.23991403,-0.37056784,0.65299922,0.32221799,-0.46999152,0.26802218,-0.75447524,0.22214867,-0.38062125,-0.80423811,0.36508852,-0.03374692
5.66000000,-0.09789850,0.82267066,-0.24066120,-0.37456842,0.65351826,0.32321908,-0.47179345,0.26848082,-0.75545632,0.22251828,-0.38508717,-0.80585934,0.36647775,-0.03422803
5.68000000,-0.09957803,0.82388455,-0.24139398,-0.37849200,0.65402731,0.32420091,-0.47356070,0.26893064,-0.75641853,0.22288079,-0.38946714,-0.80744938,0.36784026,-0.03469989
5.70000000,-0.10122437,0.82507445,-0.24211228,-0.38233805,0.65452630,0.32516334,-0.47529303,0.26937157,-0.75736171,0.22323612,-0.39376056,-0.80900799,0.36917583,-0.03516243
5.72000000,-0.10283731,0.82624022,-0.24281602,-0.38610607,0.65501517,0.32610624,-0.47699021,0.26980355,-0.75828576,0.22358425,-0.39796687,-0.81053498,0.37048431,-0.03561558
5.74000000,-0.10441665,0.82738170,-0.24350509,-0.38979559,0.65549385,0.32702950,-0.47865204,0.27022654,-0.75919057,0.22392513,-0.40208556,-0.81203016,0.37176553,-0.03605929
5.76000000,-0.10596221,0.82849876,-0.24417942,-0.39340621,0.65596230,0.32793301,-0.48027832,0.27064047,-0.76007602,0.22425872,-0.40611615,-0.81349336,0.37301935,-0.03649351
5.78000000,-0.10747383,0.82959130,-0.24483894,-0.39693753,0.65642045,0.32881668,-0.48186889,0.27104532,-0.76094202,0.22458498,-0.41005824,-0.81492443,0.37424564,-0.03691819
5.80000000,-0.10895137,0.83065919,-0.24548360,-0.40038922,0.65686828,0.32968043,-0.48342359,0.27144104,-0.76178850,0.22490388,-0.41391143,-0.81632323,0.37544427,-0.03733330
5.82000000,-0.11039469,0.83170236,-0.24611332,-0.40376099,0.65730574,0.33052417,-0.48494230,0.27182759,-0.76261538,0.22521540,-0.41767540,-0.81768964,0.37661515,-0.03773880
5.84000000,-0.11180369,0.83272073,-0.24672807,-0.40705258,0.65773279,0.33134785,-0.48642489,0.27220496,-0.76342259,0.22551951,-0.42134987,-0.81902356,0.37775819,-0.03813465
5.86000000,-0.11317828,0.83371422,-0.24732781,-0.41026378,0.65814942,0.33215142,-0.48787127,0.27257310,-0.76421009,0.22581620,-0.42493460,-0.82032490,0.37887331,-0.03852084
5.88000000,-0.11451839,0.83468280,-0.24791250,-0.41339443,0.65855559,0.33293483,-0.48928137,0.27293202,-0.76497784,0.22610544,-0.42842940,-0.82159359,0.37996045,-0.03889733
5.90000000,-0.11582396,0.83562641,-0.24848213,-0.41644441,0.65895130,0.33369805,-0.49065513,0.27328168,-0.76572580,0.22638723,-0.43183414,-0.82282960,0.38101959,-0.03926413
5.92000000,-0.11709497,0.83654504,-0.24903667,-0.41941363,0.65933653,0.33444106,-0.49199252,0.27362209,-0.76645396,0.22666156,-0.43514874,-0.82403287,0.38205067,-0.03962122
5.94000000,-0.11833140,0.83743867,-0.24957613,-0.42230206,0.65971128,0.33516385,-0.49329353,0.27395323,-0.76716230,0.22692842,-0.43837316,-0.82520341,0.38305371,-0.03996858
5.96000000,-0.11953325,0.83830732,-0.25010050,-0.42510973,0.66007555,0.33586644,-0.49455815,0.27427511,-0.76785084,0.22718783,-0.44150741,-0.82634122,0.38402870,-0.04030624
5.98000000,-0.12070055,0.83915100,-0.25060980,-0.42783669,0.66042935,0.33654883,-0.49578642,0.27458774,-0.76851959,0.22743977,-0.44455157,-0.82744632,0.38497566,-0.04063419
6.00000000,-0.12183336,0.83996974,-0.25110404,-0.43048306,0.66077269,0.33721105,-0.49697839,0.27489114,-0.76916857,0.22768427,-0.44750577,-0.82851876,0.38589464,-0.04095245
6.02000000,-0.12293173,0.84076360,-0.25158327,-0.43304899,0.66110560,0.33785314,-0.49813413,0.27518531,-0.76979783,0.22792134,-0.45037016,-0.82955861,0.38678568,-0.04126103
6.04000000,-0.12399577,0.84153263,-0.25204751,-0.43553469,0.66142810,0.33847516,-0.49925374,0.27547028,-0.77040741,0.22815099,-0.45314500,-0.83056594,0.38764887,-0.04155997
6.06000000,-0.12502556,0.84227693,-0.25249681,-0.43794042,0.66174022,0.33907716,-0.50033732,0.27574608,-0.77099738,0.22837326,-0.45583056,-0.83154086,0.38848428,-0.04184929
6.08000000,-0.12602126,0.84299658,-0.25293124,-0.44026649,0.66204201,0.33965923,-0.50138502,0.27601275,-0.77156782,0.22858817,-0.45842720,-0.83248350,0.38929203,-0.04212903
6.10000000,-0.12698301,0.84369169,-0.25335085,-0.44251325,0.66233351,0.34022146,-0.50239701,0.27627033,-0.77211880,0.22879575,-0.46093530,-0.83339400,0.39007224,-0.04239923
6.12000000,-0.12791099,0.84436239,-0.25375573,-0.44468112,0.66261477,0.34076394,-0.50337345,0.27651887,-0.77265044,0.22899604,-0.46335533,-0.83427253,0.39082505,-0.04265994
6.14000000,-0.12880539,0.84500883,-0.25414596,-0.44677055,0.66288585,0.34128680,-0.50431457,0.27675841,-0.77316284,0.22918908,-0.46568780,-0.83511927,0.39155062,-0.04291122
6.16000000,-0.12966645,0.84563116,-0.25452164,-0.44878206,0.66314683,0.34179015,-0.50522059,0.27698902,-0.77365614,0.22937493,-0.46793330,-0.83593444,0.39224914,-0.04315313
6.18000000,-0.13049439,0.84622956,-0.25488287,-0.45071623,0.66339777,0.34227416,-0.50609177,0.27721076,-0.77413046,0.22955363,-0.47009244,-0.83671826,0.39292080,-0.04338573
6.20000000,-0.13128948,0.84680422,-0.25522978,-0.45257367,0.66363876,0.34273896,-0.50692840,0.27742371,-0.77458597,0.22972524,-0.47216594,-0.83747099,0.39356581,-0.04360911
6.22000000,-0.13205203,0.84735535,-0.25556248,-0.45435506,0.66386988,0.34318473,-0.50773077,0.27762793,-0.77502283,0.22988982,-0.47415454,-0.83819290,0.39418442,-0.04382335
6.24000000,-0.13278233,0.84788318,-0.25588111,-0.45606114,0.66409123,0.34361166,-0.50849922,0.27782353,-0.77544122,0.23004745,-0.47605907,-0.83888428,0.39477687,-0.04402852
6.26000000,-0.13348074,0.84838796,-0.25618583,-0.45769269,0.66430291,0.34401993,-0.50923409,0.27801057,-0.77584134,0.23019819,-0.47788040,-0.83954547,0.39534344,-0.04422474
6.28000000,-0.13414760,0.84886994,-0.25647678,-0.45925056,0.66450503,0.34440977,-0.50993579,0.27818918,-0.77622338,0.23034212,-0.47961949,-0.84017680,0.39588443,-0.04441209
6.30000000,-0.13478331,0.84932941,-0.25675414,-0.46073566,0.66469770,0.34478140,-0.51060470,0.27835943,-0.77658758,0.23047933,-0.48127733,-0.84077863,0.39640014,-0.04459069
6.32000000,-0.13538828,0.84976665,-0.25701809,-0.46214894,0.66488107,0.34513505,-0.51124127,0.27852146,-0.77693417,0.23060990,-0.48285500,-0.84135137,0.39689092,-0.04476066
6.34000000,-0.13596295,0.85018199,-0.25726882,-0.46349142,0.66505524,0.34547100,-0.51184595,0.27867537,-0.77726339,0.23073393,-0.48435364,-0.84189541,0.39735711,-0.04492211
6.36000000,-0.13650777,0.85057577,-0.25750653,-0.46476419,0.66522037,0.34578949,-0.51241923,0.27882128,-0.77757552,0.23085153,-0.48577446,-0.84241120,0.39779909,-0.04507517
6.38000000,-0.13702324,0.85094833,-0.25773143,-0.46596839,0.66537661,0.34609083,-0.51296162,0.27895934,-0.77787083,0.23096278,-0.48711873,-0.84289920,0.39821726,-0.04521999
6.40000000,-0.13750986,0.85130004,-0.25794375,-0.46710521,0.66552410,0.34637530,-0.51347366,0.27908967,-0.77814962,0.23106781,-0.48838778,-0.84335989,0.39861203,-0.04535671
6.42000000,-0.13796819,0.85163130,-0.25814372,-0.46817591,0.66566301,0.34664323,-0.51395592,0.27921242,-0.77841220,0.23116674,-0.48958303,-0.84379380,0.39898384,-0.04548547
6.44000000,-0.13839878,0.85194251,-0.25833158,-0.46918182,0.66579352,0.34689495,-0.51440900,0.27932774,-0.77865888,0.23125967,-0.49070595,-0.84420144,0.39933315,-0.04560645
6.46000000,-0.13880223,0.85223411,-0.25850761,-0.47012433,0.66591580,0.34713080,-0.51483353,0.27943580,-0.77889002,0.23134675,-0.49175808,-0.84458339,0.39966045,-0.04571979
6.48000000,-0.13917916,0.85250654,-0.25867207,-0.47100488,0.66603005,0.34735115,-0.51523014,0.27953675,-0.77910596,0.23142811,-0.49274106,-0.84494024,0.39996622,-0.04582569
6.50000000,-0.13953022,0.85276026,-0.25882523,-0.47182499,0.66613645,0.34755637,-0.51559953,0.27963077,-0.77930708,0.23150388,-0.49365656,-0.84527259,0.40025101,-0.04592432
6.52000000,-0.13985607,0.85299578,-0.25896740,-0.47258623,0.66623521,0.34774686,-0.51594241,0.27971804,-0.77949376,0.23157421,-0.49450634,-0.84558108,0.40051536,-0.04601587
6.54000000,-0.14015743,0.85321359,-0.25909889,-0.47329024,0.66632655,0.34792303,-0.51625951,0.27979875,-0.77966641,0.23163925,-0.49529225,-0.84586638,0.40075984,-0.04610053
6.56000000,-0.14043503,0.85341422,-0.25922001,-0.47393874,0.66641069,0.34808531,-0.51655160,0.27987310,-0.77982544,0.23169917,-0.49601618,-0.84612918,0.40098503,-0.04617852
6.58000000,-0.14068962,0.85359823,-0.25933108,-0.47453349,0.66648785,0.34823414,-0.51681949,0.27994128,-0.77997130,0.23175412,-0.49668012,-0.84637021,0.40119157,-0.04625005
6.60000000,-0.14092200,0.85376618,-0.25943247,-0.47507635,0.66655828,0.34836998,-0.51706400,0.28000352,-0.78010443,0.23180427,-0.49728612,-0.84659020,0.40138008,-0.04631534
6.62000000,-0.14113297,0.85391867,-0.25952452,-0.47556921,0.66662223,0.34849332,-0.51728600,0.28006002,-0.78022530,0.23184981,-0.49783631,-0.84678993,0.40155123,-0.04637461
6.64000000,-0.14132340,0.85405630,-0.25960760,-0.47601407,0.66667994,0.34860464,-0.51748637,0.28011102,-0.78033439,0.23189091,-0.49833291,-0.84697021,0.40170571,-0.04642811
6.66000000,-0.14149415,0.85417971,-0.25968210,-0.47641295,0.66673170,0.34870445,-0.51766603,0.28015675,-0.78043221,0.23192776,-0.49877819,-0.84713186,0.40184423,-0.04647608
6.68000000,-0.14164612,0.85428955,-0.25974841,-0.47676799,0.66677776,0.34879329,-0.51782595,0.28019745,-0.78051928,0.23196056,-0.49917453,-0.84727574,0.40196752,-0.04651877
6.70000000,-0.14178026,0.85438650,-0.25980693,-0.47708136,0.66681842,0.34887171,-0.51796709,0.28023338,-0.78059613,0.23198952,-0.49952435,-0.84740273,0.40207634,-0.04655646
6.72000000,-0.14189754,0.85447126,-0.25985810,-0.47735532,0.66685396,0.34894027,-0.51809049,0.28026479,-0.78066331,0.23201483,-0.49983018,-0.84751375,0.40217148,-0.04658941
6.74000000,-0.14199894,0.85454455,-0.25990234,-0.47759221,0.66688469,0.34899955,-0.51819719,0.28029195,-0.78072140,0.23203671,-0.50009462,-0.84760975,0.40225374,-0.04661790
6.76000000,-0.14208550,0.85460711,-0.25994011,-0.47779442,0.66691093,0.34905015,-0.51828827,0.28031513,-0.78077099,0.23205540,-0.50032035,-0.84769170,0.40232396,-0.04664222
6.78000000,-0.14215827,0.85465971,-0.25997186,-0.47796443,0.66693299,0.34909269,-0.51836484,0.28033462,-0.78081269,0.23207110,-0.50051013,-0.84776059,0.40238299,-0.04666266
6.80000000,-0.14221835,0.85470313,-0.25999807,-0.47810478,0.66695120,0.34912781,-0.51842806,0.28035071,-0.78084711,0.23208407,-0.50066681,-0.84781747,0.40243173,-0.04667954
6.82000000,-0.14226686,0.85473819,-0.26001924,-0.47821810,0.66696590,0.34915617,-0.51847910,0.28036370,-0.78087490,0.23209454,-0.50079332,-0.84786340,0.40247108,-0.04669317
6.84000000,-0.14230495,0.85476572,-0.26003586,-0.47830709,0.66697744,0.34917844,-0.51851919,0.28037390,-0.78089672,0.23210276,-0.50089265,-0.84789946,0.40250199,-0.04670387
6.86000000,-0.14233381,0.85478658,-0.26004845,-0.47837451,0.66698619,0.34919531,-0.51854955,0.28038163,-0.78091325,0.23210899,-0.50096792,-0.84792678,0.40252540,-0.04671198
6.88000000,-0.14235466,0.85480165,-0.26005755,-0.47842322,0.66699251,0.34920750,-0.51857149,0.28038722,-0.78092520,0.23211349,-0.50102229,-0.84794652,0.40254231,-0.04671784
6.90000000,-0.14236875,0.85481183,-0.26006369,-0.47845613,0.66699678,0.34921573,-0.51858632,0.28039099,-0.78093327,0.23211653,-0.50105903,-0.84795986,0.40255374,-0.04672179
6.92000000,-0.14237736,0.85481806,-0.26006745,-0.47847626,0.66699939,0.34922077,-0.51859538,0.28039330,-0.78093820,0.23211839,-0.50108150,-0.84796801,0.40256073,-0.04672422
6.94000000,-0.14238182,0.85482128,-0.26006940,-0.47848667,0.66700074,0.34922338,-0.51860007,0.28039449,-0.78094076,0.23211935,-0.50109313,-0.84797224,0.40256435,-0.04672547
6.96000000,-0.14238348,0.85482248,-0.26007012,-0.47849054,0.66700125,0.34922434,-0.51860182,0.28039494,-0.78094171,0.23211971,-0.50109745,-0.84797380,0.40256569,-0.04672593
6.98000000,-0.14238372,0.85482265,-0.26007022,-0.47849110,0.66700132,0.34922448,-0.51860207,0.28039500,-0.78094184,0.23211976,-0.50109807,-0.84797403,0.40256588,-0.04672600
7.00000000,-0.14238386,0.85482261,-0.26007028,-0.47849096,0.66700125,0.34922440,-0.51860209,0.28039488,-0.78094185,0.23211975,-0.50109799,-0.84797394,0.40256586,-0.04672586
7.02000000,-0.14238487,0.85482235,-0.26007064,-0.47849000,0.66700074,0.34922381,-0.51860228,0.28039402,-0.78094189,0.23211965,-0.50109747,-0.84797329,0.40256566,-0.04672491
7.04000000,-0.14238760,0.85482163,-0.26007163,-0.47848742,0.66699939,0.34922222,-0.51860278,0.28039170,-0.78094198,0.23211940,-0.50109607,-0.84797154,0.40256514,-0.04672235
7.06000000,-0.14239286,0.85482026,-0.26007353,-0.47848242,0.66699678,0.34921914,-0.51860374,0.28038722,-0.78094217,0.23211891,-0.50109337,-0.84796816,0.40256412,-0.04671740
7.08000000,-0.14240147,0.85481800,-0.26007664,-0.47847426,0.66699251,0.34921411,-0.51860532,0.28037989,-0.78094248,0.23211811,-0.50108894,-0.84796265,0.40256246,-0.04670931
7.10000000,-0.14241421,0.85481467,-0.26008124,-0.47846217,0.66698619,0.34920667,-0.51860766,0.28036905,-0.78094293,0.23211692,-0.50108239,-0.84795448,0.40256001,-0.04669733
7.12000000,-0.14243184,0.85481005,-0.26008761,-0.47844545,0.66697744,0.34919637,-0.51861089,0.28035404,-0.78094356,0.23211528,-0.50107333,-0.84794317,0.40255661,-0.04668075
7.14000000,-0.14245511,0.85480395,-0.26009601,-0.47842337,0.66696590,0.34918277,-0.51861516,0.28033423,-0.78094438,0.23211311,-0.50106136,-0.84792825,0.40255212,-0.04665887
7.16000000,-0.14248474,0.85479619,-0.26010672,-0.47839526,0.66695120,0.34916545,-0.51862060,0.28030901,-0.78094544,0.23211034,-0.50104613,-0.84790925,0.40254640,-0.04663100
7.18000000,-0.14252144,0.85478658,-0.26011998,-0.47836044,0.66693299,0.34914401,-0.51862733,0.28027776,-0.78094674,0.23210692,-0.50102726,-0.84788571,0.40253933,-0.04659648
7.20000000,-0.14256590,0.85477493,-0.26013604,-0.47831827,0.66691093,0.34911803,-0.51863549,0.28023992,-0.78094832,0.23210278,-0.50100440,-0.84785721,0.40253075,-0.04655468
7.22000000,-0.14261878,0.85476108,-0.26015514,-0.47826810,0.66688469,0.34908713,-0.51864519,0.28019491,-0.78095020,0.23209785,-0.50097721,-0.84782330,0.40252056,-0.04650495
7.24000000,-0.14268072,0.85474486,-0.26017752,-0.47820934,0.66685396,0.34905093,-0.51865655,0.28014217,-0.78095241,0.23209207,-0.50094536,-0.84778358,0.40250861,-0.04644670
7.26000000,-0.14275236,0.85472609,-0.26020340,-0.47814137,0.66681842,0.34900907,-0.51866969,0.28008119,-0.78095495,0.23208539,-0.50090853,-0.84773764,0.40249480,-0.04637932
7.28000000,-0.14283431,0.85470463,-0.26023301,-0.47806363,0.66677776,0.34896119,-0.51868473,0.28001143,-0.78095787,0.23207775,-0.50086639,-0.84768509,0.40247899,-0.04630226
7.30000000,-0.14292715,0.85468031,-0.26026655,-0.47797556,0.66673170,0.34890694,-0.51870176,0.27993240,-0.78096117,0.23206910,-0.50081866,-0.84762556,0.40246109,-0.04621495
7.32000000,-0.14303146,0.85465299,-0.26030423,-0.47787660,0.66667994,0.34884599,-0.51872089,0.27984361,-0.78096488,0.23205937,-0.50076503,-0.84755867,0.40244098,-0.04611686
7.34000000,-0.14314779,0.85462252,-0.26034626,-0.47776625,0.66662223,0.34877801,-0.51874223,0.27974459,-0.78096902,0.23204853,-0.50070522,-0.84748408,0.40241854,-0.04600746
7.36000000,-0.14327667,0.85458876,-0.26039282,-0.47764398,0.66655828,0.34870270,-0.51876588,0.27963487,-0.78097360,0.23203651,-0.50063895,-0.84740144,0.40239369,-0.04588626
7.38000000,-0.14341862,0.85455157,-0.26044410,-0.47750931,0.66648785,0.34861975,-0.51879192,0.27951403,-0.78097865,0.23202328,-0.50056596,-0.84731041,0.40236632,-0.04575277
7.40000000,-0.14357415,0.85451084,-0.26050029,-0.47736176,0.66641069,0.34852887,-0.51882045,0.27938164,-0.78098418,0.23200878,-0.50048600,-0.84721068,0.40233632,-0.04560651
7.42000000,-0.14374373,0.85446642,-0.26056155,-0.47720089,0.66632655,0.34842978,-0.51885156,0.27923728,-0.78099021,0.23199297,-0.50039881,-0.84710194,0.40230362,-0.04544703
7.44000000,-0.14392783,0.85441820,-0.26062806,-0.47702624,0.66623521,0.34832221,-0.51888533,0.27908057,-0.78099676,0.23197580,-0.50030415,-0.84698389,0.40226812,-0.04527390
7.46000000,-0.14412689,0.85436606,-0.26069998,-0.47683739,0.66613645,0.34820589,-0.51892185,0.27891112,-0.78100384,0.23195725,-0.50020180,-0.84685624,0.40222974,-0.04508670
7.48000000,-0.14434135,0.85430988,-0.26077745,-0.47663394,0.66603005,0.34808058,-0.51896119,0.27872856,-0.78101146,0.23193725,-0.50009154,-0.84671872,0.40218838,-0.04488503
7.50000000,-0.14457161,0.85424957,-0.26086064,-0.47641550,0.66591580,0.34794603,-0.51900344,0.27853255,-0.78101965,0.23191579,-0.49997314,-0.84657107,0.40214398,-0.04466848
7.52000000,-0.14481808,0.85418501,-0.26094968,-0.47618168,0.66579352,0.34780201,-0.51904865,0.27832275,-0.78102842,0.23189281,-0.49984642,-0.84641303,0.40209645,-0.04443671
7.54000000,-0.14508112,0.85411611,-0.26104471,-0.47593214,0.66566301,0.34764831,-0.51909691,0.27809883,-0.78103777,0.23186828,-0.49971118,-0.84624435,0.40204572,-0.04418934
7.56000000,-0.14536111,0.85404277,-0.26114586,-0.47566652,0.66552410,0.34748470,-0.51914827,0.27786049,-0.78104773,0.23184218,-0.49956722,-0.84606482,0.40199173,-0.04392604
7.58000000,-0.14565839,0.85396491,-0.26125326,-0.47538451,0.66537661,0.34731099,-0.51920280,0.27760743,-0.78105830,0.23181447,-0.49941437,-0.84587419,0.40193441,-0.04364648
7.60000000,-0.14597328,0.85388243,-0.26136702,-0.47508577,0.66522037,0.34712699,-0.51926057,0.27733938,-0.78106950,0.23178511,-0.49925247,-0.84567227,0.40187368,-0.04335035
7.62000000,-0.14630611,0.85379525,-0.26148726,-0.47477003,0.66505524,0.34693251,-0.51932163,0.27705606,-0.78108133,0.23175408,-0.49908134,-0.84545885,0.40180950,-0.04303735
7.64000000,-0.14665717,0.85370329,-0.26161408,-0.47443699,0.66488107,0.34672737,-0.51938603,0.27675722,-0.78109382,0.23172135,-0.49890084,-0.84523374,0.40174180,-0.04270721
7.66000000,-0.14702674,0.85360649,-0.26174760,-0.47408639,0.66469770,0.34651142,-0.51945383,0.27644262,-0.78110696,0.23168689,-0.49871082,-0.84499676,0.40167054,-0.04235967
7.68000000,-0.14741509,0.85350477,-0.26188790,-0.47371797,0.66450503,0.34628450,-0.51952507,0.27611204,-0.78112077,0.23165069,-0.49851115,-0.84474773,0.40159565,-0.04199446
7.70000000,-0.14782247,0.85339806,-0.26203507,-0.47333150,0.66430291,0.34604645,-0.51959980,0.27576525,-0.78113526,0.23161271,-0.49830169,-0.84448650,0.40151709,-0.04161135
7.72000000,-0.14824911,0.85328631,-0.26218921,-0.47292675,0.66409123,0.34579715,-0.51967807,0.27540207,-0.78115043,0.23157293,-0.49808233,-0.84421292,0.40143482,-0.04121013
7.74000000,-0.14869525,0.85316945,-0.26235038,-0.47250351,0.66386988,0.34553646,-0.51975992,0.27502229,-0.78116630,0.23153134,-0.49785294,-0.84392684,0.40134879,-0.04079058
7.76000000,-0.14916108,0.85304744,-0.26251867,-0.47206159,0.66363876,0.34526426,-0.51984537,0.27462575,-0.78118286,0.23148791,-0.49761343,-0.84362814,0.40125896,-0.04035251
7.78000000,-0.14964680,0.85292021,-0.26269415,-0.47160080,0.66339777,0.34498044,-0.51993448,0.27421229,-0.78120014,0.23144262,-0.49736370,-0.84331668,0.40116529,-0.03989574
7.80000000,-0.15015258,0.85278773,-0.26287687,-0.47112098,0.66314683,0.34468489,-0.52002726,0.27378174,-0.78121812,0.23139547,-0.49710364,-0.84299235,0.40106776,-0.03942010
7.82000000,-0.15067859,0.85264995,-0.26306690,-0.47062197,0.66288585,0.34437753,-0.52012376,0.27333397,-0.78123683,0.23134643,-0.49683319,-0.84265506,0.40096632,-0.03892543
7.84000000,-0.15122497,0.85250683,-0.26326429,-0.47010363,0.66261477,0.34405826,-0.52022399,0.27286886,-0.78125626,0.23129549,-0.49655227,-0.84230469,0.40086096,-0.03841161
7.86000000,-0.15179187,0.85235835,-0.26346909,-0.46956584,0.66233351,0.34372701,-0.52032799,0.27238630,-0.78127642,0.23124264,-0.49626079,-0.84194118,0.40075164,-0.03787850
7.88000000,-0.15237939,0.85220445,-0.26368134,-0.46900847,0.66204201,0.34338370,-0.52043577,0.27188616,-0.78129731,0.23118787,-0.49595871,-0.84156444,0.40063835,-0.03732599
7.90000000,-0.15298765,0.85204513,-0.26390109,-0.46843142,0.66174022,0.34302827,-0.52054736,0.27136838,-0.78131894,0.23113116,-0.49564597,-0.84117440,0.40052105,-0.03675397
7.92000000,-0.15361675,0.85188035,-0.26412836,-0.46783462,0.66142810,0.34266067,-0.52066276,0.27083286,-0.78134132,0.23107251,-0.49532252,-0.84077100,0.40039974,-0.03616237
7.94000000,-0.15426675,0.85171009,-0.26436319,-0.46721798,0.66110560,0.34228085,-0.52078201,0.27027954,-0.78136443,0.23101191,-0.49498831,-0.84035419,0.40027439,-0.03555109
7.96000000,-0.15493774,0.85153434,-0.26460559,-0.46658143,0.66077269,0.34188878,-0.52090510,0.26970836,-0.78138829,0.23094935,-0.49464332,-0.83992393,0.40014500,-0.03492009
7.98000000,-0.15562976,0.85135307,-0.26485560,-0.46592493,0.66042935,0.34148441,-0.52103205,0.26911928,-0.78141290,0.23088483,-0.49428751,-0.83948018,0.40001155,-0.03426931
8.00000000,-0.15634286,0.85116629,-0.26511322,-0.46524843,0.66007555,0.34106772,-0.52116287,0.26851225,-0.78143826,0.23081835,-0.49392086,-0.83902292,0.39987404,-0.03359871
8.02000000,-0.15707706,0.85097398,-0.26537846,-0.46455191,0.65971128,0.34063871,-0.52129756,0.26788726,-0.78146437,0.23074990,-0.49354337,-0.83855212,0.39973246,-0.03290826
8.04000000,-0.15783238,0.85077614,-0.26565134,-0.46383536,0.65933653,0.34019735,-0.52143612,0.26724430,-0.78149123,0.23067948,-0.49315501,-0.83806779,0.39958681,-0.03219795
8.06000000,-0.15860882,0.85057276,-0.26593184,-0.46309877,0.65895130,0.33974365,-0.52157856,0.26658334,-0.78151884,0.23060709,-0.49275580,-0.83756990,0.39943708,-0.03146777
8.08000000,-0.15940639,0.85036385,-0.26621998,-0.46234214,0.65855559,0.33927760,-0.52172487,0.26590442,-0.78154721,0.23053274,-0.49234573,-0.83705847,0.39928328,-0.03071774
8.10000000,-0.16022505,0.85014942,-0.26651573,-0.46156550,0.65814942,0.33879924,-0.52187506,0.26520753,-0.78157632,0.23045641,-0.49192481,-0.83653352,0.39912541,-0.02994786
8.12000000,-0.16106477,0.84992947,-0.26681910,-0.46076887,0.65773279,0.33830856,-0.52202910,0.26449272,-0.78160618,0.23037813,-0.49149305,-0.83599506,0.39896348,-0.02915818
8.14000000,-0.16192552,0.84970401,-0.26713006,-0.45995231,0.65730574,0.33780560,-0.52218701,0.26376000,-0.78163679,0.23029788,-0.49105049,-0.83544312,0.39879750,-0.02834873
8.16000000,-0.16280723,0.84947306,-0.26744859,-0.45911585,0.65686828,0.33729039,-0.52234876,0.26300944,-0.78166815,0.23021568,-0.49059716,-0.83487773,0.39862747,-0.02751956
8.18000000,-0.16370984,0.84923663,-0.26777468,-0.45825957,0.65642045,0.33676296,-0.52251434,0.26224109,-0.78170025,0.23013153,-0.49013307,-0.83429894,0.39845341,-0.02667074
8.20000000,-0.16463328,0.84899476,-0.26810829,-0.45738353,0.65596230,0.33622337,-0.52268374,0.26145502,-0.78173309,0.23004543,-0.48965828,-0.83370680,0.39827534,-0.02580233
8.22000000,-0.16557744,0.84874745,-0.26844938,-0.45648782,0.65549385,0.33567166,-0.52285695,0.26065129,-0.78176666,0.22995741,-0.48917283,-0.83310137,0.39809327,-0.02491442
8.24000000,-0.16654225,0.84849473,-0.26879794,-0.45557254,0.65501517,0.33510790,-0.52303395,0.25983000,-0.78180097,0.22986746,-0.48867676,-0.83248270,0.39790722,-0.02400711
8.26000000,-0.16752758,0.84823664,-0.26915391,-0.45463778,0.65452630,0.33453214,-0.52321470,0.25899124,-0.78183602,0.22977560,-0.48817015,-0.83185087,0.39771721,-0.02308050
8.28000000,-0.16853331,0.84797321,-0.26951725,-0.45368366,0.65402731,0.33394446,-0.52339921,0.25813510,-0.78187178,0.22968183,-0.48765304,-0.83120596,0.39752327,-0.02213470
8.30000000,-0.16955932,0.84770446,-0.26988791,-0.45271032,0.65351826,0.33334493,-0.52358743,0.25726171,-0.78190827,0.22958618,-0.48712551,-0.83054804,0.39732542,-0.02116983
8.32000000,-0.17060547,0.84743044,-0.27026585,-0.45171787,0.65299922,0.33273363,-0.52377934,0.25637118,-0.78194547,0.22948865,-0.48658763,-0.82987721,0.39712368,-0.02018603
8.34000000,-0.17167160,0.84715119,-0.27065101,-0.45070646,0.65247026,0.33211066,-0.52397492,0.25546363,-0.78198339,0.22938925,-0.48603947,-0.82919357,0.39691809,-0.01918343
8.36000000,-0.17275755,0.84686674,-0.27104333,-0.44967625,0.65193147,0.33147610,-0.52417414,0.25453921,-0.78202200,0.22928801,-0.48548112,-0.82849722,0.39670868,-0.01816219
8.38000000,-0.17386315,0.84657715,-0.27144275,-0.44862739,0.65138293,0.33083006,-0.52437696,0.25359807,-0.78206132,0.22918493,-0.48491266,-0.82778827,0.39649548,-0.01712247
8.40000000,-0.17498823,0.84628245,-0.27184920,-0.44756005,0.65082473,0.33017265,-0.52458336,0.25264034,-0.78210133,0.22908004,-0.48433419,-0.82706683,0.39627852,-0.01606444
8.42000000,-0.17613260,0.84598270,-0.27226263,-0.44647443,0.65025696,0.32950396,-0.52479329,0.25166620,-0.78214203,0.22897335,-0.48374581,-0.82633302,0.39605784,-0.01498827
8.44000000,-0.17729605,0.84567796,-0.27268295,-0.44537069,0.64967972,0.32882412,-0.52500673,0.25067581,-0.78218340,0.22886488,-0.48314761,-0.82558697,0.39583349,-0.01389415
8.46000000,-0.17847838,0.84536826,-0.27311009,-0.44424904,0.64909311,0.32813324,-0.52522363,0.24966935,-0.78222545,0.22875465,-0.48253971,-0.82482882,0.39560549,-0.01278228
8.48000000,-0.17967938,0.84505368,-0.27354397,-0.44310969,0.64849724,0.32743146,-0.52544395,0.24864699,-0.78226816,0.22864268,-0.48192220,-0.82405869,0.39537389,-0.01165285
8.50000000,-0.18089882,0.84473427,-0.27398451,-0.44195284,0.64789222,0.32671891,-0.52566766,0.24760894,-0.78231153,0.22852899,-0.48129522,-0.82327675,0.39513874,-0.01050608
8.52000000,-0.18213646,0.84441009,-0.27443164,-0.44077871,0.64727816,0.32599571,-0.52589470,0.24655539,-0.78235554,0.22841361,-0.48065887,-0.82248312,0.39490007,-0.00934218
8.54000000,-0.18339208,0.84408120,-0.27488525,-0.43958754,0.64665520,0.32526201,-0.52612504,0.24548655,-0.78240019,0.22829655,-0.48001329,-0.82167797,0.39465794,-0.00816139
8.56000000,-0.18466542,0.84374768,-0.27534527,-0.43837957,0.64602344,0.32451796,-0.52635864,0.24440262,-0.78244547,0.22817783,-0.47935859,-0.82086147,0.39441240,-0.00696394
8.58000000,-0.18595621,0.84340957,-0.27581159,-0.43715502,0.64538301,0.32376371,-0.52659543,0.24330382,-0.78249138,0.22805749,-0.47869492,-0.82003376,0.39416348,-0.00575006
8.60000000,-0.18726421,0.84306697,-0.27628413,-0.43591416,0.64473406,0.32299941,-0.52683539,0.24219039,-0.78253789,0.22793555,-0.47802240,-0.81919502,0.39391125,-0.00452001
8.62000000,-0.18858913,0.84271992,-0.27676278,-0.43465724,0.64407670,0.32222522,-0.52707844,0.24106255,-0.78258501,0.22781203,-0.47734118,-0.81834544,0.39365576,-0.00327404
8.64000000,-0.18993070,0.84236852,-0.27724745,-0.43338453,0.64341109,0.32144130,-0.52732455,0.23992054,-0.78263272,0.22768695,-0.47665141,-0.81748518,0.39339706,-0.00201242
8.66000000,-0.19128862,0.84201284,-0.27773802,-0.43209630,0.64273736,0.32064782,-0.52757366,0.23876460,-0.78268101,0.22756035,-0.47595322,-0.81661442,0.39313520,-0.00073542
8.68000000,-0.19266262,0.84165294,-0.27823440,-0.43079283,0.64205566,0.31984495,-0.52782572,0.23759499,-0.78272987,0.22743225,-0.47524677,-0.81573337,0.39287024,0.00055670
8.70000000,-0.19405237,0.84128892,-0.27873648,-0.42947441,0.64136614,0.31903287,-0.52808067,0.23641195,-0.78277929,0.22730269,-0.47453221,-0.81484221,0.39260224,0.00186364
8.72000000,-0.19545759,0.84092085,-0.27924414,-0.42814132,0.64066895,0.31821176,-0.52833846,0.23521576,-0.78282927,0.22717168,-0.47380971,-0.81394113,0.39233127,0.00318511
8.74000000,-0.19687794,0.84054881,-0.27975727,-0.42679386,0.63996424,0.31738180,-0.52859902,0.23400668,-0.78287978,0.22703926,-0.47307942,-0.81303035,0.39205737,0.00452083
8.76000000,-0.19831312,0.84017289,-0.28027575,-0.42543234,0.63925218,0.31654318,-0.52886231,0.23278498,-0.78293082,0.22690546,-0.47234151,-0.81211006,0.39178061,0.00587048
8.78000000,-0.19976280,0.83979317,-0.28079947,-0.42405708,0.63853293,0.31569609,-0.52912825,0.23155094,-0.78298237,0.22677030,-0.47159615,-0.81118047,0.39150106,0.00723377
8.80000000,-0.20122664,0.83940974,-0.28132831,-0.42266837,0.63780666,0.31484072,-0.52939679,0.23030484,-0.78303443,0.22663383,-0.47084351,-0.81024181,0.39121878,0.00861038
8.82000000,-0.20270430,0.83902269,-0.28186215,-0.42126655,0.63707352,0.31397728,-0.52966787,0.22904698,-0.78308698,0.22649607,-0.47008375,-0.80929428,0.39093383,0.00999998
8.84000000,-0.20419544,0.83863211,-0.28240085,-0.41985194,0.63633370,0.31310596,-0.52994142,0.22777764,-0.78314000,0.22635705,-0.46931707,-0.80833810,0.39064628,0.01140226
8.86000000,-0.20569971,0.83823810,-0.28294429,-0.41842488,0.63558736,0.31222696,-0.53021738,0.22649713,-0.78319350,0.22621680,-0.46854364,-0.80737351,0.39035620,0.01281690
8.88000000,-0.20721676,0.83784073,-0.28349236,-0.41698570,0.63483468,0.31134051,-0.53049568,0.22520574,-0.78324745,0.22607537,-0.46776364,-0.80640072,0.39006366,0.01424354
8.90000000,-0.20874622,0.83744012,-0.28404490,-0.41553474,0.63407585,0.31044680,-0.53077626,0.22390378,-0.78330184,0.22593278,-0.46697725,-0.80541998,0.38976872,0.01568186
8.92000000,-0.21028773,0.83703634,-0.28460180,-0.41407235,0.63331104,0.30954604,-0.53105905,0.22259157,-0.78335666,0.22578906,-0.46618467,-0.80443151,0.38947146,0.01713150
8.94000000,-0.21184091,0.83662951,-0.28516292,-0.41259888,0.63254043,0.30863847,-0.53134398,0.22126942,-0.78341189,0.22564426,-0.46538609,-0.80343555,0.38917195,0.01859213
8.96000000,-0.21340540,0.83621972,-0.28572812,-0.41111470,0.63176422,0.30772429,-0.53163098,0.21993765,-0.78346753,0.22549840,-0.46458170,-0.80243234,0.38887026,0.02006339
8.98000000,-0.21498081,0.83580707,-0.28629726,-0.40962015,0.63098258,0.30680373,-0.53191999,0.21859657,-0.78352356,0.22535153,-0.46377169,-0.80142213,0.38856646,0.02154492
9.00000000,-0.21656676,0.83539166,-0.28687021,-0.40811560,0.63019572,0.30587701,-0.53221093,0.21724653,-0.78357996,0.22520367,-0.46295626,-0.80040516,0.38826063,0.02303636
9.02000000,-0.21816286,0.83497359,-0.28744683,-0.40660142,0.62940382,0.30494436,-0.53250374,0.21588785,-0.78363672,0.22505486,-0.46213561,-0.79938169,0.38795284,0.02453734
9.04000000,-0.21976871,0.83455296,-0.28802698,-0.40507799,0.62860709,0.30400601,-0.53279833,0.21452087,-0.78369382,0.22490515,-0.46130995,-0.79835195,0.38764318,0.02604750
9.06000000,-0.22138393,0.83412988,-0.28861050,-0.40354568,0.62780571,0.30306219,-0.53309464,0.21314591,-0.78375126,0.22475456,-0.46047947,-0.79731622,0.38733170,0.02756646
9.08000000,-0.22300810,0.83370446,-0.28919727,-0.40200487,0.62699988,0.30211313,-0.53339260,0.21176333,-0.78380902,0.22460314,-0.45964439,-0.79627474,0.38701850,0.02909385
9.10000000,-0.22464083,0.83327679,-0.28978712,-0.40045594,0.62618980,0.30115908,-0.53369212,0.21037346,-0.78386709,0.22445092,-0.45880491,-0.79522777,0.38670365,0.03062928
9.12000000,-0.22628172,0.83284699,-0.29037992,-0.39889928,0.62537569,0.30020026,-0.53399314,0.20897666,-0.78392544,0.22429794,-0.45796124,-0.79417558,0.38638723,0.03217238
9.14000000,-0.22793034,0.83241516,-0.29097552,-0.39733527,0.62455773,0.29923692,-0.53429558,0.20757327,-0.78398407,0.22414424,-0.45711358,-0.79311842,0.38606931,0.03372276
9.16000000,-0.22958628,0.83198141,-0.29157376,-0.39576432,0.62373614,0.29826929,-0.53459936,0.20616364,-0.78404296,0.22398986,-0.45626216,-0.79205657,0.38574998,0.03528003
9.18000000,-0.23124914,0.83154586,-0.29217450,-0.39418681,0.62291112,0.29729763,-0.53490442,0.20474813,-0.78410209,0.22383483,-0.45540719,-0.79099028,0.38542932,0.03684379
9.20000000,-0.23291849,0.83110860,-0.29277758,-0.39260314,0.62208288,0.29632218,-0.53521066,0.20332709,-0.78416146,0.22367919,-0.45454888,-0.78991984,0.38510741,0.03841366
9.22000000,-0.23459391,0.83066975,-0.29338286,-0.39101372,0.62125163,0.29534318,-0.53551801,0.20190088,-0.78422104,0.22352299,-0.45368745,-0.78884550,0.38478433,0.03998924
9.24000000,-0.23627498,0.83022942,-0.29399017,-0.38941893,0.62041758,0.29436088,-0.53582640,0.20046987,-0.78428082,0.22336627,-0.45282312,-0.78776754,0.38446015,0.04157013
9.26000000,-0.23796126,0.82978773,-0.29459937,-0.38781920,0.61958093,0.29337553,-0.53613575,0.19903442,-0.78434079,0.22320906,-0.45195610,-0.78668623,0.38413497,0.04315593
9.28000000,-0.23965234,0.82934478,-0.29521031,-0.38621492,0.61874191,0.29238738,-0.53644598,0.19759489,-0.78440093,0.22305140,-0.45108662,-0.78560185,0.38380887,0.04474623
9.30000000,-0.24134778,0.82890069,-0.29582282,-0.38460650,0.61790072,0.29139668,-0.53675701,0.19615164,-0.78446122,0.22289333,-0.45021490,-0.78451467,0.38348193,0.04634064
9.32000000,-0.24304715,0.82845557,-0.29643675,-0.38299435,0.61705759,0.29040369,-0.53706876,0.19470504,-0.78452166,0.22273490,-0.44934115,-0.78342497,0.38315422,0.04793874
9.34000000,-0.24475002,0.82800953,-0.29705194,-0.38137888,0.61621272,0.28940865,-0.53738115,0.19325547,-0.78458221,0.22257614,-0.44846560,-0.78233303,0.38282585,0.04954014
9.36000000,-0.24645596,0.82756269,-0.29766824,-0.37976050,0.61536632,0.28841182,-0.53769410,0.19180329,-0.78464288,0.22241709,-0.44758848,-0.78123912,0.38249688,0.05114441
9.38000000,-0.24816452,0.82711516,-0.29828549,-0.37813964,0.61451863,0.28741345,-0.53800754,0.19034887,-0.78470364,0.22225780,-0.44671001,-0.78014353,0.38216741,0.05275116
9.40000000,-0.24987528,0.82666705,-0.29890353,-0.37651669,0.61366984,0.28641380,-0.53832138,0.18889259,-0.78476448,0.22209831,-0.44583041,-0.77904653,0.38183751,0.05435997
9.42000000,-0.25158779,0.82621849,-0.29952221,-0.37489207,0.61282019,0.28541313,-0.53863554,0.18743481,-0.78482538,0.22193865,-0.44494991,-0.77794841,0.38150727,0.05597042
9.44000000,-0.25330161,0.82576958,-0.30014136,-0.37326621,0.61196988,0.28441169,-0.53894994,0.18597591,-0.78488633,0.22177887,-0.44406874,-0.77684944,0.38117678,0.05758212
9.46000000,-0.25501632,0.82532045,-0.30076083,-0.37163952,0.61111914,0.28340973,-0.53926450,0.18451627,-0.78494731,0.22161901,-0.44318711,-0.77574991,0.38084612,0.05919464
9.48000000,-0.25673146,0.82487119,-0.30138045,-0.37001241,0.61026818,0.28240752,-0.53957914,0.18305625,-0.78500830,0.22145911,-0.44230525,-0.77465009,0.38051538,0.06080758
9.50000000,-0.25844660,0.82442194,-0.30200008,-0.36838530,0.60941722,0.28140531,-0.53989379,0.18159623,-0.78506929,0.22129920,-0.44142340,-0.77355028,0.38018464,0.06242051
9.52000000,-0.26016131,0.82397280,-0.30261955,-0.36675860,0.60856648,0.28040335,-0.54020835,0.18013659,-0.78513027,0.22113934,-0.44054177,-0.77245075,0.37985398,0.06403303
9.54000000,-0.26187513,0.82352389,-0.30323870,-0.36513274,0.60771617,0.27940191,-0.54052275,0.17867769,-0.78519122,0.22097956,-0.43966059,-0.77135178,0.37952349,0.06564473
9.56000000,-0.26358764,0.82307533,-0.30385738,-0.36350813,0.60686651,0.27840124,-0.54083691,0.17721991,-0.78525212,0.22081990,-0.43878009,-0.77025366,0.37919325,0.06725519
9.58000000,-0.26529840,0.82262723,-0.30447542,-0.36188518,0.60601773,0.27740159,-0.54115075,0.17576363,-0.78531296,0.22066041,-0.43790049,-0.76915666,0.37886336,0.06886400
9.60000000,-0.26700696,0.82217970,-0.30509267,-0.36026431,0.60517003,0.27640322,-0.54146418,0.17430921,-0.78537372,0.22050112,-0.43702202,-0.76806107,0.37853388,0.07047074
9.62000000,-0.26871289,0.82173286,-0.30570897,-0.35864594,0.60432364,0.27540639,-0.54177714,0.17285703,-0.78543439,0.22034208,-0.43614490,-0.76696716,0.37820491,0.07207502
9.64000000,-0.27041577,0.82128682,-0.30632416,-0.35703047,0.60347877,0.27441135,-0.54208953,0.17140746,-0.78549494,0.22018332,-0.43526936,-0.76587522,0.37787654,0.07367641
9.66000000,-0.27211514,0.82084170,-0.30693809,-0.35541832,0.60263563,0.27341835,-0.54240128,0.16996086,-0.78555538,0.22002488,-0.43439561,-0.76478552,0.37754884,0.07527452
9.68000000,-0.27381058,0.82039761,-0.30755060,-0.35380990,0.60179445,0.27242766,-0.54271230,0.16851761,-0.78561567,0.21986682,-0.43352389,-0.76369834,0.37722189,0.07686892
9.70000000,-0.27550166,0.81995466,-0.30816153,-0.35220562,0.60095543,0.27143951,-0.54302253,0.16707808,-0.78567581,0.21970916,-0.43265440,-0.76261396,0.37689579,0.07845923
9.72000000,-0.27718794,0.81951296,-0.30877073,-0.35060588,0.60011878,0.27045416,-0.54333188,0.16564263,-0.78573578,0.21955195,-0.43178739,-0.76153265,0.37657061,0.08004503
9.74000000,-0.27886901,0.81907264,-0.30937805,-0.34901110,0.59928473,0.26947186,-0.54364027,0.16421162,-0.78579556,0.21939522,-0.43092305,-0.76045469,0.37624644,0.08162591
9.76000000,-0.28054443,0.81863379,-0.30998333,-0.34742167,0.59845348,0.26849286,-0.54394763,0.16278541,-0.78585514,0.21923902,-0.43006162,-0.75938035,0.37592335,0.08320149
9.78000000,-0.28221378,0.81819653,-0.31058641,-0.34583800,0.59762524,0.26751740,-0.54425387,0.16136437,-0.78591451,0.21908339,-0.42920331,-0.75830991,0.37560144,0.08477136
9.80000000,-0.28387664,0.81776097,-0.31118715,-0.34426049,0.59680022,0.26654574,-0.54455892,0.15994886,-0.78597364,0.21892836,-0.42834834,-0.75724362,0.37528078,0.08633513
9.82000000,-0.28553258,0.81732723,-0.31178539,-0.34268954,0.59597863,0.26557812,-0.54486270,0.15853923,-0.78603253,0.21877397,-0.42749692,-0.75618177,0.37496145,0.08789240
9.84000000,-0.28718120,0.81689540,-0.31238098,-0.34112554,0.59516067,0.26461478,-0.54516514,0.15713584,-0.78609116,0.21862027,-0.42664927,-0.75512461,0.37464354,0.08944277
9.86000000,-0.28882209,0.81646560,-0.31297378,-0.33956888,0.59434655,0.26365596,-0.54546616,0.15573904,-0.78614951,0.21846729,-0.42580560,-0.75407242,0.37432711,0.09098587
9.88000000,-0.29045482,0.81603793,-0.31356364,-0.33801995,0.59353648,0.26270191,-0.54576569,0.15434917,-0.78620758,0.21831507,-0.42496612,-0.75302545,0.37401226,0.09252131
9.90000000,-0.29207899,0.81561250,-0.31415040,-0.33647913,0.59273065,0.26175285,-0.54606364,0.15296659,-0.78626534,0.21816365,-0.42413103,-0.75198397,0.37369906,0.09404870
9.92000000,-0.29369421,0.81518943,-0.31473393,-0.33494682,0.59192927,0.26080903,-0.54635995,0.15159163,-0.78632278,0.21801306,-0.42330056,-0.75094824,0.37338759,0.09556766
9.94000000,-0.29530006,0.81476880,-0.31531407,-0.33342339,0.59113253,0.25987068,-0.54665455,0.15022465,-0.78637988,0.21786335,-0.42247490,-0.74991850,0.37307792,0.09707782
9.96000000,-0.29689616,0.81435073,-0.31589069,-0.33190922,0.59034064,0.25893803,-0.54694735,0.14886597,-0.78643664,0.21771455,-0.42165425,-0.74889503,0.37277013,0.09857880
9.98000000,-0.29848211,0.81393532,-0.31646364,-0.33040467,0.58955378,0.25801131,-0.54723829,0.14751593,-0.78649304,0.21756669,-0.42083882,-0.74787806,0.37246430,0.10007024
10.00000000,-0.30005752,0.81352266,-0.31703279,-0.32891012,0.58877214,0.25709075,-0.54752730,0.14617485,-0.78654907,0.21741981,-0.42002881,-0.74686785,0.37216050,0.10155177
10.02000000,-0.30162200,0.81311287,-0.31759799,-0.32742593,0.58799593,0.25617657,-0.54781431,0.14484308,-0.78660471,0.21727396,-0.41922442,-0.74586464,0.37185881,0.10302302
10.04000000,-0.30317519,0.81270604,-0.31815911,-0.32595246,0.58722532,0.25526899,-0.54809924,0.14352093,-0.78665994,0.21712915,-0.41842583,-0.74486868,0.37155930,0.10448365
10.06000000,-0.30471670,0.81230227,-0.31871600,-0.32449008,0.58646051,0.25436824,-0.54838203,0.14220872,-0.78671476,0.21698544,-0.41763326,-0.74388021,0.37126204,0.10593330
10.08000000,-0.30624616,0.81190165,-0.31926855,-0.32303912,0.58570167,0.25347453,-0.54866261,0.14090676,-0.78676915,0.21684284,-0.41684687,-0.74289947,0.37096710,0.10737162
10.10000000,-0.30776321,0.81150429,-0.31981661,-0.32159994,0.58494900,0.25258807,-0.54894091,0.13961537,-0.78682310,0.21670141,-0.41606687,-0.74192668,0.37067456,0.10879826
10.12000000,-0.30926748,0.81111027,-0.32036006,-0.32017287,0.58420266,0.25170908,-0.54921687,0.13833486,-0.78687660,0.21656117,-0.41529344,-0.74096209,0.37038448,0.11021289
10.14000000,-0.31075862,0.81071969,-0.32089876,-0.31875826,0.58346284,0.25083776,-0.54949042,0.13706552,-0.78692962,0.21642215,-0.41452675,-0.74000591,0.37009693,0.11161517
10.16000000,-0.31223628,0.81033264,-0.32143259,-0.31735644,0.58272970,0.24997431,-0.54976149,0.13580766,-0.78698217,0.21628438,-0.41376700,-0.73905838,0.36981198,0.11300478
10.18000000,-0.31370012,0.80994921,-0.32196143,-0.31596774,0.58200342,0.24911895,-0.55003004,0.13456156,-0.78703423,0.21614791,-0.41301436,-0.73811972,0.36952970,0.11438139
10.20000000,-0.31514980,0.80956950,-0.32248515,-0.31459247,0.58128417,0.24827186,-0.55029598,0.13332752,-0.78708578,0.21601276,-0.41226899,-0.73719013,0.36925015,0.11574467
10.22000000,-0.31658498,0.80919358,-0.32300364,-0.31323095,0.58057211,0.24743324,-0.55055926,0.13210582,-0.78713682,0.21587896,-0.41153108,-0.73626984,0.36897339,0.11709433
10.24000000,-0.31800533,0.80882154,-0.32351677,-0.31188350,0.57986741,0.24660328,-0.55081983,0.13089674,-0.78718733,0.21574654,-0.41080080,-0.73535906,0.36869950,0.11843004
10.26000000,-0.31941055,0.80845347,-0.32402443,-0.31055041,0.57917022,0.24578217,-0.55107761,0.12970055,-0.78723730,0.21561553,-0.41007829,-0.73445798,0.36842852,0.11975152
10.28000000,-0.32080030,0.80808944,-0.32452650,-0.30923198,0.57848070,0.24497009,-0.55133256,0.12851751,-0.78728673,0.21548596,-0.40936374,-0.73356682,0.36816052,0.12105846
10.30000000,-0.32217430,0.80772955,-0.32502288,-0.30792851,0.57779900,0.24416722,-0.55158462,0.12734790,-0.78733559,0.21535786,-0.40865729,-0.73268577,0.36789556,0.12235057
10.32000000,-0.32353222,0.80737386,-0.32551346,-0.30664028,0.57712527,0.24337374,-0.55183373,0.12619196,-0.78738388,0.21523126,-0.40795910,-0.73181501,0.36763371,0.12362758
10.34000000,-0.32487379,0.80702246,-0.32599813,-0.30536757,0.57645966,0.24258982,-0.55207984,0.12504995,-0.78743159,0.21510619,-0.40726932,-0.73095475,0.36737500,0.12488920
10.36000000,-0.32619871,0.80667542,-0.32647678,-0.30411066,0.57580230,0.24181563,-0.55232290,0.12392211,-0.78747871,0.21498267,-0.40658811,-0.73010517,0.36711951,0.12613516
10.38000000,-0.32750671,0.80633281,-0.32694932,-0.30286980,0.57515335,0.24105133,-0.55256285,0.12280868,-0.78752522,0.21486072,-0.40591559,-0.72926643,0.36686728,0.12736521
10.40000000,-0.32879750,0.80599471,-0.32741564,-0.30164525,0.57451292,0.24029707,-0.55279965,0.12170988,-0.78757113,0.21474038,-0.40525191,-0.72843872,0.36661836,0.12857909
10.42000000,-0.33007084,0.80566118,-0.32787566,-0.30043727,0.57388116,0.23955303,-0.55303324,0.12062595,-0.78761641,0.21462167,-0.40459722,-0.72762222,0.36637282,0.12977655
10.44000000,-0.33132646,0.80533229,-0.32832927,-0.29924610,0.57325819,0.23881933,-0.55326358,0.11955711,-0.78766106,0.21450461,-0.40395163,-0.72681707,0.36613069,0.13095734
10.46000000,-0.33256410,0.80500811,-0.32877639,-0.29807198,0.57264414,0.23809613,-0.55349063,0.11850356,-0.78770507,0.21438922,-0.40331529,-0.72602344,0.36589202,0.13212123
10.48000000,-0.33378354,0.80468870,-0.32921694,-0.29691513,0.57203912,0.23738358,-0.55371434,0.11746551,-0.78774844,0.21427553,-0.40268830,-0.72524150,0.36565687,0.13326800
10.50000000,-0.33498454,0.80437412,-0.32965082,-0.29577577,0.57144325,0.23668180,-0.55393466,0.11644315,-0.78779115,0.21416356,-0.40207080,-0.72447137,0.36542527,0.13439743
10.52000000,-0.33616687,0.80406443,-0.33007796,-0.29465412,0.57085664,0.23599092,-0.55415156,0.11543669,-0.78783320,0.21405333,-0.40146289,-0.72371322,0.36519728,0.13550931
10.54000000,-0.33733032,0.80375968,-0.33049828,-0.29355039,0.57027940,0.23531108,-0.55436499,0.11444630,-0.78787457,0.21394486,-0.40086470,-0.72296717,0.36497292,0.13660343
10.56000000,-0.33847469,0.80345994,-0.33091170,-0.29246476,0.56971163,0.23464239,-0.55457493,0.11347216,-0.78791527,0.21383817,-0.40027631,-0.72223336,0.36475224,0.13767960
10.58000000,-0.33959977,0.80316524,-0.33131816,-0.29139743,0.56915343,0.23398497,-0.55478132,0.11251443,-0.78795528,0.21373328,-0.39969784,-0.72151192,0.36453529,0.13873763
10.60000000,-0.34070537,0.80287565,-0.33171758,-0.29034857,0.56860488,0.23333894,-0.55498414,0.11157328,-0.78799460,0.21363021,-0.39912939,-0.72080297,0.36432208,0.13977735
10.62000000,-0.34179132,0.80259120,-0.33210990,-0.28931836,0.56806609,0.23270438,-0.55518336,0.11064887,-0.78803321,0.21352896,-0.39857104,-0.72010662,0.36411267,0.14079859
10.64000000,-0.34285745,0.80231194,-0.33249505,-0.28830695,0.56753714,0.23208141,-0.55537894,0.10974132,-0.78807113,0.21342957,-0.39802288,-0.71942298,0.36390708,0.14180118
10.66000000,-0.34390360,0.80203793,-0.33287299,-0.28731450,0.56701810,0.23147011,-0.55557086,0.10885079,-0.78810833,0.21333204,-0.39748500,-0.71875215,0.36370535,0.14278499
10.68000000,-0.34492961,0.80176918,-0.33324366,-0.28634115,0.56650905,0.23087058,-0.55575908,0.10797740,-0.78814482,0.21323638,-0.39695746,-0.71809423,0.36350749,0.14374985
10.70000000,-0.34593534,0.80150574,-0.33360700,-0.28538704,0.56601006,0.23028290,-0.55594358,0.10712126,-0.78818058,0.21314262,-0.39644036,-0.71744932,0.36331355,0.14469566
10.72000000,-0.34692067,0.80124765,-0.33396297,-0.28445228,0.56552119,0.22970714,-0.55612434,0.10628250,-0.78821562,0.21305075,-0.39593374,-0.71681749,0.36312354,0.14562227
10.74000000,-0.34788548,0.80099494,-0.33431152,-0.28353700,0.56504251,0.22914338,-0.55630133,0.10546121,-0.78824994,0.21296081,-0.39543768,-0.71619882,0.36293749,0.14652958
10.76000000,-0.34882964,0.80074763,-0.33465262,-0.28264129,0.56457406,0.22859167,-0.55647454,0.10465748,-0.78828351,0.21287278,-0.39495223,-0.71559339,0.36275542,0.14741748
10.78000000,-0.34975308,0.80050575,-0.33498623,-0.28176525,0.56411590,0.22805208,-0.55664395,0.10387141,-0.78831635,0.21278669,-0.39447744,-0.71500125,0.36257735,0.14828589
10.80000000,-0.35065569,0.80026933,-0.33531231,-0.28090896,0.56366808,0.22752465,-0.55680953,0.10310305,-0.78834845,0.21270254,-0.39401335,-0.71442246,0.36240329,0.14913471
10.82000000,-0.35153740,0.80003838,-0.33563085,-0.28007251,0.56323062,0.22700944,-0.55697128,0.10235250,-0.78837981,0.21262034,-0.39356001,-0.71385707,0.36223326,0.14996388
10.84000000,-0.35239815,0.79981292,-0.33594181,-0.27925594,0.56280356,0.22650648,-0.55712918,0.10161978,-0.78841042,0.21254009,-0.39311745,-0.71330513,0.36206728,0.15077334
10.86000000,-0.35323787,0.79959297,-0.33624517,-0.27845932,0.56238694,0.22601580,-0.55728323,0.10090497,-0.78844028,0.21246180,-0.39268570,-0.71276667,0.36190535,0.15156302
10.88000000,-0.35405653,0.79937853,-0.33654093,-0.27768268,0.56198076,0.22553743,-0.55743341,0.10020808,-0.78846939,0.21238548,-0.39226478,-0.71224172,0.36174748,0.15233289
10.90000000,-0.35485410,0.79916963,-0.33682906,-0.27692605,0.56158506,0.22507139,-0.55757973,0.09952915,-0.78849775,0.21231112,-0.39185471,-0.71173029,0.36159368,0.15308293
10.92000000,-0.35563054,0.79896625,-0.33710957,-0.27618945,0.56119983,0.22461769,-0.55772216,0.09886820,-0.78852537,0.21223873,-0.39145549,-0.71123240,0.36144395,0.15381311
10.94000000,-0.35638586,0.79876841,-0.33738244,-0.27547290,0.56082508,0.22417633,-0.55786073,0.09822523,-0.78855223,0.21216831,-0.39106714,-0.71074807,0.36129830,0.15452342
10.96000000,-0.35712006,0.79857609,-0.33764769,-0.27477638,0.56046081,0.22374732,-0.55799542,0.09760024,-0.78857834,0.21209986,-0.39068964,-0.71027727,0.36115672,0.15521386
10.98000000,-0.35783316,0.79838931,-0.33790531,-0.27409989,0.56010701,0.22333063,-0.55812623,0.09699322,-0.78860370,0.21203338,-0.39032300,-0.70982001,0.36101921,0.15588447
11.00000000,-0.35852518,0.79820805,-0.33815531,-0.27344339,0.55976366,0.22292626,-0.55825319,0.09640414,-0.78862831,0.21196886,-0.38996719,-0.70937626,0.36088576,0.15653525
11.02000000,-0.35919617,0.79803229,-0.33839772,-0.27280684,0.55943076,0.22253418,-0.55837628,0.09583296,-0.78865217,0.21190631,-0.38962220,-0.70894600,0.36075637,0.15716625
11.04000000,-0.35984617,0.79786204,-0.33863254,-0.27219020,0.55910826,0.22215437,-0.55849552,0.09527964,-0.78867528,0.21184571,-0.38928799,-0.70852919,0.36063102,0.15777752
11.06000000,-0.36047527,0.79769726,-0.33885982,-0.27159339,0.55879614,0.22178677,-0.55861093,0.09474412,-0.78869766,0.21178706,-0.38896454,-0.70812579,0.36050971,0.15836913
11.08000000,-0.36108353,0.79753793,-0.33907956,-0.27101635,0.55849435,0.22143134,-0.55872251,0.09422634,-0.78871929,0.21173035,-0.38865179,-0.70773575,0.36039242,0.15894114
11.10000000,-0.36167105,0.79738404,-0.33929182,-0.27045898,0.55820285,0.22108803,-0.55883030,0.09372620,-0.78874018,0.21167557,-0.38834971,-0.70735901,0.36027912,0.15949365
11.12000000,-0.36223795,0.79723555,-0.33949662,-0.26992118,0.55792159,0.22075678,-0.55893429,0.09324364,-0.78876034,0.21162272,-0.38805824,-0.70699550,0.36016980,0.16002677
11.14000000,-0.36278433,0.79709244,-0.33969401,-0.26940284,0.55765050,0.22043751,-0.55903453,0.09277853,-0.78877977,0.21157178,-0.38777731,-0.70664513,0.36006444,0.16054059
11.16000000,-0.36331034,0.79695466,-0.33988404,-0.26890383,0.55738953,0.22013015,-0.55913102,0.09233076,-0.78879848,0.21152274,-0.38750686,-0.70630784,0.35996300,0.16103525
11.18000000,-0.36381612,0.79682218,-0.34006676,-0.26842401,0.55713859,0.21983460,-0.55922381,0.09190021,-0.78881646,0.21147559,-0.38724681,-0.70598351,0.35986547,0.16151089
11.20000000,-0.36430184,0.79669495,-0.34024223,-0.26796322,0.55689760,0.21955078,-0.55931291,0.09148674,-0.78883374,0.21143031,-0.38699708,-0.70567205,0.35977181,0.16196766
11.22000000,-0.36476767,0.79657293,-0.34041052,-0.26752130,0.55666648,0.21927858,-0.55939837,0.09109021,-0.78885030,0.21138688,-0.38675756,-0.70537335,0.35968198,0.16240574
11.24000000,-0.36521381,0.79645608,-0.34057170,-0.26709807,0.55644513,0.21901789,-0.55948021,0.09071043,-0.78886617,0.21134528,-0.38652818,-0.70508727,0.35959594,0.16282529
11.26000000,-0.36564045,0.79634432,-0.34072583,-0.26669332,0.55623345,0.21876859,-0.55955848,0.09034725,-0.78888134,0.21130551,-0.38630882,-0.70481368,0.35951367,0.16322651
11.28000000,-0.36604783,0.79623762,-0.34087301,-0.26630684,0.55603133,0.21853054,-0.55963322,0.09000046,-0.78889583,0.21126753,-0.38609936,-0.70455246,0.35943511,0.16360961
11.30000000,-0.36643618,0.79613589,-0.34101331,-0.26593843,0.55583865,0.21830362,-0.55970446,0.08966988,-0.78890964,0.21123132,-0.38589968,-0.70430343,0.35936022,0.16397482
11.32000000,-0.36680575,0.79603909,-0.34114682,-0.26558782,0.55565529,0.21808766,-0.55977226,0.08935528,-0.78892278,0.21119687,-0.38570967,-0.70406645,0.35928896,0.16432237
11.34000000,-0.36715681,0.79594714,-0.34127365,-0.26525479,0.55548112,0.21788253,-0.55983666,0.08905644,-0.78893527,0.21116414,-0.38552917,-0.70384134,0.35922126,0.16465251
11.36000000,-0.36748964,0.79585996,-0.34139389,-0.26493904,0.55531599,0.21768805,-0.55989771,0.08877312,-0.78894710,0.21113311,-0.38535804,-0.70362792,0.35915708,0.16496550
11.38000000,-0.36780453,0.79577748,-0.34150765,-0.26464031,0.55515975,0.21750405,-0.55995548,0.08850507,-0.78895830,0.21110375,-0.38519614,-0.70342600,0.35909636,0.16526163
11.40000000,-0.36810181,0.79569961,-0.34161504,-0.26435829,0.55501226,0.21733034,-0.56001002,0.08825201,-0.78896887,0.21107603,-0.38504329,-0.70323537,0.35903903,0.16554119
11.42000000,-0.36838180,0.79562627,-0.34171620,-0.26409267,0.55487335,0.21716673,-0.56006138,0.08801367,-0.78897883,0.21104993,-0.38489933,-0.70305584,0.35898504,0.16580449
11.44000000,-0.36864484,0.79555737,-0.34181123,-0.26384313,0.55474284,0.21701303,-0.56010964,0.08778975,-0.78898818,0.21102541,-0.38476408,-0.70288716,0.35893431,0.16605186
11.46000000,-0.36889131,0.79549282,-0.34190026,-0.26360932,0.55462056,0.21686901,-0.56015485,0.08757995,-0.78899695,0.21100243,-0.38463736,-0.70272912,0.35888679,0.16628364
11.48000000,-0.36912157,0.79543250,-0.34198345,-0.26339087,0.55450631,0.21673446,-0.56019709,0.08738394,-0.78900514,0.21098096,-0.38451897,-0.70258147,0.35884238,0.16650018
11.50000000,-0.36933602,0.79537633,-0.34206093,-0.26318742,0.55439991,0.21660915,-0.56023643,0.08720138,-0.78901276,0.21096097,-0.38440871,-0.70244395,0.35880103,0.16670186
11.52000000,-0.36953509,0.79532419,-0.34213284,-0.26299858,0.55430115,0.21649283,-0.56027295,0.08703193,-0.78901984,0.21094241,-0.38430636,-0.70231630,0.35876264,0.16688906
11.54000000,-0.36971919,0.79527597,-0.34219935,-0.26282393,0.55420981,0.21638526,-0.56030672,0.08687522,-0.78902639,0.21092525,-0.38421170,-0.70219825,0.35872714,0.16706218
11.56000000,-0.36988877,0.79523155,-0.34226062,-0.26266305,0.55412567,0.21628616,-0.56033783,0.08673086,-0.78903242,0.21090944,-0.38412451,-0.70208951,0.35869444,0.16722166
11.58000000,-0.37004430,0.79519081,-0.34231680,-0.26251551,0.55404850,0.21619528,-0.56036637,0.08659847,-0.78903795,0.21089494,-0.38404454,-0.70198978,0.35866445,0.16736792
11.60000000,-0.37018625,0.79515363,-0.34236809,-0.26238084,0.55397807,0.21611233,-0.56039241,0.08647763,-0.78904300,0.21088170,-0.38397156,-0.70189875,0.35863707,0.16750142
