gracetata/LocomotionHEC/legged_lab/Reference Data/ArmHack/StandPerturb/TestData/ArmOnly/trajectories/randomized/randomized_arm_trajectory_04_seed20260715_minjerk_50hz.csv
time_s,left_shoulder_pitch_joint,left_shoulder_roll_joint,left_shoulder_yaw_joint,left_elbow_joint,left_wrist_roll_joint,left_wrist_pitch_joint,left_wrist_yaw_joint,right_shoulder_pitch_joint,right_shoulder_roll_joint,right_shoulder_yaw_joint,right_elbow_joint,right_wrist_roll_joint,right_wrist_pitch_joint,right_wrist_yaw_joint
0.00000000,-0.71492096,0.69057610,-0.48411484,0.16645596,0.66620857,0.24703983,-0.59028058,0.27902406,-0.77822409,0.22974929,-0.47601847,-0.84804618,0.40061730,-0.04664953
0.02000000,-0.71492067,0.69057614,-0.48411448,0.16645601,0.66620870,0.24703958,-0.59028030,0.27902406,-0.77822409,0.22974929,-0.47601847,-0.84804618,0.40061730,-0.04664953
0.04000000,-0.71491865,0.69057644,-0.48411203,0.16645637,0.66620958,0.24703780,-0.59027840,0.27902406,-0.77822409,0.22974929,-0.47601847,-0.84804618,0.40061730,-0.04664953
0.06000000,-0.71491321,0.69057723,-0.48410541,0.16645732,0.66621194,0.24703301,-0.59027329,0.27902407,-0.77822409,0.22974929,-0.47601847,-0.84804618,0.40061730,-0.04664953
0.08000000,-0.71490270,0.69057876,-0.48409263,0.16645916,0.66621650,0.24702375,-0.59026341,0.27902407,-0.77822410,0.22974929,-0.47601847,-0.84804618,0.40061730,-0.04664953
0.10000000,-0.71488550,0.69058126,-0.48407173,0.16646218,0.66622396,0.24700861,-0.59024724,0.27902407,-0.77822410,0.22974929,-0.47601847,-0.84804618,0.40061729,-0.04664953
0.12000000,-0.71486006,0.69058496,-0.48404079,0.16646663,0.66623500,0.24698621,-0.59022332,0.27902408,-0.77822411,0.22974930,-0.47601847,-0.84804617,0.40061729,-0.04664953
0.14000000,-0.71482483,0.69059008,-0.48399798,0.16647281,0.66625028,0.24695520,-0.59019022,0.27902409,-0.77822413,0.22974930,-0.47601848,-0.84804617,0.40061728,-0.04664953
0.16000000,-0.71477835,0.69059683,-0.48394146,0.16648095,0.66627045,0.24691427,-0.59014652,0.27902411,-0.77822414,0.22974930,-0.47601848,-0.84804617,0.40061727,-0.04664953
0.18000000,-0.71471915,0.69060544,-0.48386950,0.16649132,0.66629613,0.24686215,-0.59009087,0.27902412,-0.77822416,0.22974931,-0.47601848,-0.84804617,0.40061725,-0.04664953
0.20000000,-0.71464582,0.69061610,-0.48378036,0.16650417,0.66632795,0.24679760,-0.59002195,0.27902415,-0.77822419,0.22974932,-0.47601849,-0.84804617,0.40061724,-0.04664953
0.22000000,-0.71455701,0.69062901,-0.48367239,0.16651973,0.66636648,0.24671940,-0.58993847,0.27902417,-0.77822422,0.22974932,-0.47601850,-0.84804616,0.40061721,-0.04664953
0.24000000,-0.71445137,0.69064437,-0.48354398,0.16653824,0.66641231,0.24662640,-0.58983917,0.27902420,-0.77822426,0.22974933,-0.47601850,-0.84804616,0.40061719,-0.04664953
0.26000000,-0.71432762,0.69066236,-0.48339353,0.16655992,0.66646601,0.24651744,-0.58972284,0.27902424,-0.77822430,0.22974935,-0.47601851,-0.84804616,0.40061716,-0.04664953
0.28000000,-0.71418450,0.69068316,-0.48321955,0.16658500,0.66652810,0.24639143,-0.58958831,0.27902428,-0.77822435,0.22974936,-0.47601852,-0.84804615,0.40061712,-0.04664953
0.30000000,-0.71402079,0.69070696,-0.48302053,0.16661368,0.66659913,0.24624730,-0.58943443,0.27902433,-0.77822441,0.22974937,-0.47601853,-0.84804614,0.40061708,-0.04664952
0.32000000,-0.71383531,0.69073392,-0.48279506,0.16664618,0.66667960,0.24608401,-0.58926008,0.27902439,-0.77822447,0.22974939,-0.47601855,-0.84804614,0.40061704,-0.04664952
0.34000000,-0.71362693,0.69076421,-0.48254174,0.16668269,0.66677001,0.24590054,-0.58906421,0.27902445,-0.77822455,0.22974941,-0.47601856,-0.84804613,0.40061698,-0.04664952
0.36000000,-0.71339453,0.69079800,-0.48225923,0.16672341,0.66687084,0.24569593,-0.58884576,0.27902452,-0.77822463,0.22974943,-0.47601858,-0.84804612,0.40061693,-0.04664952
0.38000000,-0.71313705,0.69083542,-0.48194622,0.16676852,0.66698255,0.24546924,-0.58860373,0.27902460,-0.77822472,0.22974946,-0.47601860,-0.84804611,0.40061686,-0.04664952
0.40000000,-0.71285346,0.69087665,-0.48160147,0.16681821,0.66710560,0.24521956,-0.58833716,0.27902468,-0.77822482,0.22974948,-0.47601862,-0.84804610,0.40061679,-0.04664952
0.42000000,-0.71254275,0.69092182,-0.48122375,0.16687265,0.66724040,0.24494601,-0.58804510,0.27902478,-0.77822493,0.22974951,-0.47601864,-0.84804609,0.40061672,-0.04664951
0.44000000,-0.71220397,0.69097106,-0.48081191,0.16693201,0.66738739,0.24464774,-0.58772664,0.27902488,-0.77822505,0.22974954,-0.47601867,-0.84804608,0.40061663,-0.04664951
0.46000000,-0.71183618,0.69102453,-0.48036481,0.16699645,0.66754696,0.24432393,-0.58738093,0.27902499,-0.77822518,0.22974957,-0.47601870,-0.84804607,0.40061654,-0.04664951
0.48000000,-0.71143850,0.69108234,-0.47988136,0.16706613,0.66771950,0.24397380,-0.58700712,0.27902511,-0.77822532,0.22974961,-0.47601872,-0.84804605,0.40061644,-0.04664950
0.50000000,-0.71101007,0.69114462,-0.47936054,0.16714120,0.66790538,0.24359660,-0.58660440,0.27902524,-0.77822547,0.22974965,-0.47601876,-0.84804604,0.40061634,-0.04664950
0.52000000,-0.71055005,0.69121149,-0.47880132,0.16722180,0.66810497,0.24319160,-0.58617199,0.27902537,-0.77822563,0.22974969,-0.47601879,-0.84804602,0.40061622,-0.04664950
0.54000000,-0.71005768,0.69128306,-0.47820276,0.16730807,0.66831860,0.24275810,-0.58570917,0.27902552,-0.77822581,0.22974974,-0.47601883,-0.84804600,0.40061610,-0.04664949
0.56000000,-0.70953217,0.69135945,-0.47756393,0.16740014,0.66854659,0.24229543,-0.58521520,0.27902568,-0.77822599,0.22974979,-0.47601886,-0.84804598,0.40061597,-0.04664949
0.58000000,-0.70897282,0.69144077,-0.47688396,0.16749815,0.66878928,0.24180297,-0.58468942,0.27902585,-0.77822619,0.22974984,-0.47601891,-0.84804596,0.40061584,-0.04664949
0.60000000,-0.70837894,0.69152710,-0.47616199,0.16760220,0.66904695,0.24128010,-0.58413118,0.27902603,-0.77822640,0.22974989,-0.47601895,-0.84804594,0.40061569,-0.04664948
0.62000000,-0.70774985,0.69161855,-0.47539724,0.16771243,0.66931989,0.24072624,-0.58353985,0.27902622,-0.77822662,0.22974995,-0.47601900,-0.84804592,0.40061553,-0.04664948
0.64000000,-0.70708494,0.69171520,-0.47458894,0.16782893,0.66960837,0.24014083,-0.58291484,0.27902641,-0.77822685,0.22975001,-0.47601904,-0.84804590,0.40061537,-0.04664947
0.66000000,-0.70638360,0.69181715,-0.47373636,0.16795181,0.66991266,0.23952337,-0.58225560,0.27902663,-0.77822710,0.22975007,-0.47601910,-0.84804587,0.40061520,-0.04664947
0.68000000,-0.70564529,0.69192448,-0.47283882,0.16808117,0.67023299,0.23887334,-0.58156160,0.27902685,-0.77822736,0.22975014,-0.47601915,-0.84804584,0.40061501,-0.04664946
0.70000000,-0.70486945,0.69203726,-0.47189568,0.16821711,0.67056960,0.23819028,-0.58083232,0.27902708,-0.77822764,0.22975021,-0.47601921,-0.84804582,0.40061482,-0.04664945
0.72000000,-0.70405560,0.69215557,-0.47090631,0.16835970,0.67092270,0.23747375,-0.58006732,0.27902732,-0.77822792,0.22975029,-0.47601927,-0.84804579,0.40061462,-0.04664945
0.74000000,-0.70320326,0.69227947,-0.46987016,0.16850904,0.67129250,0.23672333,-0.57926613,0.27902758,-0.77822822,0.22975037,-0.47601933,-0.84804576,0.40061441,-0.04664944
0.76000000,-0.70231198,0.69240903,-0.46878667,0.16866521,0.67167920,0.23593863,-0.57842834,0.27902785,-0.77822854,0.22975045,-0.47601940,-0.84804572,0.40061419,-0.04664944
0.78000000,-0.70138136,0.69254431,-0.46765536,0.16882826,0.67208297,0.23511929,-0.57755357,0.27902813,-0.77822887,0.22975053,-0.47601946,-0.84804569,0.40061396,-0.04664943
0.80000000,-0.70041101,0.69268537,-0.46647575,0.16899828,0.67250397,0.23426497,-0.57664146,0.27902842,-0.77822921,0.22975062,-0.47601954,-0.84804566,0.40061372,-0.04664942
0.82000000,-0.69940057,0.69283226,-0.46524741,0.16917532,0.67294237,0.23337536,-0.57569167,0.27902872,-0.77822956,0.22975072,-0.47601961,-0.84804562,0.40061347,-0.04664941
0.84000000,-0.69834973,0.69298501,-0.46396995,0.16935944,0.67339829,0.23245018,-0.57470389,0.27902904,-0.77822994,0.22975081,-0.47601969,-0.84804558,0.40061321,-0.04664941
0.86000000,-0.69725818,0.69314369,-0.46264300,0.16955069,0.67387188,0.23148916,-0.57367786,0.27902936,-0.77823032,0.22975091,-0.47601977,-0.84804554,0.40061295,-0.04664940
0.88000000,-0.69612566,0.69330832,-0.46126625,0.16974912,0.67436324,0.23049206,-0.57261331,0.27902970,-0.77823072,0.22975102,-0.47601985,-0.84804550,0.40061267,-0.04664939
0.90000000,-0.69495192,0.69347894,-0.45983939,0.16995477,0.67487249,0.22945868,-0.57151001,0.27903006,-0.77823113,0.22975112,-0.47601994,-0.84804546,0.40061238,-0.04664938
0.92000000,-0.69373675,0.69365559,-0.45836217,0.17016769,0.67539971,0.22838882,-0.57036777,0.27903042,-0.77823156,0.22975124,-0.47602003,-0.84804542,0.40061208,-0.04664937
0.94000000,-0.69247997,0.69383828,-0.45683435,0.17038789,0.67594499,0.22728232,-0.56918642,0.27903080,-0.77823200,0.22975135,-0.47602012,-0.84804537,0.40061177,-0.04664936
0.96000000,-0.69118141,0.69402705,-0.45525575,0.17061541,0.67650839,0.22613904,-0.56796579,0.27903119,-0.77823246,0.22975147,-0.47602021,-0.84804533,0.40061145,-0.04664935
0.98000000,-0.68984093,0.69422191,-0.45362619,0.17085028,0.67708998,0.22495886,-0.56670576,0.27903159,-0.77823294,0.22975159,-0.47602031,-0.84804528,0.40061112,-0.04664934
1.00000000,-0.68845843,0.69442288,-0.45194555,0.17109251,0.67768980,0.22374168,-0.56540624,0.27903201,-0.77823342,0.22975172,-0.47602041,-0.84804523,0.40061077,-0.04664933
1.02000000,-0.68703383,0.69462997,-0.45021373,0.17134212,0.67830789,0.22248743,-0.56406714,0.27903243,-0.77823393,0.22975185,-0.47602052,-0.84804518,0.40061042,-0.04664932
1.04000000,-0.68556707,0.69484319,-0.44843065,0.17159911,0.67894427,0.22119606,-0.56268841,0.27903287,-0.77823444,0.22975199,-0.47602063,-0.84804512,0.40061006,-0.04664931
1.06000000,-0.68405811,0.69506254,-0.44659628,0.17186350,0.67959896,0.21986755,-0.56127001,0.27903333,-0.77823497,0.22975212,-0.47602074,-0.84804507,0.40060969,-0.04664930
1.08000000,-0.68250695,0.69528803,-0.44471061,0.17213528,0.68027196,0.21850187,-0.55981195,0.27903379,-0.77823552,0.22975227,-0.47602085,-0.84804501,0.40060931,-0.04664928
1.10000000,-0.68091360,0.69551965,-0.44277365,0.17241445,0.68096326,0.21709906,-0.55831423,0.27903427,-0.77823608,0.22975241,-0.47602097,-0.84804496,0.40060891,-0.04664927
1.12000000,-0.67927811,0.69575740,-0.44078546,0.17270101,0.68167285,0.21565914,-0.55677689,0.27903476,-0.77823666,0.22975256,-0.47602109,-0.84804490,0.40060851,-0.04664926
1.14000000,-0.67760054,0.69600126,-0.43874611,0.17299494,0.68240069,0.21418217,-0.55520000,0.27903527,-0.77823725,0.22975272,-0.47602121,-0.84804484,0.40060810,-0.04664925
1.16000000,-0.67588097,0.69625123,-0.43665571,0.17329623,0.68314676,0.21266822,-0.55358363,0.27903578,-0.77823786,0.22975287,-0.47602134,-0.84804478,0.40060767,-0.04664923
1.18000000,-0.67411951,0.69650729,-0.43451438,0.17360486,0.68391100,0.21111740,-0.55192789,0.27903631,-0.77823848,0.22975304,-0.47602147,-0.84804471,0.40060724,-0.04664922
1.20000000,-0.67231630,0.69676941,-0.43232230,0.17392080,0.68469335,0.20952982,-0.55023291,0.27903685,-0.77823912,0.22975320,-0.47602160,-0.84804465,0.40060679,-0.04664921
1.22000000,-0.67047149,0.69703759,-0.43007965,0.17424403,0.68549375,0.20790561,-0.54849882,0.27903740,-0.77823977,0.22975337,-0.47602174,-0.84804458,0.40060634,-0.04664919
1.24000000,-0.66858526,0.69731178,-0.42778665,0.17457452,0.68631213,0.20624493,-0.54672579,0.27903797,-0.77824043,0.22975354,-0.47602187,-0.84804452,0.40060587,-0.04664918
1.26000000,-0.66665780,0.69759197,-0.42544353,0.17491224,0.68714839,0.20454796,-0.54491401,0.27903855,-0.77824111,0.22975372,-0.47602202,-0.84804445,0.40060540,-0.04664916
1.28000000,-0.66468934,0.69787812,-0.42305056,0.17525713,0.68800244,0.20281488,-0.54306369,0.27903914,-0.77824181,0.22975390,-0.47602216,-0.84804438,0.40060491,-0.04664915
1.30000000,-0.66268011,0.69817020,-0.42060804,0.17560917,0.68887418,0.20104592,-0.54117505,0.27903974,-0.77824251,0.22975409,-0.47602231,-0.84804430,0.40060441,-0.04664913
1.32000000,-0.66063038,0.69846816,-0.41811627,0.17596831,0.68976349,0.19924129,-0.53924834,0.27904036,-0.77824324,0.22975427,-0.47602246,-0.84804423,0.40060391,-0.04664912
1.34000000,-0.65854043,0.69877197,-0.41557561,0.17633449,0.69067025,0.19740126,-0.53728382,0.27904099,-0.77824397,0.22975447,-0.47602261,-0.84804415,0.40060339,-0.04664910
1.36000000,-0.65641055,0.69908159,-0.41298641,0.17670767,0.69159434,0.19552607,-0.53528177,0.27904163,-0.77824472,0.22975466,-0.47602277,-0.84804408,0.40060287,-0.04664909
1.38000000,-0.65424107,0.69939696,-0.41034908,0.17708779,0.69253560,0.19361601,-0.53324249,0.27904228,-0.77824549,0.22975486,-0.47602293,-0.84804400,0.40060233,-0.04664907
1.40000000,-0.65203233,0.69971803,-0.40766401,0.17747479,0.69349391,0.19167139,-0.53116631,0.27904294,-0.77824627,0.22975506,-0.47602309,-0.84804392,0.40060179,-0.04664905
1.42000000,-0.64978468,0.70004477,-0.40493165,0.17786860,0.69446909,0.18969252,-0.52905356,0.27904361,-0.77824706,0.22975527,-0.47602326,-0.84804384,0.40060123,-0.04664904
1.44000000,-0.64749850,0.70037710,-0.40215245,0.17826917,0.69546098,0.18767972,-0.52690459,0.27904430,-0.77824787,0.22975548,-0.47602342,-0.84804376,0.40060067,-0.04664902
1.46000000,-0.64517420,0.70071498,-0.39932690,0.17867641,0.69646943,0.18563335,-0.52471978,0.27904500,-0.77824869,0.22975569,-0.47602360,-0.84804368,0.40060009,-0.04664900
1.48000000,-0.64281217,0.70105834,-0.39645549,0.17909027,0.69749423,0.18355378,-0.52249952,0.27904571,-0.77824952,0.22975591,-0.47602377,-0.84804359,0.40059951,-0.04664898
1.50000000,-0.64041285,0.70140712,-0.39353875,0.17951066,0.69853522,0.18144137,-0.52024420,0.27904643,-0.77825037,0.22975613,-0.47602395,-0.84804350,0.40059892,-0.04664896
1.52000000,-0.63797670,0.70176126,-0.39057723,0.17993750,0.69959219,0.17929653,-0.51795425,0.27904716,-0.77825123,0.22975635,-0.47602412,-0.84804342,0.40059832,-0.04664895
1.54000000,-0.63550416,0.70212068,-0.38757148,0.18037072,0.70066494,0.17711966,-0.51563011,0.27904790,-0.77825210,0.22975658,-0.47602431,-0.84804333,0.40059771,-0.04664893
1.56000000,-0.63299573,0.70248533,-0.38452210,0.18081022,0.70175327,0.17491118,-0.51327223,0.27904865,-0.77825298,0.22975681,-0.47602449,-0.84804324,0.40059709,-0.04664891
1.58000000,-0.63045190,0.70285512,-0.38142968,0.18125593,0.70285695,0.17267154,-0.51088107,0.27904942,-0.77825388,0.22975704,-0.47602468,-0.84804315,0.40059646,-0.04664889
1.60000000,-0.62787319,0.70322998,-0.37829486,0.18170775,0.70397577,0.17040119,-0.50845713,0.27905019,-0.77825479,0.22975728,-0.47602487,-0.84804305,0.40059583,-0.04664887
1.62000000,-0.62526011,0.70360983,-0.37511826,0.18216560,0.70510950,0.16810059,-0.50600088,0.27905098,-0.77825571,0.22975752,-0.47602506,-0.84804296,0.40059518,-0.04664885
1.64000000,-0.62261323,0.70399460,-0.37190057,0.18262936,0.70625790,0.16577021,-0.50351285,0.27905177,-0.77825664,0.22975776,-0.47602525,-0.84804287,0.40059453,-0.04664883
1.66000000,-0.61993309,0.70438420,-0.36864244,0.18309895,0.70742072,0.16341056,-0.50099356,0.27905257,-0.77825759,0.22975801,-0.47602545,-0.84804277,0.40059387,-0.04664881
1.68000000,-0.61722026,0.70477856,-0.36534459,0.18357427,0.70859773,0.16102214,-0.49844356,0.27905339,-0.77825855,0.22975826,-0.47602565,-0.84804267,0.40059320,-0.04664879
1.70000000,-0.61447534,0.70517758,-0.36200771,0.18405521,0.70978866,0.15860545,-0.49586338,0.27905421,-0.77825951,0.22975851,-0.47602585,-0.84804257,0.40059252,-0.04664877
1.72000000,-0.61169893,0.70558118,-0.35863256,0.18454167,0.71099325,0.15616104,-0.49325360,0.27905505,-0.77826049,0.22975876,-0.47602606,-0.84804247,0.40059184,-0.04664874
1.74000000,-0.60889164,0.70598927,-0.35521986,0.18503354,0.71221125,0.15368944,-0.49061479,0.27905589,-0.77826148,0.22975902,-0.47602626,-0.84804237,0.40059114,-0.04664872
1.76000000,-0.60605409,0.70640175,-0.35177039,0.18553072,0.71344237,0.15119121,-0.48794754,0.27905674,-0.77826248,0.22975928,-0.47602647,-0.84804227,0.40059044,-0.04664870
1.78000000,-0.60318694,0.70681854,-0.34828491,0.18603308,0.71468633,0.14866691,-0.48525246,0.27905760,-0.77826349,0.22975955,-0.47602668,-0.84804217,0.40058974,-0.04664868
1.80000000,-0.60029082,0.70723954,-0.34476424,0.18654051,0.71594286,0.14611711,-0.48253016,0.27905847,-0.77826452,0.22975981,-0.47602689,-0.84804207,0.40058902,-0.04664866
1.82000000,-0.59736641,0.70766465,-0.34120917,0.18705290,0.71721167,0.14354240,-0.47978126,0.27905935,-0.77826555,0.22976008,-0.47602711,-0.84804196,0.40058830,-0.04664864
1.84000000,-0.59441438,0.70809378,-0.33762052,0.18757013,0.71849246,0.14094337,-0.47700641,0.27906023,-0.77826659,0.22976035,-0.47602733,-0.84804185,0.40058757,-0.04664861
1.86000000,-0.59143542,0.70852682,-0.33399914,0.18809208,0.71978493,0.13832063,-0.47420624,0.27906113,-0.77826764,0.22976062,-0.47602754,-0.84804175,0.40058684,-0.04664859
1.88000000,-0.58843023,0.70896368,-0.33034587,0.18861862,0.72108878,0.13567480,-0.47138141,0.27906203,-0.77826870,0.22976090,-0.47602777,-0.84804164,0.40058609,-0.04664857
1.90000000,-0.58539953,0.70940424,-0.32666158,0.18914964,0.72240371,0.13300651,-0.46853259,0.27906294,-0.77826977,0.22976118,-0.47602799,-0.84804153,0.40058535,-0.04664854
1.92000000,-0.58234402,0.70984841,-0.32294714,0.18968500,0.72372940,0.13031638,-0.46566047,0.27906386,-0.77827084,0.22976146,-0.47602821,-0.84804142,0.40058459,-0.04664852
1.94000000,-0.57926444,0.71029608,-0.31920343,0.19022458,0.72506552,0.12760505,-0.46276572,0.27906478,-0.77827193,0.22976174,-0.47602844,-0.84804131,0.40058383,-0.04664850
1.96000000,-0.57616153,0.71074714,-0.31543137,0.19076824,0.72641177,0.12487319,-0.45984904,0.27906571,-0.77827302,0.22976203,-0.47602867,-0.84804120,0.40058307,-0.04664847
1.98000000,-0.57303605,0.71120148,-0.31163187,0.19131586,0.72776782,0.12212145,-0.45691113,0.27906665,-0.77827413,0.22976231,-0.47602890,-0.84804109,0.40058230,-0.04664845
2.00000000,-0.56988874,0.71165900,-0.30780583,0.19186731,0.72913333,0.11935050,-0.45395272,0.27906760,-0.77827524,0.22976260,-0.47602913,-0.84804098,0.40058152,-0.04664843
2.02000000,-0.56672039,0.71211957,-0.30395421,0.19242244,0.73050798,0.11656101,-0.45097452,0.27906855,-0.77827635,0.22976289,-0.47602936,-0.84804086,0.40058074,-0.04664840
2.04000000,-0.56353175,0.71258310,-0.30007793,0.19298113,0.73189142,0.11375367,-0.44797726,0.27906950,-0.77827748,0.22976318,-0.47602960,-0.84804075,0.40057995,-0.04664838
2.06000000,-0.56032363,0.71304945,-0.29617796,0.19354323,0.73328333,0.11092917,-0.44496167,0.27907047,-0.77827861,0.22976348,-0.47602983,-0.84804063,0.40057916,-0.04664835
2.08000000,-0.55709680,0.71351852,-0.29225526,0.19410861,0.73468334,0.10808821,-0.44192851,0.27907144,-0.77827975,0.22976378,-0.47603007,-0.84804052,0.40057836,-0.04664833
2.10000000,-0.55385208,0.71399020,-0.28831079,0.19467712,0.73609112,0.10523149,-0.43887852,0.27907241,-0.77828089,0.22976407,-0.47603031,-0.84804040,0.40057756,-0.04664830
2.12000000,-0.55059025,0.71446436,-0.28434555,0.19524863,0.73750632,0.10235971,-0.43581246,0.27907339,-0.77828204,0.22976437,-0.47603055,-0.84804028,0.40057676,-0.04664828
2.14000000,-0.54731215,0.71494089,-0.28036051,0.19582299,0.73892858,0.09947360,-0.43273110,0.27907437,-0.77828320,0.22976467,-0.47603079,-0.84804017,0.40057595,-0.04664825
2.16000000,-0.54401859,0.71541967,-0.27635667,0.19640006,0.74035755,0.09657388,-0.42963521,0.27907536,-0.77828436,0.22976498,-0.47603103,-0.84804005,0.40057514,-0.04664823
2.18000000,-0.54071039,0.71590057,-0.27233504,0.19697970,0.74179287,0.09366127,-0.42652555,0.27907635,-0.77828553,0.22976528,-0.47603127,-0.84803993,0.40057432,-0.04664820
2.20000000,-0.53738838,0.71638348,-0.26829663,0.19756175,0.74323418,0.09073651,-0.42340292,0.27907735,-0.77828670,0.22976558,-0.47603152,-0.84803981,0.40057350,-0.04664818
2.22000000,-0.53405341,0.71686827,-0.26424246,0.19814608,0.74468112,0.08780033,-0.42026810,0.27907835,-0.77828787,0.22976589,-0.47603176,-0.84803969,0.40057268,-0.04664815
2.24000000,-0.53070631,0.71735483,-0.26017354,0.19873253,0.74613332,0.08485348,-0.41712189,0.27907936,-0.77828905,0.22976620,-0.47603201,-0.84803957,0.40057185,-0.04664813
2.26000000,-0.52734793,0.71784303,-0.25609091,0.19932096,0.74759041,0.08189669,-0.41396506,0.27908037,-0.77829024,0.22976651,-0.47603226,-0.84803945,0.40057102,-0.04664810
2.28000000,-0.52397912,0.71833274,-0.25199561,0.19991121,0.74905203,0.07893072,-0.41079844,0.27908138,-0.77829143,0.22976681,-0.47603250,-0.84803933,0.40057019,-0.04664808
2.30000000,-0.52060073,0.71882385,-0.24788866,0.20050315,0.75051780,0.07595632,-0.40762281,0.27908239,-0.77829262,0.22976712,-0.47603275,-0.84803921,0.40056936,-0.04664805
2.32000000,-0.51721363,0.71931622,-0.24377112,0.20109661,0.75198735,0.07297425,-0.40443900,0.27908341,-0.77829381,0.22976744,-0.47603300,-0.84803909,0.40056852,-0.04664803
2.34000000,-0.51381868,0.71980974,-0.23964403,0.20169144,0.75346031,0.06998526,-0.40124780,0.27908443,-0.77829501,0.22976775,-0.47603325,-0.84803896,0.40056769,-0.04664800
2.36000000,-0.51041674,0.72030427,-0.23550845,0.20228750,0.75493630,0.06699012,-0.39805003,0.27908545,-0.77829621,0.22976806,-0.47603350,-0.84803884,0.40056685,-0.04664797
2.38000000,-0.50700867,0.72079969,-0.23136542,0.20288464,0.75641495,0.06398960,-0.39484651,0.27908647,-0.77829741,0.22976837,-0.47603375,-0.84803872,0.40056601,-0.04664795
2.40000000,-0.50359536,0.72129587,-0.22721601,0.20348269,0.75789588,0.06098444,-0.39163805,0.27908749,-0.77829862,0.22976869,-0.47603400,-0.84803860,0.40056516,-0.04664792
2.42000000,-0.50017767,0.72179269,-0.22306128,0.20408151,0.75937870,0.05797544,-0.38842548,0.27908852,-0.77829982,0.22976900,-0.47603425,-0.84803847,0.40056432,-0.04664790
2.44000000,-0.49675647,0.72229002,-0.21890229,0.20468094,0.76086305,0.05496334,-0.38520961,0.27908955,-0.77830103,0.22976931,-0.47603450,-0.84803835,0.40056348,-0.04664787
2.46000000,-0.49333264,0.72278773,-0.21474009,0.20528084,0.76234854,0.05194893,-0.38199127,0.27909058,-0.77830223,0.22976963,-0.47603476,-0.84803823,0.40056263,-0.04664784
2.48000000,-0.48990706,0.72328570,-0.21057577,0.20588104,0.76383478,0.04893298,-0.37877128,0.27909160,-0.77830344,0.22976994,-0.47603501,-0.84803811,0.40056179,-0.04664782
2.50000000,-0.48648060,0.72378379,-0.20641038,0.20648140,0.76532141,0.04591626,-0.37555046,0.27909263,-0.77830465,0.22977026,-0.47603526,-0.84803798,0.40056094,-0.04664779
2.52000000,-0.48305414,0.72428188,-0.20224499,0.20708175,0.76680804,0.04289953,-0.37232965,0.27909366,-0.77830586,0.22977057,-0.47603551,-0.84803786,0.40056010,-0.04664776
2.54000000,-0.47962856,0.72477985,-0.19808067,0.20768195,0.76829429,0.03988358,-0.36910966,0.27909469,-0.77830707,0.22977088,-0.47603576,-0.84803774,0.40055925,-0.04664774
2.56000000,-0.47620473,0.72527756,-0.19391848,0.20828185,0.76977978,0.03686917,-0.36589132,0.27909572,-0.77830827,0.22977120,-0.47603601,-0.84803761,0.40055841,-0.04664771
2.58000000,-0.47278353,0.72577489,-0.18975949,0.20888128,0.77126413,0.03385708,-0.36267545,0.27909674,-0.77830948,0.22977151,-0.47603627,-0.84803749,0.40055756,-0.04664769
2.60000000,-0.46936584,0.72627171,-0.18560475,0.20948010,0.77274695,0.03084807,-0.35946287,0.27909777,-0.77831069,0.22977183,-0.47603652,-0.84803737,0.40055672,-0.04664766
2.62000000,-0.46595252,0.72676789,-0.18145535,0.21007815,0.77422788,0.02784292,-0.35625441,0.27909879,-0.77831189,0.22977214,-0.47603677,-0.84803725,0.40055588,-0.04664763
2.64000000,-0.46254446,0.72726331,-0.17731232,0.21067529,0.77570652,0.02484239,-0.35305089,0.27909982,-0.77831309,0.22977245,-0.47603702,-0.84803713,0.40055504,-0.04664761
2.66000000,-0.45914252,0.72775784,-0.17317673,0.21127135,0.77718252,0.02184725,-0.34985312,0.27910084,-0.77831429,0.22977276,-0.47603727,-0.84803700,0.40055420,-0.04664758
2.68000000,-0.45574756,0.72825136,-0.16904965,0.21186618,0.77865548,0.01885826,-0.34666192,0.27910186,-0.77831549,0.22977308,-0.47603752,-0.84803688,0.40055336,-0.04664756
2.70000000,-0.45236046,0.72874373,-0.16493210,0.21245964,0.78012503,0.01587619,-0.34347811,0.27910287,-0.77831668,0.22977339,-0.47603777,-0.84803676,0.40055252,-0.04664753
2.72000000,-0.44898208,0.72923484,-0.16082516,0.21305158,0.78159080,0.01290179,-0.34030248,0.27910389,-0.77831787,0.22977370,-0.47603802,-0.84803664,0.40055169,-0.04664751
2.74000000,-0.44561327,0.72972455,-0.15672985,0.21364183,0.78305242,0.00993582,-0.33713586,0.27910490,-0.77831906,0.22977401,-0.47603826,-0.84803652,0.40055086,-0.04664748
2.76000000,-0.44225489,0.73021275,-0.15264722,0.21423026,0.78450951,0.00697904,-0.33397904,0.27910591,-0.77832025,0.22977431,-0.47603851,-0.84803640,0.40055003,-0.04664745
2.78000000,-0.43890779,0.73069931,-0.14857831,0.21481671,0.78596171,0.00403218,-0.33083282,0.27910691,-0.77832143,0.22977462,-0.47603876,-0.84803628,0.40054920,-0.04664743
2.80000000,-0.43557282,0.73118410,-0.14452413,0.21540104,0.78740864,0.00109600,-0.32769800,0.27910791,-0.77832260,0.22977493,-0.47603900,-0.84803616,0.40054838,-0.04664740
2.82000000,-0.43225081,0.73166701,-0.14048572,0.21598309,0.78884995,-0.00182876,-0.32457537,0.27910891,-0.77832377,0.22977523,-0.47603925,-0.84803604,0.40054756,-0.04664738
2.84000000,-0.42894261,0.73214791,-0.13646409,0.21656273,0.79028527,-0.00474137,-0.32146572,0.27910990,-0.77832494,0.22977554,-0.47603949,-0.84803592,0.40054675,-0.04664735
2.86000000,-0.42564904,0.73262669,-0.13246026,0.21713980,0.79171424,-0.00764109,-0.31836982,0.27911089,-0.77832610,0.22977584,-0.47603973,-0.84803580,0.40054593,-0.04664733
2.88000000,-0.42237094,0.73310322,-0.12847522,0.21771416,0.79313651,-0.01052720,-0.31528846,0.27911188,-0.77832726,0.22977614,-0.47603997,-0.84803568,0.40054512,-0.04664730
2.90000000,-0.41910912,0.73357738,-0.12450997,0.21828567,0.79455171,-0.01339897,-0.31222240,0.27911285,-0.77832841,0.22977644,-0.47604021,-0.84803557,0.40054432,-0.04664728
2.92000000,-0.41586439,0.73404905,-0.12056551,0.21885418,0.79595949,-0.01625570,-0.30917241,0.27911383,-0.77832955,0.22977674,-0.47604045,-0.84803545,0.40054352,-0.04664725
2.94000000,-0.41263757,0.73451813,-0.11664280,0.21941956,0.79735950,-0.01909666,-0.30613925,0.27911480,-0.77833069,0.22977703,-0.47604069,-0.84803533,0.40054272,-0.04664723
2.96000000,-0.40942944,0.73498448,-0.11274283,0.21998166,0.79875140,-0.02192116,-0.30312367,0.27911576,-0.77833182,0.22977733,-0.47604092,-0.84803522,0.40054193,-0.04664720
2.98000000,-0.40624081,0.73544801,-0.10886656,0.22054035,0.80013485,-0.02472850,-0.30012640,0.27911672,-0.77833295,0.22977762,-0.47604116,-0.84803511,0.40054114,-0.04664718
3.00000000,-0.40307245,0.73590858,-0.10501493,0.22109548,0.80150949,-0.02751798,-0.29714820,0.27911767,-0.77833406,0.22977791,-0.47604139,-0.84803499,0.40054036,-0.04664716
3.02000000,-0.39992515,0.73636609,-0.10118890,0.22164693,0.80287501,-0.03028893,-0.29418979,0.27911861,-0.77833517,0.22977820,-0.47604162,-0.84803488,0.40053959,-0.04664713
3.04000000,-0.39679966,0.73682044,-0.09738939,0.22219455,0.80423105,-0.03304068,-0.29125188,0.27911955,-0.77833628,0.22977849,-0.47604185,-0.84803477,0.40053882,-0.04664711
3.06000000,-0.39369676,0.73727150,-0.09361733,0.22273821,0.80557730,-0.03577254,-0.28833520,0.27912048,-0.77833737,0.22977877,-0.47604208,-0.84803466,0.40053805,-0.04664708
3.08000000,-0.39061718,0.73771917,-0.08987363,0.22327779,0.80691343,-0.03848386,-0.28544045,0.27912141,-0.77833846,0.22977905,-0.47604231,-0.84803455,0.40053729,-0.04664706
3.10000000,-0.38756167,0.73816334,-0.08615919,0.22381315,0.80823912,-0.04117399,-0.28256833,0.27912232,-0.77833953,0.22977933,-0.47604253,-0.84803444,0.40053654,-0.04664704
3.12000000,-0.38453096,0.73860390,-0.08247490,0.22434417,0.80955404,-0.04384229,-0.27971951,0.27912323,-0.77834060,0.22977961,-0.47604275,-0.84803433,0.40053579,-0.04664701
3.14000000,-0.38152577,0.73904076,-0.07882163,0.22487071,0.81085790,-0.04648812,-0.27689469,0.27912414,-0.77834166,0.22977989,-0.47604297,-0.84803422,0.40053505,-0.04664699
3.16000000,-0.37854682,0.73947380,-0.07520024,0.22539266,0.81215037,-0.04911086,-0.27409451,0.27912503,-0.77834271,0.22978016,-0.47604319,-0.84803411,0.40053431,-0.04664697
3.18000000,-0.37559479,0.73990293,-0.07161160,0.22590989,0.81343116,-0.05170988,-0.27131966,0.27912592,-0.77834375,0.22978043,-0.47604341,-0.84803401,0.40053358,-0.04664695
3.20000000,-0.37267038,0.74032804,-0.06805653,0.22642228,0.81469996,-0.05428459,-0.26857076,0.27912679,-0.77834479,0.22978070,-0.47604362,-0.84803390,0.40053286,-0.04664692
3.22000000,-0.36977426,0.74074904,-0.06453585,0.22692971,0.81595650,-0.05683439,-0.26584846,0.27912766,-0.77834581,0.22978097,-0.47604384,-0.84803380,0.40053215,-0.04664690
3.24000000,-0.36690710,0.74116583,-0.06105038,0.22743207,0.81720046,-0.05935870,-0.26315338,0.27912852,-0.77834682,0.22978123,-0.47604405,-0.84803369,0.40053144,-0.04664688
3.26000000,-0.36406956,0.74157831,-0.05760091,0.22792925,0.81843158,-0.06185693,-0.26048613,0.27912938,-0.77834782,0.22978149,-0.47604426,-0.84803359,0.40053074,-0.04664686
3.28000000,-0.36126226,0.74198640,-0.05418821,0.22842112,0.81964957,-0.06432853,-0.25784733,0.27913022,-0.77834881,0.22978175,-0.47604446,-0.84803349,0.40053005,-0.04664684
3.30000000,-0.35848585,0.74239000,-0.05081305,0.22890758,0.82085417,-0.06677294,-0.25523754,0.27913105,-0.77834979,0.22978200,-0.47604467,-0.84803339,0.40052936,-0.04664682
3.32000000,-0.35574093,0.74278902,-0.04747618,0.22938852,0.82204510,-0.06918962,-0.25265737,0.27913188,-0.77835076,0.22978225,-0.47604487,-0.84803329,0.40052868,-0.04664679
3.34000000,-0.35302811,0.74318338,-0.04417832,0.22986384,0.82322211,-0.07157805,-0.25010736,0.27913269,-0.77835171,0.22978250,-0.47604507,-0.84803320,0.40052802,-0.04664677
3.36000000,-0.35034797,0.74357298,-0.04092020,0.23033343,0.82438493,-0.07393770,-0.24758807,0.27913349,-0.77835266,0.22978275,-0.47604527,-0.84803310,0.40052735,-0.04664675
3.38000000,-0.34770108,0.74395775,-0.03770250,0.23079719,0.82553333,-0.07626807,-0.24510004,0.27913429,-0.77835359,0.22978299,-0.47604546,-0.84803301,0.40052670,-0.04664673
3.40000000,-0.34508801,0.74433760,-0.03452591,0.23125504,0.82666706,-0.07856867,-0.24264380,0.27913507,-0.77835451,0.22978323,-0.47604565,-0.84803291,0.40052606,-0.04664671
3.42000000,-0.34250929,0.74471246,-0.03139108,0.23170686,0.82778588,-0.08083903,-0.24021985,0.27913585,-0.77835542,0.22978347,-0.47604584,-0.84803282,0.40052542,-0.04664669
3.44000000,-0.33996546,0.74508225,-0.02829867,0.23215257,0.82888956,-0.08307867,-0.23782869,0.27913661,-0.77835632,0.22978370,-0.47604603,-0.84803273,0.40052479,-0.04664667
3.46000000,-0.33745703,0.74544690,-0.02524928,0.23259207,0.82997789,-0.08528714,-0.23547081,0.27913736,-0.77835720,0.22978393,-0.47604621,-0.84803264,0.40052417,-0.04664666
3.48000000,-0.33498450,0.74580632,-0.02224354,0.23302529,0.83105064,-0.08746401,-0.23314667,0.27913811,-0.77835808,0.22978416,-0.47604639,-0.84803255,0.40052356,-0.04664664
3.50000000,-0.33254834,0.74616046,-0.01928201,0.23345213,0.83210761,-0.08960885,-0.23085672,0.27913884,-0.77835893,0.22978438,-0.47604657,-0.84803246,0.40052296,-0.04664662
3.52000000,-0.33014903,0.74650924,-0.01636527,0.23387252,0.83314860,-0.09172126,-0.22860140,0.27913956,-0.77835978,0.22978460,-0.47604675,-0.84803238,0.40052237,-0.04664660
3.54000000,-0.32778700,0.74685260,-0.01349387,0.23428638,0.83417340,-0.09380084,-0.22638114,0.27914027,-0.77836061,0.22978482,-0.47604692,-0.84803229,0.40052179,-0.04664658
3.56000000,-0.32546269,0.74719048,-0.01066831,0.23469362,0.83518184,-0.09584721,-0.22419633,0.27914096,-0.77836143,0.22978503,-0.47604709,-0.84803221,0.40052121,-0.04664656
3.58000000,-0.32317652,0.74752281,-0.00788912,0.23509419,0.83617374,-0.09786000,-0.22204736,0.27914165,-0.77836224,0.22978524,-0.47604726,-0.84803213,0.40052065,-0.04664655
3.60000000,-0.32092887,0.74784955,-0.00515675,0.23548800,0.83714892,-0.09983888,-0.21993461,0.27914232,-0.77836303,0.22978545,-0.47604743,-0.84803205,0.40052010,-0.04664653
3.62000000,-0.31872013,0.74817062,-0.00247169,0.23587500,0.83810722,-0.10178350,-0.21785843,0.27914299,-0.77836381,0.22978565,-0.47604759,-0.84803197,0.40051955,-0.04664651
3.64000000,-0.31655065,0.74848599,0.00016565,0.23625512,0.83904849,-0.10369355,-0.21581915,0.27914364,-0.77836458,0.22978585,-0.47604775,-0.84803189,0.40051902,-0.04664650
3.66000000,-0.31442077,0.74879561,0.00275484,0.23662830,0.83997257,-0.10556874,-0.21381711,0.27914428,-0.77836533,0.22978605,-0.47604791,-0.84803181,0.40051849,-0.04664648
3.68000000,-0.31233081,0.74909942,0.00529551,0.23699448,0.84087934,-0.10740878,-0.21185258,0.27914491,-0.77836606,0.22978624,-0.47604806,-0.84803174,0.40051797,-0.04664646
3.70000000,-0.31028108,0.74939738,0.00778727,0.23735362,0.84176865,-0.10921340,-0.20992587,0.27914552,-0.77836679,0.22978643,-0.47604821,-0.84803166,0.40051747,-0.04664645
3.72000000,-0.30827186,0.74968946,0.01022979,0.23770566,0.84264039,-0.11098237,-0.20803723,0.27914612,-0.77836750,0.22978661,-0.47604836,-0.84803159,0.40051697,-0.04664643
3.74000000,-0.30630339,0.74997561,0.01262276,0.23805055,0.84349444,-0.11271544,-0.20618691,0.27914671,-0.77836819,0.22978679,-0.47604850,-0.84803152,0.40051649,-0.04664642
3.76000000,-0.30437594,0.75025579,0.01496588,0.23838827,0.84433070,-0.11441242,-0.20437513,0.27914729,-0.77836887,0.22978697,-0.47604864,-0.84803145,0.40051601,-0.04664640
3.78000000,-0.30248971,0.75052999,0.01725889,0.23871876,0.84514907,-0.11607309,-0.20260211,0.27914786,-0.77836953,0.22978714,-0.47604878,-0.84803138,0.40051555,-0.04664639
3.80000000,-0.30064490,0.75079817,0.01950154,0.23904199,0.84594948,-0.11769730,-0.20086802,0.27914841,-0.77837019,0.22978731,-0.47604892,-0.84803132,0.40051509,-0.04664637
3.82000000,-0.29884169,0.75106029,0.02169362,0.23935793,0.84673183,-0.11928488,-0.19917303,0.27914895,-0.77837082,0.22978748,-0.47604905,-0.84803125,0.40051465,-0.04664636
3.84000000,-0.29708023,0.75131635,0.02383494,0.23966656,0.84749607,-0.12083571,-0.19751729,0.27914948,-0.77837144,0.22978764,-0.47604918,-0.84803119,0.40051421,-0.04664635
3.86000000,-0.29536066,0.75156632,0.02592534,0.23996785,0.84824214,-0.12234965,-0.19590092,0.27915000,-0.77837205,0.22978780,-0.47604931,-0.84803113,0.40051379,-0.04664633
3.88000000,-0.29368308,0.75181018,0.02796469,0.24026178,0.84896998,-0.12382662,-0.19432403,0.27915050,-0.77837264,0.22978795,-0.47604943,-0.84803107,0.40051337,-0.04664632
3.90000000,-0.29204759,0.75204793,0.02995289,0.24054834,0.84967957,-0.12526654,-0.19278669,0.27915099,-0.77837322,0.22978810,-0.47604955,-0.84803101,0.40051297,-0.04664631
3.92000000,-0.29045424,0.75227955,0.03188985,0.24082751,0.85037087,-0.12666936,-0.19128897,0.27915147,-0.77837378,0.22978825,-0.47604967,-0.84803095,0.40051258,-0.04664630
3.94000000,-0.28890309,0.75250504,0.03377552,0.24109929,0.85104387,-0.12803503,-0.18983091,0.27915194,-0.77837433,0.22978839,-0.47604978,-0.84803090,0.40051219,-0.04664629
3.96000000,-0.28739413,0.75272439,0.03560989,0.24136368,0.85169855,-0.12936355,-0.18841252,0.27915239,-0.77837486,0.22978853,-0.47604989,-0.84803084,0.40051182,-0.04664627
3.98000000,-0.28592736,0.75293761,0.03739297,0.24162067,0.85233493,-0.13065492,-0.18703378,0.27915283,-0.77837538,0.22978866,-0.47605000,-0.84803079,0.40051146,-0.04664626
4.00000000,-0.28450276,0.75314470,0.03912479,0.24187028,0.85295302,-0.13190917,-0.18569468,0.27915326,-0.77837588,0.22978879,-0.47605011,-0.84803074,0.40051111,-0.04664625
4.02000000,-0.28312027,0.75334567,0.04080543,0.24211251,0.85355284,-0.13312634,-0.18439516,0.27915367,-0.77837637,0.22978892,-0.47605021,-0.84803069,0.40051077,-0.04664624
4.04000000,-0.28177979,0.75354053,0.04243498,0.24234738,0.85413443,-0.13430653,-0.18313513,0.27915408,-0.77837684,0.22978904,-0.47605031,-0.84803064,0.40051044,-0.04664623
4.06000000,-0.28048123,0.75372930,0.04401359,0.24257490,0.85469784,-0.13544981,-0.18191450,0.27915447,-0.77837730,0.22978916,-0.47605040,-0.84803059,0.40051012,-0.04664622
4.08000000,-0.27922444,0.75391199,0.04554140,0.24279511,0.85524311,-0.13655631,-0.18073315,0.27915484,-0.77837774,0.22978928,-0.47605049,-0.84803055,0.40050981,-0.04664621
4.10000000,-0.27800927,0.75408864,0.04701863,0.24300802,0.85577034,-0.13762617,-0.17959091,0.27915521,-0.77837817,0.22978939,-0.47605058,-0.84803051,0.40050951,-0.04664620
4.12000000,-0.27683554,0.75425926,0.04844548,0.24321367,0.85627958,-0.13865955,-0.17848762,0.27915556,-0.77837858,0.22978950,-0.47605067,-0.84803046,0.40050922,-0.04664619
4.14000000,-0.27570301,0.75442389,0.04982224,0.24341210,0.85677095,-0.13965664,-0.17742306,0.27915590,-0.77837898,0.22978960,-0.47605075,-0.84803042,0.40050894,-0.04664618
4.16000000,-0.27461147,0.75458257,0.05114918,0.24360335,0.85724453,-0.14061767,-0.17639703,0.27915623,-0.77837937,0.22978970,-0.47605083,-0.84803038,0.40050867,-0.04664618
4.18000000,-0.27356062,0.75473532,0.05242664,0.24378747,0.85770046,-0.14154285,-0.17540925,0.27915654,-0.77837974,0.22978980,-0.47605091,-0.84803035,0.40050841,-0.04664617
4.20000000,-0.27255019,0.75488221,0.05365498,0.24396451,0.85813885,-0.14243246,-0.17445946,0.27915685,-0.77838009,0.22978989,-0.47605098,-0.84803031,0.40050816,-0.04664616
4.22000000,-0.27157984,0.75502326,0.05483459,0.24413453,0.85855986,-0.14328677,-0.17354735,0.27915714,-0.77838044,0.22978998,-0.47605106,-0.84803028,0.40050792,-0.04664615
4.24000000,-0.27064922,0.75515855,0.05596591,0.24429759,0.85896363,-0.14410611,-0.17267258,0.27915742,-0.77838076,0.22979006,-0.47605112,-0.84803024,0.40050769,-0.04664615
4.26000000,-0.26975794,0.75528811,0.05704939,0.24445375,0.85935032,-0.14489081,-0.17183479,0.27915768,-0.77838108,0.22979015,-0.47605119,-0.84803021,0.40050747,-0.04664614
4.28000000,-0.26890559,0.75541201,0.05808555,0.24460309,0.85972013,-0.14564123,-0.17103360,0.27915794,-0.77838138,0.22979022,-0.47605125,-0.84803018,0.40050726,-0.04664613
4.30000000,-0.26809174,0.75553032,0.05907491,0.24474568,0.86007323,-0.14635776,-0.17026860,0.27915818,-0.77838167,0.22979030,-0.47605131,-0.84803015,0.40050706,-0.04664613
4.32000000,-0.26731591,0.75564310,0.06001806,0.24488162,0.86040984,-0.14704082,-0.16953933,0.27915842,-0.77838194,0.22979037,-0.47605137,-0.84803012,0.40050687,-0.04664612
4.34000000,-0.26657759,0.75575043,0.06091559,0.24501098,0.86073017,-0.14769085,-0.16884532,0.27915864,-0.77838220,0.22979044,-0.47605142,-0.84803010,0.40050669,-0.04664612
4.36000000,-0.26587626,0.75585238,0.06176817,0.24513386,0.86103446,-0.14830832,-0.16818608,0.27915885,-0.77838245,0.22979050,-0.47605147,-0.84803007,0.40050651,-0.04664611
4.38000000,-0.26521135,0.75594903,0.06257648,0.24525036,0.86132294,-0.14889372,-0.16756107,0.27915905,-0.77838268,0.22979056,-0.47605152,-0.84803005,0.40050635,-0.04664610
4.40000000,-0.26458226,0.75604048,0.06334123,0.24536059,0.86159588,-0.14944758,-0.16696974,0.27915924,-0.77838290,0.22979062,-0.47605157,-0.84803002,0.40050619,-0.04664610
4.42000000,-0.26398837,0.75612681,0.06406319,0.24546464,0.86185355,-0.14997046,-0.16641150,0.27915942,-0.77838311,0.22979067,-0.47605161,-0.84803000,0.40050605,-0.04664610
4.44000000,-0.26342902,0.75620812,0.06474317,0.24556265,0.86209623,-0.15046292,-0.16588572,0.27915958,-0.77838331,0.22979073,-0.47605165,-0.84802998,0.40050591,-0.04664609
4.46000000,-0.26290352,0.75628452,0.06538200,0.24565472,0.86232423,-0.15092558,-0.16539175,0.27915974,-0.77838350,0.22979077,-0.47605169,-0.84802996,0.40050578,-0.04664609
4.48000000,-0.26241114,0.75635609,0.06598056,0.24574099,0.86253786,-0.15135908,-0.16492893,0.27915989,-0.77838367,0.22979082,-0.47605173,-0.84802995,0.40050566,-0.04664608
4.50000000,-0.26195113,0.75642296,0.06653977,0.24582159,0.86273744,-0.15176408,-0.16449652,0.27916003,-0.77838383,0.22979086,-0.47605176,-0.84802993,0.40050554,-0.04664608
4.52000000,-0.26152270,0.75648524,0.06706060,0.24589666,0.86292333,-0.15214129,-0.16409380,0.27916016,-0.77838398,0.22979090,-0.47605179,-0.84802991,0.40050544,-0.04664608
4.54000000,-0.26112502,0.75654305,0.06754404,0.24596634,0.86309587,-0.15249141,-0.16371999,0.27916028,-0.77838412,0.22979094,-0.47605182,-0.84802990,0.40050534,-0.04664607
4.56000000,-0.26075723,0.75659651,0.06799114,0.24603078,0.86325544,-0.15281522,-0.16337428,0.27916039,-0.77838425,0.22979097,-0.47605185,-0.84802989,0.40050525,-0.04664607
4.58000000,-0.26041844,0.75664576,0.06840299,0.24609014,0.86340242,-0.15311349,-0.16305583,0.27916049,-0.77838437,0.22979100,-0.47605188,-0.84802988,0.40050517,-0.04664607
4.60000000,-0.26010774,0.75669093,0.06878070,0.24614458,0.86353723,-0.15338705,-0.16276376,0.27916058,-0.77838448,0.22979103,-0.47605190,-0.84802986,0.40050509,-0.04664607
4.62000000,-0.25982414,0.75673216,0.06912545,0.24619427,0.86366027,-0.15363673,-0.16249719,0.27916067,-0.77838458,0.22979106,-0.47605192,-0.84802985,0.40050502,-0.04664606
4.64000000,-0.25956666,0.75676958,0.06943846,0.24623938,0.86377199,-0.15386342,-0.16225516,0.27916074,-0.77838467,0.22979108,-0.47605194,-0.84802984,0.40050496,-0.04664606
4.66000000,-0.25933427,0.75680337,0.06972097,0.24628010,0.86387281,-0.15406803,-0.16203672,0.27916081,-0.77838475,0.22979110,-0.47605196,-0.84802984,0.40050490,-0.04664606
4.68000000,-0.25912588,0.75683366,0.06997430,0.24631661,0.86396323,-0.15425149,-0.16184084,0.27916088,-0.77838483,0.22979112,-0.47605197,-0.84802983,0.40050485,-0.04664606
4.70000000,-0.25894041,0.75686062,0.07019977,0.24634911,0.86404370,-0.15441479,-0.16166650,0.27916093,-0.77838489,0.22979114,-0.47605198,-0.84802982,0.40050480,-0.04664606
4.72000000,-0.25877670,0.75688442,0.07039878,0.24637779,0.86411472,-0.15455892,-0.16151261,0.27916098,-0.77838495,0.22979115,-0.47605200,-0.84802982,0.40050476,-0.04664606
4.74000000,-0.25863358,0.75690522,0.07057277,0.24640287,0.86417682,-0.15468493,-0.16137808,0.27916102,-0.77838500,0.22979117,-0.47605201,-0.84802981,0.40050473,-0.04664605
4.76000000,-0.25850982,0.75692321,0.07072321,0.24642455,0.86423051,-0.15479388,-0.16126175,0.27916106,-0.77838504,0.22979118,-0.47605202,-0.84802981,0.40050470,-0.04664605
4.78000000,-0.25840419,0.75693857,0.07085163,0.24644306,0.86427635,-0.15488689,-0.16116246,0.27916109,-0.77838508,0.22979119,-0.47605202,-0.84802980,0.40050467,-0.04664605
4.80000000,-0.25831537,0.75695148,0.07095960,0.24645862,0.86431488,-0.15496508,-0.16107897,0.27916112,-0.77838511,0.22979120,-0.47605203,-0.84802980,0.40050465,-0.04664605
4.82000000,-0.25824205,0.75696214,0.07104873,0.24647147,0.86434669,-0.15502964,-0.16101005,0.27916114,-0.77838514,0.22979120,-0.47605204,-0.84802980,0.40050463,-0.04664605
4.84000000,-0.25818285,0.75697074,0.07112070,0.24648184,0.86437238,-0.15508176,-0.16095440,0.27916116,-0.77838516,0.22979121,-0.47605204,-0.84802980,0.40050462,-0.04664605
4.86000000,-0.25813636,0.75697750,0.07117721,0.24648998,0.86439255,-0.15512269,-0.16091071,0.27916117,-0.77838518,0.22979121,-0.47605204,-0.84802979,0.40050460,-0.04664605
4.88000000,-0.25810114,0.75698262,0.07122003,0.24649616,0.86440783,-0.15515370,-0.16087760,0.27916118,-0.77838519,0.22979122,-0.47605205,-0.84802979,0.40050459,-0.04664605
4.90000000,-0.25807569,0.75698632,0.07125096,0.24650061,0.86441887,-0.15517610,-0.16085368,0.27916119,-0.77838520,0.22979122,-0.47605205,-0.84802979,0.40050459,-0.04664605
4.92000000,-0.25805850,0.75698882,0.07127186,0.24650363,0.86442633,-0.15519124,-0.16083752,0.27916120,-0.77838520,0.22979122,-0.47605205,-0.84802979,0.40050458,-0.04664605
4.94000000,-0.25804798,0.75699035,0.07128465,0.24650547,0.86443089,-0.15520049,-0.16082763,0.27916120,-0.77838521,0.22979122,-0.47605205,-0.84802979,0.40050458,-0.04664605
4.96000000,-0.25804254,0.75699114,0.07129126,0.24650642,0.86443325,-0.15520529,-0.16082252,0.27916120,-0.77838521,0.22979122,-0.47605205,-0.84802979,0.40050458,-0.04664605
4.98000000,-0.25804052,0.75699143,0.07129372,0.24650678,0.86443413,-0.15520706,-0.16082062,0.27916120,-0.77838521,0.22979122,-0.47605205,-0.84802979,0.40050458,-0.04664605
5.00000000,-0.25804023,0.75699148,0.07129407,0.24650683,0.86443425,-0.15520732,-0.16082035,0.27916120,-0.77838521,0.22979122,-0.47605205,-0.84802979,0.40050458,-0.04664605
