gracetata/LocomotionHEC/legged_lab/Reference Data/ArmHack/StandPerturb/TestData/ArmOnly/trajectories/randomized/randomized_arm_trajectory_03_seed20260715_minjerk_50hz.csv
time_s,left_shoulder_pitch_joint,left_shoulder_roll_joint,left_shoulder_yaw_joint,left_elbow_joint,left_wrist_roll_joint,left_wrist_pitch_joint,left_wrist_yaw_joint,right_shoulder_pitch_joint,right_shoulder_roll_joint,right_shoulder_yaw_joint,right_elbow_joint,right_wrist_roll_joint,right_wrist_pitch_joint,right_wrist_yaw_joint
0.00000000,0.27656331,0.77648754,-0.22907263,-0.47361267,0.84751888,0.39980467,0.04567174,0.24342602,-0.77285576,0.23985383,-0.44410184,-0.84330824,0.39447122,-0.03017786
0.02000000,0.27656297,0.77648753,-0.22907243,-0.47361221,0.84751889,0.39980431,0.04567161,0.24342605,-0.77285576,0.23985383,-0.44410186,-0.84330824,0.39447123,-0.03017788
0.04000000,0.27656061,0.77648745,-0.22907111,-0.47360902,0.84751897,0.39980186,0.04567070,0.24342620,-0.77285579,0.23985378,-0.44410200,-0.84330826,0.39447125,-0.03017795
0.06000000,0.27655424,0.77648721,-0.22906753,-0.47360045,0.84751917,0.39979525,0.04566824,0.24342663,-0.77285585,0.23985366,-0.44410238,-0.84330832,0.39447133,-0.03017814
0.08000000,0.27654194,0.77648677,-0.22906062,-0.47358387,0.84751956,0.39978248,0.04566349,0.24342745,-0.77285598,0.23985343,-0.44410312,-0.84330843,0.39447146,-0.03017852
0.10000000,0.27652182,0.77648603,-0.22904931,-0.47355677,0.84752019,0.39976159,0.04565572,0.24342880,-0.77285619,0.23985305,-0.44410432,-0.84330861,0.39447169,-0.03017914
0.12000000,0.27649204,0.77648495,-0.22903258,-0.47351667,0.84752114,0.39973068,0.04564422,0.24343079,-0.77285650,0.23985249,-0.44410610,-0.84330887,0.39447203,-0.03018006
0.14000000,0.27645083,0.77648344,-0.22900943,-0.47346115,0.84752244,0.39968789,0.04562830,0.24343354,-0.77285692,0.23985172,-0.44410856,-0.84330923,0.39447249,-0.03018133
0.16000000,0.27639643,0.77648146,-0.22897887,-0.47338788,0.84752416,0.39963142,0.04560729,0.24343718,-0.77285749,0.23985069,-0.44411182,-0.84330971,0.39447311,-0.03018301
0.18000000,0.27632716,0.77647893,-0.22893995,-0.47329457,0.84752635,0.39955950,0.04558053,0.24344181,-0.77285820,0.23984939,-0.44411596,-0.84331033,0.39447389,-0.03018514
0.20000000,0.27624137,0.77647580,-0.22889174,-0.47317900,0.84752907,0.39947043,0.04554739,0.24344754,-0.77285909,0.23984777,-0.44412108,-0.84331108,0.39447486,-0.03018778
0.22000000,0.27613744,0.77647201,-0.22883335,-0.47303901,0.84753236,0.39936254,0.04550725,0.24345449,-0.77286016,0.23984582,-0.44412729,-0.84331200,0.39447603,-0.03019098
0.24000000,0.27601383,0.77646751,-0.22876390,-0.47287251,0.84753627,0.39923421,0.04545951,0.24346275,-0.77286144,0.23984349,-0.44413468,-0.84331309,0.39447742,-0.03019479
0.26000000,0.27586903,0.77646223,-0.22868254,-0.47267746,0.84754085,0.39908388,0.04540358,0.24347243,-0.77286294,0.23984076,-0.44414334,-0.84331437,0.39447906,-0.03019925
0.28000000,0.27570156,0.77645612,-0.22858845,-0.47245187,0.84754615,0.39891002,0.04533889,0.24348363,-0.77286467,0.23983761,-0.44415334,-0.84331585,0.39448095,-0.03020441
0.30000000,0.27551000,0.77644913,-0.22848082,-0.47219384,0.84755221,0.39871115,0.04526490,0.24349643,-0.77286665,0.23983401,-0.44416479,-0.84331754,0.39448311,-0.03021031
0.32000000,0.27529297,0.77644122,-0.22835889,-0.47190150,0.84755908,0.39848583,0.04518107,0.24351094,-0.77286890,0.23982992,-0.44417776,-0.84331946,0.39448556,-0.03021700
0.34000000,0.27504914,0.77643233,-0.22822189,-0.47157306,0.84756679,0.39823269,0.04508689,0.24352724,-0.77287142,0.23982533,-0.44419234,-0.84332161,0.39448831,-0.03022451
0.36000000,0.27477721,0.77642241,-0.22806911,-0.47120676,0.84757540,0.39795038,0.04498186,0.24354541,-0.77287423,0.23982021,-0.44420859,-0.84332402,0.39449138,-0.03023288
0.38000000,0.27447593,0.77641142,-0.22789983,-0.47080093,0.84758493,0.39763760,0.04486549,0.24356555,-0.77287735,0.23981454,-0.44422659,-0.84332668,0.39449478,-0.03024217
0.40000000,0.27414409,0.77639932,-0.22771339,-0.47035394,0.84759543,0.39729309,0.04473731,0.24358773,-0.77288078,0.23980830,-0.44424643,-0.84332961,0.39449853,-0.03025239
0.42000000,0.27378053,0.77638606,-0.22750912,-0.46986421,0.84760693,0.39691565,0.04459689,0.24361204,-0.77288454,0.23980145,-0.44426815,-0.84333282,0.39450263,-0.03026359
0.44000000,0.27338411,0.77637160,-0.22728639,-0.46933023,0.84761947,0.39650410,0.04444377,0.24363853,-0.77288864,0.23979399,-0.44429185,-0.84333632,0.39450710,-0.03027580
0.46000000,0.27295376,0.77635591,-0.22704460,-0.46875054,0.84763309,0.39605732,0.04427754,0.24366730,-0.77289309,0.23978589,-0.44431756,-0.84334012,0.39451196,-0.03028906
0.48000000,0.27248842,0.77633894,-0.22678315,-0.46812373,0.84764781,0.39557422,0.04409781,0.24369841,-0.77289791,0.23977713,-0.44434538,-0.84334423,0.39451721,-0.03030339
0.50000000,0.27198711,0.77632066,-0.22650149,-0.46744844,0.84766368,0.39505376,0.04390417,0.24373192,-0.77290309,0.23976770,-0.44437534,-0.84334866,0.39452287,-0.03031883
0.52000000,0.27144884,0.77630103,-0.22619906,-0.46672339,0.84768071,0.39449495,0.04369627,0.24376790,-0.77290866,0.23975757,-0.44440751,-0.84335341,0.39452894,-0.03033541
0.54000000,0.27087270,0.77628002,-0.22587536,-0.46594732,0.84769894,0.39389682,0.04347373,0.24380641,-0.77291462,0.23974672,-0.44444194,-0.84335850,0.39453545,-0.03035316
0.56000000,0.27025780,0.77625759,-0.22552988,-0.46511904,0.84771839,0.39325844,0.04323622,0.24384751,-0.77292098,0.23973515,-0.44447869,-0.84336393,0.39454238,-0.03037210
0.58000000,0.26960330,0.77623373,-0.22516215,-0.46423742,0.84773910,0.39257895,0.04298342,0.24389126,-0.77292775,0.23972283,-0.44451780,-0.84336971,0.39454977,-0.03039226
0.60000000,0.26890838,0.77620838,-0.22477171,-0.46330135,0.84776109,0.39185751,0.04271501,0.24393771,-0.77293494,0.23970975,-0.44455933,-0.84337585,0.39455761,-0.03041367
0.62000000,0.26817227,0.77618154,-0.22435813,-0.46230980,0.84778438,0.39109330,0.04243068,0.24398692,-0.77294255,0.23969589,-0.44460333,-0.84338235,0.39456592,-0.03043635
0.64000000,0.26739425,0.77615317,-0.22392099,-0.46126179,0.84780900,0.39028558,0.04213017,0.24403892,-0.77295060,0.23968125,-0.44464983,-0.84338922,0.39457470,-0.03046031
0.66000000,0.26657361,0.77612324,-0.22345992,-0.46015638,0.84783497,0.38943361,0.04181319,0.24409378,-0.77295908,0.23966580,-0.44469887,-0.84339647,0.39458396,-0.03048559
0.68000000,0.26570969,0.77609173,-0.22297453,-0.45899267,0.84786230,0.38853671,0.04147950,0.24415152,-0.77296802,0.23964954,-0.44475050,-0.84340410,0.39459371,-0.03051220
0.70000000,0.26480188,0.77605863,-0.22246447,-0.45776983,0.84789102,0.38759424,0.04112886,0.24421221,-0.77297741,0.23963245,-0.44480476,-0.84341212,0.39460396,-0.03054017
0.72000000,0.26384957,0.77602390,-0.22192942,-0.45648706,0.84792116,0.38660558,0.04076103,0.24427586,-0.77298726,0.23961453,-0.44486167,-0.84342053,0.39461471,-0.03056950
0.74000000,0.26285223,0.77598753,-0.22136906,-0.45514363,0.84795271,0.38557017,0.04037580,0.24434253,-0.77299757,0.23959576,-0.44492128,-0.84342934,0.39462596,-0.03060023
0.76000000,0.26180933,0.77594949,-0.22078311,-0.45373883,0.84798571,0.38448746,0.03997298,0.24441224,-0.77300836,0.23957613,-0.44498360,-0.84343855,0.39463773,-0.03063235
0.78000000,0.26072040,0.77590978,-0.22017129,-0.45227201,0.84802017,0.38335695,0.03955238,0.24448503,-0.77301962,0.23955563,-0.44504868,-0.84344816,0.39465002,-0.03066590
0.80000000,0.25958497,0.77586837,-0.21953336,-0.45074258,0.84805609,0.38217818,0.03911381,0.24456093,-0.77303137,0.23953426,-0.44511654,-0.84345819,0.39466283,-0.03070087
0.82000000,0.25840265,0.77582526,-0.21886907,-0.44914996,0.84809350,0.38095072,0.03865714,0.24463996,-0.77304360,0.23951200,-0.44518720,-0.84346863,0.39467618,-0.03073729
0.84000000,0.25717304,0.77578042,-0.21817821,-0.44749366,0.84813241,0.37967417,0.03818220,0.24472215,-0.77305631,0.23948886,-0.44526069,-0.84347949,0.39469006,-0.03077517
0.86000000,0.25589580,0.77573384,-0.21746060,-0.44577320,0.84817282,0.37834818,0.03768886,0.24480753,-0.77306953,0.23946482,-0.44533702,-0.84349077,0.39470447,-0.03081452
0.88000000,0.25457062,0.77568551,-0.21671605,-0.44398816,0.84821475,0.37697241,0.03717701,0.24489611,-0.77308323,0.23943987,-0.44541622,-0.84350248,0.39471943,-0.03085534
0.90000000,0.25319721,0.77563542,-0.21594440,-0.44213816,0.84825821,0.37554657,0.03664652,0.24498791,-0.77309744,0.23941402,-0.44549830,-0.84351461,0.39473492,-0.03089765
0.92000000,0.25177532,0.77558357,-0.21514551,-0.44022285,0.84830320,0.37407040,0.03609732,0.24508296,-0.77311214,0.23938726,-0.44558328,-0.84352716,0.39475097,-0.03094145
0.94000000,0.25030474,0.77552994,-0.21431926,-0.43824195,0.84834973,0.37254368,0.03552930,0.24518126,-0.77312735,0.23935958,-0.44567117,-0.84354015,0.39476757,-0.03098675
0.96000000,0.24878527,0.77547453,-0.21346555,-0.43619520,0.84839781,0.37096620,0.03494240,0.24528283,-0.77314307,0.23933098,-0.44576198,-0.84355357,0.39478472,-0.03103355
0.98000000,0.24721676,0.77541733,-0.21258428,-0.43408239,0.84844743,0.36933781,0.03433656,0.24538767,-0.77315929,0.23930146,-0.44585572,-0.84356743,0.39480242,-0.03108187
1.00000000,0.24559907,0.77535833,-0.21167539,-0.43190335,0.84849862,0.36765837,0.03371172,0.24549580,-0.77317603,0.23927101,-0.44595240,-0.84358171,0.39482068,-0.03113170
1.02000000,0.24393213,0.77529754,-0.21073881,-0.42965794,0.84855136,0.36592779,0.03306786,0.24560723,-0.77319327,0.23923963,-0.44605202,-0.84359644,0.39483949,-0.03118305
1.04000000,0.24221584,0.77523495,-0.20977452,-0.42734608,0.84860567,0.36414599,0.03240494,0.24572195,-0.77321102,0.23920733,-0.44615459,-0.84361159,0.39485886,-0.03123592
1.06000000,0.24045019,0.77517056,-0.20878249,-0.42496771,0.84866154,0.36231293,0.03172295,0.24583998,-0.77322928,0.23917409,-0.44626012,-0.84362719,0.39487878,-0.03129031
1.08000000,0.23863515,0.77510437,-0.20776271,-0.42252283,0.84871896,0.36042860,0.03102189,0.24596130,-0.77324805,0.23913993,-0.44636859,-0.84364322,0.39489927,-0.03134622
1.10000000,0.23677075,0.77503638,-0.20671520,-0.42001145,0.84877796,0.35849303,0.03030176,0.24608593,-0.77326734,0.23910483,-0.44648002,-0.84365968,0.39492031,-0.03140365
1.12000000,0.23485703,0.77496659,-0.20563998,-0.41743365,0.84883851,0.35650626,0.02956258,0.24621385,-0.77328713,0.23906881,-0.44659439,-0.84367659,0.39494191,-0.03146260
1.14000000,0.23289408,0.77489500,-0.20453709,-0.41478951,0.84890062,0.35446836,0.02880438,0.24634506,-0.77330743,0.23903187,-0.44671170,-0.84369392,0.39496406,-0.03152307
1.16000000,0.23088198,0.77482163,-0.20340659,-0.41207918,0.84896428,0.35237945,0.02802720,0.24647956,-0.77332825,0.23899399,-0.44683196,-0.84371169,0.39498677,-0.03158505
1.18000000,0.22882087,0.77474646,-0.20224856,-0.40930284,0.84902950,0.35023966,0.02723109,0.24661733,-0.77334956,0.23895520,-0.44695514,-0.84372990,0.39501003,-0.03164855
1.20000000,0.22671090,0.77466951,-0.20106308,-0.40646068,0.84909626,0.34804915,0.02641611,0.24675837,-0.77337139,0.23891548,-0.44708124,-0.84374853,0.39503384,-0.03171354
1.22000000,0.22455226,0.77459079,-0.19985025,-0.40355295,0.84916456,0.34580810,0.02558233,0.24690266,-0.77339371,0.23887485,-0.44721025,-0.84376760,0.39505820,-0.03178004
1.24000000,0.22234515,0.77451030,-0.19861018,-0.40057994,0.84923440,0.34351673,0.02472983,0.24705020,-0.77341654,0.23883331,-0.44734215,-0.84378709,0.39508311,-0.03184803
1.26000000,0.22008980,0.77442805,-0.19734302,-0.39754195,0.84930576,0.34117529,0.02385870,0.24720095,-0.77343987,0.23879086,-0.44747694,-0.84380701,0.39510856,-0.03191750
1.28000000,0.21778647,0.77434406,-0.19604889,-0.39443933,0.84937864,0.33878403,0.02296903,0.24735492,-0.77346369,0.23874750,-0.44761460,-0.84382735,0.39513456,-0.03198845
1.30000000,0.21543545,0.77425832,-0.19472797,-0.39127246,0.84945303,0.33634325,0.02206094,0.24751207,-0.77348801,0.23870325,-0.44775511,-0.84384811,0.39516109,-0.03206088
1.32000000,0.21303702,0.77417085,-0.19338042,-0.38804174,0.84952891,0.33385327,0.02113454,0.24767239,-0.77351282,0.23865811,-0.44789845,-0.84386930,0.39518816,-0.03213476
1.34000000,0.21059153,0.77408167,-0.19200642,-0.38474763,0.84960629,0.33131442,0.02018996,0.24783586,-0.77353811,0.23861207,-0.44804460,-0.84389089,0.39521576,-0.03221009
1.36000000,0.20809933,0.77399078,-0.19060618,-0.38139059,0.84968515,0.32872708,0.01922734,0.24800245,-0.77356389,0.23856517,-0.44819354,-0.84391291,0.39524388,-0.03228686
1.38000000,0.20556078,0.77389821,-0.18917990,-0.37797113,0.84976547,0.32609162,0.01824682,0.24817213,-0.77359014,0.23851738,-0.44834526,-0.84393533,0.39527253,-0.03236506
1.40000000,0.20297630,0.77380395,-0.18772780,-0.37448979,0.84984725,0.32340848,0.01724856,0.24834489,-0.77361688,0.23846874,-0.44849972,-0.84395815,0.39530170,-0.03244467
1.42000000,0.20034629,0.77370804,-0.18625014,-0.37094712,0.84993046,0.32067807,0.01623271,0.24852069,-0.77364408,0.23841923,-0.44865690,-0.84398138,0.39533138,-0.03252569
1.44000000,0.19767120,0.77361049,-0.18474714,-0.36734374,0.85001510,0.31790086,0.01519945,0.24869951,-0.77367175,0.23836888,-0.44881677,-0.84400501,0.39536157,-0.03260810
1.46000000,0.19495149,0.77351130,-0.18321907,-0.36368024,0.85010116,0.31507732,0.01414895,0.24888130,-0.77369988,0.23831769,-0.44897932,-0.84402903,0.39539227,-0.03269187
1.48000000,0.19218764,0.77341051,-0.18166621,-0.35995730,0.85018861,0.31220797,0.01308141,0.24906605,-0.77372846,0.23826567,-0.44914450,-0.84405344,0.39542346,-0.03277701
1.50000000,0.18938017,0.77330813,-0.18008882,-0.35617558,0.85027744,0.30929331,0.01199701,0.24925372,-0.77375750,0.23821282,-0.44931228,-0.84407823,0.39545514,-0.03286350
1.52000000,0.18652958,0.77320417,-0.17848722,-0.35233579,0.85036764,0.30633390,0.01089597,0.24944426,-0.77378699,0.23815917,-0.44948265,-0.84410341,0.39548731,-0.03295131
1.54000000,0.18363643,0.77309866,-0.17686171,-0.34843867,0.85045918,0.30333031,0.00977848,0.24963765,-0.77381691,0.23810471,-0.44965555,-0.84412896,0.39551996,-0.03304043
1.56000000,0.18070127,0.77299162,-0.17521259,-0.34448497,0.85055205,0.30028310,0.00864477,0.24983385,-0.77384727,0.23804946,-0.44983097,-0.84415488,0.39555309,-0.03313085
1.58000000,0.17772469,0.77288307,-0.17354021,-0.34047547,0.85064623,0.29719289,0.00749506,0.25003282,-0.77387806,0.23799344,-0.45000886,-0.84418117,0.39558668,-0.03322254
1.60000000,0.17470730,0.77277303,-0.17184488,-0.33641099,0.85074170,0.29406031,0.00632958,0.25023451,-0.77390926,0.23793664,-0.45018920,-0.84420782,0.39562074,-0.03331549
1.62000000,0.17164970,0.77266153,-0.17012697,-0.33229236,0.85083845,0.29088599,0.00514857,0.25043890,-0.77394089,0.23787909,-0.45037193,-0.84423482,0.39565524,-0.03340967
1.64000000,0.16855254,0.77254858,-0.16838683,-0.32812043,0.85093645,0.28767059,0.00395229,0.25064592,-0.77397292,0.23782079,-0.45055703,-0.84426218,0.39569020,-0.03350508
1.66000000,0.16541646,0.77243421,-0.16662483,-0.32389608,0.85103568,0.28441479,0.00274097,0.25085555,-0.77400536,0.23776176,-0.45074446,-0.84428988,0.39572559,-0.03360169
1.68000000,0.16224214,0.77231845,-0.16484134,-0.31962023,0.85113611,0.28111929,0.00151488,0.25106774,-0.77403819,0.23770201,-0.45093417,-0.84431791,0.39576141,-0.03369947
1.70000000,0.15903027,0.77220132,-0.16303675,-0.31529378,0.85123774,0.27778481,0.00027428,0.25128243,-0.77407141,0.23764156,-0.45112612,-0.84434628,0.39579766,-0.03379841
1.72000000,0.15578154,0.77208284,-0.16121146,-0.31091770,0.85134053,0.27441206,-0.00098055,0.25149959,-0.77410502,0.23758041,-0.45132028,-0.84437497,0.39583433,-0.03389848
1.74000000,0.15249668,0.77196305,-0.15936586,-0.30649294,0.85144447,0.27100180,-0.00224933,0.25171916,-0.77413899,0.23751858,-0.45151660,-0.84440398,0.39587140,-0.03399967
1.76000000,0.14917642,0.77184197,-0.15750037,-0.30202050,0.85154953,0.26755480,-0.00353179,0.25194111,-0.77417333,0.23745608,-0.45171503,-0.84443331,0.39590887,-0.03410195
1.78000000,0.14582152,0.77171962,-0.15561542,-0.29750138,0.85165568,0.26407181,-0.00482763,0.25216536,-0.77420803,0.23739294,-0.45191553,-0.84446294,0.39594673,-0.03420530
1.80000000,0.14243272,0.77159603,-0.15371143,-0.29293663,0.85176290,0.26055365,-0.00613656,0.25239188,-0.77424308,0.23732915,-0.45211806,-0.84449286,0.39598498,-0.03430969
1.82000000,0.13901082,0.77147124,-0.15178884,-0.28832727,0.85187117,0.25700112,-0.00745828,0.25262062,-0.77427848,0.23726474,-0.45232257,-0.84452309,0.39602359,-0.03441510
1.84000000,0.13555661,0.77134527,-0.14984809,-0.28367439,0.85198047,0.25341504,-0.00879248,0.25285151,-0.77431420,0.23719972,-0.45252901,-0.84455359,0.39606258,-0.03452150
1.86000000,0.13207088,0.77121816,-0.14788963,-0.27897906,0.85209076,0.24979625,-0.01013886,0.25308451,-0.77435026,0.23713411,-0.45273733,-0.84458438,0.39610192,-0.03462888
1.88000000,0.12855446,0.77108992,-0.14591394,-0.27424238,0.85220202,0.24614559,-0.01149708,0.25331956,-0.77438663,0.23706793,-0.45294749,-0.84461544,0.39614160,-0.03473720
1.90000000,0.12500818,0.77096059,-0.14392146,-0.26946549,0.85231423,0.24246393,-0.01286684,0.25355661,-0.77442331,0.23700118,-0.45315943,-0.84464676,0.39618162,-0.03484644
1.92000000,0.12143288,0.77083021,-0.14191268,-0.26464950,0.85242736,0.23875214,-0.01424781,0.25379560,-0.77446029,0.23693388,-0.45337310,-0.84467833,0.39622197,-0.03495658
1.94000000,0.11782942,0.77069879,-0.13988808,-0.25979558,0.85254138,0.23501112,-0.01563966,0.25403647,-0.77449756,0.23686605,-0.45358846,-0.84471016,0.39626264,-0.03506758
1.96000000,0.11419866,0.77056639,-0.13784814,-0.25490489,0.85265626,0.23124175,-0.01704205,0.25427917,-0.77453511,0.23679771,-0.45380545,-0.84474222,0.39630362,-0.03517942
1.98000000,0.11054148,0.77043302,-0.13579335,-0.24997861,0.85277197,0.22744496,-0.01845465,0.25452363,-0.77457294,0.23672888,-0.45402402,-0.84477452,0.39634489,-0.03529208
2.00000000,0.10685876,0.77029871,-0.13372422,-0.24501794,0.85288850,0.22362166,-0.01987710,0.25476980,-0.77461103,0.23665956,-0.45424412,-0.84480705,0.39638645,-0.03540553
2.02000000,0.10315142,0.77016351,-0.13164125,-0.24002408,0.85300580,0.21977279,-0.02130908,0.25501761,-0.77464937,0.23658978,-0.45446568,-0.84483979,0.39642829,-0.03551973
2.04000000,0.09942035,0.77002745,-0.12954495,-0.23499827,0.85312386,0.21589928,-0.02275021,0.25526701,-0.77468796,0.23651955,-0.45468867,-0.84487274,0.39647040,-0.03563466
2.06000000,0.09566647,0.76989055,-0.12743584,-0.22994173,0.85324263,0.21200210,-0.02420016,0.25551794,-0.77472679,0.23644889,-0.45491302,-0.84490590,0.39651276,-0.03575030
2.08000000,0.09189070,0.76975285,-0.12531443,-0.22485572,0.85336210,0.20808220,-0.02565856,0.25577033,-0.77476584,0.23637782,-0.45513867,-0.84493925,0.39655538,-0.03586661
2.10000000,0.08809400,0.76961439,-0.12318125,-0.21974150,0.85348223,0.20414055,-0.02712505,0.25602411,-0.77480511,0.23630636,-0.45536558,-0.84497278,0.39659822,-0.03598356
2.12000000,0.08427729,0.76947521,-0.12103683,-0.21460033,0.85360300,0.20017814,-0.02859926,0.25627924,-0.77484459,0.23623452,-0.45559368,-0.84500649,0.39664130,-0.03610114
2.14000000,0.08044153,0.76933532,-0.11888171,-0.20943350,0.85372436,0.19619595,-0.03008083,0.25653564,-0.77488426,0.23616232,-0.45582292,-0.84504036,0.39668459,-0.03621929
2.16000000,0.07658767,0.76919478,-0.11671643,-0.20424229,0.85384630,0.19219498,-0.03156940,0.25679325,-0.77492412,0.23608978,-0.45605325,-0.84507440,0.39672808,-0.03633801
2.18000000,0.07271669,0.76905361,-0.11454152,-0.19902802,0.85396879,0.18817622,-0.03306457,0.25705200,-0.77496416,0.23601692,-0.45628459,-0.84510859,0.39677177,-0.03645725
2.20000000,0.06882956,0.76891185,-0.11235754,-0.19379199,0.85409178,0.18414070,-0.03456599,0.25731183,-0.77500437,0.23594375,-0.45651691,-0.84514292,0.39681564,-0.03657700
2.22000000,0.06492725,0.76876954,-0.11016503,-0.18853552,0.85421525,0.18008942,-0.03607327,0.25757268,-0.77504473,0.23587030,-0.45675012,-0.84517738,0.39685968,-0.03669720
2.24000000,0.06101076,0.76862672,-0.10796455,-0.18325994,0.85433917,0.17602341,-0.03758602,0.25783447,-0.77508524,0.23579658,-0.45698419,-0.84521197,0.39690388,-0.03681785
2.26000000,0.05708106,0.76848341,-0.10575665,-0.17796658,0.85446351,0.17194370,-0.03910388,0.25809715,-0.77512588,0.23572261,-0.45721905,-0.84524668,0.39694823,-0.03693890
2.28000000,0.05313916,0.76833965,-0.10354189,-0.17265678,0.85458824,0.16785132,-0.04062645,0.25836064,-0.77516665,0.23564842,-0.45745463,-0.84528149,0.39699271,-0.03706033
2.30000000,0.04918606,0.76819549,-0.10132085,-0.16733189,0.85471332,0.16374731,-0.04215334,0.25862489,-0.77520754,0.23557401,-0.45769089,-0.84531641,0.39703733,-0.03718210
2.32000000,0.04522276,0.76805095,-0.09909407,-0.16199326,0.85483872,0.15963271,-0.04368418,0.25888981,-0.77524853,0.23549941,-0.45792775,-0.84535141,0.39708206,-0.03730419
2.34000000,0.04125027,0.76790608,-0.09686213,-0.15664225,0.85496441,0.15550857,-0.04521857,0.25915535,-0.77528962,0.23542464,-0.45816516,-0.84538649,0.39712689,-0.03742656
2.36000000,0.03726960,0.76776092,-0.09462559,-0.15128023,0.85509037,0.15137594,-0.04675611,0.25942143,-0.77533079,0.23534971,-0.45840306,-0.84542165,0.39717181,-0.03754918
2.38000000,0.03328177,0.76761549,-0.09238503,-0.14590856,0.85521654,0.14723588,-0.04829642,0.25968800,-0.77537204,0.23527465,-0.45864139,-0.84545687,0.39721682,-0.03767203
2.40000000,0.02928780,0.76746983,-0.09014102,-0.14052861,0.85534292,0.14308943,-0.04983910,0.25995497,-0.77541335,0.23519947,-0.45888009,-0.84549215,0.39726189,-0.03779506
2.42000000,0.02528870,0.76732399,-0.08789413,-0.13514176,0.85546945,0.13893767,-0.05138377,0.26022229,-0.77545471,0.23512420,-0.45911909,-0.84552747,0.39730702,-0.03791825
2.44000000,0.02128550,0.76717800,-0.08564493,-0.12974939,0.85559612,0.13478165,-0.05293001,0.26048988,-0.77549612,0.23504885,-0.45935834,-0.84556282,0.39735220,-0.03804157
2.46000000,0.01727922,0.76703190,-0.08339401,-0.12435287,0.85572288,0.13062243,-0.05447745,0.26075768,-0.77553756,0.23497344,-0.45959777,-0.84559820,0.39739742,-0.03816498
2.48000000,0.01327090,0.76688573,-0.08114193,-0.11895359,0.85584971,0.12646109,-0.05602568,0.26102561,-0.77557902,0.23489799,-0.45983733,-0.84563361,0.39744265,-0.03828845
2.50000000,0.00926154,0.76673951,-0.07888928,-0.11355292,0.85597657,0.12229867,-0.05757430,0.26129361,-0.77562048,0.23482253,-0.46007695,-0.84566902,0.39748790,-0.03841196
2.52000000,0.00525218,0.76659330,-0.07663662,-0.10815225,0.85610343,0.11813626,-0.05912292,0.26156161,-0.77566195,0.23474706,-0.46031656,-0.84570443,0.39753315,-0.03853546
2.54000000,0.00124386,0.76644712,-0.07438455,-0.10275297,0.85623025,0.11397491,-0.06067115,0.26182955,-0.77570341,0.23467161,-0.46055612,-0.84573983,0.39757839,-0.03865894
2.56000000,-0.00276242,0.76630102,-0.07213362,-0.09735645,0.85635702,0.10981570,-0.06221859,0.26209734,-0.77574485,0.23459621,-0.46079555,-0.84577521,0.39762360,-0.03878235
2.58000000,-0.00676562,0.76615503,-0.06988443,-0.09196408,0.85648368,0.10565968,-0.06376484,0.26236494,-0.77578626,0.23452085,-0.46103480,-0.84581057,0.39766878,-0.03890567
2.60000000,-0.01076472,0.76600919,-0.06763753,-0.08657723,0.85661022,0.10150791,-0.06530950,0.26263225,-0.77582762,0.23444558,-0.46127380,-0.84584588,0.39771391,-0.03902886
2.62000000,-0.01475869,0.76586353,-0.06539352,-0.08119728,0.85673659,0.09736147,-0.06685218,0.26289923,-0.77586893,0.23437040,-0.46151250,-0.84588116,0.39775899,-0.03915189
2.64000000,-0.01874652,0.76571811,-0.06315296,-0.07582561,0.85686277,0.09322140,-0.06839249,0.26316579,-0.77591017,0.23429534,-0.46175083,-0.84591638,0.39780399,-0.03927473
2.66000000,-0.02272719,0.76557294,-0.06091643,-0.07046359,0.85698872,0.08908878,-0.06993004,0.26343187,-0.77595135,0.23422042,-0.46198873,-0.84595154,0.39784892,-0.03939735
2.68000000,-0.02669968,0.76542807,-0.05868449,-0.06511258,0.85711442,0.08496464,-0.07146442,0.26369741,-0.77599243,0.23414564,-0.46222614,-0.84598662,0.39789375,-0.03951972
2.70000000,-0.03066298,0.76528353,-0.05645771,-0.05977395,0.85723982,0.08085004,-0.07299526,0.26396234,-0.77603343,0.23407104,-0.46246301,-0.84602162,0.39793848,-0.03964181
2.72000000,-0.03461608,0.76513937,-0.05423666,-0.05444906,0.85736490,0.07674603,-0.07452215,0.26422658,-0.77607431,0.23399664,-0.46269926,-0.84605654,0.39798309,-0.03976358
2.74000000,-0.03855798,0.76499562,-0.05202191,-0.04913926,0.85748962,0.07265365,-0.07604472,0.26449007,-0.77611509,0.23392244,-0.46293485,-0.84609135,0.39802758,-0.03988501
2.76000000,-0.04248768,0.76485231,-0.04981401,-0.04384590,0.85761396,0.06857393,-0.07756258,0.26475275,-0.77615573,0.23384847,-0.46316970,-0.84612606,0.39807193,-0.04000607
2.78000000,-0.04640417,0.76470948,-0.04761353,-0.03857032,0.85773788,0.06450793,-0.07907534,0.26501455,-0.77619624,0.23377476,-0.46340377,-0.84616065,0.39811613,-0.04012671
2.80000000,-0.05030648,0.76456717,-0.04542102,-0.03331385,0.85786136,0.06045665,-0.08058261,0.26527539,-0.77623660,0.23370130,-0.46363699,-0.84619511,0.39816017,-0.04024692
2.82000000,-0.05419361,0.76442541,-0.04323704,-0.02807782,0.85798435,0.05642112,-0.08208403,0.26553522,-0.77627681,0.23362814,-0.46386930,-0.84622944,0.39820404,-0.04036666
2.84000000,-0.05806459,0.76428424,-0.04106213,-0.02286355,0.85810683,0.05240237,-0.08357920,0.26579398,-0.77631684,0.23355528,-0.46410065,-0.84626363,0.39824772,-0.04048590
2.86000000,-0.06191845,0.76414370,-0.03889684,-0.01767234,0.85822877,0.04840140,-0.08506777,0.26605159,-0.77635671,0.23348274,-0.46433097,-0.84629767,0.39829121,-0.04060462
2.88000000,-0.06575421,0.76400382,-0.03674172,-0.01250551,0.85835014,0.04441921,-0.08654934,0.26630798,-0.77639638,0.23341054,-0.46456021,-0.84633154,0.39833450,-0.04072278
2.90000000,-0.06957092,0.76386463,-0.03459731,-0.00736434,0.85847090,0.04045679,-0.08802355,0.26656311,-0.77643586,0.23333870,-0.46478831,-0.84636525,0.39837758,-0.04084035
2.92000000,-0.07336762,0.76372617,-0.03246413,-0.00225012,0.85859103,0.03651515,-0.08949004,0.26681690,-0.77647513,0.23326723,-0.46501522,-0.84639879,0.39842043,-0.04095731
2.94000000,-0.07714339,0.76358847,-0.03034272,0.00283589,0.85871050,0.03259525,-0.09094844,0.26706929,-0.77651418,0.23319616,-0.46524088,-0.84643213,0.39846304,-0.04107362
2.96000000,-0.08089727,0.76345157,-0.02823360,0.00789243,0.85882928,0.02869806,-0.09239839,0.26732021,-0.77655301,0.23312551,-0.46546522,-0.84646529,0.39850540,-0.04118925
2.98000000,-0.08462834,0.76331551,-0.02613730,0.01291824,0.85894733,0.02482456,-0.09383952,0.26756961,-0.77659160,0.23305528,-0.46568821,-0.84649824,0.39854751,-0.04130419
3.00000000,-0.08833568,0.76318031,-0.02405433,0.01791209,0.85906464,0.02097568,-0.09527150,0.26781743,-0.77662994,0.23298550,-0.46590978,-0.84653098,0.39858935,-0.04141839
3.02000000,-0.09201840,0.76304601,-0.02198520,0.02287277,0.85918116,0.01715239,-0.09669395,0.26806359,-0.77666803,0.23291618,-0.46612987,-0.84656351,0.39863091,-0.04153183
3.04000000,-0.09567558,0.76291264,-0.01993042,0.02779905,0.85929688,0.01335559,-0.09810655,0.26830806,-0.77670586,0.23284734,-0.46634844,-0.84659581,0.39867219,-0.04164449
3.06000000,-0.09930634,0.76278023,-0.01789048,0.03268974,0.85941176,0.00958623,-0.09950894,0.26855075,-0.77674341,0.23277900,-0.46656543,-0.84662787,0.39871316,-0.04175633
3.08000000,-0.10290980,0.76264882,-0.01586587,0.03754366,0.85952578,0.00584520,-0.10090079,0.26879162,-0.77678068,0.23271117,-0.46678079,-0.84665970,0.39875383,-0.04186734
3.10000000,-0.10648510,0.76251843,-0.01385709,0.04235965,0.85963890,0.00213342,-0.10228176,0.26903061,-0.77681766,0.23264388,-0.46699446,-0.84669127,0.39879418,-0.04197747
3.12000000,-0.11003138,0.76238910,-0.01186462,0.04713654,0.85975111,-0.00154824,-0.10365152,0.26926766,-0.77685434,0.23257713,-0.46720640,-0.84672259,0.39883420,-0.04208671
3.14000000,-0.11354780,0.76226087,-0.00988892,0.05187322,0.85986237,-0.00519890,-0.10500975,0.26950271,-0.77689071,0.23251094,-0.46741656,-0.84675365,0.39887389,-0.04219504
3.16000000,-0.11703353,0.76213375,-0.00793047,0.05656855,0.85997267,-0.00881770,-0.10635612,0.26973571,-0.77692677,0.23244533,-0.46762488,-0.84678444,0.39891323,-0.04230241
3.18000000,-0.12048774,0.76200778,-0.00598972,0.06122143,0.86008196,-0.01240378,-0.10769032,0.26996661,-0.77696249,0.23238031,-0.46783132,-0.84681494,0.39895221,-0.04240882
3.20000000,-0.12390964,0.76188299,-0.00406712,0.06583079,0.86019023,-0.01595631,-0.10901204,0.27019534,-0.77699789,0.23231590,-0.46803583,-0.84684517,0.39899083,-0.04251423
3.22000000,-0.12729844,0.76175940,-0.00216313,0.07039554,0.86029746,-0.01947447,-0.11032097,0.27042186,-0.77703294,0.23225212,-0.46823836,-0.84687510,0.39902907,-0.04261862
3.24000000,-0.13065334,0.76163706,-0.00027818,0.07491466,0.86040361,-0.02295745,-0.11161681,0.27064612,-0.77706764,0.23218897,-0.46843886,-0.84690473,0.39906693,-0.04272196
3.26000000,-0.13397360,0.76151597,0.00158731,0.07938710,0.86050867,-0.02640446,-0.11289927,0.27086806,-0.77710198,0.23212647,-0.46863729,-0.84693405,0.39910441,-0.04282424
3.28000000,-0.13725846,0.76139618,0.00343290,0.08381186,0.86061260,-0.02981471,-0.11416805,0.27108763,-0.77713595,0.23206464,-0.46883361,-0.84696306,0.39914148,-0.04292543
3.30000000,-0.14050719,0.76127770,0.00525820,0.08818794,0.86071539,-0.03318746,-0.11542288,0.27130479,-0.77716956,0.23200349,-0.46902777,-0.84699175,0.39917814,-0.04302551
3.32000000,-0.14371906,0.76116057,0.00706279,0.09251439,0.86081702,-0.03652195,-0.11666348,0.27151949,-0.77720278,0.23194304,-0.46921973,-0.84702012,0.39921439,-0.04312445
3.34000000,-0.14689338,0.76104481,0.00884628,0.09679024,0.86091746,-0.03981745,-0.11788957,0.27173167,-0.77723561,0.23188329,-0.46940944,-0.84704816,0.39925021,-0.04322223
3.36000000,-0.15002946,0.76093044,0.01060828,0.10101459,0.86101669,-0.04307324,-0.11910089,0.27194130,-0.77726805,0.23182426,-0.46959686,-0.84707585,0.39928561,-0.04331883
3.38000000,-0.15312662,0.76081749,0.01234842,0.10518652,0.86111469,-0.04628864,-0.12029717,0.27214833,-0.77730008,0.23176596,-0.46978196,-0.84710321,0.39932056,-0.04341424
3.40000000,-0.15618422,0.76070599,0.01406633,0.10930515,0.86121143,-0.04946296,-0.12147818,0.27235271,-0.77733170,0.23170841,-0.46996470,-0.84713021,0.39935507,-0.04350843
3.42000000,-0.15920161,0.76059595,0.01576165,0.11336963,0.86130690,-0.05259555,-0.12264366,0.27255441,-0.77736291,0.23165162,-0.47014503,-0.84715686,0.39938912,-0.04360138
3.44000000,-0.16217819,0.76048740,0.01743404,0.11737913,0.86140109,-0.05568575,-0.12379337,0.27275337,-0.77739370,0.23159559,-0.47032292,-0.84718315,0.39942271,-0.04369307
3.46000000,-0.16511335,0.76038036,0.01908315,0.12133283,0.86149396,-0.05873296,-0.12492708,0.27294957,-0.77742406,0.23154034,-0.47049834,-0.84720907,0.39945584,-0.04378349
3.48000000,-0.16800650,0.76027485,0.02070867,0.12522995,0.86158550,-0.06173656,-0.12604457,0.27314296,-0.77745398,0.23148589,-0.47067125,-0.84723462,0.39948849,-0.04387261
3.50000000,-0.17085709,0.76017090,0.02231027,0.12906974,0.86167569,-0.06469597,-0.12714562,0.27333351,-0.77748347,0.23143223,-0.47084161,-0.84725980,0.39952066,-0.04396042
3.52000000,-0.17366456,0.76006851,0.02388765,0.13285146,0.86176453,-0.06761062,-0.12823001,0.27352117,-0.77751251,0.23137939,-0.47100940,-0.84728459,0.39955234,-0.04404690
3.54000000,-0.17642841,0.75996772,0.02544052,0.13657440,0.86185198,-0.07047997,-0.12929755,0.27370592,-0.77754109,0.23132736,-0.47117458,-0.84730900,0.39958354,-0.04413204
3.56000000,-0.17914812,0.75986854,0.02696858,0.14023790,0.86193803,-0.07330351,-0.13034805,0.27388772,-0.77756922,0.23127617,-0.47133712,-0.84733303,0.39961423,-0.04421582
3.58000000,-0.18182321,0.75977098,0.02847158,0.14384128,0.86202267,-0.07608072,-0.13138131,0.27406653,-0.77759689,0.23122582,-0.47149699,-0.84735665,0.39964442,-0.04429822
3.60000000,-0.18445322,0.75967507,0.02994925,0.14738395,0.86210589,-0.07881113,-0.13239716,0.27424233,-0.77762409,0.23117632,-0.47165417,-0.84737988,0.39967410,-0.04437924
3.62000000,-0.18703770,0.75958082,0.03140134,0.15086529,0.86218767,-0.08149428,-0.13339542,0.27441509,-0.77765082,0.23112767,-0.47180863,-0.84740270,0.39970327,-0.04445885
3.64000000,-0.18957625,0.75948824,0.03282762,0.15428475,0.86226799,-0.08412973,-0.13437594,0.27458478,-0.77767708,0.23107989,-0.47196035,-0.84742512,0.39973192,-0.04453705
3.66000000,-0.19206845,0.75939735,0.03422786,0.15764179,0.86234684,-0.08671707,-0.13533856,0.27475137,-0.77770286,0.23103298,-0.47210929,-0.84744714,0.39976004,-0.04461382
3.68000000,-0.19451394,0.75930817,0.03560186,0.16093590,0.86242422,-0.08925592,-0.13628314,0.27491483,-0.77772815,0.23098695,-0.47225545,-0.84746873,0.39978764,-0.04468916
3.70000000,-0.19691237,0.75922070,0.03694941,0.16416662,0.86250011,-0.09174590,-0.13720954,0.27507515,-0.77775296,0.23094180,-0.47239879,-0.84748992,0.39981471,-0.04476304
3.72000000,-0.19926339,0.75913497,0.03827034,0.16733349,0.86257450,-0.09418668,-0.13811763,0.27523231,-0.77777728,0.23089755,-0.47253929,-0.84751068,0.39984124,-0.04483546
3.74000000,-0.20156672,0.75905097,0.03956446,0.17043611,0.86264738,-0.09657794,-0.13900730,0.27538627,-0.77780110,0.23085420,-0.47267695,-0.84753102,0.39986724,-0.04490641
3.76000000,-0.20382207,0.75896872,0.04083163,0.17347410,0.86271874,-0.09891939,-0.13987843,0.27553703,-0.77782443,0.23081175,-0.47281174,-0.84755094,0.39989269,-0.04497589
3.78000000,-0.20602918,0.75888823,0.04207169,0.17644711,0.86278857,-0.10121075,-0.14073093,0.27568456,-0.77784726,0.23077020,-0.47294365,-0.84757044,0.39991760,-0.04504388
3.80000000,-0.20818782,0.75880951,0.04328452,0.17935484,0.86285688,-0.10345180,-0.14156472,0.27582885,-0.77786958,0.23072957,-0.47307266,-0.84758950,0.39994196,-0.04511037
3.82000000,-0.21029779,0.75873256,0.04447001,0.18219700,0.86292364,-0.10564231,-0.14237970,0.27596989,-0.77789141,0.23068986,-0.47319876,-0.84760813,0.39996577,-0.04517537
3.84000000,-0.21235890,0.75865740,0.04562804,0.18497334,0.86298885,-0.10778211,-0.14317580,0.27610767,-0.77791272,0.23065106,-0.47332194,-0.84762634,0.39998904,-0.04523886
3.86000000,-0.21437100,0.75858402,0.04675854,0.18768367,0.86305252,-0.10987102,-0.14395298,0.27624216,-0.77793354,0.23061319,-0.47344219,-0.84764411,0.40001174,-0.04530084
3.88000000,-0.21633395,0.75851243,0.04786142,0.19032781,0.86311463,-0.11190891,-0.14471118,0.27637338,-0.77795384,0.23057624,-0.47355950,-0.84766145,0.40003390,-0.04536131
3.90000000,-0.21824767,0.75844264,0.04893664,0.19290561,0.86317518,-0.11389568,-0.14545036,0.27650130,-0.77797363,0.23054022,-0.47367388,-0.84767835,0.40005549,-0.04542026
3.92000000,-0.22011207,0.75837465,0.04998416,0.19541699,0.86323417,-0.11583125,-0.14617049,0.27662592,-0.77799292,0.23050513,-0.47378530,-0.84769481,0.40007654,-0.04547769
3.94000000,-0.22192711,0.75830846,0.05100393,0.19786187,0.86329160,-0.11771558,-0.14687155,0.27674725,-0.77801169,0.23047096,-0.47389377,-0.84771084,0.40009702,-0.04553360
3.96000000,-0.22369276,0.75824407,0.05199597,0.20024024,0.86334747,-0.11954864,-0.14755354,0.27686527,-0.77802995,0.23043773,-0.47399930,-0.84772644,0.40011695,-0.04558799
3.98000000,-0.22540905,0.75818148,0.05296026,0.20255210,0.86340177,-0.12133044,-0.14821646,0.27697999,-0.77804770,0.23040542,-0.47410187,-0.84774160,0.40013632,-0.04564086
4.00000000,-0.22707599,0.75812069,0.05389683,0.20479751,0.86345452,-0.12306103,-0.14886032,0.27709142,-0.77806494,0.23037405,-0.47420149,-0.84775632,0.40015513,-0.04569221
4.02000000,-0.22869368,0.75806169,0.05480573,0.20697655,0.86350570,-0.12474046,-0.14948516,0.27719955,-0.77808168,0.23034360,-0.47429817,-0.84777060,0.40017338,-0.04574204
4.04000000,-0.23026219,0.75800449,0.05568699,0.20908936,0.86355533,-0.12636885,-0.15009100,0.27730440,-0.77809790,0.23031407,-0.47439191,-0.84778446,0.40019109,-0.04579036
4.06000000,-0.23178166,0.75794908,0.05654071,0.21113611,0.86360341,-0.12794633,-0.15067790,0.27740597,-0.77811362,0.23028547,-0.47448273,-0.84779788,0.40020823,-0.04583717
4.08000000,-0.23325224,0.75789545,0.05736696,0.21311701,0.86364994,-0.12947305,-0.15124592,0.27750427,-0.77812883,0.23025779,-0.47457061,-0.84781087,0.40022483,-0.04588247
4.10000000,-0.23467413,0.75784360,0.05816584,0.21503232,0.86369493,-0.13094922,-0.15179513,0.27759931,-0.77814353,0.23023103,-0.47465559,-0.84782342,0.40024088,-0.04592627
4.12000000,-0.23604754,0.75779351,0.05893749,0.21688232,0.86373838,-0.13237506,-0.15232561,0.27769112,-0.77815774,0.23020518,-0.47473767,-0.84783555,0.40025638,-0.04596858
4.14000000,-0.23737272,0.75774518,0.05968204,0.21866736,0.86378031,-0.13375083,-0.15283746,0.27777970,-0.77817144,0.23018024,-0.47481687,-0.84784726,0.40027133,-0.04600940
4.16000000,-0.23864996,0.75769861,0.06039966,0.22038782,0.86382073,-0.13507683,-0.15333080,0.27786507,-0.77818465,0.23015620,-0.47489320,-0.84785854,0.40028575,-0.04604874
4.18000000,-0.23987957,0.75765376,0.06109051,0.22204412,0.86385963,-0.13635338,-0.15380574,0.27794726,-0.77819737,0.23013305,-0.47496669,-0.84786940,0.40029962,-0.04608662
4.20000000,-0.24106189,0.75761065,0.06175480,0.22363674,0.86389704,-0.13758084,-0.15426242,0.27802630,-0.77820960,0.23011080,-0.47503735,-0.84787984,0.40031297,-0.04612304
4.22000000,-0.24219732,0.75756924,0.06239274,0.22516617,0.86393297,-0.13875960,-0.15470098,0.27810219,-0.77822135,0.23008943,-0.47510521,-0.84788987,0.40032578,-0.04615802
4.24000000,-0.24328625,0.75752953,0.06300456,0.22663298,0.86396742,-0.13989011,-0.15512158,0.27817498,-0.77823261,0.23006893,-0.47517029,-0.84789948,0.40033807,-0.04619156
4.26000000,-0.24432915,0.75749150,0.06359051,0.22803779,0.86400042,-0.14097282,-0.15552440,0.27824469,-0.77824340,0.23004930,-0.47523262,-0.84790870,0.40034984,-0.04622369
4.28000000,-0.24532649,0.75745512,0.06415087,0.22938122,0.86403198,-0.14200824,-0.15590963,0.27831136,-0.77825371,0.23003053,-0.47529222,-0.84791750,0.40036110,-0.04625441
4.30000000,-0.24627880,0.75742040,0.06468592,0.23066399,0.86406211,-0.14299689,-0.15627746,0.27837502,-0.77826356,0.23001260,-0.47534914,-0.84792591,0.40037184,-0.04628375
4.32000000,-0.24718661,0.75738729,0.06519597,0.23188683,0.86409083,-0.14393936,-0.15662810,0.27843570,-0.77827295,0.22999551,-0.47540339,-0.84793393,0.40038209,-0.04631171
4.34000000,-0.24805053,0.75735578,0.06568136,0.23305054,0.86411817,-0.14483626,-0.15696179,0.27849345,-0.77828189,0.22997925,-0.47545502,-0.84794156,0.40039184,-0.04633832
4.36000000,-0.24887117,0.75732586,0.06614244,0.23415595,0.86414414,-0.14568823,-0.15727877,0.27854830,-0.77829037,0.22996381,-0.47550407,-0.84794881,0.40040110,-0.04636360
4.38000000,-0.24964919,0.75729748,0.06657957,0.23520396,0.86416875,-0.14649595,-0.15757928,0.27860031,-0.77829842,0.22994916,-0.47555057,-0.84795568,0.40040988,-0.04638757
4.40000000,-0.25038530,0.75727064,0.06699315,0.23619551,0.86419204,-0.14726016,-0.15786361,0.27864951,-0.77830603,0.22993531,-0.47559456,-0.84796218,0.40041819,-0.04641024
4.42000000,-0.25108022,0.75724530,0.06738359,0.23713158,0.86421403,-0.14798161,-0.15813202,0.27869596,-0.77831322,0.22992223,-0.47563609,-0.84796832,0.40042603,-0.04643165
4.44000000,-0.25173472,0.75722143,0.06775132,0.23801320,0.86423474,-0.14866110,-0.15838482,0.27873971,-0.77831999,0.22990991,-0.47567521,-0.84797410,0.40043342,-0.04645181
4.46000000,-0.25234962,0.75719900,0.06809680,0.23884148,0.86425420,-0.14929947,-0.15862233,0.27878082,-0.77832635,0.22989833,-0.47571195,-0.84797953,0.40044036,-0.04647075
4.48000000,-0.25292576,0.75717799,0.06842051,0.23961755,0.86427243,-0.14989760,-0.15884487,0.27881933,-0.77833231,0.22988749,-0.47574639,-0.84798462,0.40044686,-0.04648850
4.50000000,-0.25346403,0.75715836,0.06872293,0.24034260,0.86428946,-0.15045642,-0.15905277,0.27885531,-0.77833788,0.22987736,-0.47577856,-0.84798937,0.40045293,-0.04650508
4.52000000,-0.25396534,0.75714008,0.06900460,0.24101789,0.86430532,-0.15097687,-0.15924641,0.27888882,-0.77834306,0.22986792,-0.47580852,-0.84799380,0.40045859,-0.04652053
4.54000000,-0.25443068,0.75712311,0.06926605,0.24164470,0.86432004,-0.15145997,-0.15942614,0.27891992,-0.77834788,0.22985916,-0.47583633,-0.84799791,0.40046384,-0.04653486
4.56000000,-0.25486103,0.75710742,0.06950784,0.24222439,0.86433366,-0.15190675,-0.15959237,0.27894869,-0.77835233,0.22985106,-0.47586205,-0.84800171,0.40046870,-0.04654812
4.58000000,-0.25525745,0.75709296,0.06973057,0.24275837,0.86434620,-0.15231830,-0.15974549,0.27897519,-0.77835643,0.22984360,-0.47588574,-0.84800521,0.40047317,-0.04656033
4.60000000,-0.25562101,0.75707970,0.06993483,0.24324810,0.86435771,-0.15269575,-0.15988591,0.27899949,-0.77836019,0.22983676,-0.47590747,-0.84800842,0.40047728,-0.04657153
4.62000000,-0.25595285,0.75706760,0.07012128,0.24369509,0.86436821,-0.15304025,-0.16001409,0.27902167,-0.77836362,0.22983051,-0.47592730,-0.84801135,0.40048102,-0.04658175
4.64000000,-0.25625413,0.75705661,0.07029055,0.24410092,0.86437774,-0.15335304,-0.16013046,0.27904181,-0.77836674,0.22982484,-0.47594531,-0.84801402,0.40048442,-0.04659103
4.66000000,-0.25652606,0.75704670,0.07044334,0.24446722,0.86438634,-0.15363535,-0.16023549,0.27905999,-0.77836955,0.22981972,-0.47596156,-0.84801642,0.40048749,-0.04659941
4.68000000,-0.25676989,0.75703780,0.07058033,0.24479566,0.86439406,-0.15388849,-0.16032967,0.27907629,-0.77837207,0.22981513,-0.47597613,-0.84801857,0.40049024,-0.04660692
4.70000000,-0.25698692,0.75702989,0.07070227,0.24508800,0.86440093,-0.15411380,-0.16041350,0.27909079,-0.77837432,0.22981105,-0.47598910,-0.84802049,0.40049269,-0.04661360
4.72000000,-0.25717848,0.75702290,0.07080990,0.24534603,0.86440699,-0.15431267,-0.16048749,0.27910360,-0.77837630,0.22980744,-0.47600055,-0.84802218,0.40049485,-0.04661950
4.74000000,-0.25734595,0.75701680,0.07090399,0.24557162,0.86441229,-0.15448653,-0.16055218,0.27911479,-0.77837803,0.22980429,-0.47601056,-0.84802366,0.40049674,-0.04662466
4.76000000,-0.25749075,0.75701152,0.07098535,0.24576667,0.86441687,-0.15463687,-0.16060811,0.27912447,-0.77837953,0.22980156,-0.47601921,-0.84802494,0.40049838,-0.04662912
4.78000000,-0.25761436,0.75700701,0.07105480,0.24593317,0.86442078,-0.15476519,-0.16065585,0.27913273,-0.77838081,0.22979924,-0.47602660,-0.84802603,0.40049977,-0.04663293
4.80000000,-0.25771829,0.75700322,0.07111319,0.24607316,0.86442407,-0.15487308,-0.16069599,0.27913968,-0.77838188,0.22979728,-0.47603281,-0.84802695,0.40050095,-0.04663613
4.82000000,-0.25780408,0.75700009,0.07116139,0.24618873,0.86442678,-0.15496216,-0.16072913,0.27914542,-0.77838277,0.22979567,-0.47603794,-0.84802770,0.40050191,-0.04663878
4.84000000,-0.25787335,0.75699756,0.07120031,0.24628204,0.86442897,-0.15503407,-0.16075589,0.27915005,-0.77838348,0.22979436,-0.47604208,-0.84802832,0.40050270,-0.04664091
4.86000000,-0.25792775,0.75699558,0.07123087,0.24635531,0.86443069,-0.15509054,-0.16077690,0.27915368,-0.77838405,0.22979334,-0.47604533,-0.84802880,0.40050331,-0.04664259
4.88000000,-0.25796896,0.75699408,0.07125403,0.24641083,0.86443200,-0.15513333,-0.16079282,0.27915644,-0.77838447,0.22979256,-0.47604779,-0.84802916,0.40050378,-0.04664385
4.90000000,-0.25799874,0.75699299,0.07127076,0.24645093,0.86443294,-0.15516424,-0.16080432,0.27915843,-0.77838478,0.22979200,-0.47604957,-0.84802942,0.40050411,-0.04664477
4.92000000,-0.25801886,0.75699226,0.07128206,0.24647803,0.86443358,-0.15518513,-0.16081209,0.27915977,-0.77838499,0.22979162,-0.47605077,-0.84802960,0.40050434,-0.04664539
4.94000000,-0.25803116,0.75699181,0.07128897,0.24649461,0.86443397,-0.15519790,-0.16081684,0.27916059,-0.77838512,0.22979139,-0.47605151,-0.84802971,0.40050448,-0.04664577
4.96000000,-0.25803753,0.75699158,0.07129255,0.24650318,0.86443417,-0.15520451,-0.16081930,0.27916102,-0.77838518,0.22979127,-0.47605189,-0.84802977,0.40050455,-0.04664597
4.98000000,-0.25803989,0.75699149,0.07129388,0.24650637,0.86443424,-0.15520697,-0.16082021,0.27916118,-0.77838521,0.22979123,-0.47605203,-0.84802979,0.40050458,-0.04664604
5.00000000,-0.25804023,0.75699148,0.07129407,0.24650683,0.86443425,-0.15520732,-0.16082035,0.27916120,-0.77838521,0.22979122,-0.47605205,-0.84802979,0.40050458,-0.04664605
