gracetata/LocomotionHEC/legged_lab/Reference Data/ArmHack/StandPerturb/TestData/ArmOnly/trajectories/randomized/randomized_arm_trajectory_01_seed20260715_minjerk_50hz.csv
time_s,left_shoulder_pitch_joint,left_shoulder_roll_joint,left_shoulder_yaw_joint,left_elbow_joint,left_wrist_roll_joint,left_wrist_pitch_joint,left_wrist_yaw_joint,right_shoulder_pitch_joint,right_shoulder_roll_joint,right_shoulder_yaw_joint,right_elbow_joint,right_wrist_roll_joint,right_wrist_pitch_joint,right_wrist_yaw_joint
0.00000000,-0.16367175,0.90304919,-0.23711575,-0.52873176,0.58839470,0.28955773,-0.50392943,0.14771040,-0.77214312,0.15672542,-0.30066494,-0.85215312,0.26649489,0.00400113
0.02000000,-0.16367147,0.90304911,-0.23711575,-0.52873172,0.58839487,0.28955780,-0.50392908,0.14771003,-0.77214307,0.15672534,-0.30066449,-0.85215311,0.26649459,0.00400127
0.04000000,-0.16366952,0.90304855,-0.23711571,-0.52873149,0.58839601,0.28955829,-0.50392665,0.14770745,-0.77214275,0.15672484,-0.30066141,-0.85215304,0.26649249,0.00400224
0.06000000,-0.16366426,0.90304706,-0.23711562,-0.52873085,0.58839910,0.28955960,-0.50392009,0.14770049,-0.77214188,0.15672348,-0.30065312,-0.85215286,0.26648683,0.00400484
0.08000000,-0.16365411,0.90304417,-0.23711545,-0.52872963,0.58840506,0.28956215,-0.50390743,0.14768705,-0.77214020,0.15672085,-0.30063709,-0.85215252,0.26647591,0.00400985
0.10000000,-0.16363750,0.90303945,-0.23711517,-0.52872762,0.58841480,0.28956631,-0.50388672,0.14766508,-0.77213744,0.15671655,-0.30061087,-0.85215196,0.26645804,0.00401806
0.12000000,-0.16361293,0.90303246,-0.23711475,-0.52872466,0.58842923,0.28957247,-0.50385607,0.14763256,-0.77213337,0.15671019,-0.30057208,-0.85215112,0.26643161,0.00403021
0.14000000,-0.16357892,0.90302279,-0.23711417,-0.52872055,0.58844920,0.28958099,-0.50381365,0.14758754,-0.77212773,0.15670138,-0.30051838,-0.85214997,0.26639501,0.00404702
0.16000000,-0.16353403,0.90301003,-0.23711341,-0.52871513,0.58847555,0.28959224,-0.50375766,0.14752812,-0.77212028,0.15668975,-0.30044751,-0.85214845,0.26634671,0.00406921
0.18000000,-0.16347686,0.90299377,-0.23711244,-0.52870823,0.58850911,0.28960656,-0.50368635,0.14745246,-0.77211080,0.15667495,-0.30035725,-0.85214651,0.26628521,0.00409747
0.20000000,-0.16340605,0.90297363,-0.23711123,-0.52869969,0.58855068,0.28962431,-0.50359804,0.14735875,-0.77209906,0.15665661,-0.30024546,-0.85214410,0.26620903,0.00413247
0.22000000,-0.16332028,0.90294924,-0.23710978,-0.52868934,0.58860102,0.28964580,-0.50349106,0.14724523,-0.77208484,0.15663440,-0.30011006,-0.85214119,0.26611675,0.00417486
0.24000000,-0.16321827,0.90292024,-0.23710804,-0.52867702,0.58866091,0.28967136,-0.50336383,0.14711022,-0.77206792,0.15660798,-0.29994900,-0.85213773,0.26600700,0.00422528
0.26000000,-0.16309876,0.90288625,-0.23710601,-0.52866260,0.58873106,0.28970131,-0.50321477,0.14695205,-0.77204810,0.15657704,-0.29976033,-0.85213368,0.26587842,0.00428435
0.28000000,-0.16296055,0.90284695,-0.23710366,-0.52864592,0.58881220,0.28973594,-0.50304238,0.14676912,-0.77202518,0.15654125,-0.29954213,-0.85212899,0.26572972,0.00435267
0.30000000,-0.16280246,0.90280199,-0.23710097,-0.52862684,0.58890501,0.28977556,-0.50284520,0.14655989,-0.77199897,0.15650031,-0.29929254,-0.85212363,0.26555963,0.00443081
0.32000000,-0.16262335,0.90275106,-0.23709793,-0.52860522,0.58901015,0.28982044,-0.50262180,0.14632283,-0.77196927,0.15645392,-0.29900977,-0.85211755,0.26536693,0.00451934
0.34000000,-0.16242212,0.90269384,-0.23709451,-0.52858093,0.58912828,0.28987087,-0.50237082,0.14605650,-0.77193589,0.15640181,-0.29869207,-0.85211072,0.26515042,0.00461881
0.36000000,-0.16219770,0.90263002,-0.23709069,-0.52855385,0.58926003,0.28992710,-0.50209090,0.14575947,-0.77189868,0.15634370,-0.29833776,-0.85210311,0.26490897,0.00472973
0.38000000,-0.16194905,0.90255931,-0.23708647,-0.52852384,0.58940599,0.28998941,-0.50178078,0.14543039,-0.77185745,0.15627931,-0.29794521,-0.85209467,0.26464146,0.00485263
0.40000000,-0.16167519,0.90248144,-0.23708181,-0.52849079,0.58956676,0.29005804,-0.50143920,0.14506793,-0.77181203,0.15620839,-0.29751284,-0.85208538,0.26434681,0.00498800
0.42000000,-0.16137514,0.90239611,-0.23707671,-0.52845457,0.58974290,0.29013322,-0.50106496,0.14467081,-0.77176227,0.15613069,-0.29703914,-0.85207520,0.26402399,0.00513631
0.44000000,-0.16104798,0.90230308,-0.23707115,-0.52841509,0.58993495,0.29021521,-0.50065691,0.14423781,-0.77170802,0.15604597,-0.29652263,-0.85206410,0.26367201,0.00529802
0.46000000,-0.16069282,0.90220208,-0.23706511,-0.52837222,0.59014345,0.29030420,-0.50021392,0.14376774,-0.77164912,0.15595399,-0.29596191,-0.85205205,0.26328989,0.00547357
0.48000000,-0.16030878,0.90209288,-0.23705858,-0.52832587,0.59036889,0.29040044,-0.49973493,0.14325947,-0.77158544,0.15585454,-0.29535561,-0.85203902,0.26287671,0.00566339
0.50000000,-0.15989505,0.90197523,-0.23705155,-0.52827593,0.59061177,0.29050411,-0.49921890,0.14271189,-0.77151683,0.15574740,-0.29470242,-0.85202499,0.26243158,0.00586789
0.52000000,-0.15945082,0.90184890,-0.23704400,-0.52822232,0.59087254,0.29061543,-0.49866483,0.14212395,-0.77144316,0.15563237,-0.29400109,-0.85200992,0.26195364,0.00608747
0.54000000,-0.15897534,0.90171369,-0.23703591,-0.52816493,0.59115167,0.29073458,-0.49807178,0.14149464,-0.77136432,0.15550923,-0.29325042,-0.85199379,0.26144207,0.00632249
0.56000000,-0.15846787,0.90156939,-0.23702729,-0.52810368,0.59144957,0.29086174,-0.49743883,0.14082299,-0.77128016,0.15537782,-0.29244924,-0.85197657,0.26089609,0.00657332
0.58000000,-0.15792771,0.90141578,-0.23701811,-0.52803849,0.59176667,0.29099710,-0.49676511,0.14010809,-0.77119059,0.15523794,-0.29159646,-0.85195824,0.26031494,0.00684031
0.60000000,-0.15735420,0.90125270,-0.23700836,-0.52796927,0.59210334,0.29114081,-0.49604979,0.13934904,-0.77109548,0.15508942,-0.29069103,-0.85193879,0.25969791,0.00712379
0.62000000,-0.15674670,0.90107994,-0.23699803,-0.52789595,0.59245996,0.29129304,-0.49529208,0.13854500,-0.77099474,0.15493211,-0.28973193,-0.85191818,0.25904430,0.00742407
0.64000000,-0.15610461,0.90089735,-0.23698711,-0.52781845,0.59283690,0.29145395,-0.49449122,0.13769518,-0.77088826,0.15476583,-0.28871821,-0.85189639,0.25835348,0.00774144
0.66000000,-0.15542734,0.90070476,-0.23697560,-0.52773671,0.59323448,0.29162366,-0.49364649,0.13679881,-0.77077595,0.15459044,-0.28764896,-0.85187341,0.25762482,0.00807621
0.68000000,-0.15471436,0.90050202,-0.23696348,-0.52765066,0.59365303,0.29180232,-0.49275721,0.13585517,-0.77065772,0.15440581,-0.28652333,-0.85184923,0.25685773,0.00842862
0.70000000,-0.15396515,0.90028897,-0.23695074,-0.52756023,0.59409284,0.29199006,-0.49182275,0.13486358,-0.77053347,0.15421179,-0.28534051,-0.85182381,0.25605166,0.00879894
0.72000000,-0.15317922,0.90006548,-0.23693738,-0.52746538,0.59455421,0.29218701,-0.49084249,0.13382339,-0.77040314,0.15400827,-0.28409971,-0.85179714,0.25520609,0.00918741
0.74000000,-0.15235612,0.89983141,-0.23692339,-0.52736603,0.59503740,0.29239326,-0.48981587,0.13273401,-0.77026665,0.15379512,-0.28280024,-0.85176922,0.25432053,0.00959426
0.76000000,-0.15149543,0.89958666,-0.23690876,-0.52726215,0.59554266,0.29260894,-0.48874236,0.13159487,-0.77012392,0.15357224,-0.28144141,-0.85174002,0.25339452,0.01001968
0.78000000,-0.15059674,0.89933111,-0.23689348,-0.52715369,0.59607022,0.29283414,-0.48762146,0.13040544,-0.76997489,0.15333951,-0.28002259,-0.85170953,0.25242762,0.01046389
0.80000000,-0.14965968,0.89906464,-0.23687755,-0.52704059,0.59662031,0.29306895,-0.48645271,0.12916524,-0.76981950,0.15309685,-0.27854320,-0.85167774,0.25141946,0.01092706
0.82000000,-0.14868392,0.89878717,-0.23686097,-0.52692282,0.59719312,0.29331346,-0.48523568,0.12787380,-0.76965769,0.15284417,-0.27700270,-0.85164464,0.25036965,0.01140936
0.84000000,-0.14766914,0.89849860,-0.23684372,-0.52680035,0.59778883,0.29356775,-0.48396998,0.12653072,-0.76948941,0.15258138,-0.27540060,-0.85161021,0.24927785,0.01191095
0.86000000,-0.14661505,0.89819885,-0.23682580,-0.52667312,0.59840763,0.29383189,-0.48265525,0.12513562,-0.76931461,0.15230841,-0.27373644,-0.85157445,0.24814376,0.01243197
0.88000000,-0.14552139,0.89788785,-0.23680721,-0.52654113,0.59904965,0.29410595,-0.48129116,0.12368814,-0.76913325,0.15202520,-0.27200981,-0.85153734,0.24696711,0.01297255
0.90000000,-0.14438792,0.89756553,-0.23678794,-0.52640432,0.59971503,0.29438998,-0.47987744,0.12218799,-0.76894528,0.15173168,-0.27022034,-0.85149889,0.24574763,0.01353280
0.92000000,-0.14321445,0.89723184,-0.23676799,-0.52626269,0.60040390,0.29468403,-0.47841381,0.12063488,-0.76875069,0.15142779,-0.26836771,-0.85145908,0.24448510,0.01411283
0.94000000,-0.14200079,0.89688672,-0.23674736,-0.52611621,0.60111637,0.29498816,-0.47690006,0.11902859,-0.76854943,0.15111351,-0.26645162,-0.85141790,0.24317934,0.01471272
0.96000000,-0.14074679,0.89653012,-0.23672604,-0.52596486,0.60185251,0.29530240,-0.47533599,0.11736889,-0.76834147,0.15078877,-0.26447185,-0.85137536,0.24183017,0.01533255
0.98000000,-0.13945231,0.89616201,-0.23670403,-0.52580863,0.60261242,0.29562677,-0.47372143,0.11565563,-0.76812681,0.15045355,-0.26242817,-0.85133144,0.24043745,0.01597239
1.00000000,-0.13811725,0.89578237,-0.23668134,-0.52564750,0.60339615,0.29596132,-0.47205626,0.11388866,-0.76790542,0.15010782,-0.26032043,-0.85128615,0.23900108,0.01663229
1.02000000,-0.13674153,0.89539116,-0.23665795,-0.52548146,0.60420375,0.29630606,-0.47034038,0.11206788,-0.76767728,0.14975157,-0.25814850,-0.85123947,0.23752096,0.01731228
1.04000000,-0.13532510,0.89498838,-0.23663387,-0.52531050,0.60503525,0.29666099,-0.46857372,0.11019321,-0.76744240,0.14938477,-0.25591228,-0.85119142,0.23599703,0.01801240
1.06000000,-0.13386792,0.89457401,-0.23660910,-0.52513463,0.60589067,0.29702614,-0.46675623,0.10826462,-0.76720075,0.14900742,-0.25361174,-0.85114198,0.23442927,0.01873266
1.08000000,-0.13236999,0.89414805,-0.23658364,-0.52495384,0.60677001,0.29740150,-0.46488792,0.10628208,-0.76695235,0.14861951,-0.25124686,-0.85109116,0.23281766,0.01947306
1.10000000,-0.13083132,0.89371050,-0.23655748,-0.52476813,0.60767327,0.29778707,-0.46296879,0.10424562,-0.76669719,0.14822106,-0.24881766,-0.85103896,0.23116222,0.02023360
1.12000000,-0.12925194,0.89326138,-0.23653063,-0.52457751,0.60860042,0.29818284,-0.46099890,0.10215530,-0.76643528,0.14781206,-0.24632421,-0.85098538,0.22946299,0.02101426
1.14000000,-0.12763193,0.89280071,-0.23650309,-0.52438199,0.60955142,0.29858879,-0.45897832,0.10001120,-0.76616664,0.14739254,-0.24376659,-0.85093042,0.22772004,0.02181500
1.16000000,-0.12597137,0.89232850,-0.23647487,-0.52418157,0.61052624,0.29900491,-0.45690716,0.09781341,-0.76589127,0.14696252,-0.24114495,-0.85087408,0.22593345,0.02263579
1.18000000,-0.12427035,0.89184479,-0.23644595,-0.52397626,0.61152480,0.29943116,-0.45478555,0.09556210,-0.76560919,0.14652203,-0.23845945,-0.85081637,0.22410335,0.02347657
1.20000000,-0.12252902,0.89134961,-0.23641635,-0.52376610,0.61254703,0.29986751,-0.45261364,0.09325742,-0.76532042,0.14607109,-0.23571030,-0.85075730,0.22222986,0.02433729
1.22000000,-0.12074751,0.89084302,-0.23638606,-0.52355108,0.61359284,0.30031393,-0.45039164,0.09089957,-0.76502499,0.14560975,-0.23289772,-0.85069686,0.22031316,0.02521785
1.24000000,-0.11892600,0.89032504,-0.23635510,-0.52333124,0.61466213,0.30077037,-0.44811974,0.08848878,-0.76472293,0.14513806,-0.23002199,-0.85063506,0.21835342,0.02611819
1.26000000,-0.11706469,0.88979575,-0.23632346,-0.52310659,0.61575480,0.30123679,-0.44579819,0.08602529,-0.76441427,0.14465605,-0.22708341,-0.85057191,0.21635085,0.02703821
1.28000000,-0.11516377,0.88925519,-0.23629114,-0.52287716,0.61687070,0.30171314,-0.44342725,0.08350941,-0.76409904,0.14416379,-0.22408231,-0.85050742,0.21430567,0.02797780
1.30000000,-0.11322349,0.88870344,-0.23625816,-0.52264298,0.61800972,0.30219934,-0.44100720,0.08094141,-0.76377728,0.14366133,-0.22101906,-0.85044159,0.21221814,0.02893685
1.32000000,-0.11124409,0.88814057,-0.23622451,-0.52240408,0.61917170,0.30269535,-0.43853838,0.07832165,-0.76344904,0.14314875,-0.21789406,-0.85037444,0.21008853,0.02991523
1.34000000,-0.10922585,0.88756665,-0.23619020,-0.52216049,0.62035649,0.30320109,-0.43602110,0.07565049,-0.76311436,0.14262610,-0.21470774,-0.85030597,0.20791713,0.03091282
1.36000000,-0.10716906,0.88698177,-0.23615524,-0.52191225,0.62156390,0.30371650,-0.43345574,0.07292829,-0.76277328,0.14209348,-0.21146055,-0.85023619,0.20570425,0.03192945
1.38000000,-0.10507402,0.88638601,-0.23611962,-0.52165939,0.62279377,0.30424148,-0.43084268,0.07015548,-0.76242586,0.14155095,-0.20815298,-0.85016511,0.20345022,0.03296499
1.40000000,-0.10294107,0.88577948,-0.23608336,-0.52140196,0.62404589,0.30477597,-0.42818233,0.06733249,-0.76207215,0.14099860,-0.20478556,-0.85009275,0.20115540,0.03401928
1.42000000,-0.10077055,0.88516225,-0.23604647,-0.52113999,0.62532007,0.30531987,-0.42547512,0.06445977,-0.76171221,0.14043652,-0.20135882,-0.85001911,0.19882016,0.03509213
1.44000000,-0.09856282,0.88453445,-0.23600894,-0.52087353,0.62661608,0.30587310,-0.42272150,0.06153781,-0.76134611,0.13986481,-0.19787334,-0.84994421,0.19644489,0.03618337
1.46000000,-0.09631827,0.88389618,-0.23597078,-0.52060263,0.62793372,0.30643555,-0.41992196,0.05856712,-0.76097389,0.13928356,-0.19432972,-0.84986806,0.19403000,0.03729281
1.48000000,-0.09403729,0.88324755,-0.23593200,-0.52032733,0.62927274,0.30700713,-0.41707698,0.05554821,-0.76059564,0.13869288,-0.19072860,-0.84979068,0.19157592,0.03842026
1.50000000,-0.09172031,0.88258868,-0.23589262,-0.52004769,0.63063290,0.30758773,-0.41418709,0.05248165,-0.76021141,0.13809287,-0.18707063,-0.84971207,0.18908310,0.03956551
1.52000000,-0.08936774,0.88191969,-0.23585262,-0.51976375,0.63201394,0.30817725,-0.41125283,0.04936800,-0.75982129,0.13748365,-0.18335648,-0.84963226,0.18655200,0.04072834
1.54000000,-0.08698005,0.88124071,-0.23581203,-0.51947557,0.63341560,0.30877557,-0.40827475,0.04620785,-0.75942533,0.13686533,-0.17958688,-0.84955125,0.18398311,0.04190853
1.56000000,-0.08455769,0.88055188,-0.23577086,-0.51918321,0.63483762,0.30938258,-0.40525343,0.04300183,-0.75902364,0.13623804,-0.17576256,-0.84946907,0.18137692,0.04310586
1.58000000,-0.08210115,0.87985332,-0.23572910,-0.51888672,0.63627970,0.30999816,-0.40218948,0.03975057,-0.75861627,0.13560189,-0.17188426,-0.84938573,0.17873396,0.04432009
1.60000000,-0.07961093,0.87914519,-0.23568676,-0.51858616,0.63774156,0.31062217,-0.39908351,0.03645471,-0.75820331,0.13495702,-0.16795278,-0.84930124,0.17605475,0.04555097
1.62000000,-0.07708752,0.87842762,-0.23564387,-0.51828160,0.63922289,0.31125450,-0.39593616,0.03311495,-0.75778486,0.13430356,-0.16396891,-0.84921563,0.17333984,0.04679825
1.64000000,-0.07453146,0.87770076,-0.23560042,-0.51797310,0.64072340,0.31189501,-0.39274808,0.02973196,-0.75736098,0.13364164,-0.15993350,-0.84912892,0.17058980,0.04806166
1.66000000,-0.07194328,0.87696477,-0.23555642,-0.51766073,0.64224275,0.31254357,-0.38951995,0.02630648,-0.75693179,0.13297141,-0.15584738,-0.84904111,0.16780521,0.04934095
1.68000000,-0.06932355,0.87621981,-0.23551188,-0.51734454,0.64378064,0.31320004,-0.38625245,0.02283922,-0.75649736,0.13229300,-0.15171144,-0.84895223,0.16498667,0.05063585
1.70000000,-0.06667282,0.87546603,-0.23546682,-0.51702462,0.64533671,0.31386428,-0.38294629,0.01933094,-0.75605779,0.13160657,-0.14752656,-0.84886230,0.16213477,0.05194606
1.72000000,-0.06399167,0.87470361,-0.23542125,-0.51670102,0.64691065,0.31453613,-0.37960220,0.01578241,-0.75561317,0.13091226,-0.14329367,-0.84877134,0.15925016,0.05327130
1.74000000,-0.06128071,0.87393271,-0.23537516,-0.51637382,0.64850208,0.31521546,-0.37622092,0.01219441,-0.75516361,0.13021023,-0.13901370,-0.84867937,0.15633346,0.05461128
1.76000000,-0.05854053,0.87315349,-0.23532858,-0.51604310,0.65011067,0.31590211,-0.37280320,0.00856775,-0.75470921,0.12950063,-0.13468761,-0.84858640,0.15338534,0.05596571
1.78000000,-0.05577176,0.87236615,-0.23528151,-0.51570893,0.65173604,0.31659593,-0.36934981,0.00490323,-0.75425006,0.12878363,-0.13031637,-0.84849247,0.15040644,0.05733426
1.80000000,-0.05297502,0.87157085,-0.23523397,-0.51537138,0.65337784,0.31729675,-0.36586154,0.00120171,-0.75378628,0.12805939,-0.12590098,-0.84839758,0.14739746,0.05871664
1.82000000,-0.05015095,0.87076779,-0.23518596,-0.51503054,0.65503567,0.31800442,-0.36233919,-0.00253598,-0.75331796,0.12732807,-0.12144245,-0.84830177,0.14435908,0.06011253
1.84000000,-0.04730022,0.86995714,-0.23513750,-0.51468647,0.65670915,0.31871877,-0.35878358,-0.00630896,-0.75284523,0.12658984,-0.11694182,-0.84820506,0.14129201,0.06152160
1.86000000,-0.04442348,0.86913909,-0.23508860,-0.51433927,0.65839791,0.31943964,-0.35519553,-0.01011637,-0.75236818,0.12584488,-0.11240013,-0.84810746,0.13819696,0.06294352
1.88000000,-0.04152141,0.86831384,-0.23503926,-0.51398901,0.66010153,0.32016686,-0.35157589,-0.01395729,-0.75188693,0.12509336,-0.10781845,-0.84800901,0.13507465,0.06437796
1.90000000,-0.03859470,0.86748159,-0.23498951,-0.51363577,0.66181962,0.32090025,-0.34792551,-0.01783084,-0.75140159,0.12433546,-0.10319786,-0.84790971,0.13192583,0.06582459
1.92000000,-0.03564404,0.86664252,-0.23493935,-0.51327965,0.66355177,0.32163965,-0.34424526,-0.02173608,-0.75091228,0.12357136,-0.09853946,-0.84780961,0.12875125,0.06728305
1.94000000,-0.03267014,0.86579684,-0.23488880,-0.51292071,0.66529756,0.32238486,-0.34053602,-0.02567209,-0.75041912,0.12280123,-0.09384437,-0.84770871,0.12555165,0.06875300
1.96000000,-0.02967370,0.86494476,-0.23483786,-0.51255906,0.66705658,0.32313573,-0.33679868,-0.02963791,-0.74992222,0.12202528,-0.08911371,-0.84760706,0.12232782,0.07023409
1.98000000,-0.02665547,0.86408648,-0.23478655,-0.51219478,0.66882840,0.32389206,-0.33303415,-0.03363259,-0.74942171,0.12124368,-0.08434863,-0.84750466,0.11908054,0.07172595
2.00000000,-0.02361616,0.86322220,-0.23473488,-0.51182796,0.67061259,0.32465366,-0.32924333,-0.03765516,-0.74891770,0.12045662,-0.07955028,-0.84740155,0.11581058,0.07322823
2.02000000,-0.02055652,0.86235215,-0.23468287,-0.51145868,0.67240871,0.32542036,-0.32542716,-0.04170463,-0.74841032,0.11966429,-0.07471983,-0.84729774,0.11251874,0.07474056
2.04000000,-0.01747730,0.86147653,-0.23463053,-0.51108704,0.67421633,0.32619197,-0.32158657,-0.04578002,-0.74789969,0.11886690,-0.06985848,-0.84719328,0.10920585,0.07626256
2.06000000,-0.01437926,0.86059555,-0.23457786,-0.51071312,0.67603499,0.32696830,-0.31772249,-0.04988032,-0.74738594,0.11806463,-0.06496740,-0.84708817,0.10587270,0.07779387
2.08000000,-0.01126316,0.85970944,-0.23452489,-0.51033703,0.67786426,0.32774915,-0.31383590,-0.05400453,-0.74686920,0.11725768,-0.06004781,-0.84698245,0.10252012,0.07933411
2.10000000,-0.00812977,0.85881841,-0.23447162,-0.50995885,0.67970368,0.32853433,-0.30992774,-0.05815161,-0.74634959,0.11644626,-0.05510094,-0.84687615,0.09914894,0.08088289
2.12000000,-0.00497987,0.85792269,-0.23441808,-0.50957868,0.68155278,0.32932365,-0.30599900,-0.06232054,-0.74582724,0.11563056,-0.05012800,-0.84676929,0.09576000,0.08243983
2.14000000,-0.00181426,0.85702250,-0.23436426,-0.50919661,0.68341112,0.33011691,-0.30205064,-0.06651028,-0.74530229,0.11481079,-0.04513024,-0.84666189,0.09235415,0.08400454
2.16000000,0.00136629,0.85611806,-0.23431020,-0.50881274,0.68527822,0.33091391,-0.29808366,-0.07071978,-0.74477486,0.11398716,-0.04010890,-0.84655398,0.08893223,0.08557663
2.18000000,0.00456098,0.85520960,-0.23425589,-0.50842716,0.68715362,0.33171445,-0.29409905,-0.07494799,-0.74424508,0.11315986,-0.03506525,-0.84644560,0.08549510,0.08715571
2.20000000,0.00776899,0.85429735,-0.23420135,-0.50803997,0.68903685,0.33251833,-0.29009781,-0.07919384,-0.74371310,0.11232912,-0.03000055,-0.84633676,0.08204363,0.08874137
2.22000000,0.01098953,0.85338154,-0.23414661,-0.50765128,0.69092742,0.33332535,-0.28608096,-0.08345627,-0.74317904,0.11149513,-0.02491609,-0.84622750,0.07857869,0.09033323
2.24000000,0.01422178,0.85246240,-0.23409166,-0.50726117,0.69282487,0.33413531,-0.28204949,-0.08773420,-0.74264303,0.11065810,-0.01981313,-0.84611784,0.07510115,0.09193088
2.26000000,0.01746492,0.85154016,-0.23403653,-0.50686974,0.69472872,0.33494799,-0.27800444,-0.09202654,-0.74210522,0.10981826,-0.01469298,-0.84600782,0.07161189,0.09353390
2.28000000,0.02071813,0.85061506,-0.23398123,-0.50647710,0.69663848,0.33576320,-0.27394683,-0.09633221,-0.74156574,0.10897581,-0.00955692,-0.84589745,0.06811179,0.09514191
2.30000000,0.02398059,0.84968733,-0.23392577,-0.50608334,0.69855366,0.33658073,-0.26987769,-0.10065012,-0.74102473,0.10813096,-0.00440627,-0.84578676,0.06460175,0.09675449
2.32000000,0.02725146,0.84875721,-0.23387016,-0.50568857,0.70047379,0.33740036,-0.26579805,-0.10497917,-0.74048232,0.10728393,0.00075766,-0.84567580,0.06108265,0.09837123
2.34000000,0.03052992,0.84782492,-0.23381443,-0.50529288,0.70239837,0.33822190,-0.26170895,-0.10931826,-0.73993865,0.10643494,0.00593358,-0.84556457,0.05755539,0.09999171
2.36000000,0.03381513,0.84689072,-0.23375858,-0.50489637,0.70432691,0.33904513,-0.25761144,-0.11366628,-0.73939387,0.10558421,0.01112014,-0.84545311,0.05402087,0.10161554
2.38000000,0.03710625,0.84595484,-0.23370264,-0.50449916,0.70625892,0.33986983,-0.25350655,-0.11802212,-0.73884810,0.10473194,0.01631604,-0.84534146,0.05047999,0.10324228
2.40000000,0.04040244,0.84501752,-0.23364660,-0.50410133,0.70819391,0.34069581,-0.24939533,-0.12238468,-0.73830149,0.10387836,0.02151995,-0.84522963,0.04693365,0.10487153
2.42000000,0.04370286,0.84407900,-0.23359050,-0.50370299,0.71013137,0.34152285,-0.24527884,-0.12675283,-0.73775418,0.10302368,0.02673053,-0.84511766,0.04338277,0.10650287
2.44000000,0.04700666,0.84313951,-0.23353434,-0.50330424,0.71207083,0.34235073,-0.24115813,-0.13112546,-0.73720631,0.10216813,0.03194645,-0.84500557,0.03982824,0.10813589
2.46000000,0.05031301,0.84219930,-0.23347813,-0.50290519,0.71401178,0.34317926,-0.23703425,-0.13550145,-0.73665802,0.10131192,0.03716638,-0.84489340,0.03627098,0.10977016
2.48000000,0.05362104,0.84125861,-0.23342189,-0.50250593,0.71595372,0.34400820,-0.23290826,-0.13987968,-0.73610945,0.10045527,0.04238899,-0.84478117,0.03271190,0.11140526
2.50000000,0.05692993,0.84031767,-0.23336565,-0.50210657,0.71789616,0.34483736,-0.22878122,-0.14425904,-0.73556074,0.09959840,0.04761294,-0.84466891,0.02915191,0.11304079
2.52000000,0.06023881,0.83937674,-0.23330940,-0.50170721,0.71983860,0.34566652,-0.22465417,-0.14863839,-0.73501203,0.09874153,0.05283688,-0.84455666,0.02559191,0.11467631
2.54000000,0.06354685,0.83843605,-0.23325316,-0.50130795,0.72178054,0.34649547,-0.22052818,-0.15301663,-0.73446346,0.09788488,0.05805949,-0.84444443,0.02203283,0.11631142
2.56000000,0.06685319,0.83749584,-0.23319696,-0.50090890,0.72372149,0.34732399,-0.21640430,-0.15739262,-0.73391516,0.09702867,0.06327943,-0.84433225,0.01847557,0.11794569
2.58000000,0.07015700,0.83655635,-0.23314079,-0.50051015,0.72566094,0.34815188,-0.21228359,-0.16176525,-0.73336729,0.09617312,0.06849535,-0.84422017,0.01492105,0.11957870
2.60000000,0.07345741,0.83561783,-0.23308469,-0.50011181,0.72759841,0.34897892,-0.20816710,-0.16613340,-0.73281999,0.09531844,0.07370593,-0.84410820,0.01137016,0.12121004
2.62000000,0.07675360,0.83468050,-0.23302865,-0.49971398,0.72953340,0.34980489,-0.20405589,-0.17049596,-0.73227338,0.09446486,0.07890983,-0.84399637,0.00782383,0.12283929
2.64000000,0.08004472,0.83374462,-0.23297271,-0.49931676,0.73146541,0.35062960,-0.19995100,-0.17485180,-0.73172761,0.09361259,0.08410573,-0.84388471,0.00428295,0.12446604
2.66000000,0.08332993,0.83281042,-0.23291686,-0.49892026,0.73339395,0.35145283,-0.19585348,-0.17919982,-0.73118283,0.09276185,0.08929230,-0.84377326,0.00074843,0.12608986
2.68000000,0.08660839,0.83187814,-0.23286113,-0.49852457,0.73531853,0.35227436,-0.19176438,-0.18353890,-0.73063916,0.09191286,0.09446821,-0.84366203,-0.00277883,0.12771035
2.70000000,0.08987927,0.83094802,-0.23280552,-0.49812980,0.73723866,0.35309400,-0.18768474,-0.18786795,-0.73009675,0.09106584,0.09963215,-0.84355106,-0.00629793,0.12932708
2.72000000,0.09314172,0.83002029,-0.23275006,-0.49773604,0.73915384,0.35391152,-0.18361560,-0.19218586,-0.72955574,0.09022099,0.10478280,-0.84344038,-0.00980798,0.13093966
2.74000000,0.09639494,0.82909518,-0.23269476,-0.49734340,0.74106360,0.35472673,-0.17955799,-0.19649154,-0.72901626,0.08937854,0.10991885,-0.84333001,-0.01330807,0.13254767
2.76000000,0.09963808,0.82817295,-0.23263963,-0.49695197,0.74296745,0.35553942,-0.17551294,-0.20078388,-0.72847845,0.08853870,0.11503901,-0.84321998,-0.01679733,0.13415070
2.78000000,0.10287033,0.82725381,-0.23258468,-0.49656186,0.74486490,0.35634937,-0.17148148,-0.20506181,-0.72794244,0.08770167,0.12014196,-0.84311033,-0.02027487,0.13574834
2.80000000,0.10609086,0.82633800,-0.23252994,-0.49617316,0.74675547,0.35715639,-0.16746462,-0.20932423,-0.72740838,0.08686768,0.12522643,-0.84300107,-0.02373982,0.13734020
2.82000000,0.10929888,0.82542575,-0.23247540,-0.49578598,0.74863870,0.35796028,-0.16346338,-0.21357009,-0.72687640,0.08603693,0.13029113,-0.84289223,-0.02719129,0.13892587
2.84000000,0.11249356,0.82451729,-0.23242109,-0.49540040,0.75051410,0.35876082,-0.15947877,-0.21779830,-0.72634662,0.08520964,0.13533478,-0.84278385,-0.03062841,0.14050494
2.86000000,0.11567411,0.82361285,-0.23236703,-0.49501653,0.75238120,0.35955782,-0.15551179,-0.22200780,-0.72581919,0.08438600,0.14035611,-0.84267594,-0.03405033,0.14207704
2.88000000,0.11883973,0.82271266,-0.23231321,-0.49463446,0.75423954,0.36035108,-0.15156344,-0.22619754,-0.72529424,0.08356623,0.14535387,-0.84256854,-0.03745618,0.14364175
2.90000000,0.12198962,0.82181694,-0.23225967,-0.49425429,0.75608864,0.36114040,-0.14763469,-0.23036647,-0.72477189,0.08275054,0.15032681,-0.84246168,-0.04084512,0.14519869
2.92000000,0.12512301,0.82092591,-0.23220640,-0.49387611,0.75792806,0.36192558,-0.14372653,-0.23451355,-0.72425228,0.08193912,0.15527369,-0.84235537,-0.04421630,0.14674747
2.94000000,0.12823911,0.82003980,-0.23215343,-0.49350001,0.75975733,0.36270643,-0.13983994,-0.23863775,-0.72373554,0.08113217,0.16019328,-0.84224966,-0.04756888,0.14828770
2.96000000,0.13133715,0.81915882,-0.23210076,-0.49312610,0.76157599,0.36348275,-0.13597587,-0.24273806,-0.72322179,0.08032990,0.16508435,-0.84214455,-0.05090203,0.14981901
2.98000000,0.13441637,0.81828320,-0.23204842,-0.49275446,0.76338361,0.36425436,-0.13213527,-0.24681345,-0.72271116,0.07953251,0.16994571,-0.84204008,-0.05421493,0.15134102
3.00000000,0.13747601,0.81741314,-0.23199641,-0.49238518,0.76517973,0.36502106,-0.12831910,-0.25086292,-0.72220378,0.07874018,0.17477616,-0.84193628,-0.05750676,0.15285334
3.02000000,0.14051532,0.81654887,-0.23194474,-0.49201836,0.76696392,0.36578267,-0.12452828,-0.25488549,-0.72169977,0.07795312,0.17957450,-0.84183317,-0.06077672,0.15435562
3.04000000,0.14353356,0.81569059,-0.23189343,-0.49165407,0.76873574,0.36653900,-0.12076375,-0.25888017,-0.72119926,0.07717152,0.18433959,-0.84173077,-0.06402401,0.15584749
3.06000000,0.14652999,0.81483850,-0.23184249,-0.49129242,0.77049476,0.36728986,-0.11702641,-0.26284599,-0.72070236,0.07639556,0.18907025,-0.84162911,-0.06724784,0.15732857
3.08000000,0.14950390,0.81399283,-0.23179194,-0.49093349,0.77224055,0.36803508,-0.11331717,-0.26678200,-0.72020920,0.07562544,0.19376534,-0.84152822,-0.07044743,0.15879852
3.10000000,0.15245456,0.81315376,-0.23174178,-0.49057737,0.77397270,0.36877447,-0.10963692,-0.27068724,-0.71971989,0.07486134,0.19842374,-0.84142812,-0.07362202,0.16025698
3.12000000,0.15538127,0.81232150,-0.23169203,-0.49022413,0.77569079,0.36950787,-0.10598654,-0.27456078,-0.71923455,0.07410344,0.20304432,-0.84132882,-0.07677084,0.16170361
3.14000000,0.15828334,0.81149626,-0.23164269,-0.48987387,0.77739441,0.37023508,-0.10236690,-0.27840171,-0.71875330,0.07335192,0.20762600,-0.84123037,-0.07989314,0.16313805
3.16000000,0.16116008,0.81067821,-0.23159379,-0.48952667,0.77908317,0.37095595,-0.09877885,-0.28220912,-0.71827625,0.07260696,0.21216769,-0.84113277,-0.08298819,0.16455997
3.18000000,0.16401081,0.80986756,-0.23154533,-0.48918260,0.78075665,0.37167031,-0.09522324,-0.28598210,-0.71780351,0.07186873,0.21666833,-0.84103605,-0.08605527,0.16596904
3.20000000,0.16683487,0.80906449,-0.23149732,-0.48884176,0.78241448,0.37237798,-0.09170089,-0.28971979,-0.71733520,0.07113741,0.22112685,-0.84094024,-0.08909364,0.16736493
3.22000000,0.16963161,0.80826920,-0.23144978,-0.48850421,0.78405628,0.37307880,-0.08821262,-0.29342131,-0.71687142,0.07041317,0.22554224,-0.84084536,-0.09210263,0.16874731
3.24000000,0.17240039,0.80748185,-0.23140271,-0.48817004,0.78568165,0.37377261,-0.08475924,-0.29708582,-0.71641227,0.06969617,0.22991348,-0.84075143,-0.09508152,0.17011587
3.26000000,0.17514056,0.80670264,-0.23135613,-0.48783931,0.78729024,0.37445926,-0.08134151,-0.30071249,-0.71595787,0.06898657,0.23423957,-0.84065846,-0.09802965,0.17147029
3.28000000,0.17785153,0.80593174,-0.23131005,-0.48751212,0.78888167,0.37513859,-0.07796023,-0.30430049,-0.71550831,0.06828454,0.23851955,-0.84056649,-0.10094635,0.17281027
3.30000000,0.18053267,0.80516931,-0.23126447,-0.48718852,0.79045561,0.37581045,-0.07461614,-0.30784902,-0.71506369,0.06759023,0.24275244,-0.84047553,-0.10383096,0.17413552
3.32000000,0.18318340,0.80441554,-0.23121941,-0.48686860,0.79201168,0.37647468,-0.07130998,-0.31135730,-0.71462412,0.06690380,0.24693731,-0.84038560,-0.10668285,0.17544573
3.34000000,0.18580314,0.80367057,-0.23117487,-0.48655241,0.79354957,0.37713115,-0.06804249,-0.31482455,-0.71418969,0.06622539,0.25107326,-0.84029672,-0.10950140,0.17674062
3.36000000,0.18839131,0.80293459,-0.23113087,-0.48624004,0.79506892,0.37777971,-0.06481435,-0.31825004,-0.71376049,0.06555515,0.25515937,-0.84020891,-0.11228599,0.17801991
3.38000000,0.19094737,0.80220773,-0.23108742,-0.48593154,0.79656943,0.37842023,-0.06162627,-0.32163302,-0.71333662,0.06489324,0.25919479,-0.84012220,-0.11503603,0.17928333
3.40000000,0.19347078,0.80149016,-0.23104453,-0.48562698,0.79805076,0.37905256,-0.05847892,-0.32497279,-0.71291817,0.06423978,0.26317865,-0.84003659,-0.11775093,0.18053060
3.42000000,0.19596101,0.80078202,-0.23100219,-0.48532642,0.79951262,0.37967657,-0.05537295,-0.32826864,-0.71250521,0.06359491,0.26711014,-0.83995210,-0.12043014,0.18176148
3.44000000,0.19841755,0.80008347,-0.23096043,-0.48502993,0.80095470,0.38029215,-0.05230900,-0.33151991,-0.71209784,0.06295876,0.27098843,-0.83986876,-0.12307311,0.18297571
3.46000000,0.20083991,0.79939463,-0.23091926,-0.48473757,0.80237671,0.38089915,-0.04928769,-0.33472593,-0.71169614,0.06233147,0.27481276,-0.83978658,-0.12567930,0.18417304
3.48000000,0.20322760,0.79871566,-0.23087867,-0.48444939,0.80377838,0.38149747,-0.04630961,-0.33788608,-0.71130019,0.06171315,0.27858236,-0.83970557,-0.12824819,0.18535323
3.50000000,0.20558016,0.79804667,-0.23083867,-0.48416545,0.80515942,0.38208699,-0.04337534,-0.34099973,-0.71091007,0.06110393,0.28229650,-0.83962576,-0.13077929,0.18651607
3.52000000,0.20789715,0.79738780,-0.23079929,-0.48388581,0.80651958,0.38266760,-0.04048545,-0.34406629,-0.71052584,0.06050392,0.28595447,-0.83954715,-0.13327211,0.18766131
3.54000000,0.21017812,0.79673917,-0.23076051,-0.48361051,0.80785860,0.38323918,-0.03764048,-0.34708520,-0.71014759,0.05991324,0.28955560,-0.83946977,-0.13572619,0.18878876
3.56000000,0.21242268,0.79610089,-0.23072236,-0.48333961,0.80917623,0.38380163,-0.03484093,-0.35005589,-0.70977537,0.05933199,0.29309921,-0.83939362,-0.13814107,0.18989820
3.58000000,0.21463040,0.79547309,-0.23068482,-0.48307315,0.81047225,0.38435486,-0.03208732,-0.35297785,-0.70940927,0.05876028,0.29658469,-0.83931872,-0.14051634,0.19098945
3.60000000,0.21680092,0.79485587,-0.23064793,-0.48281118,0.81174643,0.38489876,-0.02938010,-0.35585057,-0.70904933,0.05819820,0.30001143,-0.83924508,-0.14285158,0.19206230
3.62000000,0.21893388,0.79424933,-0.23061167,-0.48255375,0.81299855,0.38543324,-0.02671975,-0.35867356,-0.70869562,0.05764585,0.30337886,-0.83917272,-0.14514641,0.19311658
3.64000000,0.22102891,0.79365358,-0.23057605,-0.48230089,0.81422842,0.38595823,-0.02410669,-0.36144637,-0.70834820,0.05710332,0.30668643,-0.83910164,-0.14740043,0.19415212
3.66000000,0.22308571,0.79306870,-0.23054109,-0.48205265,0.81543583,0.38647363,-0.02154133,-0.36416856,-0.70800712,0.05657069,0.30993362,-0.83903186,-0.14961331,0.19516876
3.68000000,0.22510395,0.79249478,-0.23050678,-0.48180906,0.81662062,0.38697938,-0.01902406,-0.36683973,-0.70767244,0.05604805,0.31311994,-0.83896339,-0.15178472,0.19616634
3.70000000,0.22708334,0.79193191,-0.23047313,-0.48157016,0.81778260,0.38747538,-0.01655523,-0.36945949,-0.70734419,0.05553547,0.31624494,-0.83889624,-0.15391433,0.19714472
3.72000000,0.22902363,0.79138016,-0.23044015,-0.48133598,0.81892162,0.38796159,-0.01413519,-0.37202748,-0.70702244,0.05503301,0.31930819,-0.83883041,-0.15600186,0.19810377
3.74000000,0.23092454,0.79083960,-0.23040783,-0.48110655,0.82003752,0.38843793,-0.01176425,-0.37454337,-0.70670721,0.05454075,0.32230928,-0.83876592,-0.15804703,0.19904336
3.76000000,0.23278586,0.79031031,-0.23037619,-0.48088190,0.82113019,0.38890435,-0.00944269,-0.37700685,-0.70639855,0.05405874,0.32524786,-0.83870277,-0.16004960,0.19996338
3.78000000,0.23460737,0.78979233,-0.23034523,-0.48066206,0.82219948,0.38936080,-0.00717080,-0.37941765,-0.70609649,0.05358704,0.32812359,-0.83864097,-0.16200935,0.20086372
3.80000000,0.23638887,0.78928573,-0.23031494,-0.48044704,0.82324529,0.38980722,-0.00494879,-0.38177549,-0.70580106,0.05312570,0.33093617,-0.83858053,-0.16392605,0.20174429
3.82000000,0.23813021,0.78879056,-0.23028534,-0.48023687,0.82426752,0.39024357,-0.00277689,-0.38408018,-0.70551229,0.05267477,0.33368533,-0.83852146,-0.16579953,0.20260500
3.84000000,0.23983122,0.78830685,-0.23025643,-0.48003157,0.82526608,0.39066982,-0.00065528,-0.38633149,-0.70523021,0.05223427,0.33637083,-0.83846375,-0.16762964,0.20344578
3.86000000,0.24149179,0.78783464,-0.23022820,-0.47983115,0.82624089,0.39108594,0.00141589,-0.38852927,-0.70495484,0.05180425,0.33899247,-0.83840741,-0.16941622,0.20426657
3.88000000,0.24311180,0.78737396,-0.23020066,-0.47963563,0.82719190,0.39149189,0.00343646,-0.39067338,-0.70468620,0.05138474,0.34155008,-0.83835245,-0.17115917,0.20506731
3.90000000,0.24469117,0.78692485,-0.23017381,-0.47944501,0.82811905,0.39188766,0.00540636,-0.39276370,-0.70442429,0.05097574,0.34404354,-0.83829887,-0.17285840,0.20584797
3.92000000,0.24622984,0.78648730,-0.23014765,-0.47925930,0.82902231,0.39227322,0.00732549,-0.39480016,-0.70416913,0.05057729,0.34647274,-0.83824667,-0.17451384,0.20660851
3.94000000,0.24772778,0.78606134,-0.23012219,-0.47907851,0.82990165,0.39264859,0.00919380,-0.39678269,-0.70392073,0.05018938,0.34883762,-0.83819585,-0.17612545,0.20734891
3.96000000,0.24918496,0.78564697,-0.23009742,-0.47890264,0.83075707,0.39301373,0.01101129,-0.39871129,-0.70367908,0.04981203,0.35113816,-0.83814641,-0.17769322,0.20806917
3.98000000,0.25060139,0.78524418,-0.23007334,-0.47873168,0.83158857,0.39336867,0.01277795,-0.40058596,-0.70344420,0.04944523,0.35337437,-0.83809835,-0.17921714,0.20876929
4.00000000,0.25197711,0.78485298,-0.23004995,-0.47856564,0.83239617,0.39371341,0.01449383,-0.40240674,-0.70321606,0.04908898,0.35554630,-0.83805168,-0.18069726,0.20944929
4.02000000,0.25331217,0.78447333,-0.23002726,-0.47840451,0.83317990,0.39404795,0.01615900,-0.40417371,-0.70299467,0.04874325,0.35765405,-0.83800639,-0.18213364,0.21010918
4.04000000,0.25460664,0.78410523,-0.23000525,-0.47824828,0.83393981,0.39437233,0.01777355,-0.40588697,-0.70278000,0.04840803,0.35969772,-0.83796247,-0.18352635,0.21074902
4.06000000,0.25586065,0.78374863,-0.22998393,-0.47809693,0.83467595,0.39468657,0.01933763,-0.40754666,-0.70257205,0.04808329,0.36167750,-0.83791993,-0.18487552,0.21136885
4.08000000,0.25707431,0.78340351,-0.22996330,-0.47795044,0.83538842,0.39499069,0.02085138,-0.40915296,-0.70237079,0.04776900,0.36359358,-0.83787875,-0.18618129,0.21196875
4.10000000,0.25824778,0.78306981,-0.22994335,-0.47780881,0.83607729,0.39528475,0.02231501,-0.41070607,-0.70217620,0.04746512,0.36544621,-0.83783894,-0.18744381,0.21254877
4.12000000,0.25938124,0.78274750,-0.22992409,-0.47767201,0.83674267,0.39556878,0.02372873,-0.41220622,-0.70198823,0.04717160,0.36723568,-0.83780049,-0.18866329,0.21310902
4.14000000,0.26047490,0.78243650,-0.22990549,-0.47754001,0.83738469,0.39584283,0.02509281,-0.41365369,-0.70180687,0.04688839,0.36896231,-0.83776338,-0.18983995,0.21364960
4.16000000,0.26152899,0.78213675,-0.22988757,-0.47741279,0.83800349,0.39610697,0.02640754,-0.41504880,-0.70163207,0.04661542,0.37062648,-0.83772762,-0.19097404,0.21417062
4.18000000,0.26254378,0.78184818,-0.22987032,-0.47729031,0.83859920,0.39636126,0.02767324,-0.41639188,-0.70146379,0.04635263,0.37222858,-0.83769319,-0.19206583,0.21467221
4.20000000,0.26351954,0.78157071,-0.22985374,-0.47717255,0.83917201,0.39660578,0.02889028,-0.41768331,-0.70130198,0.04609995,0.37376908,-0.83766009,-0.19311564,0.21515451
4.22000000,0.26445659,0.78130424,-0.22983781,-0.47705945,0.83972210,0.39684059,0.03005903,-0.41892352,-0.70114659,0.04585729,0.37524846,-0.83762830,-0.19412381,0.21561768
4.24000000,0.26535528,0.78104868,-0.22982253,-0.47695098,0.84024966,0.39706579,0.03117993,-0.42011295,-0.70099756,0.04562456,0.37666728,-0.83759781,-0.19509070,0.21606189
4.26000000,0.26621598,0.78080393,-0.22980790,-0.47684710,0.84075492,0.39728147,0.03225344,-0.42125209,-0.70085483,0.04540168,0.37802612,-0.83756861,-0.19601671,0.21648732
4.28000000,0.26703908,0.78056987,-0.22979391,-0.47674776,0.84123811,0.39748772,0.03328006,-0.42234147,-0.70071833,0.04518853,0.37932559,-0.83754068,-0.19690227,0.21689416
4.30000000,0.26782500,0.78034638,-0.22978055,-0.47665291,0.84169948,0.39768466,0.03426032,-0.42338165,-0.70058800,0.04498500,0.38056638,-0.83751402,-0.19774784,0.21728263
4.32000000,0.26857421,0.78013333,-0.22976781,-0.47656248,0.84213929,0.39787241,0.03519478,-0.42437325,-0.70046376,0.04479099,0.38174921,-0.83748860,-0.19855391,0.21765295
4.34000000,0.26928719,0.77993058,-0.22975569,-0.47647643,0.84255784,0.39805107,0.03608406,-0.42531689,-0.70034553,0.04460635,0.38287484,-0.83746441,-0.19932100,0.21800537
4.36000000,0.26996446,0.77973799,-0.22974418,-0.47639469,0.84295542,0.39822078,0.03692879,-0.42621326,-0.70023322,0.04443097,0.38394408,-0.83744144,-0.20004966,0.21834013
4.38000000,0.27060656,0.77955540,-0.22973326,-0.47631719,0.84333236,0.39838168,0.03772965,-0.42706308,-0.70012674,0.04426469,0.38495780,-0.83741965,-0.20074049,0.21865751
4.40000000,0.27121406,0.77938265,-0.22972293,-0.47624387,0.84368898,0.39853391,0.03848736,-0.42786712,-0.70002600,0.04410737,0.38591690,-0.83739904,-0.20139409,0.21895778
4.42000000,0.27178757,0.77921956,-0.22971318,-0.47617465,0.84402565,0.39867763,0.03920268,-0.42862617,-0.69993089,0.04395886,0.38682234,-0.83737959,-0.20201113,0.21924126
4.44000000,0.27232773,0.77906596,-0.22970400,-0.47610946,0.84434275,0.39881298,0.03987640,-0.42934107,-0.69984132,0.04381898,0.38767512,-0.83736126,-0.20259227,0.21950825
4.46000000,0.27283520,0.77892165,-0.22969538,-0.47604821,0.84464065,0.39894015,0.04050934,-0.43001272,-0.69975716,0.04368756,0.38847629,-0.83734404,-0.20313826,0.21975908
4.48000000,0.27331068,0.77878644,-0.22968729,-0.47599082,0.84491978,0.39905930,0.04110240,-0.43064202,-0.69967831,0.04356443,0.38922697,-0.83732791,-0.20364982,0.21999411
4.50000000,0.27375490,0.77866012,-0.22967974,-0.47593720,0.84518055,0.39917061,0.04165646,-0.43122996,-0.69960465,0.04344940,0.38992830,-0.83731284,-0.20412776,0.22021368
4.52000000,0.27416864,0.77854247,-0.22967271,-0.47588727,0.84542343,0.39927429,0.04217250,-0.43177755,-0.69953604,0.04334226,0.39058148,-0.83729881,-0.20457289,0.22041818
4.54000000,0.27455267,0.77843326,-0.22966618,-0.47584092,0.84564887,0.39937052,0.04265149,-0.43228582,-0.69947235,0.04324281,0.39118778,-0.83728578,-0.20498607,0.22060800
4.56000000,0.27490784,0.77833227,-0.22966014,-0.47579805,0.84585737,0.39945952,0.04309447,-0.43275589,-0.69941346,0.04315083,0.39174851,-0.83727373,-0.20536819,0.22078356
4.58000000,0.27523500,0.77823923,-0.22965458,-0.47575857,0.84604942,0.39954150,0.04350253,-0.43318889,-0.69935920,0.04306611,0.39226501,-0.83726263,-0.20572018,0.22094526
4.60000000,0.27553504,0.77815391,-0.22964948,-0.47572235,0.84622556,0.39961669,0.04387677,-0.43358601,-0.69930945,0.04298841,0.39273872,-0.83725245,-0.20604300,0.22109357
4.62000000,0.27580891,0.77807603,-0.22964482,-0.47568930,0.84638633,0.39968532,0.04421835,-0.43394847,-0.69926403,0.04291749,0.39317108,-0.83724316,-0.20633764,0.22122894
4.64000000,0.27605755,0.77800533,-0.22964060,-0.47565929,0.84653229,0.39974762,0.04452847,-0.43427755,-0.69922280,0.04285310,0.39356363,-0.83723472,-0.20660516,0.22135184
4.66000000,0.27628197,0.77794151,-0.22963678,-0.47563220,0.84666404,0.39980386,0.04480838,-0.43457458,-0.69918558,0.04279499,0.39391794,-0.83722711,-0.20684661,0.22146277
4.68000000,0.27648321,0.77788429,-0.22963336,-0.47560792,0.84678217,0.39985429,0.04505937,-0.43484091,-0.69915221,0.04274287,0.39423564,-0.83722028,-0.20706311,0.22156223
4.70000000,0.27666232,0.77783335,-0.22963032,-0.47558630,0.84688731,0.39989917,0.04528277,-0.43507797,-0.69912251,0.04269649,0.39451841,-0.83721420,-0.20725582,0.22165076
4.72000000,0.27682041,0.77778840,-0.22962763,-0.47556722,0.84698012,0.39993878,0.04547995,-0.43528720,-0.69909630,0.04265555,0.39476800,-0.83720884,-0.20742590,0.22172891
4.74000000,0.27695862,0.77774910,-0.22962528,-0.47555054,0.84706125,0.39997342,0.04565234,-0.43547013,-0.69907338,0.04261976,0.39498621,-0.83720415,-0.20757460,0.22179722
4.76000000,0.27707813,0.77771511,-0.22962325,-0.47553611,0.84713141,0.40000336,0.04580139,-0.43562830,-0.69905356,0.04258881,0.39517488,-0.83720010,-0.20770318,0.22185629
4.78000000,0.27718014,0.77768610,-0.22962151,-0.47552380,0.84719129,0.40002893,0.04592863,-0.43576331,-0.69903664,0.04256240,0.39533593,-0.83719664,-0.20781293,0.22190671
4.80000000,0.27726591,0.77766171,-0.22962006,-0.47551345,0.84724164,0.40005042,0.04603560,-0.43587682,-0.69902242,0.04254019,0.39547134,-0.83719373,-0.20790521,0.22194911
4.82000000,0.27733671,0.77764158,-0.22961885,-0.47550490,0.84728321,0.40006816,0.04612392,-0.43597054,-0.69901068,0.04252185,0.39558313,-0.83719132,-0.20798139,0.22198411
4.84000000,0.27739388,0.77762532,-0.22961788,-0.47549800,0.84731677,0.40008249,0.04619522,-0.43604620,-0.69900120,0.04250705,0.39567338,-0.83718938,-0.20804290,0.22201236
4.86000000,0.27743877,0.77761256,-0.22961712,-0.47549259,0.84734312,0.40009374,0.04625122,-0.43610562,-0.69899375,0.04249542,0.39574426,-0.83718786,-0.20809120,0.22203455
4.88000000,0.27747279,0.77760288,-0.22961654,-0.47548848,0.84736309,0.40010226,0.04629364,-0.43615064,-0.69898811,0.04248661,0.39579796,-0.83718671,-0.20812779,0.22205137
4.90000000,0.27749736,0.77759590,-0.22961612,-0.47548551,0.84737751,0.40010842,0.04632429,-0.43618316,-0.69898404,0.04248025,0.39583675,-0.83718587,-0.20815423,0.22206351
4.92000000,0.27751396,0.77759117,-0.22961584,-0.47548351,0.84738726,0.40011258,0.04634500,-0.43620513,-0.69898128,0.04247595,0.39586296,-0.83718531,-0.20817209,0.22207172
4.94000000,0.27752412,0.77758829,-0.22961567,-0.47548229,0.84739322,0.40011512,0.04635766,-0.43621857,-0.69897960,0.04247332,0.39587899,-0.83718497,-0.20818302,0.22207674
4.96000000,0.27752937,0.77758679,-0.22961558,-0.47548165,0.84739631,0.40011644,0.04636422,-0.43622553,-0.69897873,0.04247196,0.39588729,-0.83718479,-0.20818867,0.22207934
4.98000000,0.27753132,0.77758624,-0.22961554,-0.47548142,0.84739745,0.40011693,0.04636665,-0.43622811,-0.69897840,0.04247145,0.39589037,-0.83718472,-0.20819077,0.22208030
5.00000000,0.27753161,0.77758616,-0.22961554,-0.47548138,0.84739762,0.40011700,0.04636700,-0.43622848,-0.69897836,0.04247138,0.39589081,-0.83718471,-0.20819107,0.22208044
