gracetata/LocomotionHEC/legged_lab/Reference Data/ArmHack/StandPerturb/TestData/ArmOnly/trajectories/randomized/randomized_arm_trajectory_06_seed20260715_minjerk_50hz.csv
time_s,left_shoulder_pitch_joint,left_shoulder_roll_joint,left_shoulder_yaw_joint,left_elbow_joint,left_wrist_roll_joint,left_wrist_pitch_joint,left_wrist_yaw_joint,right_shoulder_pitch_joint,right_shoulder_roll_joint,right_shoulder_yaw_joint,right_elbow_joint,right_wrist_roll_joint,right_wrist_pitch_joint,right_wrist_yaw_joint
0.00000000,-0.16367175,0.90304919,-0.23711575,-0.52873176,0.58839470,0.28955773,-0.50392943,0.14771040,-0.77214312,0.15672542,-0.30066494,-0.85215312,0.26649489,0.00400113
0.02000000,-0.16367181,0.90304910,-0.23711555,-0.52873126,0.58839488,0.28955744,-0.50392921,0.14771049,-0.77214312,0.15672546,-0.30066505,-0.85215311,0.26649497,0.00400110
0.04000000,-0.16367223,0.90304845,-0.23711419,-0.52872784,0.58839610,0.28955548,-0.50392770,0.14771107,-0.77214315,0.15672579,-0.30066583,-0.85215310,0.26649557,0.00400088
0.06000000,-0.16367335,0.90304671,-0.23711052,-0.52871860,0.58839939,0.28955018,-0.50392361,0.14771263,-0.77214323,0.15672666,-0.30066791,-0.85215305,0.26649716,0.00400028
0.08000000,-0.16367552,0.90304335,-0.23710342,-0.52870076,0.58840574,0.28953994,-0.50391571,0.14771566,-0.77214337,0.15672834,-0.30067195,-0.85215295,0.26650025,0.00399911
0.10000000,-0.16367907,0.90303785,-0.23709181,-0.52867158,0.58841613,0.28952320,-0.50390280,0.14772061,-0.77214361,0.15673109,-0.30067855,-0.85215280,0.26650529,0.00399720
0.12000000,-0.16368433,0.90302972,-0.23707464,-0.52862841,0.58843150,0.28949843,-0.50388369,0.14772793,-0.77214395,0.15673516,-0.30068832,-0.85215257,0.26651275,0.00399438
0.14000000,-0.16369161,0.90301846,-0.23705086,-0.52856864,0.58845278,0.28946415,-0.50385724,0.14773806,-0.77214443,0.15674079,-0.30070184,-0.85215225,0.26652308,0.00399048
0.16000000,-0.16370121,0.90300360,-0.23701948,-0.52848976,0.58848087,0.28941889,-0.50382233,0.14775144,-0.77214507,0.15674822,-0.30071969,-0.85215183,0.26653672,0.00398532
0.18000000,-0.16371344,0.90298467,-0.23697952,-0.52838931,0.58851664,0.28936126,-0.50377787,0.14776847,-0.77214588,0.15675769,-0.30074241,-0.85215130,0.26655408,0.00397876
0.20000000,-0.16372858,0.90296123,-0.23693002,-0.52826490,0.58856094,0.28928988,-0.50372281,0.14778956,-0.77214688,0.15676942,-0.30077056,-0.85215063,0.26657559,0.00397063
0.22000000,-0.16374692,0.90293284,-0.23687007,-0.52811420,0.58861460,0.28920342,-0.50365611,0.14781512,-0.77214809,0.15678362,-0.30080465,-0.85214983,0.26660164,0.00396079
0.24000000,-0.16376874,0.90289907,-0.23679876,-0.52793495,0.58867842,0.28910059,-0.50357678,0.14784551,-0.77214954,0.15680052,-0.30084520,-0.85214888,0.26663263,0.00394908
0.26000000,-0.16379431,0.90285951,-0.23671522,-0.52772496,0.58875319,0.28898012,-0.50348384,0.14788112,-0.77215123,0.15682031,-0.30089271,-0.85214776,0.26666892,0.00393536
0.28000000,-0.16382387,0.90281375,-0.23661861,-0.52748211,0.58883966,0.28884079,-0.50337636,0.14792229,-0.77215318,0.15684319,-0.30094765,-0.85214647,0.26671090,0.00391949
0.30000000,-0.16385768,0.90276142,-0.23650810,-0.52720433,0.58893857,0.28868142,-0.50325342,0.14796940,-0.77215542,0.15686938,-0.30101050,-0.85214499,0.26675892,0.00390135
0.32000000,-0.16389599,0.90270212,-0.23638290,-0.52688962,0.58905063,0.28850087,-0.50311413,0.14802276,-0.77215795,0.15689904,-0.30108170,-0.85214332,0.26681333,0.00388079
0.34000000,-0.16393903,0.90263551,-0.23624223,-0.52653603,0.58917653,0.28829801,-0.50295764,0.14808271,-0.77216080,0.15693236,-0.30116169,-0.85214144,0.26687445,0.00385769
0.36000000,-0.16398703,0.90256121,-0.23608536,-0.52614170,0.58931694,0.28807177,-0.50278311,0.14814958,-0.77216398,0.15696953,-0.30125090,-0.85213934,0.26694261,0.00383192
0.38000000,-0.16404022,0.90247890,-0.23591155,-0.52570481,0.58947251,0.28782112,-0.50258975,0.14822366,-0.77216749,0.15701071,-0.30134974,-0.85213702,0.26701813,0.00380338
0.40000000,-0.16409879,0.90238824,-0.23572012,-0.52522360,0.58964385,0.28754505,-0.50237677,0.14830525,-0.77217137,0.15705606,-0.30145861,-0.85213446,0.26710132,0.00377194
0.42000000,-0.16416297,0.90228891,-0.23551038,-0.52469639,0.58983158,0.28724258,-0.50214344,0.14839465,-0.77217561,0.15710575,-0.30157789,-0.85213165,0.26719245,0.00373750
0.44000000,-0.16423294,0.90218061,-0.23528169,-0.52412154,0.59003626,0.28691278,-0.50188902,0.14849212,-0.77218024,0.15715993,-0.30170794,-0.85212860,0.26729182,0.00369994
0.46000000,-0.16430891,0.90206303,-0.23503342,-0.52349747,0.59025847,0.28655475,-0.50161282,0.14859794,-0.77218527,0.15721875,-0.30184912,-0.85212528,0.26739970,0.00365917
0.48000000,-0.16439105,0.90193590,-0.23476497,-0.52282268,0.59049875,0.28616761,-0.50131417,0.14871236,-0.77219070,0.15728234,-0.30200178,-0.85212169,0.26751635,0.00361509
0.50000000,-0.16447954,0.90179894,-0.23447576,-0.52209571,0.59075760,0.28575054,-0.50099242,0.14883562,-0.77219655,0.15735086,-0.30216625,-0.85211782,0.26764201,0.00356759
0.52000000,-0.16457456,0.90165188,-0.23416524,-0.52131516,0.59103553,0.28530273,-0.50064696,0.14896797,-0.77220284,0.15742443,-0.30234284,-0.85211367,0.26777694,0.00351660
0.54000000,-0.16467626,0.90149447,-0.23383287,-0.52047969,0.59133302,0.28482340,-0.50027719,0.14910964,-0.77220957,0.15750317,-0.30253185,-0.85210923,0.26792136,0.00346202
0.56000000,-0.16478480,0.90132648,-0.23347814,-0.51958802,0.59165052,0.28431184,-0.49988255,0.14926083,-0.77221674,0.15758721,-0.30273358,-0.85210448,0.26807550,0.00340376
0.58000000,-0.16490034,0.90114766,-0.23310056,-0.51863891,0.59198847,0.28376732,-0.49946249,0.14942176,-0.77222439,0.15767666,-0.30294831,-0.85209944,0.26823956,0.00334176
0.60000000,-0.16502300,0.90095780,-0.23269966,-0.51763119,0.59234728,0.28318918,-0.49901649,0.14959263,-0.77223250,0.15777164,-0.30317629,-0.85209408,0.26841376,0.00327592
0.62000000,-0.16515294,0.90075669,-0.23227501,-0.51656375,0.59272737,0.28257678,-0.49854406,0.14977363,-0.77224110,0.15787224,-0.30341778,-0.85208840,0.26859828,0.00320619
0.64000000,-0.16529028,0.90054413,-0.23182617,-0.51543553,0.59312910,0.28192950,-0.49804472,0.14996493,-0.77225018,0.15797858,-0.30367303,-0.85208240,0.26879331,0.00313248
0.66000000,-0.16543514,0.90031993,-0.23135275,-0.51424550,0.59355283,0.28124676,-0.49751803,0.15016672,-0.77225976,0.15809074,-0.30394226,-0.85207607,0.26899902,0.00305473
0.68000000,-0.16558764,0.90008390,-0.23085436,-0.51299272,0.59399891,0.28052802,-0.49696357,0.15037914,-0.77226985,0.15820881,-0.30422568,-0.85206940,0.26921558,0.00297289
0.70000000,-0.16574788,0.89983588,-0.23033064,-0.51167628,0.59446765,0.27977276,-0.49638093,0.15060236,-0.77228045,0.15833289,-0.30452351,-0.85206240,0.26944314,0.00288688
0.72000000,-0.16591599,0.89957570,-0.22978127,-0.51029533,0.59495937,0.27898049,-0.49576974,0.15083652,-0.77229157,0.15846304,-0.30483593,-0.85205506,0.26968186,0.00279666
0.74000000,-0.16609204,0.89930322,-0.22920591,-0.50884906,0.59547434,0.27815075,-0.49512965,0.15108175,-0.77230321,0.15859935,-0.30516312,-0.85204737,0.26993186,0.00270218
0.76000000,-0.16627613,0.89901829,-0.22860426,-0.50733674,0.59601283,0.27728311,-0.49446032,0.15133818,-0.77231539,0.15874189,-0.30550527,-0.85203932,0.27019328,0.00260337
0.78000000,-0.16646835,0.89872079,-0.22797606,-0.50575765,0.59657510,0.27637717,-0.49376143,0.15160593,-0.77232810,0.15889071,-0.30586251,-0.85203092,0.27046625,0.00250021
0.80000000,-0.16666877,0.89841058,-0.22732104,-0.50411115,0.59716137,0.27543255,-0.49303272,0.15188512,-0.77234136,0.15904589,-0.30623501,-0.85202217,0.27075087,0.00239264
0.82000000,-0.16687748,0.89808756,-0.22663897,-0.50239664,0.59777186,0.27444891,-0.49227390,0.15217583,-0.77235517,0.15920749,-0.30662290,-0.85201305,0.27104724,0.00228063
0.84000000,-0.16709453,0.89775162,-0.22592961,-0.50061356,0.59840676,0.27342593,-0.49148474,0.15247817,-0.77236952,0.15937554,-0.30702629,-0.85200356,0.27135547,0.00216414
0.86000000,-0.16731999,0.89740267,-0.22519278,-0.49876142,0.59906625,0.27236333,-0.49066501,0.15279223,-0.77238444,0.15955010,-0.30744532,-0.85199371,0.27167564,0.00204314
0.88000000,-0.16755391,0.89704062,-0.22442829,-0.49683975,0.59975050,0.27126084,-0.48981450,0.15311807,-0.77239991,0.15973122,-0.30788007,-0.85198349,0.27200782,0.00191759
0.90000000,-0.16779635,0.89666539,-0.22363598,-0.49484814,0.60045966,0.27011823,-0.48893305,0.15345577,-0.77241595,0.15991893,-0.30833064,-0.85197290,0.27235210,0.00178748
0.92000000,-0.16804734,0.89627692,-0.22281570,-0.49278623,0.60119384,0.26893529,-0.48802048,0.15380539,-0.77243255,0.16011326,-0.30879712,-0.85196193,0.27270852,0.00165277
0.94000000,-0.16830693,0.89587515,-0.22196733,-0.49065371,0.60195317,0.26771183,-0.48707666,0.15416698,-0.77244972,0.16031425,-0.30927957,-0.85195059,0.27307715,0.00151345
0.96000000,-0.16857514,0.89546002,-0.22109075,-0.48845030,0.60273774,0.26644770,-0.48610146,0.15454060,-0.77246746,0.16052192,-0.30977807,-0.85193887,0.27345804,0.00136950
0.98000000,-0.16885202,0.89503149,-0.22018589,-0.48617577,0.60354763,0.26514277,-0.48509478,0.15492627,-0.77248577,0.16073629,-0.31029265,-0.85192677,0.27385122,0.00122091
1.00000000,-0.16913757,0.89458953,-0.21925265,-0.48382994,0.60438291,0.26379694,-0.48405655,0.15532403,-0.77250466,0.16095739,-0.31082336,-0.85191429,0.27425673,0.00106765
1.02000000,-0.16943182,0.89413410,-0.21829100,-0.48141266,0.60524363,0.26241011,-0.48298670,0.15573391,-0.77252413,0.16118521,-0.31137023,-0.85190144,0.27467459,0.00090973
1.04000000,-0.16973478,0.89366520,-0.21730089,-0.47892385,0.60612982,0.26098224,-0.48188519,0.15615592,-0.77254417,0.16141978,-0.31193329,-0.85188820,0.27510481,0.00074713
1.06000000,-0.17004646,0.89318281,-0.21628229,-0.47636344,0.60704151,0.25951330,-0.48075199,0.15659007,-0.77256478,0.16166110,-0.31251255,-0.85187458,0.27554741,0.00057986
1.08000000,-0.17036685,0.89268693,-0.21523520,-0.47373142,0.60797870,0.25800328,-0.47958710,0.15703636,-0.77258597,0.16190917,-0.31310801,-0.85186058,0.27600238,0.00040790
1.10000000,-0.17069595,0.89217756,-0.21415964,-0.47102782,0.60894137,0.25645218,-0.47839053,0.15749478,-0.77260774,0.16216398,-0.31371966,-0.85184620,0.27646974,0.00023127
1.12000000,-0.17103376,0.89165472,-0.21305563,-0.46825270,0.60992950,0.25486006,-0.47716230,0.15796534,-0.77263009,0.16242553,-0.31434750,-0.85183144,0.27694945,0.00004997
1.14000000,-0.17138027,0.89111843,-0.21192321,-0.46540618,0.61094307,0.25322697,-0.47590247,0.15844800,-0.77265301,0.16269382,-0.31499148,-0.85181630,0.27744151,-0.00013599
1.16000000,-0.17173544,0.89056870,-0.21076244,-0.46248840,0.61198200,0.25155300,-0.47461111,0.15894274,-0.77267650,0.16296882,-0.31565159,-0.85180078,0.27794588,-0.00032662
1.18000000,-0.17209927,0.89000559,-0.20957340,-0.45949955,0.61304624,0.24983826,-0.47328829,0.15944954,-0.77270057,0.16325051,-0.31632778,-0.85178489,0.27846254,-0.00052188
1.20000000,-0.17247172,0.88942914,-0.20835617,-0.45643985,0.61413571,0.24808286,-0.47193411,0.15996834,-0.77272520,0.16353889,-0.31701999,-0.85176861,0.27899145,-0.00072177
1.22000000,-0.17285277,0.88883938,-0.20711086,-0.45330956,0.61525032,0.24628698,-0.47054869,0.16049912,-0.77275041,0.16383392,-0.31772818,-0.85175196,0.27953256,-0.00092628
1.24000000,-0.17324237,0.88823638,-0.20583759,-0.45010899,0.61638995,0.24445076,-0.46913216,0.16104182,-0.77277618,0.16413557,-0.31845226,-0.85173494,0.28008582,-0.00113538
1.26000000,-0.17364048,0.88762020,-0.20453650,-0.44683847,0.61755448,0.24257442,-0.46768468,0.16159637,-0.77280251,0.16444381,-0.31919217,-0.85171754,0.28065117,-0.00134904
1.28000000,-0.17404707,0.88699091,-0.20320772,-0.44349837,0.61874379,0.24065816,-0.46620640,0.16216272,-0.77282941,0.16475862,-0.31994782,-0.85169978,0.28122855,-0.00156726
1.30000000,-0.17446207,0.88634860,-0.20185142,-0.44008910,0.61995773,0.23870221,-0.46469751,0.16274081,-0.77285686,0.16507994,-0.32071913,-0.85168165,0.28181788,-0.00178999
1.32000000,-0.17488544,0.88569333,-0.20046779,-0.43661110,0.62119615,0.23670684,-0.46315820,0.16333054,-0.77288486,0.16540774,-0.32150598,-0.85166315,0.28241910,-0.00201721
1.34000000,-0.17531712,0.88502520,-0.19905700,-0.43306485,0.62245886,0.23467230,-0.46158868,0.16393185,-0.77291341,0.16574197,-0.32230827,-0.85164429,0.28303211,-0.00224889
1.36000000,-0.17575705,0.88434431,-0.19761926,-0.42945086,0.62374570,0.23259891,-0.45998918,0.16454464,-0.77294251,0.16608259,-0.32312588,-0.85162506,0.28365683,-0.00248500
1.38000000,-0.17620515,0.88365076,-0.19615479,-0.42576967,0.62505646,0.23048696,-0.45835994,0.16516883,-0.77297215,0.16642954,-0.32395870,-0.85160548,0.28429317,-0.00272549
1.40000000,-0.17666137,0.88294466,-0.19466381,-0.42202186,0.62639094,0.22833679,-0.45670121,0.16580432,-0.77300233,0.16678277,-0.32480659,-0.85158555,0.28494103,-0.00297034
1.42000000,-0.17712562,0.88222613,-0.19314657,-0.41820803,0.62774893,0.22614874,-0.45501327,0.16645100,-0.77303304,0.16714222,-0.32566942,-0.85156527,0.28560030,-0.00321950
1.44000000,-0.17759782,0.88149527,-0.19160333,-0.41432883,0.62913020,0.22392319,-0.45329640,0.16710876,-0.77306427,0.16750783,-0.32654703,-0.85154463,0.28627087,-0.00347293
1.46000000,-0.17807791,0.88075223,-0.19003434,-0.41038493,0.63053451,0.22166052,-0.45155088,0.16777750,-0.77309603,0.16787954,-0.32743929,-0.85152366,0.28695262,-0.00373059
1.48000000,-0.17856578,0.87999712,-0.18843990,-0.40637703,0.63196161,0.21936113,-0.44977705,0.16845708,-0.77312830,0.16825728,-0.32834602,-0.85150234,0.28764543,-0.00399243
1.50000000,-0.17906136,0.87923010,-0.18682028,-0.40230585,0.63341123,0.21702544,-0.44797520,0.16914740,-0.77316108,0.16864099,-0.32926707,-0.85148069,0.28834919,-0.00425841
1.52000000,-0.17956455,0.87845130,-0.18517579,-0.39817216,0.63488312,0.21465389,-0.44614569,0.16984831,-0.77319436,0.16903059,-0.33020226,-0.85145870,0.28906375,-0.00452847
1.54000000,-0.18007525,0.87766086,-0.18350675,-0.39397674,0.63637698,0.21224692,-0.44428886,0.17055970,-0.77322815,0.16942600,-0.33115141,-0.85143638,0.28978898,-0.00480256
1.56000000,-0.18059336,0.87685896,-0.18181347,-0.38972042,0.63789253,0.20980501,-0.44240508,0.17128141,-0.77326242,0.16982716,-0.33211435,-0.85141375,0.29052474,-0.00508063
1.58000000,-0.18111879,0.87604573,-0.18009630,-0.38540403,0.63942947,0.20732864,-0.44049471,0.17201330,-0.77329717,0.17023397,-0.33309087,-0.85139079,0.29127088,-0.00536262
1.60000000,-0.18165142,0.87522136,-0.17835558,-0.38102845,0.64098748,0.20481831,-0.43855814,0.17275523,-0.77333240,0.17064637,-0.33408079,-0.85136752,0.29202725,-0.00564848
1.62000000,-0.18219115,0.87438600,-0.17659167,-0.37659457,0.64256626,0.20227453,-0.43659577,0.17350705,-0.77336810,0.17106426,-0.33508389,-0.85134393,0.29279371,-0.00593815
1.64000000,-0.18273787,0.87353983,-0.17480493,-0.37210331,0.64416546,0.19969783,-0.43460801,0.17426859,-0.77340427,0.17148756,-0.33609998,-0.85132004,0.29357007,-0.00623157
1.66000000,-0.18329145,0.87268303,-0.17299575,-0.36755563,0.64578476,0.19708876,-0.43259527,0.17503971,-0.77344088,0.17191618,-0.33712883,-0.85129586,0.29435620,-0.00652868
1.68000000,-0.18385178,0.87181578,-0.17116450,-0.36295249,0.64742380,0.19444788,-0.43055799,0.17582022,-0.77347795,0.17235002,-0.33817023,-0.85127137,0.29515191,-0.00682941
1.70000000,-0.18441874,0.87093828,-0.16931159,-0.35829489,0.64908223,0.19177575,-0.42849661,0.17660997,-0.77351545,0.17278900,-0.33922394,-0.85124660,0.29595703,-0.00713369
1.72000000,-0.18499221,0.87005070,-0.16743742,-0.35358385,0.65075969,0.18907296,-0.42641157,0.17740878,-0.77355338,0.17323301,-0.34028975,-0.85122154,0.29677140,-0.00744147
1.74000000,-0.18557205,0.86915325,-0.16554240,-0.34882042,0.65245581,0.18634012,-0.42430335,0.17821648,-0.77359174,0.17368196,-0.34136741,-0.85119621,0.29759481,-0.00775267
1.76000000,-0.18615815,0.86824613,-0.16362696,-0.34400565,0.65417021,0.18357782,-0.42217240,0.17903288,-0.77363050,0.17413575,-0.34245669,-0.85117060,0.29842711,-0.00806722
1.78000000,-0.18675036,0.86732955,-0.16169153,-0.33914064,0.65590250,0.18078669,-0.42001922,0.17985780,-0.77366968,0.17459427,-0.34355733,-0.85114472,0.29926809,-0.00838506
1.80000000,-0.18734855,0.86640370,-0.15973656,-0.33422648,0.65765228,0.17796737,-0.41784429,0.18069105,-0.77370924,0.17505743,-0.34466909,-0.85111859,0.30011756,-0.00870611
1.82000000,-0.18795258,0.86546881,-0.15776248,-0.32926432,0.65941916,0.17512051,-0.41564811,0.18153245,-0.77374920,0.17552511,-0.34579171,-0.85109219,0.30097533,-0.00903029
1.84000000,-0.18856232,0.86452510,-0.15576976,-0.32425530,0.66120273,0.17224677,-0.41343119,0.18238179,-0.77378953,0.17599721,-0.34692494,-0.85106555,0.30184120,-0.00935754
1.86000000,-0.18917763,0.86357277,-0.15375887,-0.31920058,0.66300256,0.16934681,-0.41119405,0.18323887,-0.77383023,0.17647361,-0.34806850,-0.85103867,0.30271497,-0.00968777
1.88000000,-0.18979835,0.86261206,-0.15173026,-0.31410136,0.66481824,0.16642131,-0.40893720,0.18410351,-0.77387129,0.17695421,-0.34922213,-0.85101154,0.30359644,-0.01002090
1.90000000,-0.19042434,0.86164319,-0.14968443,-0.30895883,0.66664935,0.16347097,-0.40666120,0.18497548,-0.77391270,0.17743889,-0.35038555,-0.85098419,0.30448539,-0.01035687
1.92000000,-0.19105545,0.86066639,-0.14762186,-0.30377422,0.66849543,0.16049649,-0.40436657,0.18585459,-0.77395444,0.17792754,-0.35155850,-0.85095662,0.30538161,-0.01069559
1.94000000,-0.19169154,0.85968189,-0.14554305,-0.29854877,0.67035606,0.15749858,-0.40205386,0.18674063,-0.77399652,0.17842003,-0.35274069,-0.85092882,0.30628490,-0.01103697
1.96000000,-0.19233244,0.85868994,-0.14344848,-0.29328374,0.67223078,0.15447796,-0.39972363,0.18763338,-0.77403891,0.17891626,-0.35393183,-0.85090082,0.30719503,-0.01138094
1.98000000,-0.19297801,0.85769077,-0.14133867,-0.28798039,0.67411915,0.15143535,-0.39737645,0.18853262,-0.77408161,0.17941610,-0.35513164,-0.85087261,0.30811177,-0.01172742
2.00000000,-0.19362808,0.85668463,-0.13921414,-0.28264002,0.67602070,0.14837151,-0.39501288,0.18943814,-0.77412461,0.17991943,-0.35633982,-0.85084421,0.30903492,-0.01207631
2.02000000,-0.19428250,0.85567175,-0.13707539,-0.27726393,0.67793496,0.14528717,-0.39263351,0.19034972,-0.77416790,0.18042612,-0.35755609,-0.85081561,0.30996425,-0.01242753
2.04000000,-0.19494111,0.85465240,-0.13492296,-0.27185343,0.67986148,0.14218310,-0.39023890,0.19126714,-0.77421146,0.18093606,-0.35878014,-0.85078684,0.31089952,-0.01278101
2.06000000,-0.19560375,0.85362681,-0.13275736,-0.26640986,0.68179978,0.13906004,-0.38782966,0.19219016,-0.77425529,0.18144911,-0.36001167,-0.85075788,0.31184051,-0.01313664
2.08000000,-0.19627025,0.85259524,-0.13057915,-0.26093456,0.68374937,0.13591879,-0.38540637,0.19311856,-0.77429938,0.18196515,-0.36125039,-0.85072876,0.31278699,-0.01349435
2.10000000,-0.19694045,0.85155795,-0.12838885,-0.25542888,0.68570978,0.13276011,-0.38296964,0.19405211,-0.77434371,0.18248406,-0.36249597,-0.85069948,0.31373871,-0.01385404
2.12000000,-0.19761417,0.85051520,-0.12618701,-0.24989420,0.68768052,0.12958478,-0.38052007,0.19499058,-0.77438827,0.18300570,-0.36374812,-0.85067004,0.31469545,-0.01421563
2.14000000,-0.19829126,0.84946724,-0.12397418,-0.24433189,0.68966109,0.12639361,-0.37805828,0.19593374,-0.77443306,0.18352995,-0.36500651,-0.85064046,0.31565696,-0.01457902
2.16000000,-0.19897155,0.84841434,-0.12175091,-0.23874335,0.69165100,0.12318738,-0.37558487,0.19688134,-0.77447806,0.18405666,-0.36627084,-0.85061073,0.31662301,-0.01494413
2.18000000,-0.19965486,0.84735676,-0.11951777,-0.23312997,0.69364976,0.11996691,-0.37310047,0.19783315,-0.77452326,0.18458572,-0.36754079,-0.85058088,0.31759336,-0.01531085
2.20000000,-0.20034101,0.84629476,-0.11727530,-0.22749316,0.69565686,0.11673300,-0.37060570,0.19878894,-0.77456864,0.18511699,-0.36881604,-0.85055089,0.31856775,-0.01567911
2.22000000,-0.20102985,0.84522862,-0.11502408,-0.22183436,0.69767180,0.11348646,-0.36810120,0.19974846,-0.77461421,0.18565033,-0.37009627,-0.85052080,0.31954594,-0.01604881
2.24000000,-0.20172119,0.84415861,-0.11276468,-0.21615497,0.69969406,0.11022812,-0.36558759,0.20071146,-0.77465994,0.18618560,-0.37138115,-0.85049059,0.32052770,-0.01641985
2.26000000,-0.20241487,0.84308499,-0.11049766,-0.21045645,0.70172313,0.10695880,-0.36306551,0.20167772,-0.77470582,0.18672269,-0.37267037,-0.85046028,0.32151276,-0.01679214
2.28000000,-0.20311069,0.84200803,-0.10822360,-0.20474023,0.70375851,0.10367933,-0.36053559,0.20264697,-0.77475185,0.18726144,-0.37396358,-0.85042988,0.32250088,-0.01716559
2.30000000,-0.20380849,0.84092801,-0.10594307,-0.19900776,0.70579967,0.10039053,-0.35799849,0.20361898,-0.77479800,0.18780172,-0.37526048,-0.85039939,0.32349181,-0.01754009
2.32000000,-0.20450810,0.83984521,-0.10365667,-0.19326050,0.70784610,0.09709325,-0.35545484,0.20459349,-0.77484428,0.18834340,-0.37656071,-0.85036882,0.32448529,-0.01791557
2.34000000,-0.20520932,0.83875989,-0.10136496,-0.18749992,0.70989728,0.09378833,-0.35290529,0.20557026,-0.77489066,0.18888633,-0.37786397,-0.85033818,0.32548108,-0.01829191
2.36000000,-0.20591199,0.83767235,-0.09906854,-0.18172748,0.71195267,0.09047660,-0.35035049,0.20654905,-0.77493714,0.18943038,-0.37916990,-0.85030748,0.32647892,-0.01866903
2.38000000,-0.20661593,0.83658284,-0.09676798,-0.17594465,0.71401176,0.08715891,-0.34779110,0.20752960,-0.77498370,0.18997540,-0.38047819,-0.85027672,0.32747855,-0.01904683
2.40000000,-0.20732095,0.83549166,-0.09446388,-0.17015292,0.71607403,0.08383611,-0.34522776,0.20851165,-0.77503034,0.19052127,-0.38178849,-0.85024591,0.32847973,-0.01942521
2.42000000,-0.20802687,0.83439907,-0.09215682,-0.16435375,0.71813894,0.08050905,-0.34266114,0.20949497,-0.77507703,0.19106784,-0.38310047,-0.85021507,0.32948219,-0.01980408
2.44000000,-0.20873352,0.83330537,-0.08984740,-0.15854864,0.72020597,0.07717857,-0.34009188,0.21047929,-0.77512377,0.19161497,-0.38441380,-0.85018419,0.33048567,-0.02018333
2.46000000,-0.20944071,0.83221082,-0.08753620,-0.15273906,0.72227459,0.07384554,-0.33752065,0.21146438,-0.77517055,0.19216252,-0.38572814,-0.85015329,0.33148993,-0.02056288
2.48000000,-0.21014826,0.83111572,-0.08522381,-0.14692651,0.72434427,0.07051080,-0.33494810,0.21244996,-0.77521735,0.19271035,-0.38704315,-0.85012238,0.33249470,-0.02094262
2.50000000,-0.21085599,0.83002033,-0.08291084,-0.14111246,0.72641448,0.06717520,-0.33237489,0.21343580,-0.77526417,0.19325832,-0.38835849,-0.85009145,0.33349973,-0.02132246
2.52000000,-0.21156372,0.82892495,-0.08059786,-0.13529842,0.72848469,0.06383961,-0.32980168,0.21442164,-0.77531098,0.19380629,-0.38967384,-0.85006053,0.33450476,-0.02170230
2.54000000,-0.21227128,0.82782984,-0.07828548,-0.12948587,0.73055436,0.06050487,-0.32722913,0.21540723,-0.77535778,0.19435412,-0.39098885,-0.85002961,0.33550954,-0.02208204
2.56000000,-0.21297847,0.82673530,-0.07597428,-0.12367629,0.73262298,0.05717183,-0.32465790,0.21639231,-0.77540456,0.19490167,-0.39230319,-0.84999871,0.33651379,-0.02246158
2.58000000,-0.21368511,0.82564159,-0.07366486,-0.11787118,0.73469001,0.05384136,-0.32208864,0.21737663,-0.77545130,0.19544880,-0.39361652,-0.84996784,0.33751728,-0.02284084
2.60000000,-0.21439104,0.82454901,-0.07135780,-0.11207201,0.73675492,0.05051430,-0.31952202,0.21835995,-0.77549799,0.19599537,-0.39492850,-0.84993699,0.33851974,-0.02321970
2.62000000,-0.21509605,0.82345782,-0.06905370,-0.10628028,0.73881719,0.04719150,-0.31695868,0.21934201,-0.77554463,0.19654123,-0.39623880,-0.84990619,0.33952091,-0.02359808
2.64000000,-0.21579999,0.82236832,-0.06675314,-0.10049745,0.74087628,0.04387381,-0.31439929,0.22032255,-0.77559119,0.19708626,-0.39754709,-0.84987543,0.34052055,-0.02397588
2.66000000,-0.21650266,0.82128077,-0.06445672,-0.09472501,0.74293168,0.04056208,-0.31184449,0.22130134,-0.77563767,0.19763031,-0.39885302,-0.84984473,0.34151839,-0.02435300
2.68000000,-0.21720388,0.82019546,-0.06216501,-0.08896443,0.74498285,0.03725716,-0.30929494,0.22227811,-0.77568405,0.19817324,-0.40015627,-0.84981409,0.34251418,-0.02472935
2.70000000,-0.21790349,0.81911265,-0.05987860,-0.08321717,0.74702928,0.03395988,-0.30675129,0.22325263,-0.77573033,0.19871492,-0.40145651,-0.84978352,0.34350766,-0.02510482
2.72000000,-0.21860129,0.81803264,-0.05759808,-0.07748470,0.74907044,0.03067108,-0.30421419,0.22422464,-0.77577649,0.19925520,-0.40275340,-0.84975303,0.34449859,-0.02547933
2.74000000,-0.21929712,0.81695568,-0.05532402,-0.07176848,0.75110582,0.02739161,-0.30168427,0.22519389,-0.77582251,0.19979395,-0.40404662,-0.84972263,0.34548671,-0.02585278
2.76000000,-0.21999079,0.81588206,-0.05305700,-0.06606996,0.75313490,0.02412228,-0.29916219,0.22616014,-0.77586840,0.20033103,-0.40533583,-0.84969232,0.34647177,-0.02622507
2.78000000,-0.22068213,0.81481204,-0.05079760,-0.06039057,0.75515716,0.02086394,-0.29664858,0.22712315,-0.77591412,0.20086631,-0.40662072,-0.84966211,0.34745352,-0.02659611
2.80000000,-0.22137097,0.81374590,-0.04854638,-0.05473176,0.75717209,0.01761741,-0.29414407,0.22808266,-0.77595969,0.20139965,-0.40790094,-0.84963201,0.34843172,-0.02696580
2.82000000,-0.22205713,0.81268391,-0.04630391,-0.04909496,0.75917919,0.01438349,-0.29164931,0.22903845,-0.77600507,0.20193092,-0.40917619,-0.84960203,0.34940611,-0.02733406
2.84000000,-0.22274043,0.81162633,-0.04407077,-0.04348158,0.76117795,0.01116302,-0.28916491,0.22999026,-0.77605027,0.20245997,-0.41044614,-0.84957218,0.35037645,-0.02770079
2.86000000,-0.22342072,0.81057342,-0.04184750,-0.03789304,0.76316787,0.00795680,-0.28669150,0.23093787,-0.77609527,0.20298669,-0.41171048,-0.84954245,0.35134250,-0.02806590
2.88000000,-0.22409781,0.80952547,-0.03963467,-0.03233073,0.76514844,0.00476562,-0.28422971,0.23188102,-0.77614006,0.20351094,-0.41296887,-0.84951287,0.35230402,-0.02842929
2.90000000,-0.22477154,0.80848271,-0.03743283,-0.02679605,0.76711918,0.00159030,-0.28178014,0.23281949,-0.77618462,0.20403258,-0.41422102,-0.84948343,0.35326076,-0.02879087
2.92000000,-0.22544173,0.80744542,-0.03524253,-0.02129037,0.76907958,-0.00156838,-0.27934341,0.23375304,-0.77622895,0.20455148,-0.41546660,-0.84945415,0.35421248,-0.02915057
2.94000000,-0.22610823,0.80641386,-0.03306432,-0.01581507,0.77102918,-0.00470964,-0.27692012,0.23468145,-0.77627304,0.20506753,-0.41670531,-0.84942502,0.35515896,-0.02950827
2.96000000,-0.22677087,0.80538827,-0.03089872,-0.01037150,0.77296747,-0.00783269,-0.27451088,0.23560447,-0.77631687,0.20558058,-0.41793685,-0.84939607,0.35609995,-0.02986391
2.98000000,-0.22742948,0.80436891,-0.02874629,-0.00496100,0.77489399,-0.01093677,-0.27211627,0.23652188,-0.77636043,0.20609052,-0.41916090,-0.84936729,0.35703522,-0.03021738
3.00000000,-0.22808390,0.80335604,-0.02660754,0.00041509,0.77680826,-0.01402110,-0.26973689,0.23743346,-0.77640372,0.20659721,-0.42037717,-0.84933870,0.35796454,-0.03056861
3.02000000,-0.22873397,0.80234989,-0.02448301,0.00575546,0.77870981,-0.01708495,-0.26737333,0.23833898,-0.77644672,0.20710054,-0.42158535,-0.84931029,0.35888769,-0.03091750
3.04000000,-0.22937954,0.80135072,-0.02237320,0.01105881,0.78059817,-0.02012755,-0.26502614,0.23923823,-0.77648942,0.20760038,-0.42278516,-0.84928209,0.35980444,-0.03126397
3.06000000,-0.23002045,0.80035877,-0.02027863,0.01632384,0.78247289,-0.02314817,-0.26269592,0.24013097,-0.77653182,0.20809660,-0.42397630,-0.84925408,0.36071457,-0.03160794
3.08000000,-0.23065653,0.79937428,-0.01819982,0.02154929,0.78433352,-0.02614608,-0.26038321,0.24101701,-0.77657389,0.20858910,-0.42515849,-0.84922629,0.36161785,-0.03194933
3.10000000,-0.23128764,0.79839748,-0.01613725,0.02673390,0.78617961,-0.02912057,-0.25808858,0.24189612,-0.77661564,0.20907774,-0.42633143,-0.84919871,0.36251408,-0.03228804
3.12000000,-0.23191364,0.79742861,-0.01409142,0.03187643,0.78801071,-0.03207090,-0.25581257,0.24276810,-0.77665704,0.20956243,-0.42749486,-0.84917136,0.36340303,-0.03262401
3.14000000,-0.23253436,0.79646790,-0.01206281,0.03697565,0.78982639,-0.03499640,-0.25355573,0.24363273,-0.77669810,0.21004302,-0.42864849,-0.84914424,0.36428449,-0.03295715
3.16000000,-0.23314966,0.79551557,-0.01005192,0.04203037,0.79162623,-0.03789636,-0.25131859,0.24448982,-0.77673880,0.21051943,-0.42979205,-0.84911736,0.36515827,-0.03328738
3.18000000,-0.23375940,0.79457185,-0.00805920,0.04703939,0.79340979,-0.04077011,-0.24910167,0.24533916,-0.77677913,0.21099153,-0.43092528,-0.84909071,0.36602414,-0.03361462
3.20000000,-0.23436343,0.79363696,-0.00608512,0.05200156,0.79517667,-0.04361697,-0.24690549,0.24618055,-0.77681909,0.21145921,-0.43204790,-0.84906432,0.36688191,-0.03393881
3.22000000,-0.23496163,0.79271112,-0.00413015,0.05691571,0.79692646,-0.04643628,-0.24473056,0.24701380,-0.77685865,0.21192236,-0.43315966,-0.84903818,0.36773138,-0.03425985
3.24000000,-0.23555384,0.79179453,-0.00219472,0.06178072,0.79865875,-0.04922741,-0.24257738,0.24783872,-0.77689783,0.21238089,-0.43426030,-0.84901231,0.36857236,-0.03457769
3.26000000,-0.23613993,0.79088741,-0.00027928,0.06659549,0.80037314,-0.05198971,-0.24044643,0.24865512,-0.77693659,0.21283468,-0.43534957,-0.84898670,0.36940465,-0.03489225
3.28000000,-0.23671977,0.78998997,0.00161574,0.07135892,0.80206926,-0.05472256,-0.23833821,0.24946282,-0.77697495,0.21328363,-0.43642724,-0.84896136,0.37022807,-0.03520345
3.30000000,-0.23729324,0.78910239,0.00348991,0.07606996,0.80374672,-0.05742534,-0.23625317,0.25026163,-0.77701288,0.21372764,-0.43749304,-0.84893631,0.37104243,-0.03551122
3.32000000,-0.23786020,0.78822488,0.00534282,0.08072756,0.80540516,-0.06009747,-0.23419179,0.25105138,-0.77705038,0.21416662,-0.43854676,-0.84891153,0.37184756,-0.03581551
3.34000000,-0.23842053,0.78735763,0.00717407,0.08533070,0.80704420,-0.06273836,-0.23215451,0.25183190,-0.77708745,0.21460046,-0.43958816,-0.84888705,0.37264327,-0.03611624
3.36000000,-0.23897412,0.78650083,0.00898325,0.08987838,0.80866349,-0.06534743,-0.23014177,0.25260301,-0.77712406,0.21502908,-0.44061701,-0.84886286,0.37342939,-0.03641334
3.38000000,-0.23952083,0.78565467,0.01076999,0.09436964,0.81026270,-0.06792412,-0.22815401,0.25336456,-0.77716023,0.21545238,-0.44163310,-0.84883897,0.37420576,-0.03670676
3.40000000,-0.24006056,0.78481931,0.01253390,0.09880352,0.81184147,-0.07046790,-0.22619164,0.25411637,-0.77719593,0.21587027,-0.44263620,-0.84881539,0.37497221,-0.03699643
3.42000000,-0.24059319,0.78399493,0.01427462,0.10317910,0.81339949,-0.07297823,-0.22425507,0.25485830,-0.77723116,0.21628266,-0.44362612,-0.84879212,0.37572859,-0.03728229
3.44000000,-0.24111862,0.78318171,0.01599179,0.10749549,0.81493642,-0.07545460,-0.22234470,0.25559020,-0.77726591,0.21668948,-0.44460264,-0.84876916,0.37647473,-0.03756429
3.46000000,-0.24163673,0.78237980,0.01768507,0.11175181,0.81645198,-0.07789651,-0.22046091,0.25631191,-0.77730019,0.21709064,-0.44556557,-0.84874652,0.37721049,-0.03784236
3.48000000,-0.24214743,0.78158937,0.01935411,0.11594723,0.81794584,-0.08030348,-0.21860409,0.25702329,-0.77733397,0.21748605,-0.44651473,-0.84872421,0.37793572,-0.03811645
3.50000000,-0.24265062,0.78081057,0.02099860,0.12008092,0.81941772,-0.08267504,-0.21677458,0.25772420,-0.77736725,0.21787565,-0.44744992,-0.84870222,0.37865028,-0.03838651
3.52000000,-0.24314620,0.78004354,0.02261822,0.12415210,0.82086735,-0.08501073,-0.21497273,0.25841452,-0.77740003,0.21825936,-0.44837097,-0.84868057,0.37935403,-0.03865248
3.54000000,-0.24363407,0.77928844,0.02421266,0.12816000,0.82229445,-0.08731012,-0.21319889,0.25909411,-0.77743230,0.21863710,-0.44927770,-0.84865925,0.38004685,-0.03891432
3.56000000,-0.24411416,0.77854540,0.02578165,0.13210390,0.82369875,-0.08957279,-0.21145338,0.25976284,-0.77746406,0.21900881,-0.45016996,-0.84863827,0.38072860,-0.03917198
3.58000000,-0.24458637,0.77781454,0.02732489,0.13598310,0.82508002,-0.09179834,-0.20973651,0.26042061,-0.77749529,0.21937442,-0.45104757,-0.84861764,0.38139917,-0.03942541
3.60000000,-0.24505062,0.77709600,0.02884213,0.13979693,0.82643801,-0.09398638,-0.20804856,0.26106729,-0.77752600,0.21973387,-0.45191040,-0.84859736,0.38205844,-0.03967458
3.62000000,-0.24550683,0.77638990,0.03033311,0.14354474,0.82777250,-0.09613655,-0.20638984,0.26170277,-0.77755618,0.22008710,-0.45275829,-0.84857742,0.38270629,-0.03991942
3.64000000,-0.24595494,0.77569635,0.03179758,0.14722593,0.82908326,-0.09824850,-0.20476060,0.26232696,-0.77758582,0.22043405,-0.45359111,-0.84855784,0.38334263,-0.04015992
3.66000000,-0.24639486,0.77501546,0.03323532,0.15083992,0.83037009,-0.10032190,-0.20316110,0.26293975,-0.77761492,0.22077467,-0.45440872,-0.84853862,0.38396736,-0.04039603
3.68000000,-0.24682654,0.77434734,0.03464611,0.15438617,0.83163281,-0.10235643,-0.20159158,0.26354106,-0.77764347,0.22110890,-0.45521101,-0.84851976,0.38458037,-0.04062771
3.70000000,-0.24724991,0.77369207,0.03602974,0.15786417,0.83287122,-0.10435181,-0.20005227,0.26413080,-0.77767147,0.22143670,-0.45599786,-0.84850126,0.38518159,-0.04085493
3.72000000,-0.24766492,0.77304975,0.03738604,0.16127344,0.83408516,-0.10630775,-0.19854338,0.26470888,-0.77769893,0.22175802,-0.45676916,-0.84848313,0.38577092,-0.04107766
3.74000000,-0.24807150,0.77242046,0.03871482,0.16461354,0.83527447,-0.10822401,-0.19706510,0.26527523,-0.77772582,0.22207282,-0.45752482,-0.84846536,0.38634830,-0.04129587
3.76000000,-0.24846962,0.77180429,0.04001592,0.16788406,0.83643901,-0.11010036,-0.19561761,0.26582979,-0.77775215,0.22238107,-0.45826473,-0.84844797,0.38691365,-0.04150954
3.78000000,-0.24885922,0.77120129,0.04128919,0.17108463,0.83757864,-0.11193657,-0.19420109,0.26637248,-0.77777792,0.22268272,-0.45898881,-0.84843094,0.38746691,-0.04171864
3.80000000,-0.24924026,0.77061153,0.04253449,0.17421492,0.83869324,-0.11373246,-0.19281567,0.26690326,-0.77780313,0.22297775,-0.45969700,-0.84841430,0.38800802,-0.04192314
3.82000000,-0.24961271,0.77003507,0.04375172,0.17727462,0.83978271,-0.11548785,-0.19146149,0.26742207,-0.77782776,0.22326612,-0.46038921,-0.84839802,0.38853693,-0.04212303
3.84000000,-0.24997654,0.76947196,0.04494076,0.18026347,0.84084695,-0.11720260,-0.19013867,0.26792886,-0.77785183,0.22354782,-0.46106540,-0.84838212,0.38905359,-0.04231830
3.86000000,-0.25033172,0.76892224,0.04610153,0.18318125,0.84188589,-0.11887657,-0.18884730,0.26842361,-0.77787532,0.22382282,-0.46172551,-0.84836661,0.38955796,-0.04250892
3.88000000,-0.25067822,0.76838595,0.04723395,0.18602777,0.84289945,-0.12050966,-0.18758748,0.26890627,-0.77789824,0.22409110,-0.46236949,-0.84835147,0.39005002,-0.04269489
3.90000000,-0.25101603,0.76786310,0.04833796,0.18880289,0.84388759,-0.12210178,-0.18635925,0.26937682,-0.77792059,0.22435266,-0.46299732,-0.84833670,0.39052973,-0.04287619
3.92000000,-0.25134513,0.76735374,0.04941353,0.19150649,0.84485026,-0.12365287,-0.18516268,0.26983525,-0.77794236,0.22460747,-0.46360898,-0.84832232,0.39099708,-0.04305282
3.94000000,-0.25166552,0.76685785,0.05046061,0.19413851,0.84578744,-0.12516290,-0.18399778,0.27028154,-0.77796355,0.22485554,-0.46420444,-0.84830833,0.39145206,-0.04322477
3.96000000,-0.25197720,0.76637546,0.05147921,0.19669892,0.84669913,-0.12663184,-0.18286459,0.27071569,-0.77798417,0.22509685,-0.46478369,-0.84829471,0.39189466,-0.04339205
3.98000000,-0.25228016,0.76590656,0.05246932,0.19918773,0.84758532,-0.12805971,-0.18176307,0.27113769,-0.77800420,0.22533142,-0.46534675,-0.84828147,0.39232488,-0.04355464
4.00000000,-0.25257441,0.76545114,0.05343097,0.20160501,0.84844604,-0.12944653,-0.18069322,0.27154757,-0.77802367,0.22555925,-0.46589363,-0.84826861,0.39274274,-0.04371257
4.02000000,-0.25285996,0.76500918,0.05436421,0.20395084,0.84928132,-0.13079236,-0.17965499,0.27194533,-0.77804256,0.22578034,-0.46642434,-0.84825614,0.39314824,-0.04386582
4.04000000,-0.25313684,0.76458065,0.05526907,0.20622537,0.85009122,-0.13209729,-0.17864832,0.27233101,-0.77806087,0.22599472,-0.46693892,-0.84824404,0.39354143,-0.04401442
4.06000000,-0.25340506,0.76416552,0.05614565,0.20842878,0.85087579,-0.13336142,-0.17767312,0.27270462,-0.77807861,0.22620239,-0.46743741,-0.84823232,0.39392231,-0.04415837
4.08000000,-0.25366464,0.76376374,0.05699402,0.21056130,0.85163512,-0.13458488,-0.17672930,0.27306622,-0.77809578,0.22640338,-0.46791987,-0.84822098,0.39429095,-0.04429769
4.10000000,-0.25391564,0.76337527,0.05781430,0.21262321,0.85236930,-0.13576782,-0.17581673,0.27341584,-0.77811238,0.22659771,-0.46838635,-0.84821001,0.39464737,-0.04443240
4.12000000,-0.25415807,0.76300005,0.05860661,0.21461482,0.85307845,-0.13691043,-0.17493528,0.27375354,-0.77812842,0.22678542,-0.46883692,-0.84819942,0.39499165,-0.04456251
4.14000000,-0.25439199,0.76263800,0.05937110,0.21653649,0.85376270,-0.13801292,-0.17408477,0.27407938,-0.77814389,0.22696653,-0.46927167,-0.84818920,0.39532383,-0.04468806
4.16000000,-0.25461745,0.76228904,0.06010793,0.21838863,0.85442220,-0.13907553,-0.17326504,0.27439343,-0.77815881,0.22714110,-0.46969069,-0.84817934,0.39564400,-0.04480906
4.18000000,-0.25483450,0.76195311,0.06081729,0.22017171,0.85505710,-0.14009850,-0.17247588,0.27469577,-0.77817316,0.22730915,-0.47009409,-0.84816986,0.39595223,-0.04492555
4.20000000,-0.25504321,0.76163009,0.06149936,0.22188622,0.85566758,-0.14108214,-0.17171706,0.27498649,-0.77818697,0.22747074,-0.47048198,-0.84816074,0.39624860,-0.04503756
4.22000000,-0.25524363,0.76131988,0.06215438,0.22353272,0.85625385,-0.14202676,-0.17098834,0.27526567,-0.77820023,0.22762592,-0.47085447,-0.84815198,0.39653322,-0.04514513
4.24000000,-0.25543585,0.76102237,0.06278258,0.22511181,0.85681612,-0.14293270,-0.17028946,0.27553342,-0.77821294,0.22777475,-0.47121172,-0.84814359,0.39680618,-0.04524829
4.26000000,-0.25561995,0.76073745,0.06338423,0.22662414,0.85735461,-0.14380035,-0.16962013,0.27578986,-0.77822512,0.22791729,-0.47155386,-0.84813554,0.39706761,-0.04534709
4.28000000,-0.25579600,0.76046497,0.06395959,0.22807040,0.85786959,-0.14463009,-0.16898003,0.27603509,-0.77823676,0.22805360,-0.47188106,-0.84812785,0.39731761,-0.04544158
4.30000000,-0.25596410,0.76020479,0.06450896,0.22945135,0.85836130,-0.14542236,-0.16836885,0.27626924,-0.77824788,0.22818375,-0.47219348,-0.84812050,0.39755633,-0.04553180
4.32000000,-0.25612435,0.75995677,0.06503268,0.23076779,0.85883005,-0.14617762,-0.16778621,0.27649246,-0.77825848,0.22830783,-0.47249131,-0.84811350,0.39778389,-0.04561780
4.34000000,-0.25627684,0.75972074,0.06553107,0.23202057,0.85927613,-0.14689636,-0.16723175,0.27670489,-0.77826857,0.22842590,-0.47277473,-0.84810684,0.39800045,-0.04569965
4.36000000,-0.25642170,0.75949653,0.06600449,0.23321060,0.85969986,-0.14757909,-0.16670506,0.27690667,-0.77827815,0.22853806,-0.47304396,-0.84810051,0.39820616,-0.04577739
4.38000000,-0.25655904,0.75928397,0.06645333,0.23433882,0.86010159,-0.14822637,-0.16620572,0.27709797,-0.77828724,0.22864439,-0.47329921,-0.84809451,0.39840119,-0.04585110
4.40000000,-0.25668898,0.75908286,0.06687798,0.23540626,0.86048167,-0.14883877,-0.16573329,0.27727897,-0.77829583,0.22874500,-0.47354070,-0.84808883,0.39858571,-0.04592084
4.42000000,-0.25681165,0.75889301,0.06727888,0.23641398,0.86084049,-0.14941691,-0.16528729,0.27744984,-0.77830394,0.22883998,-0.47376868,-0.84808347,0.39875990,-0.04598667
4.44000000,-0.25692718,0.75871419,0.06765646,0.23736309,0.86117844,-0.14996143,-0.16486723,0.27761077,-0.77831159,0.22892943,-0.47398340,-0.84807842,0.39892397,-0.04604868
4.46000000,-0.25703572,0.75854619,0.06801119,0.23825476,0.86149594,-0.15047300,-0.16447259,0.27776197,-0.77831877,0.22901347,-0.47418513,-0.84807368,0.39907811,-0.04610693
4.48000000,-0.25713742,0.75838879,0.06834356,0.23909023,0.86179342,-0.15095232,-0.16410282,0.27790363,-0.77832549,0.22909221,-0.47437415,-0.84806924,0.39922253,-0.04616152
4.50000000,-0.25723244,0.75824173,0.06865408,0.23987078,0.86207136,-0.15140013,-0.16375736,0.27803598,-0.77833178,0.22916578,-0.47455074,-0.84806509,0.39935746,-0.04621251
4.52000000,-0.25732093,0.75810477,0.06894329,0.24059776,0.86233021,-0.15181720,-0.16343561,0.27815925,-0.77833763,0.22923429,-0.47471520,-0.84806122,0.39948312,-0.04626000
4.54000000,-0.25740307,0.75797763,0.06921174,0.24127254,0.86257048,-0.15220434,-0.16313696,0.27827367,-0.77834306,0.22929789,-0.47486787,-0.84805763,0.39959977,-0.04630409
4.56000000,-0.25747904,0.75786006,0.06946001,0.24189661,0.86279269,-0.15256237,-0.16286076,0.27837948,-0.77834809,0.22935671,-0.47500905,-0.84805431,0.39970765,-0.04634486
4.58000000,-0.25754901,0.75775175,0.06968870,0.24247146,0.86299738,-0.15289217,-0.16260634,0.27847696,-0.77835272,0.22941089,-0.47513910,-0.84805125,0.39980702,-0.04638242
4.60000000,-0.25761319,0.75765243,0.06989844,0.24299867,0.86318510,-0.15319464,-0.16237300,0.27856635,-0.77835696,0.22946058,-0.47525838,-0.84804845,0.39989815,-0.04641686
4.62000000,-0.25767177,0.75756176,0.07008987,0.24347988,0.86335645,-0.15347072,-0.16216003,0.27864795,-0.77836084,0.22950593,-0.47536724,-0.84804589,0.39998133,-0.04644830
4.64000000,-0.25772495,0.75747945,0.07026368,0.24391677,0.86351201,-0.15372137,-0.16196667,0.27872203,-0.77836436,0.22954711,-0.47546609,-0.84804357,0.40005686,-0.04647684
4.66000000,-0.25777295,0.75740516,0.07042056,0.24431110,0.86365242,-0.15394760,-0.16179214,0.27878889,-0.77836753,0.22958427,-0.47555530,-0.84804147,0.40012502,-0.04650260
4.68000000,-0.25781599,0.75733854,0.07056122,0.24466469,0.86377832,-0.15415046,-0.16163565,0.27884884,-0.77837038,0.22961760,-0.47563529,-0.84803959,0.40018614,-0.04652570
4.70000000,-0.25785430,0.75727925,0.07068642,0.24497940,0.86389038,-0.15433102,-0.16149636,0.27890221,-0.77837291,0.22964726,-0.47570649,-0.84803791,0.40024055,-0.04654626
4.72000000,-0.25788811,0.75722691,0.07079693,0.24525718,0.86398929,-0.15449038,-0.16137342,0.27894931,-0.77837515,0.22967344,-0.47576934,-0.84803644,0.40028856,-0.04656441
4.74000000,-0.25791768,0.75718116,0.07089354,0.24550004,0.86407576,-0.15462971,-0.16126594,0.27899049,-0.77837710,0.22969633,-0.47582428,-0.84803514,0.40033054,-0.04658028
4.76000000,-0.25794324,0.75714160,0.07097708,0.24571002,0.86415053,-0.15475018,-0.16117300,0.27902609,-0.77837879,0.22971612,-0.47587178,-0.84803403,0.40036684,-0.04659399
4.78000000,-0.25796506,0.75710783,0.07104839,0.24588927,0.86421436,-0.15485302,-0.16109367,0.27905649,-0.77838024,0.22973302,-0.47591234,-0.84803307,0.40039783,-0.04660570
4.80000000,-0.25798340,0.75707943,0.07110834,0.24603997,0.86426802,-0.15493948,-0.16102697,0.27908204,-0.77838145,0.22974722,-0.47594643,-0.84803227,0.40042388,-0.04661555
4.82000000,-0.25799855,0.75705599,0.07115784,0.24616438,0.86431232,-0.15501085,-0.16097191,0.27910314,-0.77838245,0.22975895,-0.47597458,-0.84803161,0.40044538,-0.04662368
4.84000000,-0.25801077,0.75703707,0.07119780,0.24626483,0.86434809,-0.15506849,-0.16092745,0.27912017,-0.77838326,0.22976841,-0.47599730,-0.84803108,0.40046275,-0.04663024
4.86000000,-0.25802038,0.75702221,0.07122918,0.24634371,0.86437617,-0.15511374,-0.16089254,0.27913354,-0.77838390,0.22977585,-0.47601515,-0.84803066,0.40047638,-0.04663539
4.88000000,-0.25802765,0.75701095,0.07125296,0.24640348,0.86439745,-0.15514803,-0.16086609,0.27914368,-0.77838438,0.22978148,-0.47602867,-0.84803034,0.40048671,-0.04663930
4.90000000,-0.25803291,0.75700281,0.07127013,0.24644665,0.86441283,-0.15517280,-0.16084698,0.27915100,-0.77838473,0.22978555,-0.47603844,-0.84803011,0.40049418,-0.04664212
4.92000000,-0.25803646,0.75699732,0.07128174,0.24647583,0.86442322,-0.15518954,-0.16083406,0.27915595,-0.77838496,0.22978830,-0.47604504,-0.84802995,0.40049922,-0.04664403
4.94000000,-0.25803863,0.75699396,0.07128884,0.24649367,0.86442957,-0.15519977,-0.16082617,0.27915897,-0.77838510,0.22978998,-0.47604907,-0.84802986,0.40050231,-0.04664519
4.96000000,-0.25803975,0.75699222,0.07129251,0.24650291,0.86443286,-0.15520507,-0.16082208,0.27916054,-0.77838518,0.22979085,-0.47605116,-0.84802981,0.40050390,-0.04664579
4.98000000,-0.25804017,0.75699157,0.07129388,0.24650633,0.86443408,-0.15520704,-0.16082056,0.27916112,-0.77838521,0.22979117,-0.47605194,-0.84802979,0.40050449,-0.04664602
5.00000000,-0.25804023,0.75699148,0.07129407,0.24650683,0.86443425,-0.15520732,-0.16082035,0.27916120,-0.77838521,0.22979122,-0.47605205,-0.84802979,0.40050458,-0.04664605
