gracetata/LocomotionHEC/legged_lab/Reference Data/ArmHack/StandPerturb/TestData/ArmOnly/poses/representative/representative_arm_pose_05_hold20s_50hz.csv
time_s,left_shoulder_pitch_joint,left_shoulder_roll_joint,left_shoulder_yaw_joint,left_elbow_joint,left_wrist_roll_joint,left_wrist_pitch_joint,left_wrist_yaw_joint,right_shoulder_pitch_joint,right_shoulder_roll_joint,right_shoulder_yaw_joint,right_elbow_joint,right_wrist_roll_joint,right_wrist_pitch_joint,right_wrist_yaw_joint
0.00000000,0.27680000,0.77786000,-0.22953400,-0.47560600,0.84738100,0.40015300,0.04636700,-0.66389000,-0.99008900,0.23406400,-0.51794600,-0.35250400,0.32002700,1.00312800
0.02000000,0.27680000,0.77786000,-0.22953400,-0.47560600,0.84738100,0.40015300,0.04636700,-0.66389000,-0.99008900,0.23406400,-0.51794600,-0.35250400,0.32002700,1.00312800
0.04000000,0.27680000,0.77786000,-0.22953400,-0.47560600,0.84738100,0.40015300,0.04636700,-0.66389000,-0.99008900,0.23406400,-0.51794600,-0.35250400,0.32002700,1.00312800
0.06000000,0.27680000,0.77786000,-0.22953400,-0.47560600,0.84738100,0.40015300,0.04636700,-0.66389000,-0.99008900,0.23406400,-0.51794600,-0.35250400,0.32002700,1.00312800
0.08000000,0.27680000,0.77786000,-0.22953400,-0.47560600,0.84738100,0.40015300,0.04636700,-0.66389000,-0.99008900,0.23406400,-0.51794600,-0.35250400,0.32002700,1.00312800
0.10000000,0.27680000,0.77786000,-0.22953400,-0.47560600,0.84738100,0.40015300,0.04636700,-0.66389000,-0.99008900,0.23406400,-0.51794600,-0.35250400,0.32002700,1.00312800
0.12000000,0.27680000,0.77786000,-0.22953400,-0.47560600,0.84738100,0.40015300,0.04636700,-0.66389000,-0.99008900,0.23406400,-0.51794600,-0.35250400,0.32002700,1.00312800
0.14000000,0.27680000,0.77786000,-0.22953400,-0.47560600,0.84738100,0.40015300,0.04636700,-0.66389000,-0.99008900,0.23406400,-0.51794600,-0.35250400,0.32002700,1.00312800
0.16000000,0.27680000,0.77786000,-0.22953400,-0.47560600,0.84738100,0.40015300,0.04636700,-0.66389000,-0.99008900,0.23406400,-0.51794600,-0.35250400,0.32002700,1.00312800
0.18000000,0.27680000,0.77786000,-0.22953400,-0.47560600,0.84738100,0.40015300,0.04636700,-0.66389000,-0.99008900,0.23406400,-0.51794600,-0.35250400,0.32002700,1.00312800
0.20000000,0.27680000,0.77786000,-0.22953400,-0.47560600,0.84738100,0.40015300,0.04636700,-0.66389000,-0.99008900,0.23406400,-0.51794600,-0.35250400,0.32002700,1.00312800
0.22000000,0.27680000,0.77786000,-0.22953400,-0.47560600,0.84738100,0.40015300,0.04636700,-0.66389000,-0.99008900,0.23406400,-0.51794600,-0.35250400,0.32002700,1.00312800
0.24000000,0.27680000,0.77786000,-0.22953400,-0.47560600,0.84738100,0.40015300,0.04636700,-0.66389000,-0.99008900,0.23406400,-0.51794600,-0.35250400,0.32002700,1.00312800
0.26000000,0.27680000,0.77786000,-0.22953400,-0.47560600,0.84738100,0.40015300,0.04636700,-0.66389000,-0.99008900,0.23406400,-0.51794600,-0.35250400,0.32002700,1.00312800
0.28000000,0.27680000,0.77786000,-0.22953400,-0.47560600,0.84738100,0.40015300,0.04636700,-0.66389000,-0.99008900,0.23406400,-0.51794600,-0.35250400,0.32002700,1.00312800
0.30000000,0.27680000,0.77786000,-0.22953400,-0.47560600,0.84738100,0.40015300,0.04636700,-0.66389000,-0.99008900,0.23406400,-0.51794600,-0.35250400,0.32002700,1.00312800
0.32000000,0.27680000,0.77786000,-0.22953400,-0.47560600,0.84738100,0.40015300,0.04636700,-0.66389000,-0.99008900,0.23406400,-0.51794600,-0.35250400,0.32002700,1.00312800
0.34000000,0.27680000,0.77786000,-0.22953400,-0.47560600,0.84738100,0.40015300,0.04636700,-0.66389000,-0.99008900,0.23406400,-0.51794600,-0.35250400,0.32002700,1.00312800
0.36000000,0.27680000,0.77786000,-0.22953400,-0.47560600,0.84738100,0.40015300,0.04636700,-0.66389000,-0.99008900,0.23406400,-0.51794600,-0.35250400,0.32002700,1.00312800
0.38000000,0.27680000,0.77786000,-0.22953400,-0.47560600,0.84738100,0.40015300,0.04636700,-0.66389000,-0.99008900,0.23406400,-0.51794600,-0.35250400,0.32002700,1.00312800
0.40000000,0.27680000,0.77786000,-0.22953400,-0.47560600,0.84738100,0.40015300,0.04636700,-0.66389000,-0.99008900,0.23406400,-0.51794600,-0.35250400,0.32002700,1.00312800
0.42000000,0.27680000,0.77786000,-0.22953400,-0.47560600,0.84738100,0.40015300,0.04636700,-0.66389000,-0.99008900,0.23406400,-0.51794600,-0.35250400,0.32002700,1.00312800
0.44000000,0.27680000,0.77786000,-0.22953400,-0.47560600,0.84738100,0.40015300,0.04636700,-0.66389000,-0.99008900,0.23406400,-0.51794600,-0.35250400,0.32002700,1.00312800
0.46000000,0.27680000,0.77786000,-0.22953400,-0.47560600,0.84738100,0.40015300,0.04636700,-0.66389000,-0.99008900,0.23406400,-0.51794600,-0.35250400,0.32002700,1.00312800
0.48000000,0.27680000,0.77786000,-0.22953400,-0.47560600,0.84738100,0.40015300,0.04636700,-0.66389000,-0.99008900,0.23406400,-0.51794600,-0.35250400,0.32002700,1.00312800
0.50000000,0.27680000,0.77786000,-0.22953400,-0.47560600,0.84738100,0.40015300,0.04636700,-0.66389000,-0.99008900,0.23406400,-0.51794600,-0.35250400,0.32002700,1.00312800
0.52000000,0.27680000,0.77786000,-0.22953400,-0.47560600,0.84738100,0.40015300,0.04636700,-0.66389000,-0.99008900,0.23406400,-0.51794600,-0.35250400,0.32002700,1.00312800
0.54000000,0.27680000,0.77786000,-0.22953400,-0.47560600,0.84738100,0.40015300,0.04636700,-0.66389000,-0.99008900,0.23406400,-0.51794600,-0.35250400,0.32002700,1.00312800
0.56000000,0.27680000,0.77786000,-0.22953400,-0.47560600,0.84738100,0.40015300,0.04636700,-0.66389000,-0.99008900,0.23406400,-0.51794600,-0.35250400,0.32002700,1.00312800
0.58000000,0.27680000,0.77786000,-0.22953400,-0.47560600,0.84738100,0.40015300,0.04636700,-0.66389000,-0.99008900,0.23406400,-0.51794600,-0.35250400,0.32002700,1.00312800
0.60000000,0.27680000,0.77786000,-0.22953400,-0.47560600,0.84738100,0.40015300,0.04636700,-0.66389000,-0.99008900,0.23406400,-0.51794600,-0.35250400,0.32002700,1.00312800
0.62000000,0.27680000,0.77786000,-0.22953400,-0.47560600,0.84738100,0.40015300,0.04636700,-0.66389000,-0.99008900,0.23406400,-0.51794600,-0.35250400,0.32002700,1.00312800
0.64000000,0.27680000,0.77786000,-0.22953400,-0.47560600,0.84738100,0.40015300,0.04636700,-0.66389000,-0.99008900,0.23406400,-0.51794600,-0.35250400,0.32002700,1.00312800
0.66000000,0.27680000,0.77786000,-0.22953400,-0.47560600,0.84738100,0.40015300,0.04636700,-0.66389000,-0.99008900,0.23406400,-0.51794600,-0.35250400,0.32002700,1.00312800
0.68000000,0.27680000,0.77786000,-0.22953400,-0.47560600,0.84738100,0.40015300,0.04636700,-0.66389000,-0.99008900,0.23406400,-0.51794600,-0.35250400,0.32002700,1.00312800
0.70000000,0.27680000,0.77786000,-0.22953400,-0.47560600,0.84738100,0.40015300,0.04636700,-0.66389000,-0.99008900,0.23406400,-0.51794600,-0.35250400,0.32002700,1.00312800
0.72000000,0.27680000,0.77786000,-0.22953400,-0.47560600,0.84738100,0.40015300,0.04636700,-0.66389000,-0.99008900,0.23406400,-0.51794600,-0.35250400,0.32002700,1.00312800
0.74000000,0.27680000,0.77786000,-0.22953400,-0.47560600,0.84738100,0.40015300,0.04636700,-0.66389000,-0.99008900,0.23406400,-0.51794600,-0.35250400,0.32002700,1.00312800
0.76000000,0.27680000,0.77786000,-0.22953400,-0.47560600,0.84738100,0.40015300,0.04636700,-0.66389000,-0.99008900,0.23406400,-0.51794600,-0.35250400,0.32002700,1.00312800
0.78000000,0.27680000,0.77786000,-0.22953400,-0.47560600,0.84738100,0.40015300,0.04636700,-0.66389000,-0.99008900,0.23406400,-0.51794600,-0.35250400,0.32002700,1.00312800
0.80000000,0.27680000,0.77786000,-0.22953400,-0.47560600,0.84738100,0.40015300,0.04636700,-0.66389000,-0.99008900,0.23406400,-0.51794600,-0.35250400,0.32002700,1.00312800
0.82000000,0.27680000,0.77786000,-0.22953400,-0.47560600,0.84738100,0.40015300,0.04636700,-0.66389000,-0.99008900,0.23406400,-0.51794600,-0.35250400,0.32002700,1.00312800
0.84000000,0.27680000,0.77786000,-0.22953400,-0.47560600,0.84738100,0.40015300,0.04636700,-0.66389000,-0.99008900,0.23406400,-0.51794600,-0.35250400,0.32002700,1.00312800
0.86000000,0.27680000,0.77786000,-0.22953400,-0.47560600,0.84738100,0.40015300,0.04636700,-0.66389000,-0.99008900,0.23406400,-0.51794600,-0.35250400,0.32002700,1.00312800
0.88000000,0.27680000,0.77786000,-0.22953400,-0.47560600,0.84738100,0.40015300,0.04636700,-0.66389000,-0.99008900,0.23406400,-0.51794600,-0.35250400,0.32002700,1.00312800
0.90000000,0.27680000,0.77786000,-0.22953400,-0.47560600,0.84738100,0.40015300,0.04636700,-0.66389000,-0.99008900,0.23406400,-0.51794600,-0.35250400,0.32002700,1.00312800
0.92000000,0.27680000,0.77786000,-0.22953400,-0.47560600,0.84738100,0.40015300,0.04636700,-0.66389000,-0.99008900,0.23406400,-0.51794600,-0.35250400,0.32002700,1.00312800
0.94000000,0.27680000,0.77786000,-0.22953400,-0.47560600,0.84738100,0.40015300,0.04636700,-0.66389000,-0.99008900,0.23406400,-0.51794600,-0.35250400,0.32002700,1.00312800
0.96000000,0.27680000,0.77786000,-0.22953400,-0.47560600,0.84738100,0.40015300,0.04636700,-0.66389000,-0.99008900,0.23406400,-0.51794600,-0.35250400,0.32002700,1.00312800
0.98000000,0.27680000,0.77786000,-0.22953400,-0.47560600,0.84738100,0.40015300,0.04636700,-0.66389000,-0.99008900,0.23406400,-0.51794600,-0.35250400,0.32002700,1.00312800
1.00000000,0.27680000,0.77786000,-0.22953400,-0.47560600,0.84738100,0.40015300,0.04636700,-0.66389000,-0.99008900,0.23406400,-0.51794600,-0.35250400,0.32002700,1.00312800
1.02000000,0.27680000,0.77786000,-0.22953400,-0.47560600,0.84738100,0.40015300,0.04636700,-0.66389000,-0.99008900,0.23406400,-0.51794600,-0.35250400,0.32002700,1.00312800
1.04000000,0.27680000,0.77786000,-0.22953400,-0.47560600,0.84738100,0.40015300,0.04636700,-0.66389000,-0.99008900,0.23406400,-0.51794600,-0.35250400,0.32002700,1.00312800
1.06000000,0.27680000,0.77786000,-0.22953400,-0.47560600,0.84738100,0.40015300,0.04636700,-0.66389000,-0.99008900,0.23406400,-0.51794600,-0.35250400,0.32002700,1.00312800
1.08000000,0.27680000,0.77786000,-0.22953400,-0.47560600,0.84738100,0.40015300,0.04636700,-0.66389000,-0.99008900,0.23406400,-0.51794600,-0.35250400,0.32002700,1.00312800
1.10000000,0.27680000,0.77786000,-0.22953400,-0.47560600,0.84738100,0.40015300,0.04636700,-0.66389000,-0.99008900,0.23406400,-0.51794600,-0.35250400,0.32002700,1.00312800
1.12000000,0.27680000,0.77786000,-0.22953400,-0.47560600,0.84738100,0.40015300,0.04636700,-0.66389000,-0.99008900,0.23406400,-0.51794600,-0.35250400,0.32002700,1.00312800
1.14000000,0.27680000,0.77786000,-0.22953400,-0.47560600,0.84738100,0.40015300,0.04636700,-0.66389000,-0.99008900,0.23406400,-0.51794600,-0.35250400,0.32002700,1.00312800
1.16000000,0.27680000,0.77786000,-0.22953400,-0.47560600,0.84738100,0.40015300,0.04636700,-0.66389000,-0.99008900,0.23406400,-0.51794600,-0.35250400,0.32002700,1.00312800
1.18000000,0.27680000,0.77786000,-0.22953400,-0.47560600,0.84738100,0.40015300,0.04636700,-0.66389000,-0.99008900,0.23406400,-0.51794600,-0.35250400,0.32002700,1.00312800
1.20000000,0.27680000,0.77786000,-0.22953400,-0.47560600,0.84738100,0.40015300,0.04636700,-0.66389000,-0.99008900,0.23406400,-0.51794600,-0.35250400,0.32002700,1.00312800
1.22000000,0.27680000,0.77786000,-0.22953400,-0.47560600,0.84738100,0.40015300,0.04636700,-0.66389000,-0.99008900,0.23406400,-0.51794600,-0.35250400,0.32002700,1.00312800
1.24000000,0.27680000,0.77786000,-0.22953400,-0.47560600,0.84738100,0.40015300,0.04636700,-0.66389000,-0.99008900,0.23406400,-0.51794600,-0.35250400,0.32002700,1.00312800
1.26000000,0.27680000,0.77786000,-0.22953400,-0.47560600,0.84738100,0.40015300,0.04636700,-0.66389000,-0.99008900,0.23406400,-0.51794600,-0.35250400,0.32002700,1.00312800
1.28000000,0.27680000,0.77786000,-0.22953400,-0.47560600,0.84738100,0.40015300,0.04636700,-0.66389000,-0.99008900,0.23406400,-0.51794600,-0.35250400,0.32002700,1.00312800
1.30000000,0.27680000,0.77786000,-0.22953400,-0.47560600,0.84738100,0.40015300,0.04636700,-0.66389000,-0.99008900,0.23406400,-0.51794600,-0.35250400,0.32002700,1.00312800
1.32000000,0.27680000,0.77786000,-0.22953400,-0.47560600,0.84738100,0.40015300,0.04636700,-0.66389000,-0.99008900,0.23406400,-0.51794600,-0.35250400,0.32002700,1.00312800
1.34000000,0.27680000,0.77786000,-0.22953400,-0.47560600,0.84738100,0.40015300,0.04636700,-0.66389000,-0.99008900,0.23406400,-0.51794600,-0.35250400,0.32002700,1.00312800
1.36000000,0.27680000,0.77786000,-0.22953400,-0.47560600,0.84738100,0.40015300,0.04636700,-0.66389000,-0.99008900,0.23406400,-0.51794600,-0.35250400,0.32002700,1.00312800
1.38000000,0.27680000,0.77786000,-0.22953400,-0.47560600,0.84738100,0.40015300,0.04636700,-0.66389000,-0.99008900,0.23406400,-0.51794600,-0.35250400,0.32002700,1.00312800
1.40000000,0.27680000,0.77786000,-0.22953400,-0.47560600,0.84738100,0.40015300,0.04636700,-0.66389000,-0.99008900,0.23406400,-0.51794600,-0.35250400,0.32002700,1.00312800
1.42000000,0.27680000,0.77786000,-0.22953400,-0.47560600,0.84738100,0.40015300,0.04636700,-0.66389000,-0.99008900,0.23406400,-0.51794600,-0.35250400,0.32002700,1.00312800
1.44000000,0.27680000,0.77786000,-0.22953400,-0.47560600,0.84738100,0.40015300,0.04636700,-0.66389000,-0.99008900,0.23406400,-0.51794600,-0.35250400,0.32002700,1.00312800
1.46000000,0.27680000,0.77786000,-0.22953400,-0.47560600,0.84738100,0.40015300,0.04636700,-0.66389000,-0.99008900,0.23406400,-0.51794600,-0.35250400,0.32002700,1.00312800
1.48000000,0.27680000,0.77786000,-0.22953400,-0.47560600,0.84738100,0.40015300,0.04636700,-0.66389000,-0.99008900,0.23406400,-0.51794600,-0.35250400,0.32002700,1.00312800
1.50000000,0.27680000,0.77786000,-0.22953400,-0.47560600,0.84738100,0.40015300,0.04636700,-0.66389000,-0.99008900,0.23406400,-0.51794600,-0.35250400,0.32002700,1.00312800
1.52000000,0.27680000,0.77786000,-0.22953400,-0.47560600,0.84738100,0.40015300,0.04636700,-0.66389000,-0.99008900,0.23406400,-0.51794600,-0.35250400,0.32002700,1.00312800
1.54000000,0.27680000,0.77786000,-0.22953400,-0.47560600,0.84738100,0.40015300,0.04636700,-0.66389000,-0.99008900,0.23406400,-0.51794600,-0.35250400,0.32002700,1.00312800
1.56000000,0.27680000,0.77786000,-0.22953400,-0.47560600,0.84738100,0.40015300,0.04636700,-0.66389000,-0.99008900,0.23406400,-0.51794600,-0.35250400,0.32002700,1.00312800
1.58000000,0.27680000,0.77786000,-0.22953400,-0.47560600,0.84738100,0.40015300,0.04636700,-0.66389000,-0.99008900,0.23406400,-0.51794600,-0.35250400,0.32002700,1.00312800
1.60000000,0.27680000,0.77786000,-0.22953400,-0.47560600,0.84738100,0.40015300,0.04636700,-0.66389000,-0.99008900,0.23406400,-0.51794600,-0.35250400,0.32002700,1.00312800
1.62000000,0.27680000,0.77786000,-0.22953400,-0.47560600,0.84738100,0.40015300,0.04636700,-0.66389000,-0.99008900,0.23406400,-0.51794600,-0.35250400,0.32002700,1.00312800
1.64000000,0.27680000,0.77786000,-0.22953400,-0.47560600,0.84738100,0.40015300,0.04636700,-0.66389000,-0.99008900,0.23406400,-0.51794600,-0.35250400,0.32002700,1.00312800
1.66000000,0.27680000,0.77786000,-0.22953400,-0.47560600,0.84738100,0.40015300,0.04636700,-0.66389000,-0.99008900,0.23406400,-0.51794600,-0.35250400,0.32002700,1.00312800
1.68000000,0.27680000,0.77786000,-0.22953400,-0.47560600,0.84738100,0.40015300,0.04636700,-0.66389000,-0.99008900,0.23406400,-0.51794600,-0.35250400,0.32002700,1.00312800
1.70000000,0.27680000,0.77786000,-0.22953400,-0.47560600,0.84738100,0.40015300,0.04636700,-0.66389000,-0.99008900,0.23406400,-0.51794600,-0.35250400,0.32002700,1.00312800
1.72000000,0.27680000,0.77786000,-0.22953400,-0.47560600,0.84738100,0.40015300,0.04636700,-0.66389000,-0.99008900,0.23406400,-0.51794600,-0.35250400,0.32002700,1.00312800
1.74000000,0.27680000,0.77786000,-0.22953400,-0.47560600,0.84738100,0.40015300,0.04636700,-0.66389000,-0.99008900,0.23406400,-0.51794600,-0.35250400,0.32002700,1.00312800
1.76000000,0.27680000,0.77786000,-0.22953400,-0.47560600,0.84738100,0.40015300,0.04636700,-0.66389000,-0.99008900,0.23406400,-0.51794600,-0.35250400,0.32002700,1.00312800
1.78000000,0.27680000,0.77786000,-0.22953400,-0.47560600,0.84738100,0.40015300,0.04636700,-0.66389000,-0.99008900,0.23406400,-0.51794600,-0.35250400,0.32002700,1.00312800
1.80000000,0.27680000,0.77786000,-0.22953400,-0.47560600,0.84738100,0.40015300,0.04636700,-0.66389000,-0.99008900,0.23406400,-0.51794600,-0.35250400,0.32002700,1.00312800
1.82000000,0.27680000,0.77786000,-0.22953400,-0.47560600,0.84738100,0.40015300,0.04636700,-0.66389000,-0.99008900,0.23406400,-0.51794600,-0.35250400,0.32002700,1.00312800
1.84000000,0.27680000,0.77786000,-0.22953400,-0.47560600,0.84738100,0.40015300,0.04636700,-0.66389000,-0.99008900,0.23406400,-0.51794600,-0.35250400,0.32002700,1.00312800
1.86000000,0.27680000,0.77786000,-0.22953400,-0.47560600,0.84738100,0.40015300,0.04636700,-0.66389000,-0.99008900,0.23406400,-0.51794600,-0.35250400,0.32002700,1.00312800
1.88000000,0.27680000,0.77786000,-0.22953400,-0.47560600,0.84738100,0.40015300,0.04636700,-0.66389000,-0.99008900,0.23406400,-0.51794600,-0.35250400,0.32002700,1.00312800
1.90000000,0.27680000,0.77786000,-0.22953400,-0.47560600,0.84738100,0.40015300,0.04636700,-0.66389000,-0.99008900,0.23406400,-0.51794600,-0.35250400,0.32002700,1.00312800
1.92000000,0.27680000,0.77786000,-0.22953400,-0.47560600,0.84738100,0.40015300,0.04636700,-0.66389000,-0.99008900,0.23406400,-0.51794600,-0.35250400,0.32002700,1.00312800
1.94000000,0.27680000,0.77786000,-0.22953400,-0.47560600,0.84738100,0.40015300,0.04636700,-0.66389000,-0.99008900,0.23406400,-0.51794600,-0.35250400,0.32002700,1.00312800
1.96000000,0.27680000,0.77786000,-0.22953400,-0.47560600,0.84738100,0.40015300,0.04636700,-0.66389000,-0.99008900,0.23406400,-0.51794600,-0.35250400,0.32002700,1.00312800
1.98000000,0.27680000,0.77786000,-0.22953400,-0.47560600,0.84738100,0.40015300,0.04636700,-0.66389000,-0.99008900,0.23406400,-0.51794600,-0.35250400,0.32002700,1.00312800
2.00000000,0.27680000,0.77786000,-0.22953400,-0.47560600,0.84738100,0.40015300,0.04636700,-0.66389000,-0.99008900,0.23406400,-0.51794600,-0.35250400,0.32002700,1.00312800
2.02000000,0.27680000,0.77786000,-0.22953400,-0.47560600,0.84738100,0.40015300,0.04636700,-0.66389000,-0.99008900,0.23406400,-0.51794600,-0.35250400,0.32002700,1.00312800
2.04000000,0.27680000,0.77786000,-0.22953400,-0.47560600,0.84738100,0.40015300,0.04636700,-0.66389000,-0.99008900,0.23406400,-0.51794600,-0.35250400,0.32002700,1.00312800
2.06000000,0.27680000,0.77786000,-0.22953400,-0.47560600,0.84738100,0.40015300,0.04636700,-0.66389000,-0.99008900,0.23406400,-0.51794600,-0.35250400,0.32002700,1.00312800
2.08000000,0.27680000,0.77786000,-0.22953400,-0.47560600,0.84738100,0.40015300,0.04636700,-0.66389000,-0.99008900,0.23406400,-0.51794600,-0.35250400,0.32002700,1.00312800
2.10000000,0.27680000,0.77786000,-0.22953400,-0.47560600,0.84738100,0.40015300,0.04636700,-0.66389000,-0.99008900,0.23406400,-0.51794600,-0.35250400,0.32002700,1.00312800
2.12000000,0.27680000,0.77786000,-0.22953400,-0.47560600,0.84738100,0.40015300,0.04636700,-0.66389000,-0.99008900,0.23406400,-0.51794600,-0.35250400,0.32002700,1.00312800
2.14000000,0.27680000,0.77786000,-0.22953400,-0.47560600,0.84738100,0.40015300,0.04636700,-0.66389000,-0.99008900,0.23406400,-0.51794600,-0.35250400,0.32002700,1.00312800
2.16000000,0.27680000,0.77786000,-0.22953400,-0.47560600,0.84738100,0.40015300,0.04636700,-0.66389000,-0.99008900,0.23406400,-0.51794600,-0.35250400,0.32002700,1.00312800
2.18000000,0.27680000,0.77786000,-0.22953400,-0.47560600,0.84738100,0.40015300,0.04636700,-0.66389000,-0.99008900,0.23406400,-0.51794600,-0.35250400,0.32002700,1.00312800
2.20000000,0.27680000,0.77786000,-0.22953400,-0.47560600,0.84738100,0.40015300,0.04636700,-0.66389000,-0.99008900,0.23406400,-0.51794600,-0.35250400,0.32002700,1.00312800
2.22000000,0.27680000,0.77786000,-0.22953400,-0.47560600,0.84738100,0.40015300,0.04636700,-0.66389000,-0.99008900,0.23406400,-0.51794600,-0.35250400,0.32002700,1.00312800
2.24000000,0.27680000,0.77786000,-0.22953400,-0.47560600,0.84738100,0.40015300,0.04636700,-0.66389000,-0.99008900,0.23406400,-0.51794600,-0.35250400,0.32002700,1.00312800
2.26000000,0.27680000,0.77786000,-0.22953400,-0.47560600,0.84738100,0.40015300,0.04636700,-0.66389000,-0.99008900,0.23406400,-0.51794600,-0.35250400,0.32002700,1.00312800
2.28000000,0.27680000,0.77786000,-0.22953400,-0.47560600,0.84738100,0.40015300,0.04636700,-0.66389000,-0.99008900,0.23406400,-0.51794600,-0.35250400,0.32002700,1.00312800
2.30000000,0.27680000,0.77786000,-0.22953400,-0.47560600,0.84738100,0.40015300,0.04636700,-0.66389000,-0.99008900,0.23406400,-0.51794600,-0.35250400,0.32002700,1.00312800
2.32000000,0.27680000,0.77786000,-0.22953400,-0.47560600,0.84738100,0.40015300,0.04636700,-0.66389000,-0.99008900,0.23406400,-0.51794600,-0.35250400,0.32002700,1.00312800
2.34000000,0.27680000,0.77786000,-0.22953400,-0.47560600,0.84738100,0.40015300,0.04636700,-0.66389000,-0.99008900,0.23406400,-0.51794600,-0.35250400,0.32002700,1.00312800
2.36000000,0.27680000,0.77786000,-0.22953400,-0.47560600,0.84738100,0.40015300,0.04636700,-0.66389000,-0.99008900,0.23406400,-0.51794600,-0.35250400,0.32002700,1.00312800
2.38000000,0.27680000,0.77786000,-0.22953400,-0.47560600,0.84738100,0.40015300,0.04636700,-0.66389000,-0.99008900,0.23406400,-0.51794600,-0.35250400,0.32002700,1.00312800
2.40000000,0.27680000,0.77786000,-0.22953400,-0.47560600,0.84738100,0.40015300,0.04636700,-0.66389000,-0.99008900,0.23406400,-0.51794600,-0.35250400,0.32002700,1.00312800
2.42000000,0.27680000,0.77786000,-0.22953400,-0.47560600,0.84738100,0.40015300,0.04636700,-0.66389000,-0.99008900,0.23406400,-0.51794600,-0.35250400,0.32002700,1.00312800
2.44000000,0.27680000,0.77786000,-0.22953400,-0.47560600,0.84738100,0.40015300,0.04636700,-0.66389000,-0.99008900,0.23406400,-0.51794600,-0.35250400,0.32002700,1.00312800
2.46000000,0.27680000,0.77786000,-0.22953400,-0.47560600,0.84738100,0.40015300,0.04636700,-0.66389000,-0.99008900,0.23406400,-0.51794600,-0.35250400,0.32002700,1.00312800
2.48000000,0.27680000,0.77786000,-0.22953400,-0.47560600,0.84738100,0.40015300,0.04636700,-0.66389000,-0.99008900,0.23406400,-0.51794600,-0.35250400,0.32002700,1.00312800
2.50000000,0.27680000,0.77786000,-0.22953400,-0.47560600,0.84738100,0.40015300,0.04636700,-0.66389000,-0.99008900,0.23406400,-0.51794600,-0.35250400,0.32002700,1.00312800
2.52000000,0.27680000,0.77786000,-0.22953400,-0.47560600,0.84738100,0.40015300,0.04636700,-0.66389000,-0.99008900,0.23406400,-0.51794600,-0.35250400,0.32002700,1.00312800
2.54000000,0.27680000,0.77786000,-0.22953400,-0.47560600,0.84738100,0.40015300,0.04636700,-0.66389000,-0.99008900,0.23406400,-0.51794600,-0.35250400,0.32002700,1.00312800
2.56000000,0.27680000,0.77786000,-0.22953400,-0.47560600,0.84738100,0.40015300,0.04636700,-0.66389000,-0.99008900,0.23406400,-0.51794600,-0.35250400,0.32002700,1.00312800
2.58000000,0.27680000,0.77786000,-0.22953400,-0.47560600,0.84738100,0.40015300,0.04636700,-0.66389000,-0.99008900,0.23406400,-0.51794600,-0.35250400,0.32002700,1.00312800
2.60000000,0.27680000,0.77786000,-0.22953400,-0.47560600,0.84738100,0.40015300,0.04636700,-0.66389000,-0.99008900,0.23406400,-0.51794600,-0.35250400,0.32002700,1.00312800
2.62000000,0.27680000,0.77786000,-0.22953400,-0.47560600,0.84738100,0.40015300,0.04636700,-0.66389000,-0.99008900,0.23406400,-0.51794600,-0.35250400,0.32002700,1.00312800
2.64000000,0.27680000,0.77786000,-0.22953400,-0.47560600,0.84738100,0.40015300,0.04636700,-0.66389000,-0.99008900,0.23406400,-0.51794600,-0.35250400,0.32002700,1.00312800
2.66000000,0.27680000,0.77786000,-0.22953400,-0.47560600,0.84738100,0.40015300,0.04636700,-0.66389000,-0.99008900,0.23406400,-0.51794600,-0.35250400,0.32002700,1.00312800
2.68000000,0.27680000,0.77786000,-0.22953400,-0.47560600,0.84738100,0.40015300,0.04636700,-0.66389000,-0.99008900,0.23406400,-0.51794600,-0.35250400,0.32002700,1.00312800
2.70000000,0.27680000,0.77786000,-0.22953400,-0.47560600,0.84738100,0.40015300,0.04636700,-0.66389000,-0.99008900,0.23406400,-0.51794600,-0.35250400,0.32002700,1.00312800
2.72000000,0.27680000,0.77786000,-0.22953400,-0.47560600,0.84738100,0.40015300,0.04636700,-0.66389000,-0.99008900,0.23406400,-0.51794600,-0.35250400,0.32002700,1.00312800
2.74000000,0.27680000,0.77786000,-0.22953400,-0.47560600,0.84738100,0.40015300,0.04636700,-0.66389000,-0.99008900,0.23406400,-0.51794600,-0.35250400,0.32002700,1.00312800
2.76000000,0.27680000,0.77786000,-0.22953400,-0.47560600,0.84738100,0.40015300,0.04636700,-0.66389000,-0.99008900,0.23406400,-0.51794600,-0.35250400,0.32002700,1.00312800
2.78000000,0.27680000,0.77786000,-0.22953400,-0.47560600,0.84738100,0.40015300,0.04636700,-0.66389000,-0.99008900,0.23406400,-0.51794600,-0.35250400,0.32002700,1.00312800
2.80000000,0.27680000,0.77786000,-0.22953400,-0.47560600,0.84738100,0.40015300,0.04636700,-0.66389000,-0.99008900,0.23406400,-0.51794600,-0.35250400,0.32002700,1.00312800
2.82000000,0.27680000,0.77786000,-0.22953400,-0.47560600,0.84738100,0.40015300,0.04636700,-0.66389000,-0.99008900,0.23406400,-0.51794600,-0.35250400,0.32002700,1.00312800
2.84000000,0.27680000,0.77786000,-0.22953400,-0.47560600,0.84738100,0.40015300,0.04636700,-0.66389000,-0.99008900,0.23406400,-0.51794600,-0.35250400,0.32002700,1.00312800
2.86000000,0.27680000,0.77786000,-0.22953400,-0.47560600,0.84738100,0.40015300,0.04636700,-0.66389000,-0.99008900,0.23406400,-0.51794600,-0.35250400,0.32002700,1.00312800
2.88000000,0.27680000,0.77786000,-0.22953400,-0.47560600,0.84738100,0.40015300,0.04636700,-0.66389000,-0.99008900,0.23406400,-0.51794600,-0.35250400,0.32002700,1.00312800
2.90000000,0.27680000,0.77786000,-0.22953400,-0.47560600,0.84738100,0.40015300,0.04636700,-0.66389000,-0.99008900,0.23406400,-0.51794600,-0.35250400,0.32002700,1.00312800
2.92000000,0.27680000,0.77786000,-0.22953400,-0.47560600,0.84738100,0.40015300,0.04636700,-0.66389000,-0.99008900,0.23406400,-0.51794600,-0.35250400,0.32002700,1.00312800
2.94000000,0.27680000,0.77786000,-0.22953400,-0.47560600,0.84738100,0.40015300,0.04636700,-0.66389000,-0.99008900,0.23406400,-0.51794600,-0.35250400,0.32002700,1.00312800
2.96000000,0.27680000,0.77786000,-0.22953400,-0.47560600,0.84738100,0.40015300,0.04636700,-0.66389000,-0.99008900,0.23406400,-0.51794600,-0.35250400,0.32002700,1.00312800
2.98000000,0.27680000,0.77786000,-0.22953400,-0.47560600,0.84738100,0.40015300,0.04636700,-0.66389000,-0.99008900,0.23406400,-0.51794600,-0.35250400,0.32002700,1.00312800
3.00000000,0.27680000,0.77786000,-0.22953400,-0.47560600,0.84738100,0.40015300,0.04636700,-0.66389000,-0.99008900,0.23406400,-0.51794600,-0.35250400,0.32002700,1.00312800
3.02000000,0.27680000,0.77786000,-0.22953400,-0.47560600,0.84738100,0.40015300,0.04636700,-0.66389000,-0.99008900,0.23406400,-0.51794600,-0.35250400,0.32002700,1.00312800
3.04000000,0.27680000,0.77786000,-0.22953400,-0.47560600,0.84738100,0.40015300,0.04636700,-0.66389000,-0.99008900,0.23406400,-0.51794600,-0.35250400,0.32002700,1.00312800
3.06000000,0.27680000,0.77786000,-0.22953400,-0.47560600,0.84738100,0.40015300,0.04636700,-0.66389000,-0.99008900,0.23406400,-0.51794600,-0.35250400,0.32002700,1.00312800
3.08000000,0.27680000,0.77786000,-0.22953400,-0.47560600,0.84738100,0.40015300,0.04636700,-0.66389000,-0.99008900,0.23406400,-0.51794600,-0.35250400,0.32002700,1.00312800
3.10000000,0.27680000,0.77786000,-0.22953400,-0.47560600,0.84738100,0.40015300,0.04636700,-0.66389000,-0.99008900,0.23406400,-0.51794600,-0.35250400,0.32002700,1.00312800
3.12000000,0.27680000,0.77786000,-0.22953400,-0.47560600,0.84738100,0.40015300,0.04636700,-0.66389000,-0.99008900,0.23406400,-0.51794600,-0.35250400,0.32002700,1.00312800
3.14000000,0.27680000,0.77786000,-0.22953400,-0.47560600,0.84738100,0.40015300,0.04636700,-0.66389000,-0.99008900,0.23406400,-0.51794600,-0.35250400,0.32002700,1.00312800
3.16000000,0.27680000,0.77786000,-0.22953400,-0.47560600,0.84738100,0.40015300,0.04636700,-0.66389000,-0.99008900,0.23406400,-0.51794600,-0.35250400,0.32002700,1.00312800
3.18000000,0.27680000,0.77786000,-0.22953400,-0.47560600,0.84738100,0.40015300,0.04636700,-0.66389000,-0.99008900,0.23406400,-0.51794600,-0.35250400,0.32002700,1.00312800
3.20000000,0.27680000,0.77786000,-0.22953400,-0.47560600,0.84738100,0.40015300,0.04636700,-0.66389000,-0.99008900,0.23406400,-0.51794600,-0.35250400,0.32002700,1.00312800
3.22000000,0.27680000,0.77786000,-0.22953400,-0.47560600,0.84738100,0.40015300,0.04636700,-0.66389000,-0.99008900,0.23406400,-0.51794600,-0.35250400,0.32002700,1.00312800
3.24000000,0.27680000,0.77786000,-0.22953400,-0.47560600,0.84738100,0.40015300,0.04636700,-0.66389000,-0.99008900,0.23406400,-0.51794600,-0.35250400,0.32002700,1.00312800
3.26000000,0.27680000,0.77786000,-0.22953400,-0.47560600,0.84738100,0.40015300,0.04636700,-0.66389000,-0.99008900,0.23406400,-0.51794600,-0.35250400,0.32002700,1.00312800
3.28000000,0.27680000,0.77786000,-0.22953400,-0.47560600,0.84738100,0.40015300,0.04636700,-0.66389000,-0.99008900,0.23406400,-0.51794600,-0.35250400,0.32002700,1.00312800
3.30000000,0.27680000,0.77786000,-0.22953400,-0.47560600,0.84738100,0.40015300,0.04636700,-0.66389000,-0.99008900,0.23406400,-0.51794600,-0.35250400,0.32002700,1.00312800
3.32000000,0.27680000,0.77786000,-0.22953400,-0.47560600,0.84738100,0.40015300,0.04636700,-0.66389000,-0.99008900,0.23406400,-0.51794600,-0.35250400,0.32002700,1.00312800
3.34000000,0.27680000,0.77786000,-0.22953400,-0.47560600,0.84738100,0.40015300,0.04636700,-0.66389000,-0.99008900,0.23406400,-0.51794600,-0.35250400,0.32002700,1.00312800
3.36000000,0.27680000,0.77786000,-0.22953400,-0.47560600,0.84738100,0.40015300,0.04636700,-0.66389000,-0.99008900,0.23406400,-0.51794600,-0.35250400,0.32002700,1.00312800
3.38000000,0.27680000,0.77786000,-0.22953400,-0.47560600,0.84738100,0.40015300,0.04636700,-0.66389000,-0.99008900,0.23406400,-0.51794600,-0.35250400,0.32002700,1.00312800
3.40000000,0.27680000,0.77786000,-0.22953400,-0.47560600,0.84738100,0.40015300,0.04636700,-0.66389000,-0.99008900,0.23406400,-0.51794600,-0.35250400,0.32002700,1.00312800
3.42000000,0.27680000,0.77786000,-0.22953400,-0.47560600,0.84738100,0.40015300,0.04636700,-0.66389000,-0.99008900,0.23406400,-0.51794600,-0.35250400,0.32002700,1.00312800
3.44000000,0.27680000,0.77786000,-0.22953400,-0.47560600,0.84738100,0.40015300,0.04636700,-0.66389000,-0.99008900,0.23406400,-0.51794600,-0.35250400,0.32002700,1.00312800
3.46000000,0.27680000,0.77786000,-0.22953400,-0.47560600,0.84738100,0.40015300,0.04636700,-0.66389000,-0.99008900,0.23406400,-0.51794600,-0.35250400,0.32002700,1.00312800
3.48000000,0.27680000,0.77786000,-0.22953400,-0.47560600,0.84738100,0.40015300,0.04636700,-0.66389000,-0.99008900,0.23406400,-0.51794600,-0.35250400,0.32002700,1.00312800
3.50000000,0.27680000,0.77786000,-0.22953400,-0.47560600,0.84738100,0.40015300,0.04636700,-0.66389000,-0.99008900,0.23406400,-0.51794600,-0.35250400,0.32002700,1.00312800
3.52000000,0.27680000,0.77786000,-0.22953400,-0.47560600,0.84738100,0.40015300,0.04636700,-0.66389000,-0.99008900,0.23406400,-0.51794600,-0.35250400,0.32002700,1.00312800
3.54000000,0.27680000,0.77786000,-0.22953400,-0.47560600,0.84738100,0.40015300,0.04636700,-0.66389000,-0.99008900,0.23406400,-0.51794600,-0.35250400,0.32002700,1.00312800
3.56000000,0.27680000,0.77786000,-0.22953400,-0.47560600,0.84738100,0.40015300,0.04636700,-0.66389000,-0.99008900,0.23406400,-0.51794600,-0.35250400,0.32002700,1.00312800
3.58000000,0.27680000,0.77786000,-0.22953400,-0.47560600,0.84738100,0.40015300,0.04636700,-0.66389000,-0.99008900,0.23406400,-0.51794600,-0.35250400,0.32002700,1.00312800
3.60000000,0.27680000,0.77786000,-0.22953400,-0.47560600,0.84738100,0.40015300,0.04636700,-0.66389000,-0.99008900,0.23406400,-0.51794600,-0.35250400,0.32002700,1.00312800
3.62000000,0.27680000,0.77786000,-0.22953400,-0.47560600,0.84738100,0.40015300,0.04636700,-0.66389000,-0.99008900,0.23406400,-0.51794600,-0.35250400,0.32002700,1.00312800
3.64000000,0.27680000,0.77786000,-0.22953400,-0.47560600,0.84738100,0.40015300,0.04636700,-0.66389000,-0.99008900,0.23406400,-0.51794600,-0.35250400,0.32002700,1.00312800
3.66000000,0.27680000,0.77786000,-0.22953400,-0.47560600,0.84738100,0.40015300,0.04636700,-0.66389000,-0.99008900,0.23406400,-0.51794600,-0.35250400,0.32002700,1.00312800
3.68000000,0.27680000,0.77786000,-0.22953400,-0.47560600,0.84738100,0.40015300,0.04636700,-0.66389000,-0.99008900,0.23406400,-0.51794600,-0.35250400,0.32002700,1.00312800
3.70000000,0.27680000,0.77786000,-0.22953400,-0.47560600,0.84738100,0.40015300,0.04636700,-0.66389000,-0.99008900,0.23406400,-0.51794600,-0.35250400,0.32002700,1.00312800
3.72000000,0.27680000,0.77786000,-0.22953400,-0.47560600,0.84738100,0.40015300,0.04636700,-0.66389000,-0.99008900,0.23406400,-0.51794600,-0.35250400,0.32002700,1.00312800
3.74000000,0.27680000,0.77786000,-0.22953400,-0.47560600,0.84738100,0.40015300,0.04636700,-0.66389000,-0.99008900,0.23406400,-0.51794600,-0.35250400,0.32002700,1.00312800
3.76000000,0.27680000,0.77786000,-0.22953400,-0.47560600,0.84738100,0.40015300,0.04636700,-0.66389000,-0.99008900,0.23406400,-0.51794600,-0.35250400,0.32002700,1.00312800
3.78000000,0.27680000,0.77786000,-0.22953400,-0.47560600,0.84738100,0.40015300,0.04636700,-0.66389000,-0.99008900,0.23406400,-0.51794600,-0.35250400,0.32002700,1.00312800
3.80000000,0.27680000,0.77786000,-0.22953400,-0.47560600,0.84738100,0.40015300,0.04636700,-0.66389000,-0.99008900,0.23406400,-0.51794600,-0.35250400,0.32002700,1.00312800
3.82000000,0.27680000,0.77786000,-0.22953400,-0.47560600,0.84738100,0.40015300,0.04636700,-0.66389000,-0.99008900,0.23406400,-0.51794600,-0.35250400,0.32002700,1.00312800
3.84000000,0.27680000,0.77786000,-0.22953400,-0.47560600,0.84738100,0.40015300,0.04636700,-0.66389000,-0.99008900,0.23406400,-0.51794600,-0.35250400,0.32002700,1.00312800
3.86000000,0.27680000,0.77786000,-0.22953400,-0.47560600,0.84738100,0.40015300,0.04636700,-0.66389000,-0.99008900,0.23406400,-0.51794600,-0.35250400,0.32002700,1.00312800
3.88000000,0.27680000,0.77786000,-0.22953400,-0.47560600,0.84738100,0.40015300,0.04636700,-0.66389000,-0.99008900,0.23406400,-0.51794600,-0.35250400,0.32002700,1.00312800
3.90000000,0.27680000,0.77786000,-0.22953400,-0.47560600,0.84738100,0.40015300,0.04636700,-0.66389000,-0.99008900,0.23406400,-0.51794600,-0.35250400,0.32002700,1.00312800
3.92000000,0.27680000,0.77786000,-0.22953400,-0.47560600,0.84738100,0.40015300,0.04636700,-0.66389000,-0.99008900,0.23406400,-0.51794600,-0.35250400,0.32002700,1.00312800
3.94000000,0.27680000,0.77786000,-0.22953400,-0.47560600,0.84738100,0.40015300,0.04636700,-0.66389000,-0.99008900,0.23406400,-0.51794600,-0.35250400,0.32002700,1.00312800
3.96000000,0.27680000,0.77786000,-0.22953400,-0.47560600,0.84738100,0.40015300,0.04636700,-0.66389000,-0.99008900,0.23406400,-0.51794600,-0.35250400,0.32002700,1.00312800
3.98000000,0.27680000,0.77786000,-0.22953400,-0.47560600,0.84738100,0.40015300,0.04636700,-0.66389000,-0.99008900,0.23406400,-0.51794600,-0.35250400,0.32002700,1.00312800
4.00000000,0.27680000,0.77786000,-0.22953400,-0.47560600,0.84738100,0.40015300,0.04636700,-0.66389000,-0.99008900,0.23406400,-0.51794600,-0.35250400,0.32002700,1.00312800
4.02000000,0.27680000,0.77786000,-0.22953400,-0.47560600,0.84738100,0.40015300,0.04636700,-0.66389000,-0.99008900,0.23406400,-0.51794600,-0.35250400,0.32002700,1.00312800
4.04000000,0.27680000,0.77786000,-0.22953400,-0.47560600,0.84738100,0.40015300,0.04636700,-0.66389000,-0.99008900,0.23406400,-0.51794600,-0.35250400,0.32002700,1.00312800
4.06000000,0.27680000,0.77786000,-0.22953400,-0.47560600,0.84738100,0.40015300,0.04636700,-0.66389000,-0.99008900,0.23406400,-0.51794600,-0.35250400,0.32002700,1.00312800
4.08000000,0.27680000,0.77786000,-0.22953400,-0.47560600,0.84738100,0.40015300,0.04636700,-0.66389000,-0.99008900,0.23406400,-0.51794600,-0.35250400,0.32002700,1.00312800
4.10000000,0.27680000,0.77786000,-0.22953400,-0.47560600,0.84738100,0.40015300,0.04636700,-0.66389000,-0.99008900,0.23406400,-0.51794600,-0.35250400,0.32002700,1.00312800
4.12000000,0.27680000,0.77786000,-0.22953400,-0.47560600,0.84738100,0.40015300,0.04636700,-0.66389000,-0.99008900,0.23406400,-0.51794600,-0.35250400,0.32002700,1.00312800
4.14000000,0.27680000,0.77786000,-0.22953400,-0.47560600,0.84738100,0.40015300,0.04636700,-0.66389000,-0.99008900,0.23406400,-0.51794600,-0.35250400,0.32002700,1.00312800
4.16000000,0.27680000,0.77786000,-0.22953400,-0.47560600,0.84738100,0.40015300,0.04636700,-0.66389000,-0.99008900,0.23406400,-0.51794600,-0.35250400,0.32002700,1.00312800
4.18000000,0.27680000,0.77786000,-0.22953400,-0.47560600,0.84738100,0.40015300,0.04636700,-0.66389000,-0.99008900,0.23406400,-0.51794600,-0.35250400,0.32002700,1.00312800
4.20000000,0.27680000,0.77786000,-0.22953400,-0.47560600,0.84738100,0.40015300,0.04636700,-0.66389000,-0.99008900,0.23406400,-0.51794600,-0.35250400,0.32002700,1.00312800
4.22000000,0.27680000,0.77786000,-0.22953400,-0.47560600,0.84738100,0.40015300,0.04636700,-0.66389000,-0.99008900,0.23406400,-0.51794600,-0.35250400,0.32002700,1.00312800
4.24000000,0.27680000,0.77786000,-0.22953400,-0.47560600,0.84738100,0.40015300,0.04636700,-0.66389000,-0.99008900,0.23406400,-0.51794600,-0.35250400,0.32002700,1.00312800
4.26000000,0.27680000,0.77786000,-0.22953400,-0.47560600,0.84738100,0.40015300,0.04636700,-0.66389000,-0.99008900,0.23406400,-0.51794600,-0.35250400,0.32002700,1.00312800
4.28000000,0.27680000,0.77786000,-0.22953400,-0.47560600,0.84738100,0.40015300,0.04636700,-0.66389000,-0.99008900,0.23406400,-0.51794600,-0.35250400,0.32002700,1.00312800
4.30000000,0.27680000,0.77786000,-0.22953400,-0.47560600,0.84738100,0.40015300,0.04636700,-0.66389000,-0.99008900,0.23406400,-0.51794600,-0.35250400,0.32002700,1.00312800
4.32000000,0.27680000,0.77786000,-0.22953400,-0.47560600,0.84738100,0.40015300,0.04636700,-0.66389000,-0.99008900,0.23406400,-0.51794600,-0.35250400,0.32002700,1.00312800
4.34000000,0.27680000,0.77786000,-0.22953400,-0.47560600,0.84738100,0.40015300,0.04636700,-0.66389000,-0.99008900,0.23406400,-0.51794600,-0.35250400,0.32002700,1.00312800
4.36000000,0.27680000,0.77786000,-0.22953400,-0.47560600,0.84738100,0.40015300,0.04636700,-0.66389000,-0.99008900,0.23406400,-0.51794600,-0.35250400,0.32002700,1.00312800
4.38000000,0.27680000,0.77786000,-0.22953400,-0.47560600,0.84738100,0.40015300,0.04636700,-0.66389000,-0.99008900,0.23406400,-0.51794600,-0.35250400,0.32002700,1.00312800
4.40000000,0.27680000,0.77786000,-0.22953400,-0.47560600,0.84738100,0.40015300,0.04636700,-0.66389000,-0.99008900,0.23406400,-0.51794600,-0.35250400,0.32002700,1.00312800
4.42000000,0.27680000,0.77786000,-0.22953400,-0.47560600,0.84738100,0.40015300,0.04636700,-0.66389000,-0.99008900,0.23406400,-0.51794600,-0.35250400,0.32002700,1.00312800
4.44000000,0.27680000,0.77786000,-0.22953400,-0.47560600,0.84738100,0.40015300,0.04636700,-0.66389000,-0.99008900,0.23406400,-0.51794600,-0.35250400,0.32002700,1.00312800
4.46000000,0.27680000,0.77786000,-0.22953400,-0.47560600,0.84738100,0.40015300,0.04636700,-0.66389000,-0.99008900,0.23406400,-0.51794600,-0.35250400,0.32002700,1.00312800
4.48000000,0.27680000,0.77786000,-0.22953400,-0.47560600,0.84738100,0.40015300,0.04636700,-0.66389000,-0.99008900,0.23406400,-0.51794600,-0.35250400,0.32002700,1.00312800
4.50000000,0.27680000,0.77786000,-0.22953400,-0.47560600,0.84738100,0.40015300,0.04636700,-0.66389000,-0.99008900,0.23406400,-0.51794600,-0.35250400,0.32002700,1.00312800
4.52000000,0.27680000,0.77786000,-0.22953400,-0.47560600,0.84738100,0.40015300,0.04636700,-0.66389000,-0.99008900,0.23406400,-0.51794600,-0.35250400,0.32002700,1.00312800
4.54000000,0.27680000,0.77786000,-0.22953400,-0.47560600,0.84738100,0.40015300,0.04636700,-0.66389000,-0.99008900,0.23406400,-0.51794600,-0.35250400,0.32002700,1.00312800
4.56000000,0.27680000,0.77786000,-0.22953400,-0.47560600,0.84738100,0.40015300,0.04636700,-0.66389000,-0.99008900,0.23406400,-0.51794600,-0.35250400,0.32002700,1.00312800
4.58000000,0.27680000,0.77786000,-0.22953400,-0.47560600,0.84738100,0.40015300,0.04636700,-0.66389000,-0.99008900,0.23406400,-0.51794600,-0.35250400,0.32002700,1.00312800
4.60000000,0.27680000,0.77786000,-0.22953400,-0.47560600,0.84738100,0.40015300,0.04636700,-0.66389000,-0.99008900,0.23406400,-0.51794600,-0.35250400,0.32002700,1.00312800
4.62000000,0.27680000,0.77786000,-0.22953400,-0.47560600,0.84738100,0.40015300,0.04636700,-0.66389000,-0.99008900,0.23406400,-0.51794600,-0.35250400,0.32002700,1.00312800
4.64000000,0.27680000,0.77786000,-0.22953400,-0.47560600,0.84738100,0.40015300,0.04636700,-0.66389000,-0.99008900,0.23406400,-0.51794600,-0.35250400,0.32002700,1.00312800
4.66000000,0.27680000,0.77786000,-0.22953400,-0.47560600,0.84738100,0.40015300,0.04636700,-0.66389000,-0.99008900,0.23406400,-0.51794600,-0.35250400,0.32002700,1.00312800
4.68000000,0.27680000,0.77786000,-0.22953400,-0.47560600,0.84738100,0.40015300,0.04636700,-0.66389000,-0.99008900,0.23406400,-0.51794600,-0.35250400,0.32002700,1.00312800
4.70000000,0.27680000,0.77786000,-0.22953400,-0.47560600,0.84738100,0.40015300,0.04636700,-0.66389000,-0.99008900,0.23406400,-0.51794600,-0.35250400,0.32002700,1.00312800
4.72000000,0.27680000,0.77786000,-0.22953400,-0.47560600,0.84738100,0.40015300,0.04636700,-0.66389000,-0.99008900,0.23406400,-0.51794600,-0.35250400,0.32002700,1.00312800
4.74000000,0.27680000,0.77786000,-0.22953400,-0.47560600,0.84738100,0.40015300,0.04636700,-0.66389000,-0.99008900,0.23406400,-0.51794600,-0.35250400,0.32002700,1.00312800
4.76000000,0.27680000,0.77786000,-0.22953400,-0.47560600,0.84738100,0.40015300,0.04636700,-0.66389000,-0.99008900,0.23406400,-0.51794600,-0.35250400,0.32002700,1.00312800
4.78000000,0.27680000,0.77786000,-0.22953400,-0.47560600,0.84738100,0.40015300,0.04636700,-0.66389000,-0.99008900,0.23406400,-0.51794600,-0.35250400,0.32002700,1.00312800
4.80000000,0.27680000,0.77786000,-0.22953400,-0.47560600,0.84738100,0.40015300,0.04636700,-0.66389000,-0.99008900,0.23406400,-0.51794600,-0.35250400,0.32002700,1.00312800
4.82000000,0.27680000,0.77786000,-0.22953400,-0.47560600,0.84738100,0.40015300,0.04636700,-0.66389000,-0.99008900,0.23406400,-0.51794600,-0.35250400,0.32002700,1.00312800
4.84000000,0.27680000,0.77786000,-0.22953400,-0.47560600,0.84738100,0.40015300,0.04636700,-0.66389000,-0.99008900,0.23406400,-0.51794600,-0.35250400,0.32002700,1.00312800
4.86000000,0.27680000,0.77786000,-0.22953400,-0.47560600,0.84738100,0.40015300,0.04636700,-0.66389000,-0.99008900,0.23406400,-0.51794600,-0.35250400,0.32002700,1.00312800
4.88000000,0.27680000,0.77786000,-0.22953400,-0.47560600,0.84738100,0.40015300,0.04636700,-0.66389000,-0.99008900,0.23406400,-0.51794600,-0.35250400,0.32002700,1.00312800
4.90000000,0.27680000,0.77786000,-0.22953400,-0.47560600,0.84738100,0.40015300,0.04636700,-0.66389000,-0.99008900,0.23406400,-0.51794600,-0.35250400,0.32002700,1.00312800
4.92000000,0.27680000,0.77786000,-0.22953400,-0.47560600,0.84738100,0.40015300,0.04636700,-0.66389000,-0.99008900,0.23406400,-0.51794600,-0.35250400,0.32002700,1.00312800
4.94000000,0.27680000,0.77786000,-0.22953400,-0.47560600,0.84738100,0.40015300,0.04636700,-0.66389000,-0.99008900,0.23406400,-0.51794600,-0.35250400,0.32002700,1.00312800
4.96000000,0.27680000,0.77786000,-0.22953400,-0.47560600,0.84738100,0.40015300,0.04636700,-0.66389000,-0.99008900,0.23406400,-0.51794600,-0.35250400,0.32002700,1.00312800
4.98000000,0.27680000,0.77786000,-0.22953400,-0.47560600,0.84738100,0.40015300,0.04636700,-0.66389000,-0.99008900,0.23406400,-0.51794600,-0.35250400,0.32002700,1.00312800
5.00000000,0.27680000,0.77786000,-0.22953400,-0.47560600,0.84738100,0.40015300,0.04636700,-0.66389000,-0.99008900,0.23406400,-0.51794600,-0.35250400,0.32002700,1.00312800
5.02000000,0.27680000,0.77786000,-0.22953400,-0.47560600,0.84738100,0.40015300,0.04636700,-0.66389000,-0.99008900,0.23406400,-0.51794600,-0.35250400,0.32002700,1.00312800
5.04000000,0.27680000,0.77786000,-0.22953400,-0.47560600,0.84738100,0.40015300,0.04636700,-0.66389000,-0.99008900,0.23406400,-0.51794600,-0.35250400,0.32002700,1.00312800
5.06000000,0.27680000,0.77786000,-0.22953400,-0.47560600,0.84738100,0.40015300,0.04636700,-0.66389000,-0.99008900,0.23406400,-0.51794600,-0.35250400,0.32002700,1.00312800
5.08000000,0.27680000,0.77786000,-0.22953400,-0.47560600,0.84738100,0.40015300,0.04636700,-0.66389000,-0.99008900,0.23406400,-0.51794600,-0.35250400,0.32002700,1.00312800
5.10000000,0.27680000,0.77786000,-0.22953400,-0.47560600,0.84738100,0.40015300,0.04636700,-0.66389000,-0.99008900,0.23406400,-0.51794600,-0.35250400,0.32002700,1.00312800
5.12000000,0.27680000,0.77786000,-0.22953400,-0.47560600,0.84738100,0.40015300,0.04636700,-0.66389000,-0.99008900,0.23406400,-0.51794600,-0.35250400,0.32002700,1.00312800
5.14000000,0.27680000,0.77786000,-0.22953400,-0.47560600,0.84738100,0.40015300,0.04636700,-0.66389000,-0.99008900,0.23406400,-0.51794600,-0.35250400,0.32002700,1.00312800
5.16000000,0.27680000,0.77786000,-0.22953400,-0.47560600,0.84738100,0.40015300,0.04636700,-0.66389000,-0.99008900,0.23406400,-0.51794600,-0.35250400,0.32002700,1.00312800
5.18000000,0.27680000,0.77786000,-0.22953400,-0.47560600,0.84738100,0.40015300,0.04636700,-0.66389000,-0.99008900,0.23406400,-0.51794600,-0.35250400,0.32002700,1.00312800
5.20000000,0.27680000,0.77786000,-0.22953400,-0.47560600,0.84738100,0.40015300,0.04636700,-0.66389000,-0.99008900,0.23406400,-0.51794600,-0.35250400,0.32002700,1.00312800
5.22000000,0.27680000,0.77786000,-0.22953400,-0.47560600,0.84738100,0.40015300,0.04636700,-0.66389000,-0.99008900,0.23406400,-0.51794600,-0.35250400,0.32002700,1.00312800
5.24000000,0.27680000,0.77786000,-0.22953400,-0.47560600,0.84738100,0.40015300,0.04636700,-0.66389000,-0.99008900,0.23406400,-0.51794600,-0.35250400,0.32002700,1.00312800
5.26000000,0.27680000,0.77786000,-0.22953400,-0.47560600,0.84738100,0.40015300,0.04636700,-0.66389000,-0.99008900,0.23406400,-0.51794600,-0.35250400,0.32002700,1.00312800
5.28000000,0.27680000,0.77786000,-0.22953400,-0.47560600,0.84738100,0.40015300,0.04636700,-0.66389000,-0.99008900,0.23406400,-0.51794600,-0.35250400,0.32002700,1.00312800
5.30000000,0.27680000,0.77786000,-0.22953400,-0.47560600,0.84738100,0.40015300,0.04636700,-0.66389000,-0.99008900,0.23406400,-0.51794600,-0.35250400,0.32002700,1.00312800
5.32000000,0.27680000,0.77786000,-0.22953400,-0.47560600,0.84738100,0.40015300,0.04636700,-0.66389000,-0.99008900,0.23406400,-0.51794600,-0.35250400,0.32002700,1.00312800
5.34000000,0.27680000,0.77786000,-0.22953400,-0.47560600,0.84738100,0.40015300,0.04636700,-0.66389000,-0.99008900,0.23406400,-0.51794600,-0.35250400,0.32002700,1.00312800
5.36000000,0.27680000,0.77786000,-0.22953400,-0.47560600,0.84738100,0.40015300,0.04636700,-0.66389000,-0.99008900,0.23406400,-0.51794600,-0.35250400,0.32002700,1.00312800
5.38000000,0.27680000,0.77786000,-0.22953400,-0.47560600,0.84738100,0.40015300,0.04636700,-0.66389000,-0.99008900,0.23406400,-0.51794600,-0.35250400,0.32002700,1.00312800
5.40000000,0.27680000,0.77786000,-0.22953400,-0.47560600,0.84738100,0.40015300,0.04636700,-0.66389000,-0.99008900,0.23406400,-0.51794600,-0.35250400,0.32002700,1.00312800
5.42000000,0.27680000,0.77786000,-0.22953400,-0.47560600,0.84738100,0.40015300,0.04636700,-0.66389000,-0.99008900,0.23406400,-0.51794600,-0.35250400,0.32002700,1.00312800
5.44000000,0.27680000,0.77786000,-0.22953400,-0.47560600,0.84738100,0.40015300,0.04636700,-0.66389000,-0.99008900,0.23406400,-0.51794600,-0.35250400,0.32002700,1.00312800
5.46000000,0.27680000,0.77786000,-0.22953400,-0.47560600,0.84738100,0.40015300,0.04636700,-0.66389000,-0.99008900,0.23406400,-0.51794600,-0.35250400,0.32002700,1.00312800
5.48000000,0.27680000,0.77786000,-0.22953400,-0.47560600,0.84738100,0.40015300,0.04636700,-0.66389000,-0.99008900,0.23406400,-0.51794600,-0.35250400,0.32002700,1.00312800
5.50000000,0.27680000,0.77786000,-0.22953400,-0.47560600,0.84738100,0.40015300,0.04636700,-0.66389000,-0.99008900,0.23406400,-0.51794600,-0.35250400,0.32002700,1.00312800
5.52000000,0.27680000,0.77786000,-0.22953400,-0.47560600,0.84738100,0.40015300,0.04636700,-0.66389000,-0.99008900,0.23406400,-0.51794600,-0.35250400,0.32002700,1.00312800
5.54000000,0.27680000,0.77786000,-0.22953400,-0.47560600,0.84738100,0.40015300,0.04636700,-0.66389000,-0.99008900,0.23406400,-0.51794600,-0.35250400,0.32002700,1.00312800
5.56000000,0.27680000,0.77786000,-0.22953400,-0.47560600,0.84738100,0.40015300,0.04636700,-0.66389000,-0.99008900,0.23406400,-0.51794600,-0.35250400,0.32002700,1.00312800
5.58000000,0.27680000,0.77786000,-0.22953400,-0.47560600,0.84738100,0.40015300,0.04636700,-0.66389000,-0.99008900,0.23406400,-0.51794600,-0.35250400,0.32002700,1.00312800
5.60000000,0.27680000,0.77786000,-0.22953400,-0.47560600,0.84738100,0.40015300,0.04636700,-0.66389000,-0.99008900,0.23406400,-0.51794600,-0.35250400,0.32002700,1.00312800
5.62000000,0.27680000,0.77786000,-0.22953400,-0.47560600,0.84738100,0.40015300,0.04636700,-0.66389000,-0.99008900,0.23406400,-0.51794600,-0.35250400,0.32002700,1.00312800
5.64000000,0.27680000,0.77786000,-0.22953400,-0.47560600,0.84738100,0.40015300,0.04636700,-0.66389000,-0.99008900,0.23406400,-0.51794600,-0.35250400,0.32002700,1.00312800
5.66000000,0.27680000,0.77786000,-0.22953400,-0.47560600,0.84738100,0.40015300,0.04636700,-0.66389000,-0.99008900,0.23406400,-0.51794600,-0.35250400,0.32002700,1.00312800
5.68000000,0.27680000,0.77786000,-0.22953400,-0.47560600,0.84738100,0.40015300,0.04636700,-0.66389000,-0.99008900,0.23406400,-0.51794600,-0.35250400,0.32002700,1.00312800
5.70000000,0.27680000,0.77786000,-0.22953400,-0.47560600,0.84738100,0.40015300,0.04636700,-0.66389000,-0.99008900,0.23406400,-0.51794600,-0.35250400,0.32002700,1.00312800
5.72000000,0.27680000,0.77786000,-0.22953400,-0.47560600,0.84738100,0.40015300,0.04636700,-0.66389000,-0.99008900,0.23406400,-0.51794600,-0.35250400,0.32002700,1.00312800
5.74000000,0.27680000,0.77786000,-0.22953400,-0.47560600,0.84738100,0.40015300,0.04636700,-0.66389000,-0.99008900,0.23406400,-0.51794600,-0.35250400,0.32002700,1.00312800
5.76000000,0.27680000,0.77786000,-0.22953400,-0.47560600,0.84738100,0.40015300,0.04636700,-0.66389000,-0.99008900,0.23406400,-0.51794600,-0.35250400,0.32002700,1.00312800
5.78000000,0.27680000,0.77786000,-0.22953400,-0.47560600,0.84738100,0.40015300,0.04636700,-0.66389000,-0.99008900,0.23406400,-0.51794600,-0.35250400,0.32002700,1.00312800
5.80000000,0.27680000,0.77786000,-0.22953400,-0.47560600,0.84738100,0.40015300,0.04636700,-0.66389000,-0.99008900,0.23406400,-0.51794600,-0.35250400,0.32002700,1.00312800
5.82000000,0.27680000,0.77786000,-0.22953400,-0.47560600,0.84738100,0.40015300,0.04636700,-0.66389000,-0.99008900,0.23406400,-0.51794600,-0.35250400,0.32002700,1.00312800
5.84000000,0.27680000,0.77786000,-0.22953400,-0.47560600,0.84738100,0.40015300,0.04636700,-0.66389000,-0.99008900,0.23406400,-0.51794600,-0.35250400,0.32002700,1.00312800
5.86000000,0.27680000,0.77786000,-0.22953400,-0.47560600,0.84738100,0.40015300,0.04636700,-0.66389000,-0.99008900,0.23406400,-0.51794600,-0.35250400,0.32002700,1.00312800
5.88000000,0.27680000,0.77786000,-0.22953400,-0.47560600,0.84738100,0.40015300,0.04636700,-0.66389000,-0.99008900,0.23406400,-0.51794600,-0.35250400,0.32002700,1.00312800
5.90000000,0.27680000,0.77786000,-0.22953400,-0.47560600,0.84738100,0.40015300,0.04636700,-0.66389000,-0.99008900,0.23406400,-0.51794600,-0.35250400,0.32002700,1.00312800
5.92000000,0.27680000,0.77786000,-0.22953400,-0.47560600,0.84738100,0.40015300,0.04636700,-0.66389000,-0.99008900,0.23406400,-0.51794600,-0.35250400,0.32002700,1.00312800
5.94000000,0.27680000,0.77786000,-0.22953400,-0.47560600,0.84738100,0.40015300,0.04636700,-0.66389000,-0.99008900,0.23406400,-0.51794600,-0.35250400,0.32002700,1.00312800
5.96000000,0.27680000,0.77786000,-0.22953400,-0.47560600,0.84738100,0.40015300,0.04636700,-0.66389000,-0.99008900,0.23406400,-0.51794600,-0.35250400,0.32002700,1.00312800
5.98000000,0.27680000,0.77786000,-0.22953400,-0.47560600,0.84738100,0.40015300,0.04636700,-0.66389000,-0.99008900,0.23406400,-0.51794600,-0.35250400,0.32002700,1.00312800
6.00000000,0.27680000,0.77786000,-0.22953400,-0.47560600,0.84738100,0.40015300,0.04636700,-0.66389000,-0.99008900,0.23406400,-0.51794600,-0.35250400,0.32002700,1.00312800
6.02000000,0.27680000,0.77786000,-0.22953400,-0.47560600,0.84738100,0.40015300,0.04636700,-0.66389000,-0.99008900,0.23406400,-0.51794600,-0.35250400,0.32002700,1.00312800
6.04000000,0.27680000,0.77786000,-0.22953400,-0.47560600,0.84738100,0.40015300,0.04636700,-0.66389000,-0.99008900,0.23406400,-0.51794600,-0.35250400,0.32002700,1.00312800
6.06000000,0.27680000,0.77786000,-0.22953400,-0.47560600,0.84738100,0.40015300,0.04636700,-0.66389000,-0.99008900,0.23406400,-0.51794600,-0.35250400,0.32002700,1.00312800
6.08000000,0.27680000,0.77786000,-0.22953400,-0.47560600,0.84738100,0.40015300,0.04636700,-0.66389000,-0.99008900,0.23406400,-0.51794600,-0.35250400,0.32002700,1.00312800
6.10000000,0.27680000,0.77786000,-0.22953400,-0.47560600,0.84738100,0.40015300,0.04636700,-0.66389000,-0.99008900,0.23406400,-0.51794600,-0.35250400,0.32002700,1.00312800
6.12000000,0.27680000,0.77786000,-0.22953400,-0.47560600,0.84738100,0.40015300,0.04636700,-0.66389000,-0.99008900,0.23406400,-0.51794600,-0.35250400,0.32002700,1.00312800
6.14000000,0.27680000,0.77786000,-0.22953400,-0.47560600,0.84738100,0.40015300,0.04636700,-0.66389000,-0.99008900,0.23406400,-0.51794600,-0.35250400,0.32002700,1.00312800
6.16000000,0.27680000,0.77786000,-0.22953400,-0.47560600,0.84738100,0.40015300,0.04636700,-0.66389000,-0.99008900,0.23406400,-0.51794600,-0.35250400,0.32002700,1.00312800
6.18000000,0.27680000,0.77786000,-0.22953400,-0.47560600,0.84738100,0.40015300,0.04636700,-0.66389000,-0.99008900,0.23406400,-0.51794600,-0.35250400,0.32002700,1.00312800
6.20000000,0.27680000,0.77786000,-0.22953400,-0.47560600,0.84738100,0.40015300,0.04636700,-0.66389000,-0.99008900,0.23406400,-0.51794600,-0.35250400,0.32002700,1.00312800
6.22000000,0.27680000,0.77786000,-0.22953400,-0.47560600,0.84738100,0.40015300,0.04636700,-0.66389000,-0.99008900,0.23406400,-0.51794600,-0.35250400,0.32002700,1.00312800
6.24000000,0.27680000,0.77786000,-0.22953400,-0.47560600,0.84738100,0.40015300,0.04636700,-0.66389000,-0.99008900,0.23406400,-0.51794600,-0.35250400,0.32002700,1.00312800
6.26000000,0.27680000,0.77786000,-0.22953400,-0.47560600,0.84738100,0.40015300,0.04636700,-0.66389000,-0.99008900,0.23406400,-0.51794600,-0.35250400,0.32002700,1.00312800
6.28000000,0.27680000,0.77786000,-0.22953400,-0.47560600,0.84738100,0.40015300,0.04636700,-0.66389000,-0.99008900,0.23406400,-0.51794600,-0.35250400,0.32002700,1.00312800
6.30000000,0.27680000,0.77786000,-0.22953400,-0.47560600,0.84738100,0.40015300,0.04636700,-0.66389000,-0.99008900,0.23406400,-0.51794600,-0.35250400,0.32002700,1.00312800
6.32000000,0.27680000,0.77786000,-0.22953400,-0.47560600,0.84738100,0.40015300,0.04636700,-0.66389000,-0.99008900,0.23406400,-0.51794600,-0.35250400,0.32002700,1.00312800
6.34000000,0.27680000,0.77786000,-0.22953400,-0.47560600,0.84738100,0.40015300,0.04636700,-0.66389000,-0.99008900,0.23406400,-0.51794600,-0.35250400,0.32002700,1.00312800
6.36000000,0.27680000,0.77786000,-0.22953400,-0.47560600,0.84738100,0.40015300,0.04636700,-0.66389000,-0.99008900,0.23406400,-0.51794600,-0.35250400,0.32002700,1.00312800
6.38000000,0.27680000,0.77786000,-0.22953400,-0.47560600,0.84738100,0.40015300,0.04636700,-0.66389000,-0.99008900,0.23406400,-0.51794600,-0.35250400,0.32002700,1.00312800
6.40000000,0.27680000,0.77786000,-0.22953400,-0.47560600,0.84738100,0.40015300,0.04636700,-0.66389000,-0.99008900,0.23406400,-0.51794600,-0.35250400,0.32002700,1.00312800
6.42000000,0.27680000,0.77786000,-0.22953400,-0.47560600,0.84738100,0.40015300,0.04636700,-0.66389000,-0.99008900,0.23406400,-0.51794600,-0.35250400,0.32002700,1.00312800
6.44000000,0.27680000,0.77786000,-0.22953400,-0.47560600,0.84738100,0.40015300,0.04636700,-0.66389000,-0.99008900,0.23406400,-0.51794600,-0.35250400,0.32002700,1.00312800
6.46000000,0.27680000,0.77786000,-0.22953400,-0.47560600,0.84738100,0.40015300,0.04636700,-0.66389000,-0.99008900,0.23406400,-0.51794600,-0.35250400,0.32002700,1.00312800
6.48000000,0.27680000,0.77786000,-0.22953400,-0.47560600,0.84738100,0.40015300,0.04636700,-0.66389000,-0.99008900,0.23406400,-0.51794600,-0.35250400,0.32002700,1.00312800
6.50000000,0.27680000,0.77786000,-0.22953400,-0.47560600,0.84738100,0.40015300,0.04636700,-0.66389000,-0.99008900,0.23406400,-0.51794600,-0.35250400,0.32002700,1.00312800
6.52000000,0.27680000,0.77786000,-0.22953400,-0.47560600,0.84738100,0.40015300,0.04636700,-0.66389000,-0.99008900,0.23406400,-0.51794600,-0.35250400,0.32002700,1.00312800
6.54000000,0.27680000,0.77786000,-0.22953400,-0.47560600,0.84738100,0.40015300,0.04636700,-0.66389000,-0.99008900,0.23406400,-0.51794600,-0.35250400,0.32002700,1.00312800
6.56000000,0.27680000,0.77786000,-0.22953400,-0.47560600,0.84738100,0.40015300,0.04636700,-0.66389000,-0.99008900,0.23406400,-0.51794600,-0.35250400,0.32002700,1.00312800
6.58000000,0.27680000,0.77786000,-0.22953400,-0.47560600,0.84738100,0.40015300,0.04636700,-0.66389000,-0.99008900,0.23406400,-0.51794600,-0.35250400,0.32002700,1.00312800
6.60000000,0.27680000,0.77786000,-0.22953400,-0.47560600,0.84738100,0.40015300,0.04636700,-0.66389000,-0.99008900,0.23406400,-0.51794600,-0.35250400,0.32002700,1.00312800
6.62000000,0.27680000,0.77786000,-0.22953400,-0.47560600,0.84738100,0.40015300,0.04636700,-0.66389000,-0.99008900,0.23406400,-0.51794600,-0.35250400,0.32002700,1.00312800
6.64000000,0.27680000,0.77786000,-0.22953400,-0.47560600,0.84738100,0.40015300,0.04636700,-0.66389000,-0.99008900,0.23406400,-0.51794600,-0.35250400,0.32002700,1.00312800
6.66000000,0.27680000,0.77786000,-0.22953400,-0.47560600,0.84738100,0.40015300,0.04636700,-0.66389000,-0.99008900,0.23406400,-0.51794600,-0.35250400,0.32002700,1.00312800
6.68000000,0.27680000,0.77786000,-0.22953400,-0.47560600,0.84738100,0.40015300,0.04636700,-0.66389000,-0.99008900,0.23406400,-0.51794600,-0.35250400,0.32002700,1.00312800
6.70000000,0.27680000,0.77786000,-0.22953400,-0.47560600,0.84738100,0.40015300,0.04636700,-0.66389000,-0.99008900,0.23406400,-0.51794600,-0.35250400,0.32002700,1.00312800
6.72000000,0.27680000,0.77786000,-0.22953400,-0.47560600,0.84738100,0.40015300,0.04636700,-0.66389000,-0.99008900,0.23406400,-0.51794600,-0.35250400,0.32002700,1.00312800
6.74000000,0.27680000,0.77786000,-0.22953400,-0.47560600,0.84738100,0.40015300,0.04636700,-0.66389000,-0.99008900,0.23406400,-0.51794600,-0.35250400,0.32002700,1.00312800
6.76000000,0.27680000,0.77786000,-0.22953400,-0.47560600,0.84738100,0.40015300,0.04636700,-0.66389000,-0.99008900,0.23406400,-0.51794600,-0.35250400,0.32002700,1.00312800
6.78000000,0.27680000,0.77786000,-0.22953400,-0.47560600,0.84738100,0.40015300,0.04636700,-0.66389000,-0.99008900,0.23406400,-0.51794600,-0.35250400,0.32002700,1.00312800
6.80000000,0.27680000,0.77786000,-0.22953400,-0.47560600,0.84738100,0.40015300,0.04636700,-0.66389000,-0.99008900,0.23406400,-0.51794600,-0.35250400,0.32002700,1.00312800
6.82000000,0.27680000,0.77786000,-0.22953400,-0.47560600,0.84738100,0.40015300,0.04636700,-0.66389000,-0.99008900,0.23406400,-0.51794600,-0.35250400,0.32002700,1.00312800
6.84000000,0.27680000,0.77786000,-0.22953400,-0.47560600,0.84738100,0.40015300,0.04636700,-0.66389000,-0.99008900,0.23406400,-0.51794600,-0.35250400,0.32002700,1.00312800
6.86000000,0.27680000,0.77786000,-0.22953400,-0.47560600,0.84738100,0.40015300,0.04636700,-0.66389000,-0.99008900,0.23406400,-0.51794600,-0.35250400,0.32002700,1.00312800
6.88000000,0.27680000,0.77786000,-0.22953400,-0.47560600,0.84738100,0.40015300,0.04636700,-0.66389000,-0.99008900,0.23406400,-0.51794600,-0.35250400,0.32002700,1.00312800
6.90000000,0.27680000,0.77786000,-0.22953400,-0.47560600,0.84738100,0.40015300,0.04636700,-0.66389000,-0.99008900,0.23406400,-0.51794600,-0.35250400,0.32002700,1.00312800
6.92000000,0.27680000,0.77786000,-0.22953400,-0.47560600,0.84738100,0.40015300,0.04636700,-0.66389000,-0.99008900,0.23406400,-0.51794600,-0.35250400,0.32002700,1.00312800
6.94000000,0.27680000,0.77786000,-0.22953400,-0.47560600,0.84738100,0.40015300,0.04636700,-0.66389000,-0.99008900,0.23406400,-0.51794600,-0.35250400,0.32002700,1.00312800
6.96000000,0.27680000,0.77786000,-0.22953400,-0.47560600,0.84738100,0.40015300,0.04636700,-0.66389000,-0.99008900,0.23406400,-0.51794600,-0.35250400,0.32002700,1.00312800
6.98000000,0.27680000,0.77786000,-0.22953400,-0.47560600,0.84738100,0.40015300,0.04636700,-0.66389000,-0.99008900,0.23406400,-0.51794600,-0.35250400,0.32002700,1.00312800
7.00000000,0.27680000,0.77786000,-0.22953400,-0.47560600,0.84738100,0.40015300,0.04636700,-0.66389000,-0.99008900,0.23406400,-0.51794600,-0.35250400,0.32002700,1.00312800
7.02000000,0.27680000,0.77786000,-0.22953400,-0.47560600,0.84738100,0.40015300,0.04636700,-0.66389000,-0.99008900,0.23406400,-0.51794600,-0.35250400,0.32002700,1.00312800
7.04000000,0.27680000,0.77786000,-0.22953400,-0.47560600,0.84738100,0.40015300,0.04636700,-0.66389000,-0.99008900,0.23406400,-0.51794600,-0.35250400,0.32002700,1.00312800
7.06000000,0.27680000,0.77786000,-0.22953400,-0.47560600,0.84738100,0.40015300,0.04636700,-0.66389000,-0.99008900,0.23406400,-0.51794600,-0.35250400,0.32002700,1.00312800
7.08000000,0.27680000,0.77786000,-0.22953400,-0.47560600,0.84738100,0.40015300,0.04636700,-0.66389000,-0.99008900,0.23406400,-0.51794600,-0.35250400,0.32002700,1.00312800
7.10000000,0.27680000,0.77786000,-0.22953400,-0.47560600,0.84738100,0.40015300,0.04636700,-0.66389000,-0.99008900,0.23406400,-0.51794600,-0.35250400,0.32002700,1.00312800
7.12000000,0.27680000,0.77786000,-0.22953400,-0.47560600,0.84738100,0.40015300,0.04636700,-0.66389000,-0.99008900,0.23406400,-0.51794600,-0.35250400,0.32002700,1.00312800
7.14000000,0.27680000,0.77786000,-0.22953400,-0.47560600,0.84738100,0.40015300,0.04636700,-0.66389000,-0.99008900,0.23406400,-0.51794600,-0.35250400,0.32002700,1.00312800
7.16000000,0.27680000,0.77786000,-0.22953400,-0.47560600,0.84738100,0.40015300,0.04636700,-0.66389000,-0.99008900,0.23406400,-0.51794600,-0.35250400,0.32002700,1.00312800
7.18000000,0.27680000,0.77786000,-0.22953400,-0.47560600,0.84738100,0.40015300,0.04636700,-0.66389000,-0.99008900,0.23406400,-0.51794600,-0.35250400,0.32002700,1.00312800
7.20000000,0.27680000,0.77786000,-0.22953400,-0.47560600,0.84738100,0.40015300,0.04636700,-0.66389000,-0.99008900,0.23406400,-0.51794600,-0.35250400,0.32002700,1.00312800
7.22000000,0.27680000,0.77786000,-0.22953400,-0.47560600,0.84738100,0.40015300,0.04636700,-0.66389000,-0.99008900,0.23406400,-0.51794600,-0.35250400,0.32002700,1.00312800
7.24000000,0.27680000,0.77786000,-0.22953400,-0.47560600,0.84738100,0.40015300,0.04636700,-0.66389000,-0.99008900,0.23406400,-0.51794600,-0.35250400,0.32002700,1.00312800
7.26000000,0.27680000,0.77786000,-0.22953400,-0.47560600,0.84738100,0.40015300,0.04636700,-0.66389000,-0.99008900,0.23406400,-0.51794600,-0.35250400,0.32002700,1.00312800
7.28000000,0.27680000,0.77786000,-0.22953400,-0.47560600,0.84738100,0.40015300,0.04636700,-0.66389000,-0.99008900,0.23406400,-0.51794600,-0.35250400,0.32002700,1.00312800
7.30000000,0.27680000,0.77786000,-0.22953400,-0.47560600,0.84738100,0.40015300,0.04636700,-0.66389000,-0.99008900,0.23406400,-0.51794600,-0.35250400,0.32002700,1.00312800
7.32000000,0.27680000,0.77786000,-0.22953400,-0.47560600,0.84738100,0.40015300,0.04636700,-0.66389000,-0.99008900,0.23406400,-0.51794600,-0.35250400,0.32002700,1.00312800
7.34000000,0.27680000,0.77786000,-0.22953400,-0.47560600,0.84738100,0.40015300,0.04636700,-0.66389000,-0.99008900,0.23406400,-0.51794600,-0.35250400,0.32002700,1.00312800
7.36000000,0.27680000,0.77786000,-0.22953400,-0.47560600,0.84738100,0.40015300,0.04636700,-0.66389000,-0.99008900,0.23406400,-0.51794600,-0.35250400,0.32002700,1.00312800
7.38000000,0.27680000,0.77786000,-0.22953400,-0.47560600,0.84738100,0.40015300,0.04636700,-0.66389000,-0.99008900,0.23406400,-0.51794600,-0.35250400,0.32002700,1.00312800
7.40000000,0.27680000,0.77786000,-0.22953400,-0.47560600,0.84738100,0.40015300,0.04636700,-0.66389000,-0.99008900,0.23406400,-0.51794600,-0.35250400,0.32002700,1.00312800
7.42000000,0.27680000,0.77786000,-0.22953400,-0.47560600,0.84738100,0.40015300,0.04636700,-0.66389000,-0.99008900,0.23406400,-0.51794600,-0.35250400,0.32002700,1.00312800
7.44000000,0.27680000,0.77786000,-0.22953400,-0.47560600,0.84738100,0.40015300,0.04636700,-0.66389000,-0.99008900,0.23406400,-0.51794600,-0.35250400,0.32002700,1.00312800
7.46000000,0.27680000,0.77786000,-0.22953400,-0.47560600,0.84738100,0.40015300,0.04636700,-0.66389000,-0.99008900,0.23406400,-0.51794600,-0.35250400,0.32002700,1.00312800
7.48000000,0.27680000,0.77786000,-0.22953400,-0.47560600,0.84738100,0.40015300,0.04636700,-0.66389000,-0.99008900,0.23406400,-0.51794600,-0.35250400,0.32002700,1.00312800
7.50000000,0.27680000,0.77786000,-0.22953400,-0.47560600,0.84738100,0.40015300,0.04636700,-0.66389000,-0.99008900,0.23406400,-0.51794600,-0.35250400,0.32002700,1.00312800
7.52000000,0.27680000,0.77786000,-0.22953400,-0.47560600,0.84738100,0.40015300,0.04636700,-0.66389000,-0.99008900,0.23406400,-0.51794600,-0.35250400,0.32002700,1.00312800
7.54000000,0.27680000,0.77786000,-0.22953400,-0.47560600,0.84738100,0.40015300,0.04636700,-0.66389000,-0.99008900,0.23406400,-0.51794600,-0.35250400,0.32002700,1.00312800
7.56000000,0.27680000,0.77786000,-0.22953400,-0.47560600,0.84738100,0.40015300,0.04636700,-0.66389000,-0.99008900,0.23406400,-0.51794600,-0.35250400,0.32002700,1.00312800
7.58000000,0.27680000,0.77786000,-0.22953400,-0.47560600,0.84738100,0.40015300,0.04636700,-0.66389000,-0.99008900,0.23406400,-0.51794600,-0.35250400,0.32002700,1.00312800
7.60000000,0.27680000,0.77786000,-0.22953400,-0.47560600,0.84738100,0.40015300,0.04636700,-0.66389000,-0.99008900,0.23406400,-0.51794600,-0.35250400,0.32002700,1.00312800
7.62000000,0.27680000,0.77786000,-0.22953400,-0.47560600,0.84738100,0.40015300,0.04636700,-0.66389000,-0.99008900,0.23406400,-0.51794600,-0.35250400,0.32002700,1.00312800
7.64000000,0.27680000,0.77786000,-0.22953400,-0.47560600,0.84738100,0.40015300,0.04636700,-0.66389000,-0.99008900,0.23406400,-0.51794600,-0.35250400,0.32002700,1.00312800
7.66000000,0.27680000,0.77786000,-0.22953400,-0.47560600,0.84738100,0.40015300,0.04636700,-0.66389000,-0.99008900,0.23406400,-0.51794600,-0.35250400,0.32002700,1.00312800
7.68000000,0.27680000,0.77786000,-0.22953400,-0.47560600,0.84738100,0.40015300,0.04636700,-0.66389000,-0.99008900,0.23406400,-0.51794600,-0.35250400,0.32002700,1.00312800
7.70000000,0.27680000,0.77786000,-0.22953400,-0.47560600,0.84738100,0.40015300,0.04636700,-0.66389000,-0.99008900,0.23406400,-0.51794600,-0.35250400,0.32002700,1.00312800
7.72000000,0.27680000,0.77786000,-0.22953400,-0.47560600,0.84738100,0.40015300,0.04636700,-0.66389000,-0.99008900,0.23406400,-0.51794600,-0.35250400,0.32002700,1.00312800
7.74000000,0.27680000,0.77786000,-0.22953400,-0.47560600,0.84738100,0.40015300,0.04636700,-0.66389000,-0.99008900,0.23406400,-0.51794600,-0.35250400,0.32002700,1.00312800
7.76000000,0.27680000,0.77786000,-0.22953400,-0.47560600,0.84738100,0.40015300,0.04636700,-0.66389000,-0.99008900,0.23406400,-0.51794600,-0.35250400,0.32002700,1.00312800
7.78000000,0.27680000,0.77786000,-0.22953400,-0.47560600,0.84738100,0.40015300,0.04636700,-0.66389000,-0.99008900,0.23406400,-0.51794600,-0.35250400,0.32002700,1.00312800
7.80000000,0.27680000,0.77786000,-0.22953400,-0.47560600,0.84738100,0.40015300,0.04636700,-0.66389000,-0.99008900,0.23406400,-0.51794600,-0.35250400,0.32002700,1.00312800
7.82000000,0.27680000,0.77786000,-0.22953400,-0.47560600,0.84738100,0.40015300,0.04636700,-0.66389000,-0.99008900,0.23406400,-0.51794600,-0.35250400,0.32002700,1.00312800
7.84000000,0.27680000,0.77786000,-0.22953400,-0.47560600,0.84738100,0.40015300,0.04636700,-0.66389000,-0.99008900,0.23406400,-0.51794600,-0.35250400,0.32002700,1.00312800
7.86000000,0.27680000,0.77786000,-0.22953400,-0.47560600,0.84738100,0.40015300,0.04636700,-0.66389000,-0.99008900,0.23406400,-0.51794600,-0.35250400,0.32002700,1.00312800
7.88000000,0.27680000,0.77786000,-0.22953400,-0.47560600,0.84738100,0.40015300,0.04636700,-0.66389000,-0.99008900,0.23406400,-0.51794600,-0.35250400,0.32002700,1.00312800
7.90000000,0.27680000,0.77786000,-0.22953400,-0.47560600,0.84738100,0.40015300,0.04636700,-0.66389000,-0.99008900,0.23406400,-0.51794600,-0.35250400,0.32002700,1.00312800
7.92000000,0.27680000,0.77786000,-0.22953400,-0.47560600,0.84738100,0.40015300,0.04636700,-0.66389000,-0.99008900,0.23406400,-0.51794600,-0.35250400,0.32002700,1.00312800
7.94000000,0.27680000,0.77786000,-0.22953400,-0.47560600,0.84738100,0.40015300,0.04636700,-0.66389000,-0.99008900,0.23406400,-0.51794600,-0.35250400,0.32002700,1.00312800
7.96000000,0.27680000,0.77786000,-0.22953400,-0.47560600,0.84738100,0.40015300,0.04636700,-0.66389000,-0.99008900,0.23406400,-0.51794600,-0.35250400,0.32002700,1.00312800
7.98000000,0.27680000,0.77786000,-0.22953400,-0.47560600,0.84738100,0.40015300,0.04636700,-0.66389000,-0.99008900,0.23406400,-0.51794600,-0.35250400,0.32002700,1.00312800
8.00000000,0.27680000,0.77786000,-0.22953400,-0.47560600,0.84738100,0.40015300,0.04636700,-0.66389000,-0.99008900,0.23406400,-0.51794600,-0.35250400,0.32002700,1.00312800
8.02000000,0.27680000,0.77786000,-0.22953400,-0.47560600,0.84738100,0.40015300,0.04636700,-0.66389000,-0.99008900,0.23406400,-0.51794600,-0.35250400,0.32002700,1.00312800
8.04000000,0.27680000,0.77786000,-0.22953400,-0.47560600,0.84738100,0.40015300,0.04636700,-0.66389000,-0.99008900,0.23406400,-0.51794600,-0.35250400,0.32002700,1.00312800
8.06000000,0.27680000,0.77786000,-0.22953400,-0.47560600,0.84738100,0.40015300,0.04636700,-0.66389000,-0.99008900,0.23406400,-0.51794600,-0.35250400,0.32002700,1.00312800
8.08000000,0.27680000,0.77786000,-0.22953400,-0.47560600,0.84738100,0.40015300,0.04636700,-0.66389000,-0.99008900,0.23406400,-0.51794600,-0.35250400,0.32002700,1.00312800
8.10000000,0.27680000,0.77786000,-0.22953400,-0.47560600,0.84738100,0.40015300,0.04636700,-0.66389000,-0.99008900,0.23406400,-0.51794600,-0.35250400,0.32002700,1.00312800
8.12000000,0.27680000,0.77786000,-0.22953400,-0.47560600,0.84738100,0.40015300,0.04636700,-0.66389000,-0.99008900,0.23406400,-0.51794600,-0.35250400,0.32002700,1.00312800
8.14000000,0.27680000,0.77786000,-0.22953400,-0.47560600,0.84738100,0.40015300,0.04636700,-0.66389000,-0.99008900,0.23406400,-0.51794600,-0.35250400,0.32002700,1.00312800
8.16000000,0.27680000,0.77786000,-0.22953400,-0.47560600,0.84738100,0.40015300,0.04636700,-0.66389000,-0.99008900,0.23406400,-0.51794600,-0.35250400,0.32002700,1.00312800
8.18000000,0.27680000,0.77786000,-0.22953400,-0.47560600,0.84738100,0.40015300,0.04636700,-0.66389000,-0.99008900,0.23406400,-0.51794600,-0.35250400,0.32002700,1.00312800
8.20000000,0.27680000,0.77786000,-0.22953400,-0.47560600,0.84738100,0.40015300,0.04636700,-0.66389000,-0.99008900,0.23406400,-0.51794600,-0.35250400,0.32002700,1.00312800
8.22000000,0.27680000,0.77786000,-0.22953400,-0.47560600,0.84738100,0.40015300,0.04636700,-0.66389000,-0.99008900,0.23406400,-0.51794600,-0.35250400,0.32002700,1.00312800
8.24000000,0.27680000,0.77786000,-0.22953400,-0.47560600,0.84738100,0.40015300,0.04636700,-0.66389000,-0.99008900,0.23406400,-0.51794600,-0.35250400,0.32002700,1.00312800
8.26000000,0.27680000,0.77786000,-0.22953400,-0.47560600,0.84738100,0.40015300,0.04636700,-0.66389000,-0.99008900,0.23406400,-0.51794600,-0.35250400,0.32002700,1.00312800
8.28000000,0.27680000,0.77786000,-0.22953400,-0.47560600,0.84738100,0.40015300,0.04636700,-0.66389000,-0.99008900,0.23406400,-0.51794600,-0.35250400,0.32002700,1.00312800
8.30000000,0.27680000,0.77786000,-0.22953400,-0.47560600,0.84738100,0.40015300,0.04636700,-0.66389000,-0.99008900,0.23406400,-0.51794600,-0.35250400,0.32002700,1.00312800
8.32000000,0.27680000,0.77786000,-0.22953400,-0.47560600,0.84738100,0.40015300,0.04636700,-0.66389000,-0.99008900,0.23406400,-0.51794600,-0.35250400,0.32002700,1.00312800
8.34000000,0.27680000,0.77786000,-0.22953400,-0.47560600,0.84738100,0.40015300,0.04636700,-0.66389000,-0.99008900,0.23406400,-0.51794600,-0.35250400,0.32002700,1.00312800
8.36000000,0.27680000,0.77786000,-0.22953400,-0.47560600,0.84738100,0.40015300,0.04636700,-0.66389000,-0.99008900,0.23406400,-0.51794600,-0.35250400,0.32002700,1.00312800
8.38000000,0.27680000,0.77786000,-0.22953400,-0.47560600,0.84738100,0.40015300,0.04636700,-0.66389000,-0.99008900,0.23406400,-0.51794600,-0.35250400,0.32002700,1.00312800
8.40000000,0.27680000,0.77786000,-0.22953400,-0.47560600,0.84738100,0.40015300,0.04636700,-0.66389000,-0.99008900,0.23406400,-0.51794600,-0.35250400,0.32002700,1.00312800
8.42000000,0.27680000,0.77786000,-0.22953400,-0.47560600,0.84738100,0.40015300,0.04636700,-0.66389000,-0.99008900,0.23406400,-0.51794600,-0.35250400,0.32002700,1.00312800
8.44000000,0.27680000,0.77786000,-0.22953400,-0.47560600,0.84738100,0.40015300,0.04636700,-0.66389000,-0.99008900,0.23406400,-0.51794600,-0.35250400,0.32002700,1.00312800
8.46000000,0.27680000,0.77786000,-0.22953400,-0.47560600,0.84738100,0.40015300,0.04636700,-0.66389000,-0.99008900,0.23406400,-0.51794600,-0.35250400,0.32002700,1.00312800
8.48000000,0.27680000,0.77786000,-0.22953400,-0.47560600,0.84738100,0.40015300,0.04636700,-0.66389000,-0.99008900,0.23406400,-0.51794600,-0.35250400,0.32002700,1.00312800
8.50000000,0.27680000,0.77786000,-0.22953400,-0.47560600,0.84738100,0.40015300,0.04636700,-0.66389000,-0.99008900,0.23406400,-0.51794600,-0.35250400,0.32002700,1.00312800
8.52000000,0.27680000,0.77786000,-0.22953400,-0.47560600,0.84738100,0.40015300,0.04636700,-0.66389000,-0.99008900,0.23406400,-0.51794600,-0.35250400,0.32002700,1.00312800
8.54000000,0.27680000,0.77786000,-0.22953400,-0.47560600,0.84738100,0.40015300,0.04636700,-0.66389000,-0.99008900,0.23406400,-0.51794600,-0.35250400,0.32002700,1.00312800
8.56000000,0.27680000,0.77786000,-0.22953400,-0.47560600,0.84738100,0.40015300,0.04636700,-0.66389000,-0.99008900,0.23406400,-0.51794600,-0.35250400,0.32002700,1.00312800
8.58000000,0.27680000,0.77786000,-0.22953400,-0.47560600,0.84738100,0.40015300,0.04636700,-0.66389000,-0.99008900,0.23406400,-0.51794600,-0.35250400,0.32002700,1.00312800
8.60000000,0.27680000,0.77786000,-0.22953400,-0.47560600,0.84738100,0.40015300,0.04636700,-0.66389000,-0.99008900,0.23406400,-0.51794600,-0.35250400,0.32002700,1.00312800
8.62000000,0.27680000,0.77786000,-0.22953400,-0.47560600,0.84738100,0.40015300,0.04636700,-0.66389000,-0.99008900,0.23406400,-0.51794600,-0.35250400,0.32002700,1.00312800
8.64000000,0.27680000,0.77786000,-0.22953400,-0.47560600,0.84738100,0.40015300,0.04636700,-0.66389000,-0.99008900,0.23406400,-0.51794600,-0.35250400,0.32002700,1.00312800
8.66000000,0.27680000,0.77786000,-0.22953400,-0.47560600,0.84738100,0.40015300,0.04636700,-0.66389000,-0.99008900,0.23406400,-0.51794600,-0.35250400,0.32002700,1.00312800
8.68000000,0.27680000,0.77786000,-0.22953400,-0.47560600,0.84738100,0.40015300,0.04636700,-0.66389000,-0.99008900,0.23406400,-0.51794600,-0.35250400,0.32002700,1.00312800
8.70000000,0.27680000,0.77786000,-0.22953400,-0.47560600,0.84738100,0.40015300,0.04636700,-0.66389000,-0.99008900,0.23406400,-0.51794600,-0.35250400,0.32002700,1.00312800
8.72000000,0.27680000,0.77786000,-0.22953400,-0.47560600,0.84738100,0.40015300,0.04636700,-0.66389000,-0.99008900,0.23406400,-0.51794600,-0.35250400,0.32002700,1.00312800
8.74000000,0.27680000,0.77786000,-0.22953400,-0.47560600,0.84738100,0.40015300,0.04636700,-0.66389000,-0.99008900,0.23406400,-0.51794600,-0.35250400,0.32002700,1.00312800
8.76000000,0.27680000,0.77786000,-0.22953400,-0.47560600,0.84738100,0.40015300,0.04636700,-0.66389000,-0.99008900,0.23406400,-0.51794600,-0.35250400,0.32002700,1.00312800
8.78000000,0.27680000,0.77786000,-0.22953400,-0.47560600,0.84738100,0.40015300,0.04636700,-0.66389000,-0.99008900,0.23406400,-0.51794600,-0.35250400,0.32002700,1.00312800
8.80000000,0.27680000,0.77786000,-0.22953400,-0.47560600,0.84738100,0.40015300,0.04636700,-0.66389000,-0.99008900,0.23406400,-0.51794600,-0.35250400,0.32002700,1.00312800
8.82000000,0.27680000,0.77786000,-0.22953400,-0.47560600,0.84738100,0.40015300,0.04636700,-0.66389000,-0.99008900,0.23406400,-0.51794600,-0.35250400,0.32002700,1.00312800
8.84000000,0.27680000,0.77786000,-0.22953400,-0.47560600,0.84738100,0.40015300,0.04636700,-0.66389000,-0.99008900,0.23406400,-0.51794600,-0.35250400,0.32002700,1.00312800
8.86000000,0.27680000,0.77786000,-0.22953400,-0.47560600,0.84738100,0.40015300,0.04636700,-0.66389000,-0.99008900,0.23406400,-0.51794600,-0.35250400,0.32002700,1.00312800
8.88000000,0.27680000,0.77786000,-0.22953400,-0.47560600,0.84738100,0.40015300,0.04636700,-0.66389000,-0.99008900,0.23406400,-0.51794600,-0.35250400,0.32002700,1.00312800
8.90000000,0.27680000,0.77786000,-0.22953400,-0.47560600,0.84738100,0.40015300,0.04636700,-0.66389000,-0.99008900,0.23406400,-0.51794600,-0.35250400,0.32002700,1.00312800
8.92000000,0.27680000,0.77786000,-0.22953400,-0.47560600,0.84738100,0.40015300,0.04636700,-0.66389000,-0.99008900,0.23406400,-0.51794600,-0.35250400,0.32002700,1.00312800
8.94000000,0.27680000,0.77786000,-0.22953400,-0.47560600,0.84738100,0.40015300,0.04636700,-0.66389000,-0.99008900,0.23406400,-0.51794600,-0.35250400,0.32002700,1.00312800
8.96000000,0.27680000,0.77786000,-0.22953400,-0.47560600,0.84738100,0.40015300,0.04636700,-0.66389000,-0.99008900,0.23406400,-0.51794600,-0.35250400,0.32002700,1.00312800
8.98000000,0.27680000,0.77786000,-0.22953400,-0.47560600,0.84738100,0.40015300,0.04636700,-0.66389000,-0.99008900,0.23406400,-0.51794600,-0.35250400,0.32002700,1.00312800
9.00000000,0.27680000,0.77786000,-0.22953400,-0.47560600,0.84738100,0.40015300,0.04636700,-0.66389000,-0.99008900,0.23406400,-0.51794600,-0.35250400,0.32002700,1.00312800
9.02000000,0.27680000,0.77786000,-0.22953400,-0.47560600,0.84738100,0.40015300,0.04636700,-0.66389000,-0.99008900,0.23406400,-0.51794600,-0.35250400,0.32002700,1.00312800
9.04000000,0.27680000,0.77786000,-0.22953400,-0.47560600,0.84738100,0.40015300,0.04636700,-0.66389000,-0.99008900,0.23406400,-0.51794600,-0.35250400,0.32002700,1.00312800
9.06000000,0.27680000,0.77786000,-0.22953400,-0.47560600,0.84738100,0.40015300,0.04636700,-0.66389000,-0.99008900,0.23406400,-0.51794600,-0.35250400,0.32002700,1.00312800
9.08000000,0.27680000,0.77786000,-0.22953400,-0.47560600,0.84738100,0.40015300,0.04636700,-0.66389000,-0.99008900,0.23406400,-0.51794600,-0.35250400,0.32002700,1.00312800
9.10000000,0.27680000,0.77786000,-0.22953400,-0.47560600,0.84738100,0.40015300,0.04636700,-0.66389000,-0.99008900,0.23406400,-0.51794600,-0.35250400,0.32002700,1.00312800
9.12000000,0.27680000,0.77786000,-0.22953400,-0.47560600,0.84738100,0.40015300,0.04636700,-0.66389000,-0.99008900,0.23406400,-0.51794600,-0.35250400,0.32002700,1.00312800
9.14000000,0.27680000,0.77786000,-0.22953400,-0.47560600,0.84738100,0.40015300,0.04636700,-0.66389000,-0.99008900,0.23406400,-0.51794600,-0.35250400,0.32002700,1.00312800
9.16000000,0.27680000,0.77786000,-0.22953400,-0.47560600,0.84738100,0.40015300,0.04636700,-0.66389000,-0.99008900,0.23406400,-0.51794600,-0.35250400,0.32002700,1.00312800
9.18000000,0.27680000,0.77786000,-0.22953400,-0.47560600,0.84738100,0.40015300,0.04636700,-0.66389000,-0.99008900,0.23406400,-0.51794600,-0.35250400,0.32002700,1.00312800
9.20000000,0.27680000,0.77786000,-0.22953400,-0.47560600,0.84738100,0.40015300,0.04636700,-0.66389000,-0.99008900,0.23406400,-0.51794600,-0.35250400,0.32002700,1.00312800
9.22000000,0.27680000,0.77786000,-0.22953400,-0.47560600,0.84738100,0.40015300,0.04636700,-0.66389000,-0.99008900,0.23406400,-0.51794600,-0.35250400,0.32002700,1.00312800
9.24000000,0.27680000,0.77786000,-0.22953400,-0.47560600,0.84738100,0.40015300,0.04636700,-0.66389000,-0.99008900,0.23406400,-0.51794600,-0.35250400,0.32002700,1.00312800
9.26000000,0.27680000,0.77786000,-0.22953400,-0.47560600,0.84738100,0.40015300,0.04636700,-0.66389000,-0.99008900,0.23406400,-0.51794600,-0.35250400,0.32002700,1.00312800
9.28000000,0.27680000,0.77786000,-0.22953400,-0.47560600,0.84738100,0.40015300,0.04636700,-0.66389000,-0.99008900,0.23406400,-0.51794600,-0.35250400,0.32002700,1.00312800
9.30000000,0.27680000,0.77786000,-0.22953400,-0.47560600,0.84738100,0.40015300,0.04636700,-0.66389000,-0.99008900,0.23406400,-0.51794600,-0.35250400,0.32002700,1.00312800
9.32000000,0.27680000,0.77786000,-0.22953400,-0.47560600,0.84738100,0.40015300,0.04636700,-0.66389000,-0.99008900,0.23406400,-0.51794600,-0.35250400,0.32002700,1.00312800
9.34000000,0.27680000,0.77786000,-0.22953400,-0.47560600,0.84738100,0.40015300,0.04636700,-0.66389000,-0.99008900,0.23406400,-0.51794600,-0.35250400,0.32002700,1.00312800
9.36000000,0.27680000,0.77786000,-0.22953400,-0.47560600,0.84738100,0.40015300,0.04636700,-0.66389000,-0.99008900,0.23406400,-0.51794600,-0.35250400,0.32002700,1.00312800
9.38000000,0.27680000,0.77786000,-0.22953400,-0.47560600,0.84738100,0.40015300,0.04636700,-0.66389000,-0.99008900,0.23406400,-0.51794600,-0.35250400,0.32002700,1.00312800
9.40000000,0.27680000,0.77786000,-0.22953400,-0.47560600,0.84738100,0.40015300,0.04636700,-0.66389000,-0.99008900,0.23406400,-0.51794600,-0.35250400,0.32002700,1.00312800
9.42000000,0.27680000,0.77786000,-0.22953400,-0.47560600,0.84738100,0.40015300,0.04636700,-0.66389000,-0.99008900,0.23406400,-0.51794600,-0.35250400,0.32002700,1.00312800
9.44000000,0.27680000,0.77786000,-0.22953400,-0.47560600,0.84738100,0.40015300,0.04636700,-0.66389000,-0.99008900,0.23406400,-0.51794600,-0.35250400,0.32002700,1.00312800
9.46000000,0.27680000,0.77786000,-0.22953400,-0.47560600,0.84738100,0.40015300,0.04636700,-0.66389000,-0.99008900,0.23406400,-0.51794600,-0.35250400,0.32002700,1.00312800
9.48000000,0.27680000,0.77786000,-0.22953400,-0.47560600,0.84738100,0.40015300,0.04636700,-0.66389000,-0.99008900,0.23406400,-0.51794600,-0.35250400,0.32002700,1.00312800
9.50000000,0.27680000,0.77786000,-0.22953400,-0.47560600,0.84738100,0.40015300,0.04636700,-0.66389000,-0.99008900,0.23406400,-0.51794600,-0.35250400,0.32002700,1.00312800
9.52000000,0.27680000,0.77786000,-0.22953400,-0.47560600,0.84738100,0.40015300,0.04636700,-0.66389000,-0.99008900,0.23406400,-0.51794600,-0.35250400,0.32002700,1.00312800
9.54000000,0.27680000,0.77786000,-0.22953400,-0.47560600,0.84738100,0.40015300,0.04636700,-0.66389000,-0.99008900,0.23406400,-0.51794600,-0.35250400,0.32002700,1.00312800
9.56000000,0.27680000,0.77786000,-0.22953400,-0.47560600,0.84738100,0.40015300,0.04636700,-0.66389000,-0.99008900,0.23406400,-0.51794600,-0.35250400,0.32002700,1.00312800
9.58000000,0.27680000,0.77786000,-0.22953400,-0.47560600,0.84738100,0.40015300,0.04636700,-0.66389000,-0.99008900,0.23406400,-0.51794600,-0.35250400,0.32002700,1.00312800
9.60000000,0.27680000,0.77786000,-0.22953400,-0.47560600,0.84738100,0.40015300,0.04636700,-0.66389000,-0.99008900,0.23406400,-0.51794600,-0.35250400,0.32002700,1.00312800
9.62000000,0.27680000,0.77786000,-0.22953400,-0.47560600,0.84738100,0.40015300,0.04636700,-0.66389000,-0.99008900,0.23406400,-0.51794600,-0.35250400,0.32002700,1.00312800
9.64000000,0.27680000,0.77786000,-0.22953400,-0.47560600,0.84738100,0.40015300,0.04636700,-0.66389000,-0.99008900,0.23406400,-0.51794600,-0.35250400,0.32002700,1.00312800
9.66000000,0.27680000,0.77786000,-0.22953400,-0.47560600,0.84738100,0.40015300,0.04636700,-0.66389000,-0.99008900,0.23406400,-0.51794600,-0.35250400,0.32002700,1.00312800
9.68000000,0.27680000,0.77786000,-0.22953400,-0.47560600,0.84738100,0.40015300,0.04636700,-0.66389000,-0.99008900,0.23406400,-0.51794600,-0.35250400,0.32002700,1.00312800
9.70000000,0.27680000,0.77786000,-0.22953400,-0.47560600,0.84738100,0.40015300,0.04636700,-0.66389000,-0.99008900,0.23406400,-0.51794600,-0.35250400,0.32002700,1.00312800
9.72000000,0.27680000,0.77786000,-0.22953400,-0.47560600,0.84738100,0.40015300,0.04636700,-0.66389000,-0.99008900,0.23406400,-0.51794600,-0.35250400,0.32002700,1.00312800
9.74000000,0.27680000,0.77786000,-0.22953400,-0.47560600,0.84738100,0.40015300,0.04636700,-0.66389000,-0.99008900,0.23406400,-0.51794600,-0.35250400,0.32002700,1.00312800
9.76000000,0.27680000,0.77786000,-0.22953400,-0.47560600,0.84738100,0.40015300,0.04636700,-0.66389000,-0.99008900,0.23406400,-0.51794600,-0.35250400,0.32002700,1.00312800
9.78000000,0.27680000,0.77786000,-0.22953400,-0.47560600,0.84738100,0.40015300,0.04636700,-0.66389000,-0.99008900,0.23406400,-0.51794600,-0.35250400,0.32002700,1.00312800
9.80000000,0.27680000,0.77786000,-0.22953400,-0.47560600,0.84738100,0.40015300,0.04636700,-0.66389000,-0.99008900,0.23406400,-0.51794600,-0.35250400,0.32002700,1.00312800
9.82000000,0.27680000,0.77786000,-0.22953400,-0.47560600,0.84738100,0.40015300,0.04636700,-0.66389000,-0.99008900,0.23406400,-0.51794600,-0.35250400,0.32002700,1.00312800
9.84000000,0.27680000,0.77786000,-0.22953400,-0.47560600,0.84738100,0.40015300,0.04636700,-0.66389000,-0.99008900,0.23406400,-0.51794600,-0.35250400,0.32002700,1.00312800
9.86000000,0.27680000,0.77786000,-0.22953400,-0.47560600,0.84738100,0.40015300,0.04636700,-0.66389000,-0.99008900,0.23406400,-0.51794600,-0.35250400,0.32002700,1.00312800
9.88000000,0.27680000,0.77786000,-0.22953400,-0.47560600,0.84738100,0.40015300,0.04636700,-0.66389000,-0.99008900,0.23406400,-0.51794600,-0.35250400,0.32002700,1.00312800
9.90000000,0.27680000,0.77786000,-0.22953400,-0.47560600,0.84738100,0.40015300,0.04636700,-0.66389000,-0.99008900,0.23406400,-0.51794600,-0.35250400,0.32002700,1.00312800
9.92000000,0.27680000,0.77786000,-0.22953400,-0.47560600,0.84738100,0.40015300,0.04636700,-0.66389000,-0.99008900,0.23406400,-0.51794600,-0.35250400,0.32002700,1.00312800
9.94000000,0.27680000,0.77786000,-0.22953400,-0.47560600,0.84738100,0.40015300,0.04636700,-0.66389000,-0.99008900,0.23406400,-0.51794600,-0.35250400,0.32002700,1.00312800
9.96000000,0.27680000,0.77786000,-0.22953400,-0.47560600,0.84738100,0.40015300,0.04636700,-0.66389000,-0.99008900,0.23406400,-0.51794600,-0.35250400,0.32002700,1.00312800
9.98000000,0.27680000,0.77786000,-0.22953400,-0.47560600,0.84738100,0.40015300,0.04636700,-0.66389000,-0.99008900,0.23406400,-0.51794600,-0.35250400,0.32002700,1.00312800
10.00000000,0.27680000,0.77786000,-0.22953400,-0.47560600,0.84738100,0.40015300,0.04636700,-0.66389000,-0.99008900,0.23406400,-0.51794600,-0.35250400,0.32002700,1.00312800
10.02000000,0.27680000,0.77786000,-0.22953400,-0.47560600,0.84738100,0.40015300,0.04636700,-0.66389000,-0.99008900,0.23406400,-0.51794600,-0.35250400,0.32002700,1.00312800
10.04000000,0.27680000,0.77786000,-0.22953400,-0.47560600,0.84738100,0.40015300,0.04636700,-0.66389000,-0.99008900,0.23406400,-0.51794600,-0.35250400,0.32002700,1.00312800
10.06000000,0.27680000,0.77786000,-0.22953400,-0.47560600,0.84738100,0.40015300,0.04636700,-0.66389000,-0.99008900,0.23406400,-0.51794600,-0.35250400,0.32002700,1.00312800
10.08000000,0.27680000,0.77786000,-0.22953400,-0.47560600,0.84738100,0.40015300,0.04636700,-0.66389000,-0.99008900,0.23406400,-0.51794600,-0.35250400,0.32002700,1.00312800
10.10000000,0.27680000,0.77786000,-0.22953400,-0.47560600,0.84738100,0.40015300,0.04636700,-0.66389000,-0.99008900,0.23406400,-0.51794600,-0.35250400,0.32002700,1.00312800
10.12000000,0.27680000,0.77786000,-0.22953400,-0.47560600,0.84738100,0.40015300,0.04636700,-0.66389000,-0.99008900,0.23406400,-0.51794600,-0.35250400,0.32002700,1.00312800
10.14000000,0.27680000,0.77786000,-0.22953400,-0.47560600,0.84738100,0.40015300,0.04636700,-0.66389000,-0.99008900,0.23406400,-0.51794600,-0.35250400,0.32002700,1.00312800
10.16000000,0.27680000,0.77786000,-0.22953400,-0.47560600,0.84738100,0.40015300,0.04636700,-0.66389000,-0.99008900,0.23406400,-0.51794600,-0.35250400,0.32002700,1.00312800
10.18000000,0.27680000,0.77786000,-0.22953400,-0.47560600,0.84738100,0.40015300,0.04636700,-0.66389000,-0.99008900,0.23406400,-0.51794600,-0.35250400,0.32002700,1.00312800
10.20000000,0.27680000,0.77786000,-0.22953400,-0.47560600,0.84738100,0.40015300,0.04636700,-0.66389000,-0.99008900,0.23406400,-0.51794600,-0.35250400,0.32002700,1.00312800
10.22000000,0.27680000,0.77786000,-0.22953400,-0.47560600,0.84738100,0.40015300,0.04636700,-0.66389000,-0.99008900,0.23406400,-0.51794600,-0.35250400,0.32002700,1.00312800
10.24000000,0.27680000,0.77786000,-0.22953400,-0.47560600,0.84738100,0.40015300,0.04636700,-0.66389000,-0.99008900,0.23406400,-0.51794600,-0.35250400,0.32002700,1.00312800
10.26000000,0.27680000,0.77786000,-0.22953400,-0.47560600,0.84738100,0.40015300,0.04636700,-0.66389000,-0.99008900,0.23406400,-0.51794600,-0.35250400,0.32002700,1.00312800
10.28000000,0.27680000,0.77786000,-0.22953400,-0.47560600,0.84738100,0.40015300,0.04636700,-0.66389000,-0.99008900,0.23406400,-0.51794600,-0.35250400,0.32002700,1.00312800
10.30000000,0.27680000,0.77786000,-0.22953400,-0.47560600,0.84738100,0.40015300,0.04636700,-0.66389000,-0.99008900,0.23406400,-0.51794600,-0.35250400,0.32002700,1.00312800
10.32000000,0.27680000,0.77786000,-0.22953400,-0.47560600,0.84738100,0.40015300,0.04636700,-0.66389000,-0.99008900,0.23406400,-0.51794600,-0.35250400,0.32002700,1.00312800
10.34000000,0.27680000,0.77786000,-0.22953400,-0.47560600,0.84738100,0.40015300,0.04636700,-0.66389000,-0.99008900,0.23406400,-0.51794600,-0.35250400,0.32002700,1.00312800
10.36000000,0.27680000,0.77786000,-0.22953400,-0.47560600,0.84738100,0.40015300,0.04636700,-0.66389000,-0.99008900,0.23406400,-0.51794600,-0.35250400,0.32002700,1.00312800
10.38000000,0.27680000,0.77786000,-0.22953400,-0.47560600,0.84738100,0.40015300,0.04636700,-0.66389000,-0.99008900,0.23406400,-0.51794600,-0.35250400,0.32002700,1.00312800
10.40000000,0.27680000,0.77786000,-0.22953400,-0.47560600,0.84738100,0.40015300,0.04636700,-0.66389000,-0.99008900,0.23406400,-0.51794600,-0.35250400,0.32002700,1.00312800
10.42000000,0.27680000,0.77786000,-0.22953400,-0.47560600,0.84738100,0.40015300,0.04636700,-0.66389000,-0.99008900,0.23406400,-0.51794600,-0.35250400,0.32002700,1.00312800
10.44000000,0.27680000,0.77786000,-0.22953400,-0.47560600,0.84738100,0.40015300,0.04636700,-0.66389000,-0.99008900,0.23406400,-0.51794600,-0.35250400,0.32002700,1.00312800
10.46000000,0.27680000,0.77786000,-0.22953400,-0.47560600,0.84738100,0.40015300,0.04636700,-0.66389000,-0.99008900,0.23406400,-0.51794600,-0.35250400,0.32002700,1.00312800
10.48000000,0.27680000,0.77786000,-0.22953400,-0.47560600,0.84738100,0.40015300,0.04636700,-0.66389000,-0.99008900,0.23406400,-0.51794600,-0.35250400,0.32002700,1.00312800
10.50000000,0.27680000,0.77786000,-0.22953400,-0.47560600,0.84738100,0.40015300,0.04636700,-0.66389000,-0.99008900,0.23406400,-0.51794600,-0.35250400,0.32002700,1.00312800
10.52000000,0.27680000,0.77786000,-0.22953400,-0.47560600,0.84738100,0.40015300,0.04636700,-0.66389000,-0.99008900,0.23406400,-0.51794600,-0.35250400,0.32002700,1.00312800
10.54000000,0.27680000,0.77786000,-0.22953400,-0.47560600,0.84738100,0.40015300,0.04636700,-0.66389000,-0.99008900,0.23406400,-0.51794600,-0.35250400,0.32002700,1.00312800
10.56000000,0.27680000,0.77786000,-0.22953400,-0.47560600,0.84738100,0.40015300,0.04636700,-0.66389000,-0.99008900,0.23406400,-0.51794600,-0.35250400,0.32002700,1.00312800
10.58000000,0.27680000,0.77786000,-0.22953400,-0.47560600,0.84738100,0.40015300,0.04636700,-0.66389000,-0.99008900,0.23406400,-0.51794600,-0.35250400,0.32002700,1.00312800
10.60000000,0.27680000,0.77786000,-0.22953400,-0.47560600,0.84738100,0.40015300,0.04636700,-0.66389000,-0.99008900,0.23406400,-0.51794600,-0.35250400,0.32002700,1.00312800
10.62000000,0.27680000,0.77786000,-0.22953400,-0.47560600,0.84738100,0.40015300,0.04636700,-0.66389000,-0.99008900,0.23406400,-0.51794600,-0.35250400,0.32002700,1.00312800
10.64000000,0.27680000,0.77786000,-0.22953400,-0.47560600,0.84738100,0.40015300,0.04636700,-0.66389000,-0.99008900,0.23406400,-0.51794600,-0.35250400,0.32002700,1.00312800
10.66000000,0.27680000,0.77786000,-0.22953400,-0.47560600,0.84738100,0.40015300,0.04636700,-0.66389000,-0.99008900,0.23406400,-0.51794600,-0.35250400,0.32002700,1.00312800
10.68000000,0.27680000,0.77786000,-0.22953400,-0.47560600,0.84738100,0.40015300,0.04636700,-0.66389000,-0.99008900,0.23406400,-0.51794600,-0.35250400,0.32002700,1.00312800
10.70000000,0.27680000,0.77786000,-0.22953400,-0.47560600,0.84738100,0.40015300,0.04636700,-0.66389000,-0.99008900,0.23406400,-0.51794600,-0.35250400,0.32002700,1.00312800
10.72000000,0.27680000,0.77786000,-0.22953400,-0.47560600,0.84738100,0.40015300,0.04636700,-0.66389000,-0.99008900,0.23406400,-0.51794600,-0.35250400,0.32002700,1.00312800
10.74000000,0.27680000,0.77786000,-0.22953400,-0.47560600,0.84738100,0.40015300,0.04636700,-0.66389000,-0.99008900,0.23406400,-0.51794600,-0.35250400,0.32002700,1.00312800
10.76000000,0.27680000,0.77786000,-0.22953400,-0.47560600,0.84738100,0.40015300,0.04636700,-0.66389000,-0.99008900,0.23406400,-0.51794600,-0.35250400,0.32002700,1.00312800
10.78000000,0.27680000,0.77786000,-0.22953400,-0.47560600,0.84738100,0.40015300,0.04636700,-0.66389000,-0.99008900,0.23406400,-0.51794600,-0.35250400,0.32002700,1.00312800
10.80000000,0.27680000,0.77786000,-0.22953400,-0.47560600,0.84738100,0.40015300,0.04636700,-0.66389000,-0.99008900,0.23406400,-0.51794600,-0.35250400,0.32002700,1.00312800
10.82000000,0.27680000,0.77786000,-0.22953400,-0.47560600,0.84738100,0.40015300,0.04636700,-0.66389000,-0.99008900,0.23406400,-0.51794600,-0.35250400,0.32002700,1.00312800
10.84000000,0.27680000,0.77786000,-0.22953400,-0.47560600,0.84738100,0.40015300,0.04636700,-0.66389000,-0.99008900,0.23406400,-0.51794600,-0.35250400,0.32002700,1.00312800
10.86000000,0.27680000,0.77786000,-0.22953400,-0.47560600,0.84738100,0.40015300,0.04636700,-0.66389000,-0.99008900,0.23406400,-0.51794600,-0.35250400,0.32002700,1.00312800
10.88000000,0.27680000,0.77786000,-0.22953400,-0.47560600,0.84738100,0.40015300,0.04636700,-0.66389000,-0.99008900,0.23406400,-0.51794600,-0.35250400,0.32002700,1.00312800
10.90000000,0.27680000,0.77786000,-0.22953400,-0.47560600,0.84738100,0.40015300,0.04636700,-0.66389000,-0.99008900,0.23406400,-0.51794600,-0.35250400,0.32002700,1.00312800
10.92000000,0.27680000,0.77786000,-0.22953400,-0.47560600,0.84738100,0.40015300,0.04636700,-0.66389000,-0.99008900,0.23406400,-0.51794600,-0.35250400,0.32002700,1.00312800
10.94000000,0.27680000,0.77786000,-0.22953400,-0.47560600,0.84738100,0.40015300,0.04636700,-0.66389000,-0.99008900,0.23406400,-0.51794600,-0.35250400,0.32002700,1.00312800
10.96000000,0.27680000,0.77786000,-0.22953400,-0.47560600,0.84738100,0.40015300,0.04636700,-0.66389000,-0.99008900,0.23406400,-0.51794600,-0.35250400,0.32002700,1.00312800
10.98000000,0.27680000,0.77786000,-0.22953400,-0.47560600,0.84738100,0.40015300,0.04636700,-0.66389000,-0.99008900,0.23406400,-0.51794600,-0.35250400,0.32002700,1.00312800
11.00000000,0.27680000,0.77786000,-0.22953400,-0.47560600,0.84738100,0.40015300,0.04636700,-0.66389000,-0.99008900,0.23406400,-0.51794600,-0.35250400,0.32002700,1.00312800
11.02000000,0.27680000,0.77786000,-0.22953400,-0.47560600,0.84738100,0.40015300,0.04636700,-0.66389000,-0.99008900,0.23406400,-0.51794600,-0.35250400,0.32002700,1.00312800
11.04000000,0.27680000,0.77786000,-0.22953400,-0.47560600,0.84738100,0.40015300,0.04636700,-0.66389000,-0.99008900,0.23406400,-0.51794600,-0.35250400,0.32002700,1.00312800
11.06000000,0.27680000,0.77786000,-0.22953400,-0.47560600,0.84738100,0.40015300,0.04636700,-0.66389000,-0.99008900,0.23406400,-0.51794600,-0.35250400,0.32002700,1.00312800
11.08000000,0.27680000,0.77786000,-0.22953400,-0.47560600,0.84738100,0.40015300,0.04636700,-0.66389000,-0.99008900,0.23406400,-0.51794600,-0.35250400,0.32002700,1.00312800
11.10000000,0.27680000,0.77786000,-0.22953400,-0.47560600,0.84738100,0.40015300,0.04636700,-0.66389000,-0.99008900,0.23406400,-0.51794600,-0.35250400,0.32002700,1.00312800
11.12000000,0.27680000,0.77786000,-0.22953400,-0.47560600,0.84738100,0.40015300,0.04636700,-0.66389000,-0.99008900,0.23406400,-0.51794600,-0.35250400,0.32002700,1.00312800
11.14000000,0.27680000,0.77786000,-0.22953400,-0.47560600,0.84738100,0.40015300,0.04636700,-0.66389000,-0.99008900,0.23406400,-0.51794600,-0.35250400,0.32002700,1.00312800
11.16000000,0.27680000,0.77786000,-0.22953400,-0.47560600,0.84738100,0.40015300,0.04636700,-0.66389000,-0.99008900,0.23406400,-0.51794600,-0.35250400,0.32002700,1.00312800
11.18000000,0.27680000,0.77786000,-0.22953400,-0.47560600,0.84738100,0.40015300,0.04636700,-0.66389000,-0.99008900,0.23406400,-0.51794600,-0.35250400,0.32002700,1.00312800
11.20000000,0.27680000,0.77786000,-0.22953400,-0.47560600,0.84738100,0.40015300,0.04636700,-0.66389000,-0.99008900,0.23406400,-0.51794600,-0.35250400,0.32002700,1.00312800
11.22000000,0.27680000,0.77786000,-0.22953400,-0.47560600,0.84738100,0.40015300,0.04636700,-0.66389000,-0.99008900,0.23406400,-0.51794600,-0.35250400,0.32002700,1.00312800
11.24000000,0.27680000,0.77786000,-0.22953400,-0.47560600,0.84738100,0.40015300,0.04636700,-0.66389000,-0.99008900,0.23406400,-0.51794600,-0.35250400,0.32002700,1.00312800
11.26000000,0.27680000,0.77786000,-0.22953400,-0.47560600,0.84738100,0.40015300,0.04636700,-0.66389000,-0.99008900,0.23406400,-0.51794600,-0.35250400,0.32002700,1.00312800
11.28000000,0.27680000,0.77786000,-0.22953400,-0.47560600,0.84738100,0.40015300,0.04636700,-0.66389000,-0.99008900,0.23406400,-0.51794600,-0.35250400,0.32002700,1.00312800
11.30000000,0.27680000,0.77786000,-0.22953400,-0.47560600,0.84738100,0.40015300,0.04636700,-0.66389000,-0.99008900,0.23406400,-0.51794600,-0.35250400,0.32002700,1.00312800
11.32000000,0.27680000,0.77786000,-0.22953400,-0.47560600,0.84738100,0.40015300,0.04636700,-0.66389000,-0.99008900,0.23406400,-0.51794600,-0.35250400,0.32002700,1.00312800
11.34000000,0.27680000,0.77786000,-0.22953400,-0.47560600,0.84738100,0.40015300,0.04636700,-0.66389000,-0.99008900,0.23406400,-0.51794600,-0.35250400,0.32002700,1.00312800
11.36000000,0.27680000,0.77786000,-0.22953400,-0.47560600,0.84738100,0.40015300,0.04636700,-0.66389000,-0.99008900,0.23406400,-0.51794600,-0.35250400,0.32002700,1.00312800
11.38000000,0.27680000,0.77786000,-0.22953400,-0.47560600,0.84738100,0.40015300,0.04636700,-0.66389000,-0.99008900,0.23406400,-0.51794600,-0.35250400,0.32002700,1.00312800
11.40000000,0.27680000,0.77786000,-0.22953400,-0.47560600,0.84738100,0.40015300,0.04636700,-0.66389000,-0.99008900,0.23406400,-0.51794600,-0.35250400,0.32002700,1.00312800
11.42000000,0.27680000,0.77786000,-0.22953400,-0.47560600,0.84738100,0.40015300,0.04636700,-0.66389000,-0.99008900,0.23406400,-0.51794600,-0.35250400,0.32002700,1.00312800
11.44000000,0.27680000,0.77786000,-0.22953400,-0.47560600,0.84738100,0.40015300,0.04636700,-0.66389000,-0.99008900,0.23406400,-0.51794600,-0.35250400,0.32002700,1.00312800
11.46000000,0.27680000,0.77786000,-0.22953400,-0.47560600,0.84738100,0.40015300,0.04636700,-0.66389000,-0.99008900,0.23406400,-0.51794600,-0.35250400,0.32002700,1.00312800
11.48000000,0.27680000,0.77786000,-0.22953400,-0.47560600,0.84738100,0.40015300,0.04636700,-0.66389000,-0.99008900,0.23406400,-0.51794600,-0.35250400,0.32002700,1.00312800
11.50000000,0.27680000,0.77786000,-0.22953400,-0.47560600,0.84738100,0.40015300,0.04636700,-0.66389000,-0.99008900,0.23406400,-0.51794600,-0.35250400,0.32002700,1.00312800
11.52000000,0.27680000,0.77786000,-0.22953400,-0.47560600,0.84738100,0.40015300,0.04636700,-0.66389000,-0.99008900,0.23406400,-0.51794600,-0.35250400,0.32002700,1.00312800
11.54000000,0.27680000,0.77786000,-0.22953400,-0.47560600,0.84738100,0.40015300,0.04636700,-0.66389000,-0.99008900,0.23406400,-0.51794600,-0.35250400,0.32002700,1.00312800
11.56000000,0.27680000,0.77786000,-0.22953400,-0.47560600,0.84738100,0.40015300,0.04636700,-0.66389000,-0.99008900,0.23406400,-0.51794600,-0.35250400,0.32002700,1.00312800
11.58000000,0.27680000,0.77786000,-0.22953400,-0.47560600,0.84738100,0.40015300,0.04636700,-0.66389000,-0.99008900,0.23406400,-0.51794600,-0.35250400,0.32002700,1.00312800
11.60000000,0.27680000,0.77786000,-0.22953400,-0.47560600,0.84738100,0.40015300,0.04636700,-0.66389000,-0.99008900,0.23406400,-0.51794600,-0.35250400,0.32002700,1.00312800
11.62000000,0.27680000,0.77786000,-0.22953400,-0.47560600,0.84738100,0.40015300,0.04636700,-0.66389000,-0.99008900,0.23406400,-0.51794600,-0.35250400,0.32002700,1.00312800
