gracetata/LocomotionHEC/legged_lab/Reference Data/ArmHack/StandPerturb/TestData/ArmOnly/poses/representative/representative_arm_pose_01_hold20s_50hz.csv
time_s,left_shoulder_pitch_joint,left_shoulder_roll_joint,left_shoulder_yaw_joint,left_elbow_joint,left_wrist_roll_joint,left_wrist_pitch_joint,left_wrist_yaw_joint,right_shoulder_pitch_joint,right_shoulder_roll_joint,right_shoulder_yaw_joint,right_elbow_joint,right_wrist_roll_joint,right_wrist_pitch_joint,right_wrist_yaw_joint
0.00000000,0.27744700,0.77759600,-0.22961800,-0.47545000,0.84738100,0.40014100,0.04635500,0.27819000,-0.77841100,0.22883900,-0.47379600,-0.84847100,0.40059700,-0.04655900
0.02000000,0.27744700,0.77759600,-0.22961800,-0.47545000,0.84738100,0.40014100,0.04635500,0.27819000,-0.77841100,0.22883900,-0.47379600,-0.84847100,0.40059700,-0.04655900
0.04000000,0.27744700,0.77759600,-0.22961800,-0.47545000,0.84738100,0.40014100,0.04635500,0.27819000,-0.77841100,0.22883900,-0.47379600,-0.84847100,0.40059700,-0.04655900
0.06000000,0.27744700,0.77759600,-0.22961800,-0.47545000,0.84738100,0.40014100,0.04635500,0.27819000,-0.77841100,0.22883900,-0.47379600,-0.84847100,0.40059700,-0.04655900
0.08000000,0.27744700,0.77759600,-0.22961800,-0.47545000,0.84738100,0.40014100,0.04635500,0.27819000,-0.77841100,0.22883900,-0.47379600,-0.84847100,0.40059700,-0.04655900
0.10000000,0.27744700,0.77759600,-0.22961800,-0.47545000,0.84738100,0.40014100,0.04635500,0.27819000,-0.77841100,0.22883900,-0.47379600,-0.84847100,0.40059700,-0.04655900
0.12000000,0.27744700,0.77759600,-0.22961800,-0.47545000,0.84738100,0.40014100,0.04635500,0.27819000,-0.77841100,0.22883900,-0.47379600,-0.84847100,0.40059700,-0.04655900
0.14000000,0.27744700,0.77759600,-0.22961800,-0.47545000,0.84738100,0.40014100,0.04635500,0.27819000,-0.77841100,0.22883900,-0.47379600,-0.84847100,0.40059700,-0.04655900
0.16000000,0.27744700,0.77759600,-0.22961800,-0.47545000,0.84738100,0.40014100,0.04635500,0.27819000,-0.77841100,0.22883900,-0.47379600,-0.84847100,0.40059700,-0.04655900
0.18000000,0.27744700,0.77759600,-0.22961800,-0.47545000,0.84738100,0.40014100,0.04635500,0.27819000,-0.77841100,0.22883900,-0.47379600,-0.84847100,0.40059700,-0.04655900
0.20000000,0.27744700,0.77759600,-0.22961800,-0.47545000,0.84738100,0.40014100,0.04635500,0.27819000,-0.77841100,0.22883900,-0.47379600,-0.84847100,0.40059700,-0.04655900
0.22000000,0.27744700,0.77759600,-0.22961800,-0.47545000,0.84738100,0.40014100,0.04635500,0.27819000,-0.77841100,0.22883900,-0.47379600,-0.84847100,0.40059700,-0.04655900
0.24000000,0.27744700,0.77759600,-0.22961800,-0.47545000,0.84738100,0.40014100,0.04635500,0.27819000,-0.77841100,0.22883900,-0.47379600,-0.84847100,0.40059700,-0.04655900
0.26000000,0.27744700,0.77759600,-0.22961800,-0.47545000,0.84738100,0.40014100,0.04635500,0.27819000,-0.77841100,0.22883900,-0.47379600,-0.84847100,0.40059700,-0.04655900
0.28000000,0.27744700,0.77759600,-0.22961800,-0.47545000,0.84738100,0.40014100,0.04635500,0.27819000,-0.77841100,0.22883900,-0.47379600,-0.84847100,0.40059700,-0.04655900
0.30000000,0.27744700,0.77759600,-0.22961800,-0.47545000,0.84738100,0.40014100,0.04635500,0.27819000,-0.77841100,0.22883900,-0.47379600,-0.84847100,0.40059700,-0.04655900
0.32000000,0.27744700,0.77759600,-0.22961800,-0.47545000,0.84738100,0.40014100,0.04635500,0.27819000,-0.77841100,0.22883900,-0.47379600,-0.84847100,0.40059700,-0.04655900
0.34000000,0.27744700,0.77759600,-0.22961800,-0.47545000,0.84738100,0.40014100,0.04635500,0.27819000,-0.77841100,0.22883900,-0.47379600,-0.84847100,0.40059700,-0.04655900
0.36000000,0.27744700,0.77759600,-0.22961800,-0.47545000,0.84738100,0.40014100,0.04635500,0.27819000,-0.77841100,0.22883900,-0.47379600,-0.84847100,0.40059700,-0.04655900
0.38000000,0.27744700,0.77759600,-0.22961800,-0.47545000,0.84738100,0.40014100,0.04635500,0.27819000,-0.77841100,0.22883900,-0.47379600,-0.84847100,0.40059700,-0.04655900
0.40000000,0.27744700,0.77759600,-0.22961800,-0.47545000,0.84738100,0.40014100,0.04635500,0.27819000,-0.77841100,0.22883900,-0.47379600,-0.84847100,0.40059700,-0.04655900
0.42000000,0.27744700,0.77759600,-0.22961800,-0.47545000,0.84738100,0.40014100,0.04635500,0.27819000,-0.77841100,0.22883900,-0.47379600,-0.84847100,0.40059700,-0.04655900
0.44000000,0.27744700,0.77759600,-0.22961800,-0.47545000,0.84738100,0.40014100,0.04635500,0.27819000,-0.77841100,0.22883900,-0.47379600,-0.84847100,0.40059700,-0.04655900
0.46000000,0.27744700,0.77759600,-0.22961800,-0.47545000,0.84738100,0.40014100,0.04635500,0.27819000,-0.77841100,0.22883900,-0.47379600,-0.84847100,0.40059700,-0.04655900
0.48000000,0.27744700,0.77759600,-0.22961800,-0.47545000,0.84738100,0.40014100,0.04635500,0.27819000,-0.77841100,0.22883900,-0.47379600,-0.84847100,0.40059700,-0.04655900
0.50000000,0.27744700,0.77759600,-0.22961800,-0.47545000,0.84738100,0.40014100,0.04635500,0.27819000,-0.77841100,0.22883900,-0.47379600,-0.84847100,0.40059700,-0.04655900
0.52000000,0.27744700,0.77759600,-0.22961800,-0.47545000,0.84738100,0.40014100,0.04635500,0.27819000,-0.77841100,0.22883900,-0.47379600,-0.84847100,0.40059700,-0.04655900
0.54000000,0.27744700,0.77759600,-0.22961800,-0.47545000,0.84738100,0.40014100,0.04635500,0.27819000,-0.77841100,0.22883900,-0.47379600,-0.84847100,0.40059700,-0.04655900
0.56000000,0.27744700,0.77759600,-0.22961800,-0.47545000,0.84738100,0.40014100,0.04635500,0.27819000,-0.77841100,0.22883900,-0.47379600,-0.84847100,0.40059700,-0.04655900
0.58000000,0.27744700,0.77759600,-0.22961800,-0.47545000,0.84738100,0.40014100,0.04635500,0.27819000,-0.77841100,0.22883900,-0.47379600,-0.84847100,0.40059700,-0.04655900
0.60000000,0.27744700,0.77759600,-0.22961800,-0.47545000,0.84738100,0.40014100,0.04635500,0.27819000,-0.77841100,0.22883900,-0.47379600,-0.84847100,0.40059700,-0.04655900
0.62000000,0.27744700,0.77759600,-0.22961800,-0.47545000,0.84738100,0.40014100,0.04635500,0.27819000,-0.77841100,0.22883900,-0.47379600,-0.84847100,0.40059700,-0.04655900
0.64000000,0.27744700,0.77759600,-0.22961800,-0.47545000,0.84738100,0.40014100,0.04635500,0.27819000,-0.77841100,0.22883900,-0.47379600,-0.84847100,0.40059700,-0.04655900
0.66000000,0.27744700,0.77759600,-0.22961800,-0.47545000,0.84738100,0.40014100,0.04635500,0.27819000,-0.77841100,0.22883900,-0.47379600,-0.84847100,0.40059700,-0.04655900
0.68000000,0.27744700,0.77759600,-0.22961800,-0.47545000,0.84738100,0.40014100,0.04635500,0.27819000,-0.77841100,0.22883900,-0.47379600,-0.84847100,0.40059700,-0.04655900
0.70000000,0.27744700,0.77759600,-0.22961800,-0.47545000,0.84738100,0.40014100,0.04635500,0.27819000,-0.77841100,0.22883900,-0.47379600,-0.84847100,0.40059700,-0.04655900
0.72000000,0.27744700,0.77759600,-0.22961800,-0.47545000,0.84738100,0.40014100,0.04635500,0.27819000,-0.77841100,0.22883900,-0.47379600,-0.84847100,0.40059700,-0.04655900
0.74000000,0.27744700,0.77759600,-0.22961800,-0.47545000,0.84738100,0.40014100,0.04635500,0.27819000,-0.77841100,0.22883900,-0.47379600,-0.84847100,0.40059700,-0.04655900
0.76000000,0.27744700,0.77759600,-0.22961800,-0.47545000,0.84738100,0.40014100,0.04635500,0.27819000,-0.77841100,0.22883900,-0.47379600,-0.84847100,0.40059700,-0.04655900
0.78000000,0.27744700,0.77759600,-0.22961800,-0.47545000,0.84738100,0.40014100,0.04635500,0.27819000,-0.77841100,0.22883900,-0.47379600,-0.84847100,0.40059700,-0.04655900
0.80000000,0.27744700,0.77759600,-0.22961800,-0.47545000,0.84738100,0.40014100,0.04635500,0.27819000,-0.77841100,0.22883900,-0.47379600,-0.84847100,0.40059700,-0.04655900
0.82000000,0.27744700,0.77759600,-0.22961800,-0.47545000,0.84738100,0.40014100,0.04635500,0.27819000,-0.77841100,0.22883900,-0.47379600,-0.84847100,0.40059700,-0.04655900
0.84000000,0.27744700,0.77759600,-0.22961800,-0.47545000,0.84738100,0.40014100,0.04635500,0.27819000,-0.77841100,0.22883900,-0.47379600,-0.84847100,0.40059700,-0.04655900
0.86000000,0.27744700,0.77759600,-0.22961800,-0.47545000,0.84738100,0.40014100,0.04635500,0.27819000,-0.77841100,0.22883900,-0.47379600,-0.84847100,0.40059700,-0.04655900
0.88000000,0.27744700,0.77759600,-0.22961800,-0.47545000,0.84738100,0.40014100,0.04635500,0.27819000,-0.77841100,0.22883900,-0.47379600,-0.84847100,0.40059700,-0.04655900
0.90000000,0.27744700,0.77759600,-0.22961800,-0.47545000,0.84738100,0.40014100,0.04635500,0.27819000,-0.77841100,0.22883900,-0.47379600,-0.84847100,0.40059700,-0.04655900
0.92000000,0.27744700,0.77759600,-0.22961800,-0.47545000,0.84738100,0.40014100,0.04635500,0.27819000,-0.77841100,0.22883900,-0.47379600,-0.84847100,0.40059700,-0.04655900
0.94000000,0.27744700,0.77759600,-0.22961800,-0.47545000,0.84738100,0.40014100,0.04635500,0.27819000,-0.77841100,0.22883900,-0.47379600,-0.84847100,0.40059700,-0.04655900
0.96000000,0.27744700,0.77759600,-0.22961800,-0.47545000,0.84738100,0.40014100,0.04635500,0.27819000,-0.77841100,0.22883900,-0.47379600,-0.84847100,0.40059700,-0.04655900
0.98000000,0.27744700,0.77759600,-0.22961800,-0.47545000,0.84738100,0.40014100,0.04635500,0.27819000,-0.77841100,0.22883900,-0.47379600,-0.84847100,0.40059700,-0.04655900
1.00000000,0.27744700,0.77759600,-0.22961800,-0.47545000,0.84738100,0.40014100,0.04635500,0.27819000,-0.77841100,0.22883900,-0.47379600,-0.84847100,0.40059700,-0.04655900
1.02000000,0.27744700,0.77759600,-0.22961800,-0.47545000,0.84738100,0.40014100,0.04635500,0.27819000,-0.77841100,0.22883900,-0.47379600,-0.84847100,0.40059700,-0.04655900
1.04000000,0.27744700,0.77759600,-0.22961800,-0.47545000,0.84738100,0.40014100,0.04635500,0.27819000,-0.77841100,0.22883900,-0.47379600,-0.84847100,0.40059700,-0.04655900
1.06000000,0.27744700,0.77759600,-0.22961800,-0.47545000,0.84738100,0.40014100,0.04635500,0.27819000,-0.77841100,0.22883900,-0.47379600,-0.84847100,0.40059700,-0.04655900
1.08000000,0.27744700,0.77759600,-0.22961800,-0.47545000,0.84738100,0.40014100,0.04635500,0.27819000,-0.77841100,0.22883900,-0.47379600,-0.84847100,0.40059700,-0.04655900
1.10000000,0.27744700,0.77759600,-0.22961800,-0.47545000,0.84738100,0.40014100,0.04635500,0.27819000,-0.77841100,0.22883900,-0.47379600,-0.84847100,0.40059700,-0.04655900
1.12000000,0.27744700,0.77759600,-0.22961800,-0.47545000,0.84738100,0.40014100,0.04635500,0.27819000,-0.77841100,0.22883900,-0.47379600,-0.84847100,0.40059700,-0.04655900
1.14000000,0.27744700,0.77759600,-0.22961800,-0.47545000,0.84738100,0.40014100,0.04635500,0.27819000,-0.77841100,0.22883900,-0.47379600,-0.84847100,0.40059700,-0.04655900
1.16000000,0.27744700,0.77759600,-0.22961800,-0.47545000,0.84738100,0.40014100,0.04635500,0.27819000,-0.77841100,0.22883900,-0.47379600,-0.84847100,0.40059700,-0.04655900
1.18000000,0.27744700,0.77759600,-0.22961800,-0.47545000,0.84738100,0.40014100,0.04635500,0.27819000,-0.77841100,0.22883900,-0.47379600,-0.84847100,0.40059700,-0.04655900
1.20000000,0.27744700,0.77759600,-0.22961800,-0.47545000,0.84738100,0.40014100,0.04635500,0.27819000,-0.77841100,0.22883900,-0.47379600,-0.84847100,0.40059700,-0.04655900
1.22000000,0.27744700,0.77759600,-0.22961800,-0.47545000,0.84738100,0.40014100,0.04635500,0.27819000,-0.77841100,0.22883900,-0.47379600,-0.84847100,0.40059700,-0.04655900
1.24000000,0.27744700,0.77759600,-0.22961800,-0.47545000,0.84738100,0.40014100,0.04635500,0.27819000,-0.77841100,0.22883900,-0.47379600,-0.84847100,0.40059700,-0.04655900
1.26000000,0.27744700,0.77759600,-0.22961800,-0.47545000,0.84738100,0.40014100,0.04635500,0.27819000,-0.77841100,0.22883900,-0.47379600,-0.84847100,0.40059700,-0.04655900
1.28000000,0.27744700,0.77759600,-0.22961800,-0.47545000,0.84738100,0.40014100,0.04635500,0.27819000,-0.77841100,0.22883900,-0.47379600,-0.84847100,0.40059700,-0.04655900
1.30000000,0.27744700,0.77759600,-0.22961800,-0.47545000,0.84738100,0.40014100,0.04635500,0.27819000,-0.77841100,0.22883900,-0.47379600,-0.84847100,0.40059700,-0.04655900
1.32000000,0.27744700,0.77759600,-0.22961800,-0.47545000,0.84738100,0.40014100,0.04635500,0.27819000,-0.77841100,0.22883900,-0.47379600,-0.84847100,0.40059700,-0.04655900
1.34000000,0.27744700,0.77759600,-0.22961800,-0.47545000,0.84738100,0.40014100,0.04635500,0.27819000,-0.77841100,0.22883900,-0.47379600,-0.84847100,0.40059700,-0.04655900
1.36000000,0.27744700,0.77759600,-0.22961800,-0.47545000,0.84738100,0.40014100,0.04635500,0.27819000,-0.77841100,0.22883900,-0.47379600,-0.84847100,0.40059700,-0.04655900
1.38000000,0.27744700,0.77759600,-0.22961800,-0.47545000,0.84738100,0.40014100,0.04635500,0.27819000,-0.77841100,0.22883900,-0.47379600,-0.84847100,0.40059700,-0.04655900
1.40000000,0.27744700,0.77759600,-0.22961800,-0.47545000,0.84738100,0.40014100,0.04635500,0.27819000,-0.77841100,0.22883900,-0.47379600,-0.84847100,0.40059700,-0.04655900
1.42000000,0.27744700,0.77759600,-0.22961800,-0.47545000,0.84738100,0.40014100,0.04635500,0.27819000,-0.77841100,0.22883900,-0.47379600,-0.84847100,0.40059700,-0.04655900
1.44000000,0.27744700,0.77759600,-0.22961800,-0.47545000,0.84738100,0.40014100,0.04635500,0.27819000,-0.77841100,0.22883900,-0.47379600,-0.84847100,0.40059700,-0.04655900
1.46000000,0.27744700,0.77759600,-0.22961800,-0.47545000,0.84738100,0.40014100,0.04635500,0.27819000,-0.77841100,0.22883900,-0.47379600,-0.84847100,0.40059700,-0.04655900
1.48000000,0.27744700,0.77759600,-0.22961800,-0.47545000,0.84738100,0.40014100,0.04635500,0.27819000,-0.77841100,0.22883900,-0.47379600,-0.84847100,0.40059700,-0.04655900
1.50000000,0.27744700,0.77759600,-0.22961800,-0.47545000,0.84738100,0.40014100,0.04635500,0.27819000,-0.77841100,0.22883900,-0.47379600,-0.84847100,0.40059700,-0.04655900
1.52000000,0.27744700,0.77759600,-0.22961800,-0.47545000,0.84738100,0.40014100,0.04635500,0.27819000,-0.77841100,0.22883900,-0.47379600,-0.84847100,0.40059700,-0.04655900
1.54000000,0.27744700,0.77759600,-0.22961800,-0.47545000,0.84738100,0.40014100,0.04635500,0.27819000,-0.77841100,0.22883900,-0.47379600,-0.84847100,0.40059700,-0.04655900
1.56000000,0.27744700,0.77759600,-0.22961800,-0.47545000,0.84738100,0.40014100,0.04635500,0.27819000,-0.77841100,0.22883900,-0.47379600,-0.84847100,0.40059700,-0.04655900
1.58000000,0.27744700,0.77759600,-0.22961800,-0.47545000,0.84738100,0.40014100,0.04635500,0.27819000,-0.77841100,0.22883900,-0.47379600,-0.84847100,0.40059700,-0.04655900
1.60000000,0.27744700,0.77759600,-0.22961800,-0.47545000,0.84738100,0.40014100,0.04635500,0.27819000,-0.77841100,0.22883900,-0.47379600,-0.84847100,0.40059700,-0.04655900
1.62000000,0.27744700,0.77759600,-0.22961800,-0.47545000,0.84738100,0.40014100,0.04635500,0.27819000,-0.77841100,0.22883900,-0.47379600,-0.84847100,0.40059700,-0.04655900
1.64000000,0.27744700,0.77759600,-0.22961800,-0.47545000,0.84738100,0.40014100,0.04635500,0.27819000,-0.77841100,0.22883900,-0.47379600,-0.84847100,0.40059700,-0.04655900
1.66000000,0.27744700,0.77759600,-0.22961800,-0.47545000,0.84738100,0.40014100,0.04635500,0.27819000,-0.77841100,0.22883900,-0.47379600,-0.84847100,0.40059700,-0.04655900
1.68000000,0.27744700,0.77759600,-0.22961800,-0.47545000,0.84738100,0.40014100,0.04635500,0.27819000,-0.77841100,0.22883900,-0.47379600,-0.84847100,0.40059700,-0.04655900
1.70000000,0.27744700,0.77759600,-0.22961800,-0.47545000,0.84738100,0.40014100,0.04635500,0.27819000,-0.77841100,0.22883900,-0.47379600,-0.84847100,0.40059700,-0.04655900
1.72000000,0.27744700,0.77759600,-0.22961800,-0.47545000,0.84738100,0.40014100,0.04635500,0.27819000,-0.77841100,0.22883900,-0.47379600,-0.84847100,0.40059700,-0.04655900
1.74000000,0.27744700,0.77759600,-0.22961800,-0.47545000,0.84738100,0.40014100,0.04635500,0.27819000,-0.77841100,0.22883900,-0.47379600,-0.84847100,0.40059700,-0.04655900
1.76000000,0.27744700,0.77759600,-0.22961800,-0.47545000,0.84738100,0.40014100,0.04635500,0.27819000,-0.77841100,0.22883900,-0.47379600,-0.84847100,0.40059700,-0.04655900
1.78000000,0.27744700,0.77759600,-0.22961800,-0.47545000,0.84738100,0.40014100,0.04635500,0.27819000,-0.77841100,0.22883900,-0.47379600,-0.84847100,0.40059700,-0.04655900
1.80000000,0.27744700,0.77759600,-0.22961800,-0.47545000,0.84738100,0.40014100,0.04635500,0.27819000,-0.77841100,0.22883900,-0.47379600,-0.84847100,0.40059700,-0.04655900
1.82000000,0.27744700,0.77759600,-0.22961800,-0.47545000,0.84738100,0.40014100,0.04635500,0.27819000,-0.77841100,0.22883900,-0.47379600,-0.84847100,0.40059700,-0.04655900
1.84000000,0.27744700,0.77759600,-0.22961800,-0.47545000,0.84738100,0.40014100,0.04635500,0.27819000,-0.77841100,0.22883900,-0.47379600,-0.84847100,0.40059700,-0.04655900
1.86000000,0.27744700,0.77759600,-0.22961800,-0.47545000,0.84738100,0.40014100,0.04635500,0.27819000,-0.77841100,0.22883900,-0.47379600,-0.84847100,0.40059700,-0.04655900
1.88000000,0.27744700,0.77759600,-0.22961800,-0.47545000,0.84738100,0.40014100,0.04635500,0.27819000,-0.77841100,0.22883900,-0.47379600,-0.84847100,0.40059700,-0.04655900
1.90000000,0.27744700,0.77759600,-0.22961800,-0.47545000,0.84738100,0.40014100,0.04635500,0.27819000,-0.77841100,0.22883900,-0.47379600,-0.84847100,0.40059700,-0.04655900
1.92000000,0.27744700,0.77759600,-0.22961800,-0.47545000,0.84738100,0.40014100,0.04635500,0.27819000,-0.77841100,0.22883900,-0.47379600,-0.84847100,0.40059700,-0.04655900
1.94000000,0.27744700,0.77759600,-0.22961800,-0.47545000,0.84738100,0.40014100,0.04635500,0.27819000,-0.77841100,0.22883900,-0.47379600,-0.84847100,0.40059700,-0.04655900
1.96000000,0.27744700,0.77759600,-0.22961800,-0.47545000,0.84738100,0.40014100,0.04635500,0.27819000,-0.77841100,0.22883900,-0.47379600,-0.84847100,0.40059700,-0.04655900
1.98000000,0.27744700,0.77759600,-0.22961800,-0.47545000,0.84738100,0.40014100,0.04635500,0.27819000,-0.77841100,0.22883900,-0.47379600,-0.84847100,0.40059700,-0.04655900
2.00000000,0.27744700,0.77759600,-0.22961800,-0.47545000,0.84738100,0.40014100,0.04635500,0.27819000,-0.77841100,0.22883900,-0.47379600,-0.84847100,0.40059700,-0.04655900
2.02000000,0.27744700,0.77759600,-0.22961800,-0.47545000,0.84738100,0.40014100,0.04635500,0.27819000,-0.77841100,0.22883900,-0.47379600,-0.84847100,0.40059700,-0.04655900
2.04000000,0.27744700,0.77759600,-0.22961800,-0.47545000,0.84738100,0.40014100,0.04635500,0.27819000,-0.77841100,0.22883900,-0.47379600,-0.84847100,0.40059700,-0.04655900
2.06000000,0.27744700,0.77759600,-0.22961800,-0.47545000,0.84738100,0.40014100,0.04635500,0.27819000,-0.77841100,0.22883900,-0.47379600,-0.84847100,0.40059700,-0.04655900
2.08000000,0.27744700,0.77759600,-0.22961800,-0.47545000,0.84738100,0.40014100,0.04635500,0.27819000,-0.77841100,0.22883900,-0.47379600,-0.84847100,0.40059700,-0.04655900
2.10000000,0.27744700,0.77759600,-0.22961800,-0.47545000,0.84738100,0.40014100,0.04635500,0.27819000,-0.77841100,0.22883900,-0.47379600,-0.84847100,0.40059700,-0.04655900
2.12000000,0.27744700,0.77759600,-0.22961800,-0.47545000,0.84738100,0.40014100,0.04635500,0.27819000,-0.77841100,0.22883900,-0.47379600,-0.84847100,0.40059700,-0.04655900
2.14000000,0.27744700,0.77759600,-0.22961800,-0.47545000,0.84738100,0.40014100,0.04635500,0.27819000,-0.77841100,0.22883900,-0.47379600,-0.84847100,0.40059700,-0.04655900
2.16000000,0.27744700,0.77759600,-0.22961800,-0.47545000,0.84738100,0.40014100,0.04635500,0.27819000,-0.77841100,0.22883900,-0.47379600,-0.84847100,0.40059700,-0.04655900
2.18000000,0.27744700,0.77759600,-0.22961800,-0.47545000,0.84738100,0.40014100,0.04635500,0.27819000,-0.77841100,0.22883900,-0.47379600,-0.84847100,0.40059700,-0.04655900
2.20000000,0.27744700,0.77759600,-0.22961800,-0.47545000,0.84738100,0.40014100,0.04635500,0.27819000,-0.77841100,0.22883900,-0.47379600,-0.84847100,0.40059700,-0.04655900
2.22000000,0.27744700,0.77759600,-0.22961800,-0.47545000,0.84738100,0.40014100,0.04635500,0.27819000,-0.77841100,0.22883900,-0.47379600,-0.84847100,0.40059700,-0.04655900
2.24000000,0.27744700,0.77759600,-0.22961800,-0.47545000,0.84738100,0.40014100,0.04635500,0.27819000,-0.77841100,0.22883900,-0.47379600,-0.84847100,0.40059700,-0.04655900
2.26000000,0.27744700,0.77759600,-0.22961800,-0.47545000,0.84738100,0.40014100,0.04635500,0.27819000,-0.77841100,0.22883900,-0.47379600,-0.84847100,0.40059700,-0.04655900
2.28000000,0.27744700,0.77759600,-0.22961800,-0.47545000,0.84738100,0.40014100,0.04635500,0.27819000,-0.77841100,0.22883900,-0.47379600,-0.84847100,0.40059700,-0.04655900
2.30000000,0.27744700,0.77759600,-0.22961800,-0.47545000,0.84738100,0.40014100,0.04635500,0.27819000,-0.77841100,0.22883900,-0.47379600,-0.84847100,0.40059700,-0.04655900
2.32000000,0.27744700,0.77759600,-0.22961800,-0.47545000,0.84738100,0.40014100,0.04635500,0.27819000,-0.77841100,0.22883900,-0.47379600,-0.84847100,0.40059700,-0.04655900
2.34000000,0.27744700,0.77759600,-0.22961800,-0.47545000,0.84738100,0.40014100,0.04635500,0.27819000,-0.77841100,0.22883900,-0.47379600,-0.84847100,0.40059700,-0.04655900
2.36000000,0.27744700,0.77759600,-0.22961800,-0.47545000,0.84738100,0.40014100,0.04635500,0.27819000,-0.77841100,0.22883900,-0.47379600,-0.84847100,0.40059700,-0.04655900
2.38000000,0.27744700,0.77759600,-0.22961800,-0.47545000,0.84738100,0.40014100,0.04635500,0.27819000,-0.77841100,0.22883900,-0.47379600,-0.84847100,0.40059700,-0.04655900
2.40000000,0.27744700,0.77759600,-0.22961800,-0.47545000,0.84738100,0.40014100,0.04635500,0.27819000,-0.77841100,0.22883900,-0.47379600,-0.84847100,0.40059700,-0.04655900
2.42000000,0.27744700,0.77759600,-0.22961800,-0.47545000,0.84738100,0.40014100,0.04635500,0.27819000,-0.77841100,0.22883900,-0.47379600,-0.84847100,0.40059700,-0.04655900
2.44000000,0.27744700,0.77759600,-0.22961800,-0.47545000,0.84738100,0.40014100,0.04635500,0.27819000,-0.77841100,0.22883900,-0.47379600,-0.84847100,0.40059700,-0.04655900
2.46000000,0.27744700,0.77759600,-0.22961800,-0.47545000,0.84738100,0.40014100,0.04635500,0.27819000,-0.77841100,0.22883900,-0.47379600,-0.84847100,0.40059700,-0.04655900
2.48000000,0.27744700,0.77759600,-0.22961800,-0.47545000,0.84738100,0.40014100,0.04635500,0.27819000,-0.77841100,0.22883900,-0.47379600,-0.84847100,0.40059700,-0.04655900
2.50000000,0.27744700,0.77759600,-0.22961800,-0.47545000,0.84738100,0.40014100,0.04635500,0.27819000,-0.77841100,0.22883900,-0.47379600,-0.84847100,0.40059700,-0.04655900
2.52000000,0.27744700,0.77759600,-0.22961800,-0.47545000,0.84738100,0.40014100,0.04635500,0.27819000,-0.77841100,0.22883900,-0.47379600,-0.84847100,0.40059700,-0.04655900
2.54000000,0.27744700,0.77759600,-0.22961800,-0.47545000,0.84738100,0.40014100,0.04635500,0.27819000,-0.77841100,0.22883900,-0.47379600,-0.84847100,0.40059700,-0.04655900
2.56000000,0.27744700,0.77759600,-0.22961800,-0.47545000,0.84738100,0.40014100,0.04635500,0.27819000,-0.77841100,0.22883900,-0.47379600,-0.84847100,0.40059700,-0.04655900
2.58000000,0.27744700,0.77759600,-0.22961800,-0.47545000,0.84738100,0.40014100,0.04635500,0.27819000,-0.77841100,0.22883900,-0.47379600,-0.84847100,0.40059700,-0.04655900
2.60000000,0.27744700,0.77759600,-0.22961800,-0.47545000,0.84738100,0.40014100,0.04635500,0.27819000,-0.77841100,0.22883900,-0.47379600,-0.84847100,0.40059700,-0.04655900
2.62000000,0.27744700,0.77759600,-0.22961800,-0.47545000,0.84738100,0.40014100,0.04635500,0.27819000,-0.77841100,0.22883900,-0.47379600,-0.84847100,0.40059700,-0.04655900
2.64000000,0.27744700,0.77759600,-0.22961800,-0.47545000,0.84738100,0.40014100,0.04635500,0.27819000,-0.77841100,0.22883900,-0.47379600,-0.84847100,0.40059700,-0.04655900
2.66000000,0.27744700,0.77759600,-0.22961800,-0.47545000,0.84738100,0.40014100,0.04635500,0.27819000,-0.77841100,0.22883900,-0.47379600,-0.84847100,0.40059700,-0.04655900
2.68000000,0.27744700,0.77759600,-0.22961800,-0.47545000,0.84738100,0.40014100,0.04635500,0.27819000,-0.77841100,0.22883900,-0.47379600,-0.84847100,0.40059700,-0.04655900
2.70000000,0.27744700,0.77759600,-0.22961800,-0.47545000,0.84738100,0.40014100,0.04635500,0.27819000,-0.77841100,0.22883900,-0.47379600,-0.84847100,0.40059700,-0.04655900
2.72000000,0.27744700,0.77759600,-0.22961800,-0.47545000,0.84738100,0.40014100,0.04635500,0.27819000,-0.77841100,0.22883900,-0.47379600,-0.84847100,0.40059700,-0.04655900
2.74000000,0.27744700,0.77759600,-0.22961800,-0.47545000,0.84738100,0.40014100,0.04635500,0.27819000,-0.77841100,0.22883900,-0.47379600,-0.84847100,0.40059700,-0.04655900
2.76000000,0.27744700,0.77759600,-0.22961800,-0.47545000,0.84738100,0.40014100,0.04635500,0.27819000,-0.77841100,0.22883900,-0.47379600,-0.84847100,0.40059700,-0.04655900
2.78000000,0.27744700,0.77759600,-0.22961800,-0.47545000,0.84738100,0.40014100,0.04635500,0.27819000,-0.77841100,0.22883900,-0.47379600,-0.84847100,0.40059700,-0.04655900
2.80000000,0.27744700,0.77759600,-0.22961800,-0.47545000,0.84738100,0.40014100,0.04635500,0.27819000,-0.77841100,0.22883900,-0.47379600,-0.84847100,0.40059700,-0.04655900
2.82000000,0.27744700,0.77759600,-0.22961800,-0.47545000,0.84738100,0.40014100,0.04635500,0.27819000,-0.77841100,0.22883900,-0.47379600,-0.84847100,0.40059700,-0.04655900
2.84000000,0.27744700,0.77759600,-0.22961800,-0.47545000,0.84738100,0.40014100,0.04635500,0.27819000,-0.77841100,0.22883900,-0.47379600,-0.84847100,0.40059700,-0.04655900
2.86000000,0.27744700,0.77759600,-0.22961800,-0.47545000,0.84738100,0.40014100,0.04635500,0.27819000,-0.77841100,0.22883900,-0.47379600,-0.84847100,0.40059700,-0.04655900
2.88000000,0.27744700,0.77759600,-0.22961800,-0.47545000,0.84738100,0.40014100,0.04635500,0.27819000,-0.77841100,0.22883900,-0.47379600,-0.84847100,0.40059700,-0.04655900
2.90000000,0.27744700,0.77759600,-0.22961800,-0.47545000,0.84738100,0.40014100,0.04635500,0.27819000,-0.77841100,0.22883900,-0.47379600,-0.84847100,0.40059700,-0.04655900
2.92000000,0.27744700,0.77759600,-0.22961800,-0.47545000,0.84738100,0.40014100,0.04635500,0.27819000,-0.77841100,0.22883900,-0.47379600,-0.84847100,0.40059700,-0.04655900
2.94000000,0.27744700,0.77759600,-0.22961800,-0.47545000,0.84738100,0.40014100,0.04635500,0.27819000,-0.77841100,0.22883900,-0.47379600,-0.84847100,0.40059700,-0.04655900
2.96000000,0.27744700,0.77759600,-0.22961800,-0.47545000,0.84738100,0.40014100,0.04635500,0.27819000,-0.77841100,0.22883900,-0.47379600,-0.84847100,0.40059700,-0.04655900
2.98000000,0.27744700,0.77759600,-0.22961800,-0.47545000,0.84738100,0.40014100,0.04635500,0.27819000,-0.77841100,0.22883900,-0.47379600,-0.84847100,0.40059700,-0.04655900
3.00000000,0.27744700,0.77759600,-0.22961800,-0.47545000,0.84738100,0.40014100,0.04635500,0.27819000,-0.77841100,0.22883900,-0.47379600,-0.84847100,0.40059700,-0.04655900
3.02000000,0.27744700,0.77759600,-0.22961800,-0.47545000,0.84738100,0.40014100,0.04635500,0.27819000,-0.77841100,0.22883900,-0.47379600,-0.84847100,0.40059700,-0.04655900
3.04000000,0.27744700,0.77759600,-0.22961800,-0.47545000,0.84738100,0.40014100,0.04635500,0.27819000,-0.77841100,0.22883900,-0.47379600,-0.84847100,0.40059700,-0.04655900
3.06000000,0.27744700,0.77759600,-0.22961800,-0.47545000,0.84738100,0.40014100,0.04635500,0.27819000,-0.77841100,0.22883900,-0.47379600,-0.84847100,0.40059700,-0.04655900
3.08000000,0.27744700,0.77759600,-0.22961800,-0.47545000,0.84738100,0.40014100,0.04635500,0.27819000,-0.77841100,0.22883900,-0.47379600,-0.84847100,0.40059700,-0.04655900
3.10000000,0.27744700,0.77759600,-0.22961800,-0.47545000,0.84738100,0.40014100,0.04635500,0.27819000,-0.77841100,0.22883900,-0.47379600,-0.84847100,0.40059700,-0.04655900
3.12000000,0.27744700,0.77759600,-0.22961800,-0.47545000,0.84738100,0.40014100,0.04635500,0.27819000,-0.77841100,0.22883900,-0.47379600,-0.84847100,0.40059700,-0.04655900
3.14000000,0.27744700,0.77759600,-0.22961800,-0.47545000,0.84738100,0.40014100,0.04635500,0.27819000,-0.77841100,0.22883900,-0.47379600,-0.84847100,0.40059700,-0.04655900
3.16000000,0.27744700,0.77759600,-0.22961800,-0.47545000,0.84738100,0.40014100,0.04635500,0.27819000,-0.77841100,0.22883900,-0.47379600,-0.84847100,0.40059700,-0.04655900
3.18000000,0.27744700,0.77759600,-0.22961800,-0.47545000,0.84738100,0.40014100,0.04635500,0.27819000,-0.77841100,0.22883900,-0.47379600,-0.84847100,0.40059700,-0.04655900
3.20000000,0.27744700,0.77759600,-0.22961800,-0.47545000,0.84738100,0.40014100,0.04635500,0.27819000,-0.77841100,0.22883900,-0.47379600,-0.84847100,0.40059700,-0.04655900
3.22000000,0.27744700,0.77759600,-0.22961800,-0.47545000,0.84738100,0.40014100,0.04635500,0.27819000,-0.77841100,0.22883900,-0.47379600,-0.84847100,0.40059700,-0.04655900
3.24000000,0.27744700,0.77759600,-0.22961800,-0.47545000,0.84738100,0.40014100,0.04635500,0.27819000,-0.77841100,0.22883900,-0.47379600,-0.84847100,0.40059700,-0.04655900
3.26000000,0.27744700,0.77759600,-0.22961800,-0.47545000,0.84738100,0.40014100,0.04635500,0.27819000,-0.77841100,0.22883900,-0.47379600,-0.84847100,0.40059700,-0.04655900
3.28000000,0.27744700,0.77759600,-0.22961800,-0.47545000,0.84738100,0.40014100,0.04635500,0.27819000,-0.77841100,0.22883900,-0.47379600,-0.84847100,0.40059700,-0.04655900
3.30000000,0.27744700,0.77759600,-0.22961800,-0.47545000,0.84738100,0.40014100,0.04635500,0.27819000,-0.77841100,0.22883900,-0.47379600,-0.84847100,0.40059700,-0.04655900
3.32000000,0.27744700,0.77759600,-0.22961800,-0.47545000,0.84738100,0.40014100,0.04635500,0.27819000,-0.77841100,0.22883900,-0.47379600,-0.84847100,0.40059700,-0.04655900
3.34000000,0.27744700,0.77759600,-0.22961800,-0.47545000,0.84738100,0.40014100,0.04635500,0.27819000,-0.77841100,0.22883900,-0.47379600,-0.84847100,0.40059700,-0.04655900
3.36000000,0.27744700,0.77759600,-0.22961800,-0.47545000,0.84738100,0.40014100,0.04635500,0.27819000,-0.77841100,0.22883900,-0.47379600,-0.84847100,0.40059700,-0.04655900
3.38000000,0.27744700,0.77759600,-0.22961800,-0.47545000,0.84738100,0.40014100,0.04635500,0.27819000,-0.77841100,0.22883900,-0.47379600,-0.84847100,0.40059700,-0.04655900
3.40000000,0.27744700,0.77759600,-0.22961800,-0.47545000,0.84738100,0.40014100,0.04635500,0.27819000,-0.77841100,0.22883900,-0.47379600,-0.84847100,0.40059700,-0.04655900
3.42000000,0.27744700,0.77759600,-0.22961800,-0.47545000,0.84738100,0.40014100,0.04635500,0.27819000,-0.77841100,0.22883900,-0.47379600,-0.84847100,0.40059700,-0.04655900
3.44000000,0.27744700,0.77759600,-0.22961800,-0.47545000,0.84738100,0.40014100,0.04635500,0.27819000,-0.77841100,0.22883900,-0.47379600,-0.84847100,0.40059700,-0.04655900
3.46000000,0.27744700,0.77759600,-0.22961800,-0.47545000,0.84738100,0.40014100,0.04635500,0.27819000,-0.77841100,0.22883900,-0.47379600,-0.84847100,0.40059700,-0.04655900
3.48000000,0.27744700,0.77759600,-0.22961800,-0.47545000,0.84738100,0.40014100,0.04635500,0.27819000,-0.77841100,0.22883900,-0.47379600,-0.84847100,0.40059700,-0.04655900
3.50000000,0.27744700,0.77759600,-0.22961800,-0.47545000,0.84738100,0.40014100,0.04635500,0.27819000,-0.77841100,0.22883900,-0.47379600,-0.84847100,0.40059700,-0.04655900
3.52000000,0.27744700,0.77759600,-0.22961800,-0.47545000,0.84738100,0.40014100,0.04635500,0.27819000,-0.77841100,0.22883900,-0.47379600,-0.84847100,0.40059700,-0.04655900
3.54000000,0.27744700,0.77759600,-0.22961800,-0.47545000,0.84738100,0.40014100,0.04635500,0.27819000,-0.77841100,0.22883900,-0.47379600,-0.84847100,0.40059700,-0.04655900
3.56000000,0.27744700,0.77759600,-0.22961800,-0.47545000,0.84738100,0.40014100,0.04635500,0.27819000,-0.77841100,0.22883900,-0.47379600,-0.84847100,0.40059700,-0.04655900
3.58000000,0.27744700,0.77759600,-0.22961800,-0.47545000,0.84738100,0.40014100,0.04635500,0.27819000,-0.77841100,0.22883900,-0.47379600,-0.84847100,0.40059700,-0.04655900
3.60000000,0.27744700,0.77759600,-0.22961800,-0.47545000,0.84738100,0.40014100,0.04635500,0.27819000,-0.77841100,0.22883900,-0.47379600,-0.84847100,0.40059700,-0.04655900
3.62000000,0.27744700,0.77759600,-0.22961800,-0.47545000,0.84738100,0.40014100,0.04635500,0.27819000,-0.77841100,0.22883900,-0.47379600,-0.84847100,0.40059700,-0.04655900
3.64000000,0.27744700,0.77759600,-0.22961800,-0.47545000,0.84738100,0.40014100,0.04635500,0.27819000,-0.77841100,0.22883900,-0.47379600,-0.84847100,0.40059700,-0.04655900
3.66000000,0.27744700,0.77759600,-0.22961800,-0.47545000,0.84738100,0.40014100,0.04635500,0.27819000,-0.77841100,0.22883900,-0.47379600,-0.84847100,0.40059700,-0.04655900
3.68000000,0.27744700,0.77759600,-0.22961800,-0.47545000,0.84738100,0.40014100,0.04635500,0.27819000,-0.77841100,0.22883900,-0.47379600,-0.84847100,0.40059700,-0.04655900
3.70000000,0.27744700,0.77759600,-0.22961800,-0.47545000,0.84738100,0.40014100,0.04635500,0.27819000,-0.77841100,0.22883900,-0.47379600,-0.84847100,0.40059700,-0.04655900
3.72000000,0.27744700,0.77759600,-0.22961800,-0.47545000,0.84738100,0.40014100,0.04635500,0.27819000,-0.77841100,0.22883900,-0.47379600,-0.84847100,0.40059700,-0.04655900
3.74000000,0.27744700,0.77759600,-0.22961800,-0.47545000,0.84738100,0.40014100,0.04635500,0.27819000,-0.77841100,0.22883900,-0.47379600,-0.84847100,0.40059700,-0.04655900
3.76000000,0.27744700,0.77759600,-0.22961800,-0.47545000,0.84738100,0.40014100,0.04635500,0.27819000,-0.77841100,0.22883900,-0.47379600,-0.84847100,0.40059700,-0.04655900
3.78000000,0.27744700,0.77759600,-0.22961800,-0.47545000,0.84738100,0.40014100,0.04635500,0.27819000,-0.77841100,0.22883900,-0.47379600,-0.84847100,0.40059700,-0.04655900
3.80000000,0.27744700,0.77759600,-0.22961800,-0.47545000,0.84738100,0.40014100,0.04635500,0.27819000,-0.77841100,0.22883900,-0.47379600,-0.84847100,0.40059700,-0.04655900
3.82000000,0.27744700,0.77759600,-0.22961800,-0.47545000,0.84738100,0.40014100,0.04635500,0.27819000,-0.77841100,0.22883900,-0.47379600,-0.84847100,0.40059700,-0.04655900
3.84000000,0.27744700,0.77759600,-0.22961800,-0.47545000,0.84738100,0.40014100,0.04635500,0.27819000,-0.77841100,0.22883900,-0.47379600,-0.84847100,0.40059700,-0.04655900
3.86000000,0.27744700,0.77759600,-0.22961800,-0.47545000,0.84738100,0.40014100,0.04635500,0.27819000,-0.77841100,0.22883900,-0.47379600,-0.84847100,0.40059700,-0.04655900
3.88000000,0.27744700,0.77759600,-0.22961800,-0.47545000,0.84738100,0.40014100,0.04635500,0.27819000,-0.77841100,0.22883900,-0.47379600,-0.84847100,0.40059700,-0.04655900
3.90000000,0.27744700,0.77759600,-0.22961800,-0.47545000,0.84738100,0.40014100,0.04635500,0.27819000,-0.77841100,0.22883900,-0.47379600,-0.84847100,0.40059700,-0.04655900
3.92000000,0.27744700,0.77759600,-0.22961800,-0.47545000,0.84738100,0.40014100,0.04635500,0.27819000,-0.77841100,0.22883900,-0.47379600,-0.84847100,0.40059700,-0.04655900
3.94000000,0.27744700,0.77759600,-0.22961800,-0.47545000,0.84738100,0.40014100,0.04635500,0.27819000,-0.77841100,0.22883900,-0.47379600,-0.84847100,0.40059700,-0.04655900
3.96000000,0.27744700,0.77759600,-0.22961800,-0.47545000,0.84738100,0.40014100,0.04635500,0.27819000,-0.77841100,0.22883900,-0.47379600,-0.84847100,0.40059700,-0.04655900
3.98000000,0.27744700,0.77759600,-0.22961800,-0.47545000,0.84738100,0.40014100,0.04635500,0.27819000,-0.77841100,0.22883900,-0.47379600,-0.84847100,0.40059700,-0.04655900
4.00000000,0.27744700,0.77759600,-0.22961800,-0.47545000,0.84738100,0.40014100,0.04635500,0.27819000,-0.77841100,0.22883900,-0.47379600,-0.84847100,0.40059700,-0.04655900
4.02000000,0.27744700,0.77759600,-0.22961800,-0.47545000,0.84738100,0.40014100,0.04635500,0.27819000,-0.77841100,0.22883900,-0.47379600,-0.84847100,0.40059700,-0.04655900
4.04000000,0.27744700,0.77759600,-0.22961800,-0.47545000,0.84738100,0.40014100,0.04635500,0.27819000,-0.77841100,0.22883900,-0.47379600,-0.84847100,0.40059700,-0.04655900
4.06000000,0.27744700,0.77759600,-0.22961800,-0.47545000,0.84738100,0.40014100,0.04635500,0.27819000,-0.77841100,0.22883900,-0.47379600,-0.84847100,0.40059700,-0.04655900
4.08000000,0.27744700,0.77759600,-0.22961800,-0.47545000,0.84738100,0.40014100,0.04635500,0.27819000,-0.77841100,0.22883900,-0.47379600,-0.84847100,0.40059700,-0.04655900
4.10000000,0.27744700,0.77759600,-0.22961800,-0.47545000,0.84738100,0.40014100,0.04635500,0.27819000,-0.77841100,0.22883900,-0.47379600,-0.84847100,0.40059700,-0.04655900
4.12000000,0.27744700,0.77759600,-0.22961800,-0.47545000,0.84738100,0.40014100,0.04635500,0.27819000,-0.77841100,0.22883900,-0.47379600,-0.84847100,0.40059700,-0.04655900
4.14000000,0.27744700,0.77759600,-0.22961800,-0.47545000,0.84738100,0.40014100,0.04635500,0.27819000,-0.77841100,0.22883900,-0.47379600,-0.84847100,0.40059700,-0.04655900
4.16000000,0.27744700,0.77759600,-0.22961800,-0.47545000,0.84738100,0.40014100,0.04635500,0.27819000,-0.77841100,0.22883900,-0.47379600,-0.84847100,0.40059700,-0.04655900
4.18000000,0.27744700,0.77759600,-0.22961800,-0.47545000,0.84738100,0.40014100,0.04635500,0.27819000,-0.77841100,0.22883900,-0.47379600,-0.84847100,0.40059700,-0.04655900
4.20000000,0.27744700,0.77759600,-0.22961800,-0.47545000,0.84738100,0.40014100,0.04635500,0.27819000,-0.77841100,0.22883900,-0.47379600,-0.84847100,0.40059700,-0.04655900
4.22000000,0.27744700,0.77759600,-0.22961800,-0.47545000,0.84738100,0.40014100,0.04635500,0.27819000,-0.77841100,0.22883900,-0.47379600,-0.84847100,0.40059700,-0.04655900
4.24000000,0.27744700,0.77759600,-0.22961800,-0.47545000,0.84738100,0.40014100,0.04635500,0.27819000,-0.77841100,0.22883900,-0.47379600,-0.84847100,0.40059700,-0.04655900
4.26000000,0.27744700,0.77759600,-0.22961800,-0.47545000,0.84738100,0.40014100,0.04635500,0.27819000,-0.77841100,0.22883900,-0.47379600,-0.84847100,0.40059700,-0.04655900
4.28000000,0.27744700,0.77759600,-0.22961800,-0.47545000,0.84738100,0.40014100,0.04635500,0.27819000,-0.77841100,0.22883900,-0.47379600,-0.84847100,0.40059700,-0.04655900
4.30000000,0.27744700,0.77759600,-0.22961800,-0.47545000,0.84738100,0.40014100,0.04635500,0.27819000,-0.77841100,0.22883900,-0.47379600,-0.84847100,0.40059700,-0.04655900
4.32000000,0.27744700,0.77759600,-0.22961800,-0.47545000,0.84738100,0.40014100,0.04635500,0.27819000,-0.77841100,0.22883900,-0.47379600,-0.84847100,0.40059700,-0.04655900
4.34000000,0.27744700,0.77759600,-0.22961800,-0.47545000,0.84738100,0.40014100,0.04635500,0.27819000,-0.77841100,0.22883900,-0.47379600,-0.84847100,0.40059700,-0.04655900
4.36000000,0.27744700,0.77759600,-0.22961800,-0.47545000,0.84738100,0.40014100,0.04635500,0.27819000,-0.77841100,0.22883900,-0.47379600,-0.84847100,0.40059700,-0.04655900
4.38000000,0.27744700,0.77759600,-0.22961800,-0.47545000,0.84738100,0.40014100,0.04635500,0.27819000,-0.77841100,0.22883900,-0.47379600,-0.84847100,0.40059700,-0.04655900
4.40000000,0.27744700,0.77759600,-0.22961800,-0.47545000,0.84738100,0.40014100,0.04635500,0.27819000,-0.77841100,0.22883900,-0.47379600,-0.84847100,0.40059700,-0.04655900
4.42000000,0.27744700,0.77759600,-0.22961800,-0.47545000,0.84738100,0.40014100,0.04635500,0.27819000,-0.77841100,0.22883900,-0.47379600,-0.84847100,0.40059700,-0.04655900
4.44000000,0.27744700,0.77759600,-0.22961800,-0.47545000,0.84738100,0.40014100,0.04635500,0.27819000,-0.77841100,0.22883900,-0.47379600,-0.84847100,0.40059700,-0.04655900
4.46000000,0.27744700,0.77759600,-0.22961800,-0.47545000,0.84738100,0.40014100,0.04635500,0.27819000,-0.77841100,0.22883900,-0.47379600,-0.84847100,0.40059700,-0.04655900
4.48000000,0.27744700,0.77759600,-0.22961800,-0.47545000,0.84738100,0.40014100,0.04635500,0.27819000,-0.77841100,0.22883900,-0.47379600,-0.84847100,0.40059700,-0.04655900
4.50000000,0.27744700,0.77759600,-0.22961800,-0.47545000,0.84738100,0.40014100,0.04635500,0.27819000,-0.77841100,0.22883900,-0.47379600,-0.84847100,0.40059700,-0.04655900
4.52000000,0.27744700,0.77759600,-0.22961800,-0.47545000,0.84738100,0.40014100,0.04635500,0.27819000,-0.77841100,0.22883900,-0.47379600,-0.84847100,0.40059700,-0.04655900
4.54000000,0.27744700,0.77759600,-0.22961800,-0.47545000,0.84738100,0.40014100,0.04635500,0.27819000,-0.77841100,0.22883900,-0.47379600,-0.84847100,0.40059700,-0.04655900
4.56000000,0.27744700,0.77759600,-0.22961800,-0.47545000,0.84738100,0.40014100,0.04635500,0.27819000,-0.77841100,0.22883900,-0.47379600,-0.84847100,0.40059700,-0.04655900
4.58000000,0.27744700,0.77759600,-0.22961800,-0.47545000,0.84738100,0.40014100,0.04635500,0.27819000,-0.77841100,0.22883900,-0.47379600,-0.84847100,0.40059700,-0.04655900
4.60000000,0.27744700,0.77759600,-0.22961800,-0.47545000,0.84738100,0.40014100,0.04635500,0.27819000,-0.77841100,0.22883900,-0.47379600,-0.84847100,0.40059700,-0.04655900
4.62000000,0.27744700,0.77759600,-0.22961800,-0.47545000,0.84738100,0.40014100,0.04635500,0.27819000,-0.77841100,0.22883900,-0.47379600,-0.84847100,0.40059700,-0.04655900
4.64000000,0.27744700,0.77759600,-0.22961800,-0.47545000,0.84738100,0.40014100,0.04635500,0.27819000,-0.77841100,0.22883900,-0.47379600,-0.84847100,0.40059700,-0.04655900
4.66000000,0.27744700,0.77759600,-0.22961800,-0.47545000,0.84738100,0.40014100,0.04635500,0.27819000,-0.77841100,0.22883900,-0.47379600,-0.84847100,0.40059700,-0.04655900
4.68000000,0.27744700,0.77759600,-0.22961800,-0.47545000,0.84738100,0.40014100,0.04635500,0.27819000,-0.77841100,0.22883900,-0.47379600,-0.84847100,0.40059700,-0.04655900
4.70000000,0.27744700,0.77759600,-0.22961800,-0.47545000,0.84738100,0.40014100,0.04635500,0.27819000,-0.77841100,0.22883900,-0.47379600,-0.84847100,0.40059700,-0.04655900
4.72000000,0.27744700,0.77759600,-0.22961800,-0.47545000,0.84738100,0.40014100,0.04635500,0.27819000,-0.77841100,0.22883900,-0.47379600,-0.84847100,0.40059700,-0.04655900
4.74000000,0.27744700,0.77759600,-0.22961800,-0.47545000,0.84738100,0.40014100,0.04635500,0.27819000,-0.77841100,0.22883900,-0.47379600,-0.84847100,0.40059700,-0.04655900
4.76000000,0.27744700,0.77759600,-0.22961800,-0.47545000,0.84738100,0.40014100,0.04635500,0.27819000,-0.77841100,0.22883900,-0.47379600,-0.84847100,0.40059700,-0.04655900
4.78000000,0.27744700,0.77759600,-0.22961800,-0.47545000,0.84738100,0.40014100,0.04635500,0.27819000,-0.77841100,0.22883900,-0.47379600,-0.84847100,0.40059700,-0.04655900
4.80000000,0.27744700,0.77759600,-0.22961800,-0.47545000,0.84738100,0.40014100,0.04635500,0.27819000,-0.77841100,0.22883900,-0.47379600,-0.84847100,0.40059700,-0.04655900
4.82000000,0.27744700,0.77759600,-0.22961800,-0.47545000,0.84738100,0.40014100,0.04635500,0.27819000,-0.77841100,0.22883900,-0.47379600,-0.84847100,0.40059700,-0.04655900
4.84000000,0.27744700,0.77759600,-0.22961800,-0.47545000,0.84738100,0.40014100,0.04635500,0.27819000,-0.77841100,0.22883900,-0.47379600,-0.84847100,0.40059700,-0.04655900
4.86000000,0.27744700,0.77759600,-0.22961800,-0.47545000,0.84738100,0.40014100,0.04635500,0.27819000,-0.77841100,0.22883900,-0.47379600,-0.84847100,0.40059700,-0.04655900
4.88000000,0.27744700,0.77759600,-0.22961800,-0.47545000,0.84738100,0.40014100,0.04635500,0.27819000,-0.77841100,0.22883900,-0.47379600,-0.84847100,0.40059700,-0.04655900
4.90000000,0.27744700,0.77759600,-0.22961800,-0.47545000,0.84738100,0.40014100,0.04635500,0.27819000,-0.77841100,0.22883900,-0.47379600,-0.84847100,0.40059700,-0.04655900
4.92000000,0.27744700,0.77759600,-0.22961800,-0.47545000,0.84738100,0.40014100,0.04635500,0.27819000,-0.77841100,0.22883900,-0.47379600,-0.84847100,0.40059700,-0.04655900
4.94000000,0.27744700,0.77759600,-0.22961800,-0.47545000,0.84738100,0.40014100,0.04635500,0.27819000,-0.77841100,0.22883900,-0.47379600,-0.84847100,0.40059700,-0.04655900
4.96000000,0.27744700,0.77759600,-0.22961800,-0.47545000,0.84738100,0.40014100,0.04635500,0.27819000,-0.77841100,0.22883900,-0.47379600,-0.84847100,0.40059700,-0.04655900
4.98000000,0.27744700,0.77759600,-0.22961800,-0.47545000,0.84738100,0.40014100,0.04635500,0.27819000,-0.77841100,0.22883900,-0.47379600,-0.84847100,0.40059700,-0.04655900
5.00000000,0.27744700,0.77759600,-0.22961800,-0.47545000,0.84738100,0.40014100,0.04635500,0.27819000,-0.77841100,0.22883900,-0.47379600,-0.84847100,0.40059700,-0.04655900
5.02000000,0.27744700,0.77759600,-0.22961800,-0.47545000,0.84738100,0.40014100,0.04635500,0.27819000,-0.77841100,0.22883900,-0.47379600,-0.84847100,0.40059700,-0.04655900
5.04000000,0.27744700,0.77759600,-0.22961800,-0.47545000,0.84738100,0.40014100,0.04635500,0.27819000,-0.77841100,0.22883900,-0.47379600,-0.84847100,0.40059700,-0.04655900
5.06000000,0.27744700,0.77759600,-0.22961800,-0.47545000,0.84738100,0.40014100,0.04635500,0.27819000,-0.77841100,0.22883900,-0.47379600,-0.84847100,0.40059700,-0.04655900
5.08000000,0.27744700,0.77759600,-0.22961800,-0.47545000,0.84738100,0.40014100,0.04635500,0.27819000,-0.77841100,0.22883900,-0.47379600,-0.84847100,0.40059700,-0.04655900
5.10000000,0.27744700,0.77759600,-0.22961800,-0.47545000,0.84738100,0.40014100,0.04635500,0.27819000,-0.77841100,0.22883900,-0.47379600,-0.84847100,0.40059700,-0.04655900
5.12000000,0.27744700,0.77759600,-0.22961800,-0.47545000,0.84738100,0.40014100,0.04635500,0.27819000,-0.77841100,0.22883900,-0.47379600,-0.84847100,0.40059700,-0.04655900
5.14000000,0.27744700,0.77759600,-0.22961800,-0.47545000,0.84738100,0.40014100,0.04635500,0.27819000,-0.77841100,0.22883900,-0.47379600,-0.84847100,0.40059700,-0.04655900
5.16000000,0.27744700,0.77759600,-0.22961800,-0.47545000,0.84738100,0.40014100,0.04635500,0.27819000,-0.77841100,0.22883900,-0.47379600,-0.84847100,0.40059700,-0.04655900
5.18000000,0.27744700,0.77759600,-0.22961800,-0.47545000,0.84738100,0.40014100,0.04635500,0.27819000,-0.77841100,0.22883900,-0.47379600,-0.84847100,0.40059700,-0.04655900
5.20000000,0.27744700,0.77759600,-0.22961800,-0.47545000,0.84738100,0.40014100,0.04635500,0.27819000,-0.77841100,0.22883900,-0.47379600,-0.84847100,0.40059700,-0.04655900
5.22000000,0.27744700,0.77759600,-0.22961800,-0.47545000,0.84738100,0.40014100,0.04635500,0.27819000,-0.77841100,0.22883900,-0.47379600,-0.84847100,0.40059700,-0.04655900
5.24000000,0.27744700,0.77759600,-0.22961800,-0.47545000,0.84738100,0.40014100,0.04635500,0.27819000,-0.77841100,0.22883900,-0.47379600,-0.84847100,0.40059700,-0.04655900
5.26000000,0.27744700,0.77759600,-0.22961800,-0.47545000,0.84738100,0.40014100,0.04635500,0.27819000,-0.77841100,0.22883900,-0.47379600,-0.84847100,0.40059700,-0.04655900
5.28000000,0.27744700,0.77759600,-0.22961800,-0.47545000,0.84738100,0.40014100,0.04635500,0.27819000,-0.77841100,0.22883900,-0.47379600,-0.84847100,0.40059700,-0.04655900
5.30000000,0.27744700,0.77759600,-0.22961800,-0.47545000,0.84738100,0.40014100,0.04635500,0.27819000,-0.77841100,0.22883900,-0.47379600,-0.84847100,0.40059700,-0.04655900
5.32000000,0.27744700,0.77759600,-0.22961800,-0.47545000,0.84738100,0.40014100,0.04635500,0.27819000,-0.77841100,0.22883900,-0.47379600,-0.84847100,0.40059700,-0.04655900
5.34000000,0.27744700,0.77759600,-0.22961800,-0.47545000,0.84738100,0.40014100,0.04635500,0.27819000,-0.77841100,0.22883900,-0.47379600,-0.84847100,0.40059700,-0.04655900
5.36000000,0.27744700,0.77759600,-0.22961800,-0.47545000,0.84738100,0.40014100,0.04635500,0.27819000,-0.77841100,0.22883900,-0.47379600,-0.84847100,0.40059700,-0.04655900
5.38000000,0.27744700,0.77759600,-0.22961800,-0.47545000,0.84738100,0.40014100,0.04635500,0.27819000,-0.77841100,0.22883900,-0.47379600,-0.84847100,0.40059700,-0.04655900
5.40000000,0.27744700,0.77759600,-0.22961800,-0.47545000,0.84738100,0.40014100,0.04635500,0.27819000,-0.77841100,0.22883900,-0.47379600,-0.84847100,0.40059700,-0.04655900
5.42000000,0.27744700,0.77759600,-0.22961800,-0.47545000,0.84738100,0.40014100,0.04635500,0.27819000,-0.77841100,0.22883900,-0.47379600,-0.84847100,0.40059700,-0.04655900
5.44000000,0.27744700,0.77759600,-0.22961800,-0.47545000,0.84738100,0.40014100,0.04635500,0.27819000,-0.77841100,0.22883900,-0.47379600,-0.84847100,0.40059700,-0.04655900
5.46000000,0.27744700,0.77759600,-0.22961800,-0.47545000,0.84738100,0.40014100,0.04635500,0.27819000,-0.77841100,0.22883900,-0.47379600,-0.84847100,0.40059700,-0.04655900
5.48000000,0.27744700,0.77759600,-0.22961800,-0.47545000,0.84738100,0.40014100,0.04635500,0.27819000,-0.77841100,0.22883900,-0.47379600,-0.84847100,0.40059700,-0.04655900
5.50000000,0.27744700,0.77759600,-0.22961800,-0.47545000,0.84738100,0.40014100,0.04635500,0.27819000,-0.77841100,0.22883900,-0.47379600,-0.84847100,0.40059700,-0.04655900
5.52000000,0.27744700,0.77759600,-0.22961800,-0.47545000,0.84738100,0.40014100,0.04635500,0.27819000,-0.77841100,0.22883900,-0.47379600,-0.84847100,0.40059700,-0.04655900
5.54000000,0.27744700,0.77759600,-0.22961800,-0.47545000,0.84738100,0.40014100,0.04635500,0.27819000,-0.77841100,0.22883900,-0.47379600,-0.84847100,0.40059700,-0.04655900
5.56000000,0.27744700,0.77759600,-0.22961800,-0.47545000,0.84738100,0.40014100,0.04635500,0.27819000,-0.77841100,0.22883900,-0.47379600,-0.84847100,0.40059700,-0.04655900
5.58000000,0.27744700,0.77759600,-0.22961800,-0.47545000,0.84738100,0.40014100,0.04635500,0.27819000,-0.77841100,0.22883900,-0.47379600,-0.84847100,0.40059700,-0.04655900
5.60000000,0.27744700,0.77759600,-0.22961800,-0.47545000,0.84738100,0.40014100,0.04635500,0.27819000,-0.77841100,0.22883900,-0.47379600,-0.84847100,0.40059700,-0.04655900
5.62000000,0.27744700,0.77759600,-0.22961800,-0.47545000,0.84738100,0.40014100,0.04635500,0.27819000,-0.77841100,0.22883900,-0.47379600,-0.84847100,0.40059700,-0.04655900
5.64000000,0.27744700,0.77759600,-0.22961800,-0.47545000,0.84738100,0.40014100,0.04635500,0.27819000,-0.77841100,0.22883900,-0.47379600,-0.84847100,0.40059700,-0.04655900
5.66000000,0.27744700,0.77759600,-0.22961800,-0.47545000,0.84738100,0.40014100,0.04635500,0.27819000,-0.77841100,0.22883900,-0.47379600,-0.84847100,0.40059700,-0.04655900
5.68000000,0.27744700,0.77759600,-0.22961800,-0.47545000,0.84738100,0.40014100,0.04635500,0.27819000,-0.77841100,0.22883900,-0.47379600,-0.84847100,0.40059700,-0.04655900
5.70000000,0.27744700,0.77759600,-0.22961800,-0.47545000,0.84738100,0.40014100,0.04635500,0.27819000,-0.77841100,0.22883900,-0.47379600,-0.84847100,0.40059700,-0.04655900
5.72000000,0.27744700,0.77759600,-0.22961800,-0.47545000,0.84738100,0.40014100,0.04635500,0.27819000,-0.77841100,0.22883900,-0.47379600,-0.84847100,0.40059700,-0.04655900
5.74000000,0.27744700,0.77759600,-0.22961800,-0.47545000,0.84738100,0.40014100,0.04635500,0.27819000,-0.77841100,0.22883900,-0.47379600,-0.84847100,0.40059700,-0.04655900
5.76000000,0.27744700,0.77759600,-0.22961800,-0.47545000,0.84738100,0.40014100,0.04635500,0.27819000,-0.77841100,0.22883900,-0.47379600,-0.84847100,0.40059700,-0.04655900
5.78000000,0.27744700,0.77759600,-0.22961800,-0.47545000,0.84738100,0.40014100,0.04635500,0.27819000,-0.77841100,0.22883900,-0.47379600,-0.84847100,0.40059700,-0.04655900
5.80000000,0.27744700,0.77759600,-0.22961800,-0.47545000,0.84738100,0.40014100,0.04635500,0.27819000,-0.77841100,0.22883900,-0.47379600,-0.84847100,0.40059700,-0.04655900
5.82000000,0.27744700,0.77759600,-0.22961800,-0.47545000,0.84738100,0.40014100,0.04635500,0.27819000,-0.77841100,0.22883900,-0.47379600,-0.84847100,0.40059700,-0.04655900
5.84000000,0.27744700,0.77759600,-0.22961800,-0.47545000,0.84738100,0.40014100,0.04635500,0.27819000,-0.77841100,0.22883900,-0.47379600,-0.84847100,0.40059700,-0.04655900
5.86000000,0.27744700,0.77759600,-0.22961800,-0.47545000,0.84738100,0.40014100,0.04635500,0.27819000,-0.77841100,0.22883900,-0.47379600,-0.84847100,0.40059700,-0.04655900
5.88000000,0.27744700,0.77759600,-0.22961800,-0.47545000,0.84738100,0.40014100,0.04635500,0.27819000,-0.77841100,0.22883900,-0.47379600,-0.84847100,0.40059700,-0.04655900
5.90000000,0.27744700,0.77759600,-0.22961800,-0.47545000,0.84738100,0.40014100,0.04635500,0.27819000,-0.77841100,0.22883900,-0.47379600,-0.84847100,0.40059700,-0.04655900
5.92000000,0.27744700,0.77759600,-0.22961800,-0.47545000,0.84738100,0.40014100,0.04635500,0.27819000,-0.77841100,0.22883900,-0.47379600,-0.84847100,0.40059700,-0.04655900
5.94000000,0.27744700,0.77759600,-0.22961800,-0.47545000,0.84738100,0.40014100,0.04635500,0.27819000,-0.77841100,0.22883900,-0.47379600,-0.84847100,0.40059700,-0.04655900
5.96000000,0.27744700,0.77759600,-0.22961800,-0.47545000,0.84738100,0.40014100,0.04635500,0.27819000,-0.77841100,0.22883900,-0.47379600,-0.84847100,0.40059700,-0.04655900
5.98000000,0.27744700,0.77759600,-0.22961800,-0.47545000,0.84738100,0.40014100,0.04635500,0.27819000,-0.77841100,0.22883900,-0.47379600,-0.84847100,0.40059700,-0.04655900
6.00000000,0.27744700,0.77759600,-0.22961800,-0.47545000,0.84738100,0.40014100,0.04635500,0.27819000,-0.77841100,0.22883900,-0.47379600,-0.84847100,0.40059700,-0.04655900
6.02000000,0.27744700,0.77759600,-0.22961800,-0.47545000,0.84738100,0.40014100,0.04635500,0.27819000,-0.77841100,0.22883900,-0.47379600,-0.84847100,0.40059700,-0.04655900
6.04000000,0.27744700,0.77759600,-0.22961800,-0.47545000,0.84738100,0.40014100,0.04635500,0.27819000,-0.77841100,0.22883900,-0.47379600,-0.84847100,0.40059700,-0.04655900
6.06000000,0.27744700,0.77759600,-0.22961800,-0.47545000,0.84738100,0.40014100,0.04635500,0.27819000,-0.77841100,0.22883900,-0.47379600,-0.84847100,0.40059700,-0.04655900
6.08000000,0.27744700,0.77759600,-0.22961800,-0.47545000,0.84738100,0.40014100,0.04635500,0.27819000,-0.77841100,0.22883900,-0.47379600,-0.84847100,0.40059700,-0.04655900
6.10000000,0.27744700,0.77759600,-0.22961800,-0.47545000,0.84738100,0.40014100,0.04635500,0.27819000,-0.77841100,0.22883900,-0.47379600,-0.84847100,0.40059700,-0.04655900
6.12000000,0.27744700,0.77759600,-0.22961800,-0.47545000,0.84738100,0.40014100,0.04635500,0.27819000,-0.77841100,0.22883900,-0.47379600,-0.84847100,0.40059700,-0.04655900
6.14000000,0.27744700,0.77759600,-0.22961800,-0.47545000,0.84738100,0.40014100,0.04635500,0.27819000,-0.77841100,0.22883900,-0.47379600,-0.84847100,0.40059700,-0.04655900
6.16000000,0.27744700,0.77759600,-0.22961800,-0.47545000,0.84738100,0.40014100,0.04635500,0.27819000,-0.77841100,0.22883900,-0.47379600,-0.84847100,0.40059700,-0.04655900
6.18000000,0.27744700,0.77759600,-0.22961800,-0.47545000,0.84738100,0.40014100,0.04635500,0.27819000,-0.77841100,0.22883900,-0.47379600,-0.84847100,0.40059700,-0.04655900
6.20000000,0.27744700,0.77759600,-0.22961800,-0.47545000,0.84738100,0.40014100,0.04635500,0.27819000,-0.77841100,0.22883900,-0.47379600,-0.84847100,0.40059700,-0.04655900
6.22000000,0.27744700,0.77759600,-0.22961800,-0.47545000,0.84738100,0.40014100,0.04635500,0.27819000,-0.77841100,0.22883900,-0.47379600,-0.84847100,0.40059700,-0.04655900
6.24000000,0.27744700,0.77759600,-0.22961800,-0.47545000,0.84738100,0.40014100,0.04635500,0.27819000,-0.77841100,0.22883900,-0.47379600,-0.84847100,0.40059700,-0.04655900
6.26000000,0.27744700,0.77759600,-0.22961800,-0.47545000,0.84738100,0.40014100,0.04635500,0.27819000,-0.77841100,0.22883900,-0.47379600,-0.84847100,0.40059700,-0.04655900
6.28000000,0.27744700,0.77759600,-0.22961800,-0.47545000,0.84738100,0.40014100,0.04635500,0.27819000,-0.77841100,0.22883900,-0.47379600,-0.84847100,0.40059700,-0.04655900
6.30000000,0.27744700,0.77759600,-0.22961800,-0.47545000,0.84738100,0.40014100,0.04635500,0.27819000,-0.77841100,0.22883900,-0.47379600,-0.84847100,0.40059700,-0.04655900
6.32000000,0.27744700,0.77759600,-0.22961800,-0.47545000,0.84738100,0.40014100,0.04635500,0.27819000,-0.77841100,0.22883900,-0.47379600,-0.84847100,0.40059700,-0.04655900
6.34000000,0.27744700,0.77759600,-0.22961800,-0.47545000,0.84738100,0.40014100,0.04635500,0.27819000,-0.77841100,0.22883900,-0.47379600,-0.84847100,0.40059700,-0.04655900
6.36000000,0.27744700,0.77759600,-0.22961800,-0.47545000,0.84738100,0.40014100,0.04635500,0.27819000,-0.77841100,0.22883900,-0.47379600,-0.84847100,0.40059700,-0.04655900
6.38000000,0.27744700,0.77759600,-0.22961800,-0.47545000,0.84738100,0.40014100,0.04635500,0.27819000,-0.77841100,0.22883900,-0.47379600,-0.84847100,0.40059700,-0.04655900
6.40000000,0.27744700,0.77759600,-0.22961800,-0.47545000,0.84738100,0.40014100,0.04635500,0.27819000,-0.77841100,0.22883900,-0.47379600,-0.84847100,0.40059700,-0.04655900
6.42000000,0.27744700,0.77759600,-0.22961800,-0.47545000,0.84738100,0.40014100,0.04635500,0.27819000,-0.77841100,0.22883900,-0.47379600,-0.84847100,0.40059700,-0.04655900
6.44000000,0.27744700,0.77759600,-0.22961800,-0.47545000,0.84738100,0.40014100,0.04635500,0.27819000,-0.77841100,0.22883900,-0.47379600,-0.84847100,0.40059700,-0.04655900
6.46000000,0.27744700,0.77759600,-0.22961800,-0.47545000,0.84738100,0.40014100,0.04635500,0.27819000,-0.77841100,0.22883900,-0.47379600,-0.84847100,0.40059700,-0.04655900
6.48000000,0.27744700,0.77759600,-0.22961800,-0.47545000,0.84738100,0.40014100,0.04635500,0.27819000,-0.77841100,0.22883900,-0.47379600,-0.84847100,0.40059700,-0.04655900
6.50000000,0.27744700,0.77759600,-0.22961800,-0.47545000,0.84738100,0.40014100,0.04635500,0.27819000,-0.77841100,0.22883900,-0.47379600,-0.84847100,0.40059700,-0.04655900
6.52000000,0.27744700,0.77759600,-0.22961800,-0.47545000,0.84738100,0.40014100,0.04635500,0.27819000,-0.77841100,0.22883900,-0.47379600,-0.84847100,0.40059700,-0.04655900
6.54000000,0.27744700,0.77759600,-0.22961800,-0.47545000,0.84738100,0.40014100,0.04635500,0.27819000,-0.77841100,0.22883900,-0.47379600,-0.84847100,0.40059700,-0.04655900
6.56000000,0.27744700,0.77759600,-0.22961800,-0.47545000,0.84738100,0.40014100,0.04635500,0.27819000,-0.77841100,0.22883900,-0.47379600,-0.84847100,0.40059700,-0.04655900
6.58000000,0.27744700,0.77759600,-0.22961800,-0.47545000,0.84738100,0.40014100,0.04635500,0.27819000,-0.77841100,0.22883900,-0.47379600,-0.84847100,0.40059700,-0.04655900
6.60000000,0.27744700,0.77759600,-0.22961800,-0.47545000,0.84738100,0.40014100,0.04635500,0.27819000,-0.77841100,0.22883900,-0.47379600,-0.84847100,0.40059700,-0.04655900
6.62000000,0.27744700,0.77759600,-0.22961800,-0.47545000,0.84738100,0.40014100,0.04635500,0.27819000,-0.77841100,0.22883900,-0.47379600,-0.84847100,0.40059700,-0.04655900
6.64000000,0.27744700,0.77759600,-0.22961800,-0.47545000,0.84738100,0.40014100,0.04635500,0.27819000,-0.77841100,0.22883900,-0.47379600,-0.84847100,0.40059700,-0.04655900
6.66000000,0.27744700,0.77759600,-0.22961800,-0.47545000,0.84738100,0.40014100,0.04635500,0.27819000,-0.77841100,0.22883900,-0.47379600,-0.84847100,0.40059700,-0.04655900
6.68000000,0.27744700,0.77759600,-0.22961800,-0.47545000,0.84738100,0.40014100,0.04635500,0.27819000,-0.77841100,0.22883900,-0.47379600,-0.84847100,0.40059700,-0.04655900
6.70000000,0.27744700,0.77759600,-0.22961800,-0.47545000,0.84738100,0.40014100,0.04635500,0.27819000,-0.77841100,0.22883900,-0.47379600,-0.84847100,0.40059700,-0.04655900
6.72000000,0.27744700,0.77759600,-0.22961800,-0.47545000,0.84738100,0.40014100,0.04635500,0.27819000,-0.77841100,0.22883900,-0.47379600,-0.84847100,0.40059700,-0.04655900
6.74000000,0.27744700,0.77759600,-0.22961800,-0.47545000,0.84738100,0.40014100,0.04635500,0.27819000,-0.77841100,0.22883900,-0.47379600,-0.84847100,0.40059700,-0.04655900
6.76000000,0.27744700,0.77759600,-0.22961800,-0.47545000,0.84738100,0.40014100,0.04635500,0.27819000,-0.77841100,0.22883900,-0.47379600,-0.84847100,0.40059700,-0.04655900
6.78000000,0.27744700,0.77759600,-0.22961800,-0.47545000,0.84738100,0.40014100,0.04635500,0.27819000,-0.77841100,0.22883900,-0.47379600,-0.84847100,0.40059700,-0.04655900
6.80000000,0.27744700,0.77759600,-0.22961800,-0.47545000,0.84738100,0.40014100,0.04635500,0.27819000,-0.77841100,0.22883900,-0.47379600,-0.84847100,0.40059700,-0.04655900
6.82000000,0.27744700,0.77759600,-0.22961800,-0.47545000,0.84738100,0.40014100,0.04635500,0.27819000,-0.77841100,0.22883900,-0.47379600,-0.84847100,0.40059700,-0.04655900
6.84000000,0.27744700,0.77759600,-0.22961800,-0.47545000,0.84738100,0.40014100,0.04635500,0.27819000,-0.77841100,0.22883900,-0.47379600,-0.84847100,0.40059700,-0.04655900
6.86000000,0.27744700,0.77759600,-0.22961800,-0.47545000,0.84738100,0.40014100,0.04635500,0.27819000,-0.77841100,0.22883900,-0.47379600,-0.84847100,0.40059700,-0.04655900
6.88000000,0.27744700,0.77759600,-0.22961800,-0.47545000,0.84738100,0.40014100,0.04635500,0.27819000,-0.77841100,0.22883900,-0.47379600,-0.84847100,0.40059700,-0.04655900
6.90000000,0.27744700,0.77759600,-0.22961800,-0.47545000,0.84738100,0.40014100,0.04635500,0.27819000,-0.77841100,0.22883900,-0.47379600,-0.84847100,0.40059700,-0.04655900
6.92000000,0.27744700,0.77759600,-0.22961800,-0.47545000,0.84738100,0.40014100,0.04635500,0.27819000,-0.77841100,0.22883900,-0.47379600,-0.84847100,0.40059700,-0.04655900
6.94000000,0.27744700,0.77759600,-0.22961800,-0.47545000,0.84738100,0.40014100,0.04635500,0.27819000,-0.77841100,0.22883900,-0.47379600,-0.84847100,0.40059700,-0.04655900
6.96000000,0.27744700,0.77759600,-0.22961800,-0.47545000,0.84738100,0.40014100,0.04635500,0.27819000,-0.77841100,0.22883900,-0.47379600,-0.84847100,0.40059700,-0.04655900
6.98000000,0.27744700,0.77759600,-0.22961800,-0.47545000,0.84738100,0.40014100,0.04635500,0.27819000,-0.77841100,0.22883900,-0.47379600,-0.84847100,0.40059700,-0.04655900
7.00000000,0.27744700,0.77759600,-0.22961800,-0.47545000,0.84738100,0.40014100,0.04635500,0.27819000,-0.77841100,0.22883900,-0.47379600,-0.84847100,0.40059700,-0.04655900
7.02000000,0.27744700,0.77759600,-0.22961800,-0.47545000,0.84738100,0.40014100,0.04635500,0.27819000,-0.77841100,0.22883900,-0.47379600,-0.84847100,0.40059700,-0.04655900
7.04000000,0.27744700,0.77759600,-0.22961800,-0.47545000,0.84738100,0.40014100,0.04635500,0.27819000,-0.77841100,0.22883900,-0.47379600,-0.84847100,0.40059700,-0.04655900
7.06000000,0.27744700,0.77759600,-0.22961800,-0.47545000,0.84738100,0.40014100,0.04635500,0.27819000,-0.77841100,0.22883900,-0.47379600,-0.84847100,0.40059700,-0.04655900
7.08000000,0.27744700,0.77759600,-0.22961800,-0.47545000,0.84738100,0.40014100,0.04635500,0.27819000,-0.77841100,0.22883900,-0.47379600,-0.84847100,0.40059700,-0.04655900
7.10000000,0.27744700,0.77759600,-0.22961800,-0.47545000,0.84738100,0.40014100,0.04635500,0.27819000,-0.77841100,0.22883900,-0.47379600,-0.84847100,0.40059700,-0.04655900
7.12000000,0.27744700,0.77759600,-0.22961800,-0.47545000,0.84738100,0.40014100,0.04635500,0.27819000,-0.77841100,0.22883900,-0.47379600,-0.84847100,0.40059700,-0.04655900
7.14000000,0.27744700,0.77759600,-0.22961800,-0.47545000,0.84738100,0.40014100,0.04635500,0.27819000,-0.77841100,0.22883900,-0.47379600,-0.84847100,0.40059700,-0.04655900
7.16000000,0.27744700,0.77759600,-0.22961800,-0.47545000,0.84738100,0.40014100,0.04635500,0.27819000,-0.77841100,0.22883900,-0.47379600,-0.84847100,0.40059700,-0.04655900
7.18000000,0.27744700,0.77759600,-0.22961800,-0.47545000,0.84738100,0.40014100,0.04635500,0.27819000,-0.77841100,0.22883900,-0.47379600,-0.84847100,0.40059700,-0.04655900
7.20000000,0.27744700,0.77759600,-0.22961800,-0.47545000,0.84738100,0.40014100,0.04635500,0.27819000,-0.77841100,0.22883900,-0.47379600,-0.84847100,0.40059700,-0.04655900
7.22000000,0.27744700,0.77759600,-0.22961800,-0.47545000,0.84738100,0.40014100,0.04635500,0.27819000,-0.77841100,0.22883900,-0.47379600,-0.84847100,0.40059700,-0.04655900
7.24000000,0.27744700,0.77759600,-0.22961800,-0.47545000,0.84738100,0.40014100,0.04635500,0.27819000,-0.77841100,0.22883900,-0.47379600,-0.84847100,0.40059700,-0.04655900
7.26000000,0.27744700,0.77759600,-0.22961800,-0.47545000,0.84738100,0.40014100,0.04635500,0.27819000,-0.77841100,0.22883900,-0.47379600,-0.84847100,0.40059700,-0.04655900
7.28000000,0.27744700,0.77759600,-0.22961800,-0.47545000,0.84738100,0.40014100,0.04635500,0.27819000,-0.77841100,0.22883900,-0.47379600,-0.84847100,0.40059700,-0.04655900
7.30000000,0.27744700,0.77759600,-0.22961800,-0.47545000,0.84738100,0.40014100,0.04635500,0.27819000,-0.77841100,0.22883900,-0.47379600,-0.84847100,0.40059700,-0.04655900
7.32000000,0.27744700,0.77759600,-0.22961800,-0.47545000,0.84738100,0.40014100,0.04635500,0.27819000,-0.77841100,0.22883900,-0.47379600,-0.84847100,0.40059700,-0.04655900
7.34000000,0.27744700,0.77759600,-0.22961800,-0.47545000,0.84738100,0.40014100,0.04635500,0.27819000,-0.77841100,0.22883900,-0.47379600,-0.84847100,0.40059700,-0.04655900
7.36000000,0.27744700,0.77759600,-0.22961800,-0.47545000,0.84738100,0.40014100,0.04635500,0.27819000,-0.77841100,0.22883900,-0.47379600,-0.84847100,0.40059700,-0.04655900
7.38000000,0.27744700,0.77759600,-0.22961800,-0.47545000,0.84738100,0.40014100,0.04635500,0.27819000,-0.77841100,0.22883900,-0.47379600,-0.84847100,0.40059700,-0.04655900
7.40000000,0.27744700,0.77759600,-0.22961800,-0.47545000,0.84738100,0.40014100,0.04635500,0.27819000,-0.77841100,0.22883900,-0.47379600,-0.84847100,0.40059700,-0.04655900
7.42000000,0.27744700,0.77759600,-0.22961800,-0.47545000,0.84738100,0.40014100,0.04635500,0.27819000,-0.77841100,0.22883900,-0.47379600,-0.84847100,0.40059700,-0.04655900
7.44000000,0.27744700,0.77759600,-0.22961800,-0.47545000,0.84738100,0.40014100,0.04635500,0.27819000,-0.77841100,0.22883900,-0.47379600,-0.84847100,0.40059700,-0.04655900
7.46000000,0.27744700,0.77759600,-0.22961800,-0.47545000,0.84738100,0.40014100,0.04635500,0.27819000,-0.77841100,0.22883900,-0.47379600,-0.84847100,0.40059700,-0.04655900
7.48000000,0.27744700,0.77759600,-0.22961800,-0.47545000,0.84738100,0.40014100,0.04635500,0.27819000,-0.77841100,0.22883900,-0.47379600,-0.84847100,0.40059700,-0.04655900
7.50000000,0.27744700,0.77759600,-0.22961800,-0.47545000,0.84738100,0.40014100,0.04635500,0.27819000,-0.77841100,0.22883900,-0.47379600,-0.84847100,0.40059700,-0.04655900
7.52000000,0.27744700,0.77759600,-0.22961800,-0.47545000,0.84738100,0.40014100,0.04635500,0.27819000,-0.77841100,0.22883900,-0.47379600,-0.84847100,0.40059700,-0.04655900
7.54000000,0.27744700,0.77759600,-0.22961800,-0.47545000,0.84738100,0.40014100,0.04635500,0.27819000,-0.77841100,0.22883900,-0.47379600,-0.84847100,0.40059700,-0.04655900
7.56000000,0.27744700,0.77759600,-0.22961800,-0.47545000,0.84738100,0.40014100,0.04635500,0.27819000,-0.77841100,0.22883900,-0.47379600,-0.84847100,0.40059700,-0.04655900
7.58000000,0.27744700,0.77759600,-0.22961800,-0.47545000,0.84738100,0.40014100,0.04635500,0.27819000,-0.77841100,0.22883900,-0.47379600,-0.84847100,0.40059700,-0.04655900
7.60000000,0.27744700,0.77759600,-0.22961800,-0.47545000,0.84738100,0.40014100,0.04635500,0.27819000,-0.77841100,0.22883900,-0.47379600,-0.84847100,0.40059700,-0.04655900
7.62000000,0.27744700,0.77759600,-0.22961800,-0.47545000,0.84738100,0.40014100,0.04635500,0.27819000,-0.77841100,0.22883900,-0.47379600,-0.84847100,0.40059700,-0.04655900
7.64000000,0.27744700,0.77759600,-0.22961800,-0.47545000,0.84738100,0.40014100,0.04635500,0.27819000,-0.77841100,0.22883900,-0.47379600,-0.84847100,0.40059700,-0.04655900
7.66000000,0.27744700,0.77759600,-0.22961800,-0.47545000,0.84738100,0.40014100,0.04635500,0.27819000,-0.77841100,0.22883900,-0.47379600,-0.84847100,0.40059700,-0.04655900
7.68000000,0.27744700,0.77759600,-0.22961800,-0.47545000,0.84738100,0.40014100,0.04635500,0.27819000,-0.77841100,0.22883900,-0.47379600,-0.84847100,0.40059700,-0.04655900
7.70000000,0.27744700,0.77759600,-0.22961800,-0.47545000,0.84738100,0.40014100,0.04635500,0.27819000,-0.77841100,0.22883900,-0.47379600,-0.84847100,0.40059700,-0.04655900
7.72000000,0.27744700,0.77759600,-0.22961800,-0.47545000,0.84738100,0.40014100,0.04635500,0.27819000,-0.77841100,0.22883900,-0.47379600,-0.84847100,0.40059700,-0.04655900
7.74000000,0.27744700,0.77759600,-0.22961800,-0.47545000,0.84738100,0.40014100,0.04635500,0.27819000,-0.77841100,0.22883900,-0.47379600,-0.84847100,0.40059700,-0.04655900
7.76000000,0.27744700,0.77759600,-0.22961800,-0.47545000,0.84738100,0.40014100,0.04635500,0.27819000,-0.77841100,0.22883900,-0.47379600,-0.84847100,0.40059700,-0.04655900
7.78000000,0.27744700,0.77759600,-0.22961800,-0.47545000,0.84738100,0.40014100,0.04635500,0.27819000,-0.77841100,0.22883900,-0.47379600,-0.84847100,0.40059700,-0.04655900
7.80000000,0.27744700,0.77759600,-0.22961800,-0.47545000,0.84738100,0.40014100,0.04635500,0.27819000,-0.77841100,0.22883900,-0.47379600,-0.84847100,0.40059700,-0.04655900
7.82000000,0.27744700,0.77759600,-0.22961800,-0.47545000,0.84738100,0.40014100,0.04635500,0.27819000,-0.77841100,0.22883900,-0.47379600,-0.84847100,0.40059700,-0.04655900
7.84000000,0.27744700,0.77759600,-0.22961800,-0.47545000,0.84738100,0.40014100,0.04635500,0.27819000,-0.77841100,0.22883900,-0.47379600,-0.84847100,0.40059700,-0.04655900
7.86000000,0.27744700,0.77759600,-0.22961800,-0.47545000,0.84738100,0.40014100,0.04635500,0.27819000,-0.77841100,0.22883900,-0.47379600,-0.84847100,0.40059700,-0.04655900
7.88000000,0.27744700,0.77759600,-0.22961800,-0.47545000,0.84738100,0.40014100,0.04635500,0.27819000,-0.77841100,0.22883900,-0.47379600,-0.84847100,0.40059700,-0.04655900
7.90000000,0.27744700,0.77759600,-0.22961800,-0.47545000,0.84738100,0.40014100,0.04635500,0.27819000,-0.77841100,0.22883900,-0.47379600,-0.84847100,0.40059700,-0.04655900
7.92000000,0.27744700,0.77759600,-0.22961800,-0.47545000,0.84738100,0.40014100,0.04635500,0.27819000,-0.77841100,0.22883900,-0.47379600,-0.84847100,0.40059700,-0.04655900
7.94000000,0.27744700,0.77759600,-0.22961800,-0.47545000,0.84738100,0.40014100,0.04635500,0.27819000,-0.77841100,0.22883900,-0.47379600,-0.84847100,0.40059700,-0.04655900
7.96000000,0.27744700,0.77759600,-0.22961800,-0.47545000,0.84738100,0.40014100,0.04635500,0.27819000,-0.77841100,0.22883900,-0.47379600,-0.84847100,0.40059700,-0.04655900
7.98000000,0.27744700,0.77759600,-0.22961800,-0.47545000,0.84738100,0.40014100,0.04635500,0.27819000,-0.77841100,0.22883900,-0.47379600,-0.84847100,0.40059700,-0.04655900
8.00000000,0.27744700,0.77759600,-0.22961800,-0.47545000,0.84738100,0.40014100,0.04635500,0.27819000,-0.77841100,0.22883900,-0.47379600,-0.84847100,0.40059700,-0.04655900
8.02000000,0.27744700,0.77759600,-0.22961800,-0.47545000,0.84738100,0.40014100,0.04635500,0.27819000,-0.77841100,0.22883900,-0.47379600,-0.84847100,0.40059700,-0.04655900
8.04000000,0.27744700,0.77759600,-0.22961800,-0.47545000,0.84738100,0.40014100,0.04635500,0.27819000,-0.77841100,0.22883900,-0.47379600,-0.84847100,0.40059700,-0.04655900
8.06000000,0.27744700,0.77759600,-0.22961800,-0.47545000,0.84738100,0.40014100,0.04635500,0.27819000,-0.77841100,0.22883900,-0.47379600,-0.84847100,0.40059700,-0.04655900
8.08000000,0.27744700,0.77759600,-0.22961800,-0.47545000,0.84738100,0.40014100,0.04635500,0.27819000,-0.77841100,0.22883900,-0.47379600,-0.84847100,0.40059700,-0.04655900
8.10000000,0.27744700,0.77759600,-0.22961800,-0.47545000,0.84738100,0.40014100,0.04635500,0.27819000,-0.77841100,0.22883900,-0.47379600,-0.84847100,0.40059700,-0.04655900
8.12000000,0.27744700,0.77759600,-0.22961800,-0.47545000,0.84738100,0.40014100,0.04635500,0.27819000,-0.77841100,0.22883900,-0.47379600,-0.84847100,0.40059700,-0.04655900
8.14000000,0.27744700,0.77759600,-0.22961800,-0.47545000,0.84738100,0.40014100,0.04635500,0.27819000,-0.77841100,0.22883900,-0.47379600,-0.84847100,0.40059700,-0.04655900
8.16000000,0.27744700,0.77759600,-0.22961800,-0.47545000,0.84738100,0.40014100,0.04635500,0.27819000,-0.77841100,0.22883900,-0.47379600,-0.84847100,0.40059700,-0.04655900
8.18000000,0.27744700,0.77759600,-0.22961800,-0.47545000,0.84738100,0.40014100,0.04635500,0.27819000,-0.77841100,0.22883900,-0.47379600,-0.84847100,0.40059700,-0.04655900
8.20000000,0.27744700,0.77759600,-0.22961800,-0.47545000,0.84738100,0.40014100,0.04635500,0.27819000,-0.77841100,0.22883900,-0.47379600,-0.84847100,0.40059700,-0.04655900
8.22000000,0.27744700,0.77759600,-0.22961800,-0.47545000,0.84738100,0.40014100,0.04635500,0.27819000,-0.77841100,0.22883900,-0.47379600,-0.84847100,0.40059700,-0.04655900
8.24000000,0.27744700,0.77759600,-0.22961800,-0.47545000,0.84738100,0.40014100,0.04635500,0.27819000,-0.77841100,0.22883900,-0.47379600,-0.84847100,0.40059700,-0.04655900
8.26000000,0.27744700,0.77759600,-0.22961800,-0.47545000,0.84738100,0.40014100,0.04635500,0.27819000,-0.77841100,0.22883900,-0.47379600,-0.84847100,0.40059700,-0.04655900
8.28000000,0.27744700,0.77759600,-0.22961800,-0.47545000,0.84738100,0.40014100,0.04635500,0.27819000,-0.77841100,0.22883900,-0.47379600,-0.84847100,0.40059700,-0.04655900
8.30000000,0.27744700,0.77759600,-0.22961800,-0.47545000,0.84738100,0.40014100,0.04635500,0.27819000,-0.77841100,0.22883900,-0.47379600,-0.84847100,0.40059700,-0.04655900
8.32000000,0.27744700,0.77759600,-0.22961800,-0.47545000,0.84738100,0.40014100,0.04635500,0.27819000,-0.77841100,0.22883900,-0.47379600,-0.84847100,0.40059700,-0.04655900
8.34000000,0.27744700,0.77759600,-0.22961800,-0.47545000,0.84738100,0.40014100,0.04635500,0.27819000,-0.77841100,0.22883900,-0.47379600,-0.84847100,0.40059700,-0.04655900
8.36000000,0.27744700,0.77759600,-0.22961800,-0.47545000,0.84738100,0.40014100,0.04635500,0.27819000,-0.77841100,0.22883900,-0.47379600,-0.84847100,0.40059700,-0.04655900
8.38000000,0.27744700,0.77759600,-0.22961800,-0.47545000,0.84738100,0.40014100,0.04635500,0.27819000,-0.77841100,0.22883900,-0.47379600,-0.84847100,0.40059700,-0.04655900
8.40000000,0.27744700,0.77759600,-0.22961800,-0.47545000,0.84738100,0.40014100,0.04635500,0.27819000,-0.77841100,0.22883900,-0.47379600,-0.84847100,0.40059700,-0.04655900
8.42000000,0.27744700,0.77759600,-0.22961800,-0.47545000,0.84738100,0.40014100,0.04635500,0.27819000,-0.77841100,0.22883900,-0.47379600,-0.84847100,0.40059700,-0.04655900
8.44000000,0.27744700,0.77759600,-0.22961800,-0.47545000,0.84738100,0.40014100,0.04635500,0.27819000,-0.77841100,0.22883900,-0.47379600,-0.84847100,0.40059700,-0.04655900
8.46000000,0.27744700,0.77759600,-0.22961800,-0.47545000,0.84738100,0.40014100,0.04635500,0.27819000,-0.77841100,0.22883900,-0.47379600,-0.84847100,0.40059700,-0.04655900
8.48000000,0.27744700,0.77759600,-0.22961800,-0.47545000,0.84738100,0.40014100,0.04635500,0.27819000,-0.77841100,0.22883900,-0.47379600,-0.84847100,0.40059700,-0.04655900
8.50000000,0.27744700,0.77759600,-0.22961800,-0.47545000,0.84738100,0.40014100,0.04635500,0.27819000,-0.77841100,0.22883900,-0.47379600,-0.84847100,0.40059700,-0.04655900
8.52000000,0.27744700,0.77759600,-0.22961800,-0.47545000,0.84738100,0.40014100,0.04635500,0.27819000,-0.77841100,0.22883900,-0.47379600,-0.84847100,0.40059700,-0.04655900
8.54000000,0.27744700,0.77759600,-0.22961800,-0.47545000,0.84738100,0.40014100,0.04635500,0.27819000,-0.77841100,0.22883900,-0.47379600,-0.84847100,0.40059700,-0.04655900
8.56000000,0.27744700,0.77759600,-0.22961800,-0.47545000,0.84738100,0.40014100,0.04635500,0.27819000,-0.77841100,0.22883900,-0.47379600,-0.84847100,0.40059700,-0.04655900
8.58000000,0.27744700,0.77759600,-0.22961800,-0.47545000,0.84738100,0.40014100,0.04635500,0.27819000,-0.77841100,0.22883900,-0.47379600,-0.84847100,0.40059700,-0.04655900
8.60000000,0.27744700,0.77759600,-0.22961800,-0.47545000,0.84738100,0.40014100,0.04635500,0.27819000,-0.77841100,0.22883900,-0.47379600,-0.84847100,0.40059700,-0.04655900
8.62000000,0.27744700,0.77759600,-0.22961800,-0.47545000,0.84738100,0.40014100,0.04635500,0.27819000,-0.77841100,0.22883900,-0.47379600,-0.84847100,0.40059700,-0.04655900
8.64000000,0.27744700,0.77759600,-0.22961800,-0.47545000,0.84738100,0.40014100,0.04635500,0.27819000,-0.77841100,0.22883900,-0.47379600,-0.84847100,0.40059700,-0.04655900
8.66000000,0.27744700,0.77759600,-0.22961800,-0.47545000,0.84738100,0.40014100,0.04635500,0.27819000,-0.77841100,0.22883900,-0.47379600,-0.84847100,0.40059700,-0.04655900
8.68000000,0.27744700,0.77759600,-0.22961800,-0.47545000,0.84738100,0.40014100,0.04635500,0.27819000,-0.77841100,0.22883900,-0.47379600,-0.84847100,0.40059700,-0.04655900
8.70000000,0.27744700,0.77759600,-0.22961800,-0.47545000,0.84738100,0.40014100,0.04635500,0.27819000,-0.77841100,0.22883900,-0.47379600,-0.84847100,0.40059700,-0.04655900
8.72000000,0.27744700,0.77759600,-0.22961800,-0.47545000,0.84738100,0.40014100,0.04635500,0.27819000,-0.77841100,0.22883900,-0.47379600,-0.84847100,0.40059700,-0.04655900
8.74000000,0.27744700,0.77759600,-0.22961800,-0.47545000,0.84738100,0.40014100,0.04635500,0.27819000,-0.77841100,0.22883900,-0.47379600,-0.84847100,0.40059700,-0.04655900
8.76000000,0.27744700,0.77759600,-0.22961800,-0.47545000,0.84738100,0.40014100,0.04635500,0.27819000,-0.77841100,0.22883900,-0.47379600,-0.84847100,0.40059700,-0.04655900
8.78000000,0.27744700,0.77759600,-0.22961800,-0.47545000,0.84738100,0.40014100,0.04635500,0.27819000,-0.77841100,0.22883900,-0.47379600,-0.84847100,0.40059700,-0.04655900
8.80000000,0.27744700,0.77759600,-0.22961800,-0.47545000,0.84738100,0.40014100,0.04635500,0.27819000,-0.77841100,0.22883900,-0.47379600,-0.84847100,0.40059700,-0.04655900
8.82000000,0.27744700,0.77759600,-0.22961800,-0.47545000,0.84738100,0.40014100,0.04635500,0.27819000,-0.77841100,0.22883900,-0.47379600,-0.84847100,0.40059700,-0.04655900
8.84000000,0.27744700,0.77759600,-0.22961800,-0.47545000,0.84738100,0.40014100,0.04635500,0.27819000,-0.77841100,0.22883900,-0.47379600,-0.84847100,0.40059700,-0.04655900
8.86000000,0.27744700,0.77759600,-0.22961800,-0.47545000,0.84738100,0.40014100,0.04635500,0.27819000,-0.77841100,0.22883900,-0.47379600,-0.84847100,0.40059700,-0.04655900
8.88000000,0.27744700,0.77759600,-0.22961800,-0.47545000,0.84738100,0.40014100,0.04635500,0.27819000,-0.77841100,0.22883900,-0.47379600,-0.84847100,0.40059700,-0.04655900
8.90000000,0.27744700,0.77759600,-0.22961800,-0.47545000,0.84738100,0.40014100,0.04635500,0.27819000,-0.77841100,0.22883900,-0.47379600,-0.84847100,0.40059700,-0.04655900
8.92000000,0.27744700,0.77759600,-0.22961800,-0.47545000,0.84738100,0.40014100,0.04635500,0.27819000,-0.77841100,0.22883900,-0.47379600,-0.84847100,0.40059700,-0.04655900
8.94000000,0.27744700,0.77759600,-0.22961800,-0.47545000,0.84738100,0.40014100,0.04635500,0.27819000,-0.77841100,0.22883900,-0.47379600,-0.84847100,0.40059700,-0.04655900
8.96000000,0.27744700,0.77759600,-0.22961800,-0.47545000,0.84738100,0.40014100,0.04635500,0.27819000,-0.77841100,0.22883900,-0.47379600,-0.84847100,0.40059700,-0.04655900
8.98000000,0.27744700,0.77759600,-0.22961800,-0.47545000,0.84738100,0.40014100,0.04635500,0.27819000,-0.77841100,0.22883900,-0.47379600,-0.84847100,0.40059700,-0.04655900
9.00000000,0.27744700,0.77759600,-0.22961800,-0.47545000,0.84738100,0.40014100,0.04635500,0.27819000,-0.77841100,0.22883900,-0.47379600,-0.84847100,0.40059700,-0.04655900
9.02000000,0.27744700,0.77759600,-0.22961800,-0.47545000,0.84738100,0.40014100,0.04635500,0.27819000,-0.77841100,0.22883900,-0.47379600,-0.84847100,0.40059700,-0.04655900
9.04000000,0.27744700,0.77759600,-0.22961800,-0.47545000,0.84738100,0.40014100,0.04635500,0.27819000,-0.77841100,0.22883900,-0.47379600,-0.84847100,0.40059700,-0.04655900
9.06000000,0.27744700,0.77759600,-0.22961800,-0.47545000,0.84738100,0.40014100,0.04635500,0.27819000,-0.77841100,0.22883900,-0.47379600,-0.84847100,0.40059700,-0.04655900
9.08000000,0.27744700,0.77759600,-0.22961800,-0.47545000,0.84738100,0.40014100,0.04635500,0.27819000,-0.77841100,0.22883900,-0.47379600,-0.84847100,0.40059700,-0.04655900
9.10000000,0.27744700,0.77759600,-0.22961800,-0.47545000,0.84738100,0.40014100,0.04635500,0.27819000,-0.77841100,0.22883900,-0.47379600,-0.84847100,0.40059700,-0.04655900
9.12000000,0.27744700,0.77759600,-0.22961800,-0.47545000,0.84738100,0.40014100,0.04635500,0.27819000,-0.77841100,0.22883900,-0.47379600,-0.84847100,0.40059700,-0.04655900
9.14000000,0.27744700,0.77759600,-0.22961800,-0.47545000,0.84738100,0.40014100,0.04635500,0.27819000,-0.77841100,0.22883900,-0.47379600,-0.84847100,0.40059700,-0.04655900
9.16000000,0.27744700,0.77759600,-0.22961800,-0.47545000,0.84738100,0.40014100,0.04635500,0.27819000,-0.77841100,0.22883900,-0.47379600,-0.84847100,0.40059700,-0.04655900
9.18000000,0.27744700,0.77759600,-0.22961800,-0.47545000,0.84738100,0.40014100,0.04635500,0.27819000,-0.77841100,0.22883900,-0.47379600,-0.84847100,0.40059700,-0.04655900
9.20000000,0.27744700,0.77759600,-0.22961800,-0.47545000,0.84738100,0.40014100,0.04635500,0.27819000,-0.77841100,0.22883900,-0.47379600,-0.84847100,0.40059700,-0.04655900
9.22000000,0.27744700,0.77759600,-0.22961800,-0.47545000,0.84738100,0.40014100,0.04635500,0.27819000,-0.77841100,0.22883900,-0.47379600,-0.84847100,0.40059700,-0.04655900
9.24000000,0.27744700,0.77759600,-0.22961800,-0.47545000,0.84738100,0.40014100,0.04635500,0.27819000,-0.77841100,0.22883900,-0.47379600,-0.84847100,0.40059700,-0.04655900
9.26000000,0.27744700,0.77759600,-0.22961800,-0.47545000,0.84738100,0.40014100,0.04635500,0.27819000,-0.77841100,0.22883900,-0.47379600,-0.84847100,0.40059700,-0.04655900
9.28000000,0.27744700,0.77759600,-0.22961800,-0.47545000,0.84738100,0.40014100,0.04635500,0.27819000,-0.77841100,0.22883900,-0.47379600,-0.84847100,0.40059700,-0.04655900
9.30000000,0.27744700,0.77759600,-0.22961800,-0.47545000,0.84738100,0.40014100,0.04635500,0.27819000,-0.77841100,0.22883900,-0.47379600,-0.84847100,0.40059700,-0.04655900
9.32000000,0.27744700,0.77759600,-0.22961800,-0.47545000,0.84738100,0.40014100,0.04635500,0.27819000,-0.77841100,0.22883900,-0.47379600,-0.84847100,0.40059700,-0.04655900
9.34000000,0.27744700,0.77759600,-0.22961800,-0.47545000,0.84738100,0.40014100,0.04635500,0.27819000,-0.77841100,0.22883900,-0.47379600,-0.84847100,0.40059700,-0.04655900
9.36000000,0.27744700,0.77759600,-0.22961800,-0.47545000,0.84738100,0.40014100,0.04635500,0.27819000,-0.77841100,0.22883900,-0.47379600,-0.84847100,0.40059700,-0.04655900
9.38000000,0.27744700,0.77759600,-0.22961800,-0.47545000,0.84738100,0.40014100,0.04635500,0.27819000,-0.77841100,0.22883900,-0.47379600,-0.84847100,0.40059700,-0.04655900
9.40000000,0.27744700,0.77759600,-0.22961800,-0.47545000,0.84738100,0.40014100,0.04635500,0.27819000,-0.77841100,0.22883900,-0.47379600,-0.84847100,0.40059700,-0.04655900
9.42000000,0.27744700,0.77759600,-0.22961800,-0.47545000,0.84738100,0.40014100,0.04635500,0.27819000,-0.77841100,0.22883900,-0.47379600,-0.84847100,0.40059700,-0.04655900
9.44000000,0.27744700,0.77759600,-0.22961800,-0.47545000,0.84738100,0.40014100,0.04635500,0.27819000,-0.77841100,0.22883900,-0.47379600,-0.84847100,0.40059700,-0.04655900
9.46000000,0.27744700,0.77759600,-0.22961800,-0.47545000,0.84738100,0.40014100,0.04635500,0.27819000,-0.77841100,0.22883900,-0.47379600,-0.84847100,0.40059700,-0.04655900
9.48000000,0.27744700,0.77759600,-0.22961800,-0.47545000,0.84738100,0.40014100,0.04635500,0.27819000,-0.77841100,0.22883900,-0.47379600,-0.84847100,0.40059700,-0.04655900
9.50000000,0.27744700,0.77759600,-0.22961800,-0.47545000,0.84738100,0.40014100,0.04635500,0.27819000,-0.77841100,0.22883900,-0.47379600,-0.84847100,0.40059700,-0.04655900
9.52000000,0.27744700,0.77759600,-0.22961800,-0.47545000,0.84738100,0.40014100,0.04635500,0.27819000,-0.77841100,0.22883900,-0.47379600,-0.84847100,0.40059700,-0.04655900
9.54000000,0.27744700,0.77759600,-0.22961800,-0.47545000,0.84738100,0.40014100,0.04635500,0.27819000,-0.77841100,0.22883900,-0.47379600,-0.84847100,0.40059700,-0.04655900
9.56000000,0.27744700,0.77759600,-0.22961800,-0.47545000,0.84738100,0.40014100,0.04635500,0.27819000,-0.77841100,0.22883900,-0.47379600,-0.84847100,0.40059700,-0.04655900
9.58000000,0.27744700,0.77759600,-0.22961800,-0.47545000,0.84738100,0.40014100,0.04635500,0.27819000,-0.77841100,0.22883900,-0.47379600,-0.84847100,0.40059700,-0.04655900
9.60000000,0.27744700,0.77759600,-0.22961800,-0.47545000,0.84738100,0.40014100,0.04635500,0.27819000,-0.77841100,0.22883900,-0.47379600,-0.84847100,0.40059700,-0.04655900
9.62000000,0.27744700,0.77759600,-0.22961800,-0.47545000,0.84738100,0.40014100,0.04635500,0.27819000,-0.77841100,0.22883900,-0.47379600,-0.84847100,0.40059700,-0.04655900
9.64000000,0.27744700,0.77759600,-0.22961800,-0.47545000,0.84738100,0.40014100,0.04635500,0.27819000,-0.77841100,0.22883900,-0.47379600,-0.84847100,0.40059700,-0.04655900
9.66000000,0.27744700,0.77759600,-0.22961800,-0.47545000,0.84738100,0.40014100,0.04635500,0.27819000,-0.77841100,0.22883900,-0.47379600,-0.84847100,0.40059700,-0.04655900
9.68000000,0.27744700,0.77759600,-0.22961800,-0.47545000,0.84738100,0.40014100,0.04635500,0.27819000,-0.77841100,0.22883900,-0.47379600,-0.84847100,0.40059700,-0.04655900
9.70000000,0.27744700,0.77759600,-0.22961800,-0.47545000,0.84738100,0.40014100,0.04635500,0.27819000,-0.77841100,0.22883900,-0.47379600,-0.84847100,0.40059700,-0.04655900
9.72000000,0.27744700,0.77759600,-0.22961800,-0.47545000,0.84738100,0.40014100,0.04635500,0.27819000,-0.77841100,0.22883900,-0.47379600,-0.84847100,0.40059700,-0.04655900
9.74000000,0.27744700,0.77759600,-0.22961800,-0.47545000,0.84738100,0.40014100,0.04635500,0.27819000,-0.77841100,0.22883900,-0.47379600,-0.84847100,0.40059700,-0.04655900
9.76000000,0.27744700,0.77759600,-0.22961800,-0.47545000,0.84738100,0.40014100,0.04635500,0.27819000,-0.77841100,0.22883900,-0.47379600,-0.84847100,0.40059700,-0.04655900
9.78000000,0.27744700,0.77759600,-0.22961800,-0.47545000,0.84738100,0.40014100,0.04635500,0.27819000,-0.77841100,0.22883900,-0.47379600,-0.84847100,0.40059700,-0.04655900
9.80000000,0.27744700,0.77759600,-0.22961800,-0.47545000,0.84738100,0.40014100,0.04635500,0.27819000,-0.77841100,0.22883900,-0.47379600,-0.84847100,0.40059700,-0.04655900
9.82000000,0.27744700,0.77759600,-0.22961800,-0.47545000,0.84738100,0.40014100,0.04635500,0.27819000,-0.77841100,0.22883900,-0.47379600,-0.84847100,0.40059700,-0.04655900
9.84000000,0.27744700,0.77759600,-0.22961800,-0.47545000,0.84738100,0.40014100,0.04635500,0.27819000,-0.77841100,0.22883900,-0.47379600,-0.84847100,0.40059700,-0.04655900
9.86000000,0.27744700,0.77759600,-0.22961800,-0.47545000,0.84738100,0.40014100,0.04635500,0.27819000,-0.77841100,0.22883900,-0.47379600,-0.84847100,0.40059700,-0.04655900
9.88000000,0.27744700,0.77759600,-0.22961800,-0.47545000,0.84738100,0.40014100,0.04635500,0.27819000,-0.77841100,0.22883900,-0.47379600,-0.84847100,0.40059700,-0.04655900
9.90000000,0.27744700,0.77759600,-0.22961800,-0.47545000,0.84738100,0.40014100,0.04635500,0.27819000,-0.77841100,0.22883900,-0.47379600,-0.84847100,0.40059700,-0.04655900
9.92000000,0.27744700,0.77759600,-0.22961800,-0.47545000,0.84738100,0.40014100,0.04635500,0.27819000,-0.77841100,0.22883900,-0.47379600,-0.84847100,0.40059700,-0.04655900
9.94000000,0.27744700,0.77759600,-0.22961800,-0.47545000,0.84738100,0.40014100,0.04635500,0.27819000,-0.77841100,0.22883900,-0.47379600,-0.84847100,0.40059700,-0.04655900
9.96000000,0.27744700,0.77759600,-0.22961800,-0.47545000,0.84738100,0.40014100,0.04635500,0.27819000,-0.77841100,0.22883900,-0.47379600,-0.84847100,0.40059700,-0.04655900
9.98000000,0.27744700,0.77759600,-0.22961800,-0.47545000,0.84738100,0.40014100,0.04635500,0.27819000,-0.77841100,0.22883900,-0.47379600,-0.84847100,0.40059700,-0.04655900
10.00000000,0.27744700,0.77759600,-0.22961800,-0.47545000,0.84738100,0.40014100,0.04635500,0.27819000,-0.77841100,0.22883900,-0.47379600,-0.84847100,0.40059700,-0.04655900
10.02000000,0.27744700,0.77759600,-0.22961800,-0.47545000,0.84738100,0.40014100,0.04635500,0.27819000,-0.77841100,0.22883900,-0.47379600,-0.84847100,0.40059700,-0.04655900
10.04000000,0.27744700,0.77759600,-0.22961800,-0.47545000,0.84738100,0.40014100,0.04635500,0.27819000,-0.77841100,0.22883900,-0.47379600,-0.84847100,0.40059700,-0.04655900
10.06000000,0.27744700,0.77759600,-0.22961800,-0.47545000,0.84738100,0.40014100,0.04635500,0.27819000,-0.77841100,0.22883900,-0.47379600,-0.84847100,0.40059700,-0.04655900
10.08000000,0.27744700,0.77759600,-0.22961800,-0.47545000,0.84738100,0.40014100,0.04635500,0.27819000,-0.77841100,0.22883900,-0.47379600,-0.84847100,0.40059700,-0.04655900
10.10000000,0.27744700,0.77759600,-0.22961800,-0.47545000,0.84738100,0.40014100,0.04635500,0.27819000,-0.77841100,0.22883900,-0.47379600,-0.84847100,0.40059700,-0.04655900
10.12000000,0.27744700,0.77759600,-0.22961800,-0.47545000,0.84738100,0.40014100,0.04635500,0.27819000,-0.77841100,0.22883900,-0.47379600,-0.84847100,0.40059700,-0.04655900
10.14000000,0.27744700,0.77759600,-0.22961800,-0.47545000,0.84738100,0.40014100,0.04635500,0.27819000,-0.77841100,0.22883900,-0.47379600,-0.84847100,0.40059700,-0.04655900
10.16000000,0.27744700,0.77759600,-0.22961800,-0.47545000,0.84738100,0.40014100,0.04635500,0.27819000,-0.77841100,0.22883900,-0.47379600,-0.84847100,0.40059700,-0.04655900
10.18000000,0.27744700,0.77759600,-0.22961800,-0.47545000,0.84738100,0.40014100,0.04635500,0.27819000,-0.77841100,0.22883900,-0.47379600,-0.84847100,0.40059700,-0.04655900
10.20000000,0.27744700,0.77759600,-0.22961800,-0.47545000,0.84738100,0.40014100,0.04635500,0.27819000,-0.77841100,0.22883900,-0.47379600,-0.84847100,0.40059700,-0.04655900
10.22000000,0.27744700,0.77759600,-0.22961800,-0.47545000,0.84738100,0.40014100,0.04635500,0.27819000,-0.77841100,0.22883900,-0.47379600,-0.84847100,0.40059700,-0.04655900
10.24000000,0.27744700,0.77759600,-0.22961800,-0.47545000,0.84738100,0.40014100,0.04635500,0.27819000,-0.77841100,0.22883900,-0.47379600,-0.84847100,0.40059700,-0.04655900
10.26000000,0.27744700,0.77759600,-0.22961800,-0.47545000,0.84738100,0.40014100,0.04635500,0.27819000,-0.77841100,0.22883900,-0.47379600,-0.84847100,0.40059700,-0.04655900
10.28000000,0.27744700,0.77759600,-0.22961800,-0.47545000,0.84738100,0.40014100,0.04635500,0.27819000,-0.77841100,0.22883900,-0.47379600,-0.84847100,0.40059700,-0.04655900
10.30000000,0.27744700,0.77759600,-0.22961800,-0.47545000,0.84738100,0.40014100,0.04635500,0.27819000,-0.77841100,0.22883900,-0.47379600,-0.84847100,0.40059700,-0.04655900
10.32000000,0.27744700,0.77759600,-0.22961800,-0.47545000,0.84738100,0.40014100,0.04635500,0.27819000,-0.77841100,0.22883900,-0.47379600,-0.84847100,0.40059700,-0.04655900
10.34000000,0.27744700,0.77759600,-0.22961800,-0.47545000,0.84738100,0.40014100,0.04635500,0.27819000,-0.77841100,0.22883900,-0.47379600,-0.84847100,0.40059700,-0.04655900
10.36000000,0.27744700,0.77759600,-0.22961800,-0.47545000,0.84738100,0.40014100,0.04635500,0.27819000,-0.77841100,0.22883900,-0.47379600,-0.84847100,0.40059700,-0.04655900
10.38000000,0.27744700,0.77759600,-0.22961800,-0.47545000,0.84738100,0.40014100,0.04635500,0.27819000,-0.77841100,0.22883900,-0.47379600,-0.84847100,0.40059700,-0.04655900
10.40000000,0.27744700,0.77759600,-0.22961800,-0.47545000,0.84738100,0.40014100,0.04635500,0.27819000,-0.77841100,0.22883900,-0.47379600,-0.84847100,0.40059700,-0.04655900
10.42000000,0.27744700,0.77759600,-0.22961800,-0.47545000,0.84738100,0.40014100,0.04635500,0.27819000,-0.77841100,0.22883900,-0.47379600,-0.84847100,0.40059700,-0.04655900
10.44000000,0.27744700,0.77759600,-0.22961800,-0.47545000,0.84738100,0.40014100,0.04635500,0.27819000,-0.77841100,0.22883900,-0.47379600,-0.84847100,0.40059700,-0.04655900
10.46000000,0.27744700,0.77759600,-0.22961800,-0.47545000,0.84738100,0.40014100,0.04635500,0.27819000,-0.77841100,0.22883900,-0.47379600,-0.84847100,0.40059700,-0.04655900
10.48000000,0.27744700,0.77759600,-0.22961800,-0.47545000,0.84738100,0.40014100,0.04635500,0.27819000,-0.77841100,0.22883900,-0.47379600,-0.84847100,0.40059700,-0.04655900
10.50000000,0.27744700,0.77759600,-0.22961800,-0.47545000,0.84738100,0.40014100,0.04635500,0.27819000,-0.77841100,0.22883900,-0.47379600,-0.84847100,0.40059700,-0.04655900
10.52000000,0.27744700,0.77759600,-0.22961800,-0.47545000,0.84738100,0.40014100,0.04635500,0.27819000,-0.77841100,0.22883900,-0.47379600,-0.84847100,0.40059700,-0.04655900
10.54000000,0.27744700,0.77759600,-0.22961800,-0.47545000,0.84738100,0.40014100,0.04635500,0.27819000,-0.77841100,0.22883900,-0.47379600,-0.84847100,0.40059700,-0.04655900
10.56000000,0.27744700,0.77759600,-0.22961800,-0.47545000,0.84738100,0.40014100,0.04635500,0.27819000,-0.77841100,0.22883900,-0.47379600,-0.84847100,0.40059700,-0.04655900
10.58000000,0.27744700,0.77759600,-0.22961800,-0.47545000,0.84738100,0.40014100,0.04635500,0.27819000,-0.77841100,0.22883900,-0.47379600,-0.84847100,0.40059700,-0.04655900
10.60000000,0.27744700,0.77759600,-0.22961800,-0.47545000,0.84738100,0.40014100,0.04635500,0.27819000,-0.77841100,0.22883900,-0.47379600,-0.84847100,0.40059700,-0.04655900
10.62000000,0.27744700,0.77759600,-0.22961800,-0.47545000,0.84738100,0.40014100,0.04635500,0.27819000,-0.77841100,0.22883900,-0.47379600,-0.84847100,0.40059700,-0.04655900
10.64000000,0.27744700,0.77759600,-0.22961800,-0.47545000,0.84738100,0.40014100,0.04635500,0.27819000,-0.77841100,0.22883900,-0.47379600,-0.84847100,0.40059700,-0.04655900
10.66000000,0.27744700,0.77759600,-0.22961800,-0.47545000,0.84738100,0.40014100,0.04635500,0.27819000,-0.77841100,0.22883900,-0.47379600,-0.84847100,0.40059700,-0.04655900
10.68000000,0.27744700,0.77759600,-0.22961800,-0.47545000,0.84738100,0.40014100,0.04635500,0.27819000,-0.77841100,0.22883900,-0.47379600,-0.84847100,0.40059700,-0.04655900
10.70000000,0.27744700,0.77759600,-0.22961800,-0.47545000,0.84738100,0.40014100,0.04635500,0.27819000,-0.77841100,0.22883900,-0.47379600,-0.84847100,0.40059700,-0.04655900
10.72000000,0.27744700,0.77759600,-0.22961800,-0.47545000,0.84738100,0.40014100,0.04635500,0.27819000,-0.77841100,0.22883900,-0.47379600,-0.84847100,0.40059700,-0.04655900
10.74000000,0.27744700,0.77759600,-0.22961800,-0.47545000,0.84738100,0.40014100,0.04635500,0.27819000,-0.77841100,0.22883900,-0.47379600,-0.84847100,0.40059700,-0.04655900
10.76000000,0.27744700,0.77759600,-0.22961800,-0.47545000,0.84738100,0.40014100,0.04635500,0.27819000,-0.77841100,0.22883900,-0.47379600,-0.84847100,0.40059700,-0.04655900
10.78000000,0.27744700,0.77759600,-0.22961800,-0.47545000,0.84738100,0.40014100,0.04635500,0.27819000,-0.77841100,0.22883900,-0.47379600,-0.84847100,0.40059700,-0.04655900
10.80000000,0.27744700,0.77759600,-0.22961800,-0.47545000,0.84738100,0.40014100,0.04635500,0.27819000,-0.77841100,0.22883900,-0.47379600,-0.84847100,0.40059700,-0.04655900
10.82000000,0.27744700,0.77759600,-0.22961800,-0.47545000,0.84738100,0.40014100,0.04635500,0.27819000,-0.77841100,0.22883900,-0.47379600,-0.84847100,0.40059700,-0.04655900
10.84000000,0.27744700,0.77759600,-0.22961800,-0.47545000,0.84738100,0.40014100,0.04635500,0.27819000,-0.77841100,0.22883900,-0.47379600,-0.84847100,0.40059700,-0.04655900
10.86000000,0.27744700,0.77759600,-0.22961800,-0.47545000,0.84738100,0.40014100,0.04635500,0.27819000,-0.77841100,0.22883900,-0.47379600,-0.84847100,0.40059700,-0.04655900
10.88000000,0.27744700,0.77759600,-0.22961800,-0.47545000,0.84738100,0.40014100,0.04635500,0.27819000,-0.77841100,0.22883900,-0.47379600,-0.84847100,0.40059700,-0.04655900
10.90000000,0.27744700,0.77759600,-0.22961800,-0.47545000,0.84738100,0.40014100,0.04635500,0.27819000,-0.77841100,0.22883900,-0.47379600,-0.84847100,0.40059700,-0.04655900
10.92000000,0.27744700,0.77759600,-0.22961800,-0.47545000,0.84738100,0.40014100,0.04635500,0.27819000,-0.77841100,0.22883900,-0.47379600,-0.84847100,0.40059700,-0.04655900
10.94000000,0.27744700,0.77759600,-0.22961800,-0.47545000,0.84738100,0.40014100,0.04635500,0.27819000,-0.77841100,0.22883900,-0.47379600,-0.84847100,0.40059700,-0.04655900
10.96000000,0.27744700,0.77759600,-0.22961800,-0.47545000,0.84738100,0.40014100,0.04635500,0.27819000,-0.77841100,0.22883900,-0.47379600,-0.84847100,0.40059700,-0.04655900
10.98000000,0.27744700,0.77759600,-0.22961800,-0.47545000,0.84738100,0.40014100,0.04635500,0.27819000,-0.77841100,0.22883900,-0.47379600,-0.84847100,0.40059700,-0.04655900
11.00000000,0.27744700,0.77759600,-0.22961800,-0.47545000,0.84738100,0.40014100,0.04635500,0.27819000,-0.77841100,0.22883900,-0.47379600,-0.84847100,0.40059700,-0.04655900
11.02000000,0.27744700,0.77759600,-0.22961800,-0.47545000,0.84738100,0.40014100,0.04635500,0.27819000,-0.77841100,0.22883900,-0.47379600,-0.84847100,0.40059700,-0.04655900
11.04000000,0.27744700,0.77759600,-0.22961800,-0.47545000,0.84738100,0.40014100,0.04635500,0.27819000,-0.77841100,0.22883900,-0.47379600,-0.84847100,0.40059700,-0.04655900
11.06000000,0.27744700,0.77759600,-0.22961800,-0.47545000,0.84738100,0.40014100,0.04635500,0.27819000,-0.77841100,0.22883900,-0.47379600,-0.84847100,0.40059700,-0.04655900
11.08000000,0.27744700,0.77759600,-0.22961800,-0.47545000,0.84738100,0.40014100,0.04635500,0.27819000,-0.77841100,0.22883900,-0.47379600,-0.84847100,0.40059700,-0.04655900
11.10000000,0.27744700,0.77759600,-0.22961800,-0.47545000,0.84738100,0.40014100,0.04635500,0.27819000,-0.77841100,0.22883900,-0.47379600,-0.84847100,0.40059700,-0.04655900
11.12000000,0.27744700,0.77759600,-0.22961800,-0.47545000,0.84738100,0.40014100,0.04635500,0.27819000,-0.77841100,0.22883900,-0.47379600,-0.84847100,0.40059700,-0.04655900
11.14000000,0.27744700,0.77759600,-0.22961800,-0.47545000,0.84738100,0.40014100,0.04635500,0.27819000,-0.77841100,0.22883900,-0.47379600,-0.84847100,0.40059700,-0.04655900
11.16000000,0.27744700,0.77759600,-0.22961800,-0.47545000,0.84738100,0.40014100,0.04635500,0.27819000,-0.77841100,0.22883900,-0.47379600,-0.84847100,0.40059700,-0.04655900
11.18000000,0.27744700,0.77759600,-0.22961800,-0.47545000,0.84738100,0.40014100,0.04635500,0.27819000,-0.77841100,0.22883900,-0.47379600,-0.84847100,0.40059700,-0.04655900
11.20000000,0.27744700,0.77759600,-0.22961800,-0.47545000,0.84738100,0.40014100,0.04635500,0.27819000,-0.77841100,0.22883900,-0.47379600,-0.84847100,0.40059700,-0.04655900
11.22000000,0.27744700,0.77759600,-0.22961800,-0.47545000,0.84738100,0.40014100,0.04635500,0.27819000,-0.77841100,0.22883900,-0.47379600,-0.84847100,0.40059700,-0.04655900
11.24000000,0.27744700,0.77759600,-0.22961800,-0.47545000,0.84738100,0.40014100,0.04635500,0.27819000,-0.77841100,0.22883900,-0.47379600,-0.84847100,0.40059700,-0.04655900
11.26000000,0.27744700,0.77759600,-0.22961800,-0.47545000,0.84738100,0.40014100,0.04635500,0.27819000,-0.77841100,0.22883900,-0.47379600,-0.84847100,0.40059700,-0.04655900
11.28000000,0.27744700,0.77759600,-0.22961800,-0.47545000,0.84738100,0.40014100,0.04635500,0.27819000,-0.77841100,0.22883900,-0.47379600,-0.84847100,0.40059700,-0.04655900
11.30000000,0.27744700,0.77759600,-0.22961800,-0.47545000,0.84738100,0.40014100,0.04635500,0.27819000,-0.77841100,0.22883900,-0.47379600,-0.84847100,0.40059700,-0.04655900
11.32000000,0.27744700,0.77759600,-0.22961800,-0.47545000,0.84738100,0.40014100,0.04635500,0.27819000,-0.77841100,0.22883900,-0.47379600,-0.84847100,0.40059700,-0.04655900
11.34000000,0.27744700,0.77759600,-0.22961800,-0.47545000,0.84738100,0.40014100,0.04635500,0.27819000,-0.77841100,0.22883900,-0.47379600,-0.84847100,0.40059700,-0.04655900
11.36000000,0.27744700,0.77759600,-0.22961800,-0.47545000,0.84738100,0.40014100,0.04635500,0.27819000,-0.77841100,0.22883900,-0.47379600,-0.84847100,0.40059700,-0.04655900
11.38000000,0.27744700,0.77759600,-0.22961800,-0.47545000,0.84738100,0.40014100,0.04635500,0.27819000,-0.77841100,0.22883900,-0.47379600,-0.84847100,0.40059700,-0.04655900
11.40000000,0.27744700,0.77759600,-0.22961800,-0.47545000,0.84738100,0.40014100,0.04635500,0.27819000,-0.77841100,0.22883900,-0.47379600,-0.84847100,0.40059700,-0.04655900
11.42000000,0.27744700,0.77759600,-0.22961800,-0.47545000,0.84738100,0.40014100,0.04635500,0.27819000,-0.77841100,0.22883900,-0.47379600,-0.84847100,0.40059700,-0.04655900
11.44000000,0.27744700,0.77759600,-0.22961800,-0.47545000,0.84738100,0.40014100,0.04635500,0.27819000,-0.77841100,0.22883900,-0.47379600,-0.84847100,0.40059700,-0.04655900
11.46000000,0.27744700,0.77759600,-0.22961800,-0.47545000,0.84738100,0.40014100,0.04635500,0.27819000,-0.77841100,0.22883900,-0.47379600,-0.84847100,0.40059700,-0.04655900
11.48000000,0.27744700,0.77759600,-0.22961800,-0.47545000,0.84738100,0.40014100,0.04635500,0.27819000,-0.77841100,0.22883900,-0.47379600,-0.84847100,0.40059700,-0.04655900
11.50000000,0.27744700,0.77759600,-0.22961800,-0.47545000,0.84738100,0.40014100,0.04635500,0.27819000,-0.77841100,0.22883900,-0.47379600,-0.84847100,0.40059700,-0.04655900
11.52000000,0.27744700,0.77759600,-0.22961800,-0.47545000,0.84738100,0.40014100,0.04635500,0.27819000,-0.77841100,0.22883900,-0.47379600,-0.84847100,0.40059700,-0.04655900
11.54000000,0.27744700,0.77759600,-0.22961800,-0.47545000,0.84738100,0.40014100,0.04635500,0.27819000,-0.77841100,0.22883900,-0.47379600,-0.84847100,0.40059700,-0.04655900
11.56000000,0.27744700,0.77759600,-0.22961800,-0.47545000,0.84738100,0.40014100,0.04635500,0.27819000,-0.77841100,0.22883900,-0.47379600,-0.84847100,0.40059700,-0.04655900
11.58000000,0.27744700,0.77759600,-0.22961800,-0.47545000,0.84738100,0.40014100,0.04635500,0.27819000,-0.77841100,0.22883900,-0.47379600,-0.84847100,0.40059700,-0.04655900
11.60000000,0.27744700,0.77759600,-0.22961800,-0.47545000,0.84738100,0.40014100,0.04635500,0.27819000,-0.77841100,0.22883900,-0.47379600,-0.84847100,0.40059700,-0.04655900
11.62000000,0.27744700,0.77759600,-0.22961800,-0.47545000,0.84738100,0.40014100,0.04635500,0.27819000,-0.77841100,0.22883900,-0.47379600,-0.84847100,0.40059700,-0.04655900
