gracetata/LocomotionHEC/legged_lab/Reference Data/ArmHack/StandPerturb/TestData/ArmOnly/poses/representative/representative_arm_pose_04_hold20s_50hz.csv
time_s,left_shoulder_pitch_joint,left_shoulder_roll_joint,left_shoulder_yaw_joint,left_elbow_joint,left_wrist_roll_joint,left_wrist_pitch_joint,left_wrist_yaw_joint,right_shoulder_pitch_joint,right_shoulder_roll_joint,right_shoulder_yaw_joint,right_elbow_joint,right_wrist_roll_joint,right_wrist_pitch_joint,right_wrist_yaw_joint
0.00000000,0.27760300,0.77756000,-0.22959400,-0.47548600,0.84736900,0.40012900,0.04635500,-0.77140100,-0.48454600,0.69102200,0.48332400,-0.72112700,-0.03836200,0.31676700
0.02000000,0.27760300,0.77756000,-0.22959400,-0.47548600,0.84736900,0.40012900,0.04635500,-0.77140100,-0.48454600,0.69102200,0.48332400,-0.72112700,-0.03836200,0.31676700
0.04000000,0.27760300,0.77756000,-0.22959400,-0.47548600,0.84736900,0.40012900,0.04635500,-0.77140100,-0.48454600,0.69102200,0.48332400,-0.72112700,-0.03836200,0.31676700
0.06000000,0.27760300,0.77756000,-0.22959400,-0.47548600,0.84736900,0.40012900,0.04635500,-0.77140100,-0.48454600,0.69102200,0.48332400,-0.72112700,-0.03836200,0.31676700
0.08000000,0.27760300,0.77756000,-0.22959400,-0.47548600,0.84736900,0.40012900,0.04635500,-0.77140100,-0.48454600,0.69102200,0.48332400,-0.72112700,-0.03836200,0.31676700
0.10000000,0.27760300,0.77756000,-0.22959400,-0.47548600,0.84736900,0.40012900,0.04635500,-0.77140100,-0.48454600,0.69102200,0.48332400,-0.72112700,-0.03836200,0.31676700
0.12000000,0.27760300,0.77756000,-0.22959400,-0.47548600,0.84736900,0.40012900,0.04635500,-0.77140100,-0.48454600,0.69102200,0.48332400,-0.72112700,-0.03836200,0.31676700
0.14000000,0.27760300,0.77756000,-0.22959400,-0.47548600,0.84736900,0.40012900,0.04635500,-0.77140100,-0.48454600,0.69102200,0.48332400,-0.72112700,-0.03836200,0.31676700
0.16000000,0.27760300,0.77756000,-0.22959400,-0.47548600,0.84736900,0.40012900,0.04635500,-0.77140100,-0.48454600,0.69102200,0.48332400,-0.72112700,-0.03836200,0.31676700
0.18000000,0.27760300,0.77756000,-0.22959400,-0.47548600,0.84736900,0.40012900,0.04635500,-0.77140100,-0.48454600,0.69102200,0.48332400,-0.72112700,-0.03836200,0.31676700
0.20000000,0.27760300,0.77756000,-0.22959400,-0.47548600,0.84736900,0.40012900,0.04635500,-0.77140100,-0.48454600,0.69102200,0.48332400,-0.72112700,-0.03836200,0.31676700
0.22000000,0.27760300,0.77756000,-0.22959400,-0.47548600,0.84736900,0.40012900,0.04635500,-0.77140100,-0.48454600,0.69102200,0.48332400,-0.72112700,-0.03836200,0.31676700
0.24000000,0.27760300,0.77756000,-0.22959400,-0.47548600,0.84736900,0.40012900,0.04635500,-0.77140100,-0.48454600,0.69102200,0.48332400,-0.72112700,-0.03836200,0.31676700
0.26000000,0.27760300,0.77756000,-0.22959400,-0.47548600,0.84736900,0.40012900,0.04635500,-0.77140100,-0.48454600,0.69102200,0.48332400,-0.72112700,-0.03836200,0.31676700
0.28000000,0.27760300,0.77756000,-0.22959400,-0.47548600,0.84736900,0.40012900,0.04635500,-0.77140100,-0.48454600,0.69102200,0.48332400,-0.72112700,-0.03836200,0.31676700
0.30000000,0.27760300,0.77756000,-0.22959400,-0.47548600,0.84736900,0.40012900,0.04635500,-0.77140100,-0.48454600,0.69102200,0.48332400,-0.72112700,-0.03836200,0.31676700
0.32000000,0.27760300,0.77756000,-0.22959400,-0.47548600,0.84736900,0.40012900,0.04635500,-0.77140100,-0.48454600,0.69102200,0.48332400,-0.72112700,-0.03836200,0.31676700
0.34000000,0.27760300,0.77756000,-0.22959400,-0.47548600,0.84736900,0.40012900,0.04635500,-0.77140100,-0.48454600,0.69102200,0.48332400,-0.72112700,-0.03836200,0.31676700
0.36000000,0.27760300,0.77756000,-0.22959400,-0.47548600,0.84736900,0.40012900,0.04635500,-0.77140100,-0.48454600,0.69102200,0.48332400,-0.72112700,-0.03836200,0.31676700
0.38000000,0.27760300,0.77756000,-0.22959400,-0.47548600,0.84736900,0.40012900,0.04635500,-0.77140100,-0.48454600,0.69102200,0.48332400,-0.72112700,-0.03836200,0.31676700
0.40000000,0.27760300,0.77756000,-0.22959400,-0.47548600,0.84736900,0.40012900,0.04635500,-0.77140100,-0.48454600,0.69102200,0.48332400,-0.72112700,-0.03836200,0.31676700
0.42000000,0.27760300,0.77756000,-0.22959400,-0.47548600,0.84736900,0.40012900,0.04635500,-0.77140100,-0.48454600,0.69102200,0.48332400,-0.72112700,-0.03836200,0.31676700
0.44000000,0.27760300,0.77756000,-0.22959400,-0.47548600,0.84736900,0.40012900,0.04635500,-0.77140100,-0.48454600,0.69102200,0.48332400,-0.72112700,-0.03836200,0.31676700
0.46000000,0.27760300,0.77756000,-0.22959400,-0.47548600,0.84736900,0.40012900,0.04635500,-0.77140100,-0.48454600,0.69102200,0.48332400,-0.72112700,-0.03836200,0.31676700
0.48000000,0.27760300,0.77756000,-0.22959400,-0.47548600,0.84736900,0.40012900,0.04635500,-0.77140100,-0.48454600,0.69102200,0.48332400,-0.72112700,-0.03836200,0.31676700
0.50000000,0.27760300,0.77756000,-0.22959400,-0.47548600,0.84736900,0.40012900,0.04635500,-0.77140100,-0.48454600,0.69102200,0.48332400,-0.72112700,-0.03836200,0.31676700
0.52000000,0.27760300,0.77756000,-0.22959400,-0.47548600,0.84736900,0.40012900,0.04635500,-0.77140100,-0.48454600,0.69102200,0.48332400,-0.72112700,-0.03836200,0.31676700
0.54000000,0.27760300,0.77756000,-0.22959400,-0.47548600,0.84736900,0.40012900,0.04635500,-0.77140100,-0.48454600,0.69102200,0.48332400,-0.72112700,-0.03836200,0.31676700
0.56000000,0.27760300,0.77756000,-0.22959400,-0.47548600,0.84736900,0.40012900,0.04635500,-0.77140100,-0.48454600,0.69102200,0.48332400,-0.72112700,-0.03836200,0.31676700
0.58000000,0.27760300,0.77756000,-0.22959400,-0.47548600,0.84736900,0.40012900,0.04635500,-0.77140100,-0.48454600,0.69102200,0.48332400,-0.72112700,-0.03836200,0.31676700
0.60000000,0.27760300,0.77756000,-0.22959400,-0.47548600,0.84736900,0.40012900,0.04635500,-0.77140100,-0.48454600,0.69102200,0.48332400,-0.72112700,-0.03836200,0.31676700
0.62000000,0.27760300,0.77756000,-0.22959400,-0.47548600,0.84736900,0.40012900,0.04635500,-0.77140100,-0.48454600,0.69102200,0.48332400,-0.72112700,-0.03836200,0.31676700
0.64000000,0.27760300,0.77756000,-0.22959400,-0.47548600,0.84736900,0.40012900,0.04635500,-0.77140100,-0.48454600,0.69102200,0.48332400,-0.72112700,-0.03836200,0.31676700
0.66000000,0.27760300,0.77756000,-0.22959400,-0.47548600,0.84736900,0.40012900,0.04635500,-0.77140100,-0.48454600,0.69102200,0.48332400,-0.72112700,-0.03836200,0.31676700
0.68000000,0.27760300,0.77756000,-0.22959400,-0.47548600,0.84736900,0.40012900,0.04635500,-0.77140100,-0.48454600,0.69102200,0.48332400,-0.72112700,-0.03836200,0.31676700
0.70000000,0.27760300,0.77756000,-0.22959400,-0.47548600,0.84736900,0.40012900,0.04635500,-0.77140100,-0.48454600,0.69102200,0.48332400,-0.72112700,-0.03836200,0.31676700
0.72000000,0.27760300,0.77756000,-0.22959400,-0.47548600,0.84736900,0.40012900,0.04635500,-0.77140100,-0.48454600,0.69102200,0.48332400,-0.72112700,-0.03836200,0.31676700
0.74000000,0.27760300,0.77756000,-0.22959400,-0.47548600,0.84736900,0.40012900,0.04635500,-0.77140100,-0.48454600,0.69102200,0.48332400,-0.72112700,-0.03836200,0.31676700
0.76000000,0.27760300,0.77756000,-0.22959400,-0.47548600,0.84736900,0.40012900,0.04635500,-0.77140100,-0.48454600,0.69102200,0.48332400,-0.72112700,-0.03836200,0.31676700
0.78000000,0.27760300,0.77756000,-0.22959400,-0.47548600,0.84736900,0.40012900,0.04635500,-0.77140100,-0.48454600,0.69102200,0.48332400,-0.72112700,-0.03836200,0.31676700
0.80000000,0.27760300,0.77756000,-0.22959400,-0.47548600,0.84736900,0.40012900,0.04635500,-0.77140100,-0.48454600,0.69102200,0.48332400,-0.72112700,-0.03836200,0.31676700
0.82000000,0.27760300,0.77756000,-0.22959400,-0.47548600,0.84736900,0.40012900,0.04635500,-0.77140100,-0.48454600,0.69102200,0.48332400,-0.72112700,-0.03836200,0.31676700
0.84000000,0.27760300,0.77756000,-0.22959400,-0.47548600,0.84736900,0.40012900,0.04635500,-0.77140100,-0.48454600,0.69102200,0.48332400,-0.72112700,-0.03836200,0.31676700
0.86000000,0.27760300,0.77756000,-0.22959400,-0.47548600,0.84736900,0.40012900,0.04635500,-0.77140100,-0.48454600,0.69102200,0.48332400,-0.72112700,-0.03836200,0.31676700
0.88000000,0.27760300,0.77756000,-0.22959400,-0.47548600,0.84736900,0.40012900,0.04635500,-0.77140100,-0.48454600,0.69102200,0.48332400,-0.72112700,-0.03836200,0.31676700
0.90000000,0.27760300,0.77756000,-0.22959400,-0.47548600,0.84736900,0.40012900,0.04635500,-0.77140100,-0.48454600,0.69102200,0.48332400,-0.72112700,-0.03836200,0.31676700
0.92000000,0.27760300,0.77756000,-0.22959400,-0.47548600,0.84736900,0.40012900,0.04635500,-0.77140100,-0.48454600,0.69102200,0.48332400,-0.72112700,-0.03836200,0.31676700
0.94000000,0.27760300,0.77756000,-0.22959400,-0.47548600,0.84736900,0.40012900,0.04635500,-0.77140100,-0.48454600,0.69102200,0.48332400,-0.72112700,-0.03836200,0.31676700
0.96000000,0.27760300,0.77756000,-0.22959400,-0.47548600,0.84736900,0.40012900,0.04635500,-0.77140100,-0.48454600,0.69102200,0.48332400,-0.72112700,-0.03836200,0.31676700
0.98000000,0.27760300,0.77756000,-0.22959400,-0.47548600,0.84736900,0.40012900,0.04635500,-0.77140100,-0.48454600,0.69102200,0.48332400,-0.72112700,-0.03836200,0.31676700
1.00000000,0.27760300,0.77756000,-0.22959400,-0.47548600,0.84736900,0.40012900,0.04635500,-0.77140100,-0.48454600,0.69102200,0.48332400,-0.72112700,-0.03836200,0.31676700
1.02000000,0.27760300,0.77756000,-0.22959400,-0.47548600,0.84736900,0.40012900,0.04635500,-0.77140100,-0.48454600,0.69102200,0.48332400,-0.72112700,-0.03836200,0.31676700
1.04000000,0.27760300,0.77756000,-0.22959400,-0.47548600,0.84736900,0.40012900,0.04635500,-0.77140100,-0.48454600,0.69102200,0.48332400,-0.72112700,-0.03836200,0.31676700
1.06000000,0.27760300,0.77756000,-0.22959400,-0.47548600,0.84736900,0.40012900,0.04635500,-0.77140100,-0.48454600,0.69102200,0.48332400,-0.72112700,-0.03836200,0.31676700
1.08000000,0.27760300,0.77756000,-0.22959400,-0.47548600,0.84736900,0.40012900,0.04635500,-0.77140100,-0.48454600,0.69102200,0.48332400,-0.72112700,-0.03836200,0.31676700
1.10000000,0.27760300,0.77756000,-0.22959400,-0.47548600,0.84736900,0.40012900,0.04635500,-0.77140100,-0.48454600,0.69102200,0.48332400,-0.72112700,-0.03836200,0.31676700
1.12000000,0.27760300,0.77756000,-0.22959400,-0.47548600,0.84736900,0.40012900,0.04635500,-0.77140100,-0.48454600,0.69102200,0.48332400,-0.72112700,-0.03836200,0.31676700
1.14000000,0.27760300,0.77756000,-0.22959400,-0.47548600,0.84736900,0.40012900,0.04635500,-0.77140100,-0.48454600,0.69102200,0.48332400,-0.72112700,-0.03836200,0.31676700
1.16000000,0.27760300,0.77756000,-0.22959400,-0.47548600,0.84736900,0.40012900,0.04635500,-0.77140100,-0.48454600,0.69102200,0.48332400,-0.72112700,-0.03836200,0.31676700
1.18000000,0.27760300,0.77756000,-0.22959400,-0.47548600,0.84736900,0.40012900,0.04635500,-0.77140100,-0.48454600,0.69102200,0.48332400,-0.72112700,-0.03836200,0.31676700
1.20000000,0.27760300,0.77756000,-0.22959400,-0.47548600,0.84736900,0.40012900,0.04635500,-0.77140100,-0.48454600,0.69102200,0.48332400,-0.72112700,-0.03836200,0.31676700
1.22000000,0.27760300,0.77756000,-0.22959400,-0.47548600,0.84736900,0.40012900,0.04635500,-0.77140100,-0.48454600,0.69102200,0.48332400,-0.72112700,-0.03836200,0.31676700
1.24000000,0.27760300,0.77756000,-0.22959400,-0.47548600,0.84736900,0.40012900,0.04635500,-0.77140100,-0.48454600,0.69102200,0.48332400,-0.72112700,-0.03836200,0.31676700
1.26000000,0.27760300,0.77756000,-0.22959400,-0.47548600,0.84736900,0.40012900,0.04635500,-0.77140100,-0.48454600,0.69102200,0.48332400,-0.72112700,-0.03836200,0.31676700
1.28000000,0.27760300,0.77756000,-0.22959400,-0.47548600,0.84736900,0.40012900,0.04635500,-0.77140100,-0.48454600,0.69102200,0.48332400,-0.72112700,-0.03836200,0.31676700
1.30000000,0.27760300,0.77756000,-0.22959400,-0.47548600,0.84736900,0.40012900,0.04635500,-0.77140100,-0.48454600,0.69102200,0.48332400,-0.72112700,-0.03836200,0.31676700
1.32000000,0.27760300,0.77756000,-0.22959400,-0.47548600,0.84736900,0.40012900,0.04635500,-0.77140100,-0.48454600,0.69102200,0.48332400,-0.72112700,-0.03836200,0.31676700
1.34000000,0.27760300,0.77756000,-0.22959400,-0.47548600,0.84736900,0.40012900,0.04635500,-0.77140100,-0.48454600,0.69102200,0.48332400,-0.72112700,-0.03836200,0.31676700
1.36000000,0.27760300,0.77756000,-0.22959400,-0.47548600,0.84736900,0.40012900,0.04635500,-0.77140100,-0.48454600,0.69102200,0.48332400,-0.72112700,-0.03836200,0.31676700
1.38000000,0.27760300,0.77756000,-0.22959400,-0.47548600,0.84736900,0.40012900,0.04635500,-0.77140100,-0.48454600,0.69102200,0.48332400,-0.72112700,-0.03836200,0.31676700
1.40000000,0.27760300,0.77756000,-0.22959400,-0.47548600,0.84736900,0.40012900,0.04635500,-0.77140100,-0.48454600,0.69102200,0.48332400,-0.72112700,-0.03836200,0.31676700
1.42000000,0.27760300,0.77756000,-0.22959400,-0.47548600,0.84736900,0.40012900,0.04635500,-0.77140100,-0.48454600,0.69102200,0.48332400,-0.72112700,-0.03836200,0.31676700
1.44000000,0.27760300,0.77756000,-0.22959400,-0.47548600,0.84736900,0.40012900,0.04635500,-0.77140100,-0.48454600,0.69102200,0.48332400,-0.72112700,-0.03836200,0.31676700
1.46000000,0.27760300,0.77756000,-0.22959400,-0.47548600,0.84736900,0.40012900,0.04635500,-0.77140100,-0.48454600,0.69102200,0.48332400,-0.72112700,-0.03836200,0.31676700
1.48000000,0.27760300,0.77756000,-0.22959400,-0.47548600,0.84736900,0.40012900,0.04635500,-0.77140100,-0.48454600,0.69102200,0.48332400,-0.72112700,-0.03836200,0.31676700
1.50000000,0.27760300,0.77756000,-0.22959400,-0.47548600,0.84736900,0.40012900,0.04635500,-0.77140100,-0.48454600,0.69102200,0.48332400,-0.72112700,-0.03836200,0.31676700
1.52000000,0.27760300,0.77756000,-0.22959400,-0.47548600,0.84736900,0.40012900,0.04635500,-0.77140100,-0.48454600,0.69102200,0.48332400,-0.72112700,-0.03836200,0.31676700
1.54000000,0.27760300,0.77756000,-0.22959400,-0.47548600,0.84736900,0.40012900,0.04635500,-0.77140100,-0.48454600,0.69102200,0.48332400,-0.72112700,-0.03836200,0.31676700
1.56000000,0.27760300,0.77756000,-0.22959400,-0.47548600,0.84736900,0.40012900,0.04635500,-0.77140100,-0.48454600,0.69102200,0.48332400,-0.72112700,-0.03836200,0.31676700
1.58000000,0.27760300,0.77756000,-0.22959400,-0.47548600,0.84736900,0.40012900,0.04635500,-0.77140100,-0.48454600,0.69102200,0.48332400,-0.72112700,-0.03836200,0.31676700
1.60000000,0.27760300,0.77756000,-0.22959400,-0.47548600,0.84736900,0.40012900,0.04635500,-0.77140100,-0.48454600,0.69102200,0.48332400,-0.72112700,-0.03836200,0.31676700
1.62000000,0.27760300,0.77756000,-0.22959400,-0.47548600,0.84736900,0.40012900,0.04635500,-0.77140100,-0.48454600,0.69102200,0.48332400,-0.72112700,-0.03836200,0.31676700
1.64000000,0.27760300,0.77756000,-0.22959400,-0.47548600,0.84736900,0.40012900,0.04635500,-0.77140100,-0.48454600,0.69102200,0.48332400,-0.72112700,-0.03836200,0.31676700
1.66000000,0.27760300,0.77756000,-0.22959400,-0.47548600,0.84736900,0.40012900,0.04635500,-0.77140100,-0.48454600,0.69102200,0.48332400,-0.72112700,-0.03836200,0.31676700
1.68000000,0.27760300,0.77756000,-0.22959400,-0.47548600,0.84736900,0.40012900,0.04635500,-0.77140100,-0.48454600,0.69102200,0.48332400,-0.72112700,-0.03836200,0.31676700
1.70000000,0.27760300,0.77756000,-0.22959400,-0.47548600,0.84736900,0.40012900,0.04635500,-0.77140100,-0.48454600,0.69102200,0.48332400,-0.72112700,-0.03836200,0.31676700
1.72000000,0.27760300,0.77756000,-0.22959400,-0.47548600,0.84736900,0.40012900,0.04635500,-0.77140100,-0.48454600,0.69102200,0.48332400,-0.72112700,-0.03836200,0.31676700
1.74000000,0.27760300,0.77756000,-0.22959400,-0.47548600,0.84736900,0.40012900,0.04635500,-0.77140100,-0.48454600,0.69102200,0.48332400,-0.72112700,-0.03836200,0.31676700
1.76000000,0.27760300,0.77756000,-0.22959400,-0.47548600,0.84736900,0.40012900,0.04635500,-0.77140100,-0.48454600,0.69102200,0.48332400,-0.72112700,-0.03836200,0.31676700
1.78000000,0.27760300,0.77756000,-0.22959400,-0.47548600,0.84736900,0.40012900,0.04635500,-0.77140100,-0.48454600,0.69102200,0.48332400,-0.72112700,-0.03836200,0.31676700
1.80000000,0.27760300,0.77756000,-0.22959400,-0.47548600,0.84736900,0.40012900,0.04635500,-0.77140100,-0.48454600,0.69102200,0.48332400,-0.72112700,-0.03836200,0.31676700
1.82000000,0.27760300,0.77756000,-0.22959400,-0.47548600,0.84736900,0.40012900,0.04635500,-0.77140100,-0.48454600,0.69102200,0.48332400,-0.72112700,-0.03836200,0.31676700
1.84000000,0.27760300,0.77756000,-0.22959400,-0.47548600,0.84736900,0.40012900,0.04635500,-0.77140100,-0.48454600,0.69102200,0.48332400,-0.72112700,-0.03836200,0.31676700
1.86000000,0.27760300,0.77756000,-0.22959400,-0.47548600,0.84736900,0.40012900,0.04635500,-0.77140100,-0.48454600,0.69102200,0.48332400,-0.72112700,-0.03836200,0.31676700
1.88000000,0.27760300,0.77756000,-0.22959400,-0.47548600,0.84736900,0.40012900,0.04635500,-0.77140100,-0.48454600,0.69102200,0.48332400,-0.72112700,-0.03836200,0.31676700
1.90000000,0.27760300,0.77756000,-0.22959400,-0.47548600,0.84736900,0.40012900,0.04635500,-0.77140100,-0.48454600,0.69102200,0.48332400,-0.72112700,-0.03836200,0.31676700
1.92000000,0.27760300,0.77756000,-0.22959400,-0.47548600,0.84736900,0.40012900,0.04635500,-0.77140100,-0.48454600,0.69102200,0.48332400,-0.72112700,-0.03836200,0.31676700
1.94000000,0.27760300,0.77756000,-0.22959400,-0.47548600,0.84736900,0.40012900,0.04635500,-0.77140100,-0.48454600,0.69102200,0.48332400,-0.72112700,-0.03836200,0.31676700
1.96000000,0.27760300,0.77756000,-0.22959400,-0.47548600,0.84736900,0.40012900,0.04635500,-0.77140100,-0.48454600,0.69102200,0.48332400,-0.72112700,-0.03836200,0.31676700
1.98000000,0.27760300,0.77756000,-0.22959400,-0.47548600,0.84736900,0.40012900,0.04635500,-0.77140100,-0.48454600,0.69102200,0.48332400,-0.72112700,-0.03836200,0.31676700
2.00000000,0.27760300,0.77756000,-0.22959400,-0.47548600,0.84736900,0.40012900,0.04635500,-0.77140100,-0.48454600,0.69102200,0.48332400,-0.72112700,-0.03836200,0.31676700
2.02000000,0.27760300,0.77756000,-0.22959400,-0.47548600,0.84736900,0.40012900,0.04635500,-0.77140100,-0.48454600,0.69102200,0.48332400,-0.72112700,-0.03836200,0.31676700
2.04000000,0.27760300,0.77756000,-0.22959400,-0.47548600,0.84736900,0.40012900,0.04635500,-0.77140100,-0.48454600,0.69102200,0.48332400,-0.72112700,-0.03836200,0.31676700
2.06000000,0.27760300,0.77756000,-0.22959400,-0.47548600,0.84736900,0.40012900,0.04635500,-0.77140100,-0.48454600,0.69102200,0.48332400,-0.72112700,-0.03836200,0.31676700
2.08000000,0.27760300,0.77756000,-0.22959400,-0.47548600,0.84736900,0.40012900,0.04635500,-0.77140100,-0.48454600,0.69102200,0.48332400,-0.72112700,-0.03836200,0.31676700
2.10000000,0.27760300,0.77756000,-0.22959400,-0.47548600,0.84736900,0.40012900,0.04635500,-0.77140100,-0.48454600,0.69102200,0.48332400,-0.72112700,-0.03836200,0.31676700
2.12000000,0.27760300,0.77756000,-0.22959400,-0.47548600,0.84736900,0.40012900,0.04635500,-0.77140100,-0.48454600,0.69102200,0.48332400,-0.72112700,-0.03836200,0.31676700
2.14000000,0.27760300,0.77756000,-0.22959400,-0.47548600,0.84736900,0.40012900,0.04635500,-0.77140100,-0.48454600,0.69102200,0.48332400,-0.72112700,-0.03836200,0.31676700
2.16000000,0.27760300,0.77756000,-0.22959400,-0.47548600,0.84736900,0.40012900,0.04635500,-0.77140100,-0.48454600,0.69102200,0.48332400,-0.72112700,-0.03836200,0.31676700
2.18000000,0.27760300,0.77756000,-0.22959400,-0.47548600,0.84736900,0.40012900,0.04635500,-0.77140100,-0.48454600,0.69102200,0.48332400,-0.72112700,-0.03836200,0.31676700
2.20000000,0.27760300,0.77756000,-0.22959400,-0.47548600,0.84736900,0.40012900,0.04635500,-0.77140100,-0.48454600,0.69102200,0.48332400,-0.72112700,-0.03836200,0.31676700
2.22000000,0.27760300,0.77756000,-0.22959400,-0.47548600,0.84736900,0.40012900,0.04635500,-0.77140100,-0.48454600,0.69102200,0.48332400,-0.72112700,-0.03836200,0.31676700
2.24000000,0.27760300,0.77756000,-0.22959400,-0.47548600,0.84736900,0.40012900,0.04635500,-0.77140100,-0.48454600,0.69102200,0.48332400,-0.72112700,-0.03836200,0.31676700
2.26000000,0.27760300,0.77756000,-0.22959400,-0.47548600,0.84736900,0.40012900,0.04635500,-0.77140100,-0.48454600,0.69102200,0.48332400,-0.72112700,-0.03836200,0.31676700
2.28000000,0.27760300,0.77756000,-0.22959400,-0.47548600,0.84736900,0.40012900,0.04635500,-0.77140100,-0.48454600,0.69102200,0.48332400,-0.72112700,-0.03836200,0.31676700
2.30000000,0.27760300,0.77756000,-0.22959400,-0.47548600,0.84736900,0.40012900,0.04635500,-0.77140100,-0.48454600,0.69102200,0.48332400,-0.72112700,-0.03836200,0.31676700
2.32000000,0.27760300,0.77756000,-0.22959400,-0.47548600,0.84736900,0.40012900,0.04635500,-0.77140100,-0.48454600,0.69102200,0.48332400,-0.72112700,-0.03836200,0.31676700
2.34000000,0.27760300,0.77756000,-0.22959400,-0.47548600,0.84736900,0.40012900,0.04635500,-0.77140100,-0.48454600,0.69102200,0.48332400,-0.72112700,-0.03836200,0.31676700
2.36000000,0.27760300,0.77756000,-0.22959400,-0.47548600,0.84736900,0.40012900,0.04635500,-0.77140100,-0.48454600,0.69102200,0.48332400,-0.72112700,-0.03836200,0.31676700
2.38000000,0.27760300,0.77756000,-0.22959400,-0.47548600,0.84736900,0.40012900,0.04635500,-0.77140100,-0.48454600,0.69102200,0.48332400,-0.72112700,-0.03836200,0.31676700
2.40000000,0.27760300,0.77756000,-0.22959400,-0.47548600,0.84736900,0.40012900,0.04635500,-0.77140100,-0.48454600,0.69102200,0.48332400,-0.72112700,-0.03836200,0.31676700
2.42000000,0.27760300,0.77756000,-0.22959400,-0.47548600,0.84736900,0.40012900,0.04635500,-0.77140100,-0.48454600,0.69102200,0.48332400,-0.72112700,-0.03836200,0.31676700
2.44000000,0.27760300,0.77756000,-0.22959400,-0.47548600,0.84736900,0.40012900,0.04635500,-0.77140100,-0.48454600,0.69102200,0.48332400,-0.72112700,-0.03836200,0.31676700
2.46000000,0.27760300,0.77756000,-0.22959400,-0.47548600,0.84736900,0.40012900,0.04635500,-0.77140100,-0.48454600,0.69102200,0.48332400,-0.72112700,-0.03836200,0.31676700
2.48000000,0.27760300,0.77756000,-0.22959400,-0.47548600,0.84736900,0.40012900,0.04635500,-0.77140100,-0.48454600,0.69102200,0.48332400,-0.72112700,-0.03836200,0.31676700
2.50000000,0.27760300,0.77756000,-0.22959400,-0.47548600,0.84736900,0.40012900,0.04635500,-0.77140100,-0.48454600,0.69102200,0.48332400,-0.72112700,-0.03836200,0.31676700
2.52000000,0.27760300,0.77756000,-0.22959400,-0.47548600,0.84736900,0.40012900,0.04635500,-0.77140100,-0.48454600,0.69102200,0.48332400,-0.72112700,-0.03836200,0.31676700
2.54000000,0.27760300,0.77756000,-0.22959400,-0.47548600,0.84736900,0.40012900,0.04635500,-0.77140100,-0.48454600,0.69102200,0.48332400,-0.72112700,-0.03836200,0.31676700
2.56000000,0.27760300,0.77756000,-0.22959400,-0.47548600,0.84736900,0.40012900,0.04635500,-0.77140100,-0.48454600,0.69102200,0.48332400,-0.72112700,-0.03836200,0.31676700
2.58000000,0.27760300,0.77756000,-0.22959400,-0.47548600,0.84736900,0.40012900,0.04635500,-0.77140100,-0.48454600,0.69102200,0.48332400,-0.72112700,-0.03836200,0.31676700
2.60000000,0.27760300,0.77756000,-0.22959400,-0.47548600,0.84736900,0.40012900,0.04635500,-0.77140100,-0.48454600,0.69102200,0.48332400,-0.72112700,-0.03836200,0.31676700
2.62000000,0.27760300,0.77756000,-0.22959400,-0.47548600,0.84736900,0.40012900,0.04635500,-0.77140100,-0.48454600,0.69102200,0.48332400,-0.72112700,-0.03836200,0.31676700
2.64000000,0.27760300,0.77756000,-0.22959400,-0.47548600,0.84736900,0.40012900,0.04635500,-0.77140100,-0.48454600,0.69102200,0.48332400,-0.72112700,-0.03836200,0.31676700
2.66000000,0.27760300,0.77756000,-0.22959400,-0.47548600,0.84736900,0.40012900,0.04635500,-0.77140100,-0.48454600,0.69102200,0.48332400,-0.72112700,-0.03836200,0.31676700
2.68000000,0.27760300,0.77756000,-0.22959400,-0.47548600,0.84736900,0.40012900,0.04635500,-0.77140100,-0.48454600,0.69102200,0.48332400,-0.72112700,-0.03836200,0.31676700
2.70000000,0.27760300,0.77756000,-0.22959400,-0.47548600,0.84736900,0.40012900,0.04635500,-0.77140100,-0.48454600,0.69102200,0.48332400,-0.72112700,-0.03836200,0.31676700
2.72000000,0.27760300,0.77756000,-0.22959400,-0.47548600,0.84736900,0.40012900,0.04635500,-0.77140100,-0.48454600,0.69102200,0.48332400,-0.72112700,-0.03836200,0.31676700
2.74000000,0.27760300,0.77756000,-0.22959400,-0.47548600,0.84736900,0.40012900,0.04635500,-0.77140100,-0.48454600,0.69102200,0.48332400,-0.72112700,-0.03836200,0.31676700
2.76000000,0.27760300,0.77756000,-0.22959400,-0.47548600,0.84736900,0.40012900,0.04635500,-0.77140100,-0.48454600,0.69102200,0.48332400,-0.72112700,-0.03836200,0.31676700
2.78000000,0.27760300,0.77756000,-0.22959400,-0.47548600,0.84736900,0.40012900,0.04635500,-0.77140100,-0.48454600,0.69102200,0.48332400,-0.72112700,-0.03836200,0.31676700
2.80000000,0.27760300,0.77756000,-0.22959400,-0.47548600,0.84736900,0.40012900,0.04635500,-0.77140100,-0.48454600,0.69102200,0.48332400,-0.72112700,-0.03836200,0.31676700
2.82000000,0.27760300,0.77756000,-0.22959400,-0.47548600,0.84736900,0.40012900,0.04635500,-0.77140100,-0.48454600,0.69102200,0.48332400,-0.72112700,-0.03836200,0.31676700
2.84000000,0.27760300,0.77756000,-0.22959400,-0.47548600,0.84736900,0.40012900,0.04635500,-0.77140100,-0.48454600,0.69102200,0.48332400,-0.72112700,-0.03836200,0.31676700
2.86000000,0.27760300,0.77756000,-0.22959400,-0.47548600,0.84736900,0.40012900,0.04635500,-0.77140100,-0.48454600,0.69102200,0.48332400,-0.72112700,-0.03836200,0.31676700
2.88000000,0.27760300,0.77756000,-0.22959400,-0.47548600,0.84736900,0.40012900,0.04635500,-0.77140100,-0.48454600,0.69102200,0.48332400,-0.72112700,-0.03836200,0.31676700
2.90000000,0.27760300,0.77756000,-0.22959400,-0.47548600,0.84736900,0.40012900,0.04635500,-0.77140100,-0.48454600,0.69102200,0.48332400,-0.72112700,-0.03836200,0.31676700
2.92000000,0.27760300,0.77756000,-0.22959400,-0.47548600,0.84736900,0.40012900,0.04635500,-0.77140100,-0.48454600,0.69102200,0.48332400,-0.72112700,-0.03836200,0.31676700
2.94000000,0.27760300,0.77756000,-0.22959400,-0.47548600,0.84736900,0.40012900,0.04635500,-0.77140100,-0.48454600,0.69102200,0.48332400,-0.72112700,-0.03836200,0.31676700
2.96000000,0.27760300,0.77756000,-0.22959400,-0.47548600,0.84736900,0.40012900,0.04635500,-0.77140100,-0.48454600,0.69102200,0.48332400,-0.72112700,-0.03836200,0.31676700
2.98000000,0.27760300,0.77756000,-0.22959400,-0.47548600,0.84736900,0.40012900,0.04635500,-0.77140100,-0.48454600,0.69102200,0.48332400,-0.72112700,-0.03836200,0.31676700
3.00000000,0.27760300,0.77756000,-0.22959400,-0.47548600,0.84736900,0.40012900,0.04635500,-0.77140100,-0.48454600,0.69102200,0.48332400,-0.72112700,-0.03836200,0.31676700
3.02000000,0.27760300,0.77756000,-0.22959400,-0.47548600,0.84736900,0.40012900,0.04635500,-0.77140100,-0.48454600,0.69102200,0.48332400,-0.72112700,-0.03836200,0.31676700
3.04000000,0.27760300,0.77756000,-0.22959400,-0.47548600,0.84736900,0.40012900,0.04635500,-0.77140100,-0.48454600,0.69102200,0.48332400,-0.72112700,-0.03836200,0.31676700
3.06000000,0.27760300,0.77756000,-0.22959400,-0.47548600,0.84736900,0.40012900,0.04635500,-0.77140100,-0.48454600,0.69102200,0.48332400,-0.72112700,-0.03836200,0.31676700
3.08000000,0.27760300,0.77756000,-0.22959400,-0.47548600,0.84736900,0.40012900,0.04635500,-0.77140100,-0.48454600,0.69102200,0.48332400,-0.72112700,-0.03836200,0.31676700
3.10000000,0.27760300,0.77756000,-0.22959400,-0.47548600,0.84736900,0.40012900,0.04635500,-0.77140100,-0.48454600,0.69102200,0.48332400,-0.72112700,-0.03836200,0.31676700
3.12000000,0.27760300,0.77756000,-0.22959400,-0.47548600,0.84736900,0.40012900,0.04635500,-0.77140100,-0.48454600,0.69102200,0.48332400,-0.72112700,-0.03836200,0.31676700
3.14000000,0.27760300,0.77756000,-0.22959400,-0.47548600,0.84736900,0.40012900,0.04635500,-0.77140100,-0.48454600,0.69102200,0.48332400,-0.72112700,-0.03836200,0.31676700
3.16000000,0.27760300,0.77756000,-0.22959400,-0.47548600,0.84736900,0.40012900,0.04635500,-0.77140100,-0.48454600,0.69102200,0.48332400,-0.72112700,-0.03836200,0.31676700
3.18000000,0.27760300,0.77756000,-0.22959400,-0.47548600,0.84736900,0.40012900,0.04635500,-0.77140100,-0.48454600,0.69102200,0.48332400,-0.72112700,-0.03836200,0.31676700
3.20000000,0.27760300,0.77756000,-0.22959400,-0.47548600,0.84736900,0.40012900,0.04635500,-0.77140100,-0.48454600,0.69102200,0.48332400,-0.72112700,-0.03836200,0.31676700
3.22000000,0.27760300,0.77756000,-0.22959400,-0.47548600,0.84736900,0.40012900,0.04635500,-0.77140100,-0.48454600,0.69102200,0.48332400,-0.72112700,-0.03836200,0.31676700
3.24000000,0.27760300,0.77756000,-0.22959400,-0.47548600,0.84736900,0.40012900,0.04635500,-0.77140100,-0.48454600,0.69102200,0.48332400,-0.72112700,-0.03836200,0.31676700
3.26000000,0.27760300,0.77756000,-0.22959400,-0.47548600,0.84736900,0.40012900,0.04635500,-0.77140100,-0.48454600,0.69102200,0.48332400,-0.72112700,-0.03836200,0.31676700
3.28000000,0.27760300,0.77756000,-0.22959400,-0.47548600,0.84736900,0.40012900,0.04635500,-0.77140100,-0.48454600,0.69102200,0.48332400,-0.72112700,-0.03836200,0.31676700
3.30000000,0.27760300,0.77756000,-0.22959400,-0.47548600,0.84736900,0.40012900,0.04635500,-0.77140100,-0.48454600,0.69102200,0.48332400,-0.72112700,-0.03836200,0.31676700
3.32000000,0.27760300,0.77756000,-0.22959400,-0.47548600,0.84736900,0.40012900,0.04635500,-0.77140100,-0.48454600,0.69102200,0.48332400,-0.72112700,-0.03836200,0.31676700
3.34000000,0.27760300,0.77756000,-0.22959400,-0.47548600,0.84736900,0.40012900,0.04635500,-0.77140100,-0.48454600,0.69102200,0.48332400,-0.72112700,-0.03836200,0.31676700
3.36000000,0.27760300,0.77756000,-0.22959400,-0.47548600,0.84736900,0.40012900,0.04635500,-0.77140100,-0.48454600,0.69102200,0.48332400,-0.72112700,-0.03836200,0.31676700
3.38000000,0.27760300,0.77756000,-0.22959400,-0.47548600,0.84736900,0.40012900,0.04635500,-0.77140100,-0.48454600,0.69102200,0.48332400,-0.72112700,-0.03836200,0.31676700
3.40000000,0.27760300,0.77756000,-0.22959400,-0.47548600,0.84736900,0.40012900,0.04635500,-0.77140100,-0.48454600,0.69102200,0.48332400,-0.72112700,-0.03836200,0.31676700
3.42000000,0.27760300,0.77756000,-0.22959400,-0.47548600,0.84736900,0.40012900,0.04635500,-0.77140100,-0.48454600,0.69102200,0.48332400,-0.72112700,-0.03836200,0.31676700
3.44000000,0.27760300,0.77756000,-0.22959400,-0.47548600,0.84736900,0.40012900,0.04635500,-0.77140100,-0.48454600,0.69102200,0.48332400,-0.72112700,-0.03836200,0.31676700
3.46000000,0.27760300,0.77756000,-0.22959400,-0.47548600,0.84736900,0.40012900,0.04635500,-0.77140100,-0.48454600,0.69102200,0.48332400,-0.72112700,-0.03836200,0.31676700
3.48000000,0.27760300,0.77756000,-0.22959400,-0.47548600,0.84736900,0.40012900,0.04635500,-0.77140100,-0.48454600,0.69102200,0.48332400,-0.72112700,-0.03836200,0.31676700
3.50000000,0.27760300,0.77756000,-0.22959400,-0.47548600,0.84736900,0.40012900,0.04635500,-0.77140100,-0.48454600,0.69102200,0.48332400,-0.72112700,-0.03836200,0.31676700
3.52000000,0.27760300,0.77756000,-0.22959400,-0.47548600,0.84736900,0.40012900,0.04635500,-0.77140100,-0.48454600,0.69102200,0.48332400,-0.72112700,-0.03836200,0.31676700
3.54000000,0.27760300,0.77756000,-0.22959400,-0.47548600,0.84736900,0.40012900,0.04635500,-0.77140100,-0.48454600,0.69102200,0.48332400,-0.72112700,-0.03836200,0.31676700
3.56000000,0.27760300,0.77756000,-0.22959400,-0.47548600,0.84736900,0.40012900,0.04635500,-0.77140100,-0.48454600,0.69102200,0.48332400,-0.72112700,-0.03836200,0.31676700
3.58000000,0.27760300,0.77756000,-0.22959400,-0.47548600,0.84736900,0.40012900,0.04635500,-0.77140100,-0.48454600,0.69102200,0.48332400,-0.72112700,-0.03836200,0.31676700
3.60000000,0.27760300,0.77756000,-0.22959400,-0.47548600,0.84736900,0.40012900,0.04635500,-0.77140100,-0.48454600,0.69102200,0.48332400,-0.72112700,-0.03836200,0.31676700
3.62000000,0.27760300,0.77756000,-0.22959400,-0.47548600,0.84736900,0.40012900,0.04635500,-0.77140100,-0.48454600,0.69102200,0.48332400,-0.72112700,-0.03836200,0.31676700
3.64000000,0.27760300,0.77756000,-0.22959400,-0.47548600,0.84736900,0.40012900,0.04635500,-0.77140100,-0.48454600,0.69102200,0.48332400,-0.72112700,-0.03836200,0.31676700
3.66000000,0.27760300,0.77756000,-0.22959400,-0.47548600,0.84736900,0.40012900,0.04635500,-0.77140100,-0.48454600,0.69102200,0.48332400,-0.72112700,-0.03836200,0.31676700
3.68000000,0.27760300,0.77756000,-0.22959400,-0.47548600,0.84736900,0.40012900,0.04635500,-0.77140100,-0.48454600,0.69102200,0.48332400,-0.72112700,-0.03836200,0.31676700
3.70000000,0.27760300,0.77756000,-0.22959400,-0.47548600,0.84736900,0.40012900,0.04635500,-0.77140100,-0.48454600,0.69102200,0.48332400,-0.72112700,-0.03836200,0.31676700
3.72000000,0.27760300,0.77756000,-0.22959400,-0.47548600,0.84736900,0.40012900,0.04635500,-0.77140100,-0.48454600,0.69102200,0.48332400,-0.72112700,-0.03836200,0.31676700
3.74000000,0.27760300,0.77756000,-0.22959400,-0.47548600,0.84736900,0.40012900,0.04635500,-0.77140100,-0.48454600,0.69102200,0.48332400,-0.72112700,-0.03836200,0.31676700
3.76000000,0.27760300,0.77756000,-0.22959400,-0.47548600,0.84736900,0.40012900,0.04635500,-0.77140100,-0.48454600,0.69102200,0.48332400,-0.72112700,-0.03836200,0.31676700
3.78000000,0.27760300,0.77756000,-0.22959400,-0.47548600,0.84736900,0.40012900,0.04635500,-0.77140100,-0.48454600,0.69102200,0.48332400,-0.72112700,-0.03836200,0.31676700
3.80000000,0.27760300,0.77756000,-0.22959400,-0.47548600,0.84736900,0.40012900,0.04635500,-0.77140100,-0.48454600,0.69102200,0.48332400,-0.72112700,-0.03836200,0.31676700
3.82000000,0.27760300,0.77756000,-0.22959400,-0.47548600,0.84736900,0.40012900,0.04635500,-0.77140100,-0.48454600,0.69102200,0.48332400,-0.72112700,-0.03836200,0.31676700
3.84000000,0.27760300,0.77756000,-0.22959400,-0.47548600,0.84736900,0.40012900,0.04635500,-0.77140100,-0.48454600,0.69102200,0.48332400,-0.72112700,-0.03836200,0.31676700
3.86000000,0.27760300,0.77756000,-0.22959400,-0.47548600,0.84736900,0.40012900,0.04635500,-0.77140100,-0.48454600,0.69102200,0.48332400,-0.72112700,-0.03836200,0.31676700
3.88000000,0.27760300,0.77756000,-0.22959400,-0.47548600,0.84736900,0.40012900,0.04635500,-0.77140100,-0.48454600,0.69102200,0.48332400,-0.72112700,-0.03836200,0.31676700
3.90000000,0.27760300,0.77756000,-0.22959400,-0.47548600,0.84736900,0.40012900,0.04635500,-0.77140100,-0.48454600,0.69102200,0.48332400,-0.72112700,-0.03836200,0.31676700
3.92000000,0.27760300,0.77756000,-0.22959400,-0.47548600,0.84736900,0.40012900,0.04635500,-0.77140100,-0.48454600,0.69102200,0.48332400,-0.72112700,-0.03836200,0.31676700
3.94000000,0.27760300,0.77756000,-0.22959400,-0.47548600,0.84736900,0.40012900,0.04635500,-0.77140100,-0.48454600,0.69102200,0.48332400,-0.72112700,-0.03836200,0.31676700
3.96000000,0.27760300,0.77756000,-0.22959400,-0.47548600,0.84736900,0.40012900,0.04635500,-0.77140100,-0.48454600,0.69102200,0.48332400,-0.72112700,-0.03836200,0.31676700
3.98000000,0.27760300,0.77756000,-0.22959400,-0.47548600,0.84736900,0.40012900,0.04635500,-0.77140100,-0.48454600,0.69102200,0.48332400,-0.72112700,-0.03836200,0.31676700
4.00000000,0.27760300,0.77756000,-0.22959400,-0.47548600,0.84736900,0.40012900,0.04635500,-0.77140100,-0.48454600,0.69102200,0.48332400,-0.72112700,-0.03836200,0.31676700
4.02000000,0.27760300,0.77756000,-0.22959400,-0.47548600,0.84736900,0.40012900,0.04635500,-0.77140100,-0.48454600,0.69102200,0.48332400,-0.72112700,-0.03836200,0.31676700
4.04000000,0.27760300,0.77756000,-0.22959400,-0.47548600,0.84736900,0.40012900,0.04635500,-0.77140100,-0.48454600,0.69102200,0.48332400,-0.72112700,-0.03836200,0.31676700
4.06000000,0.27760300,0.77756000,-0.22959400,-0.47548600,0.84736900,0.40012900,0.04635500,-0.77140100,-0.48454600,0.69102200,0.48332400,-0.72112700,-0.03836200,0.31676700
4.08000000,0.27760300,0.77756000,-0.22959400,-0.47548600,0.84736900,0.40012900,0.04635500,-0.77140100,-0.48454600,0.69102200,0.48332400,-0.72112700,-0.03836200,0.31676700
4.10000000,0.27760300,0.77756000,-0.22959400,-0.47548600,0.84736900,0.40012900,0.04635500,-0.77140100,-0.48454600,0.69102200,0.48332400,-0.72112700,-0.03836200,0.31676700
4.12000000,0.27760300,0.77756000,-0.22959400,-0.47548600,0.84736900,0.40012900,0.04635500,-0.77140100,-0.48454600,0.69102200,0.48332400,-0.72112700,-0.03836200,0.31676700
4.14000000,0.27760300,0.77756000,-0.22959400,-0.47548600,0.84736900,0.40012900,0.04635500,-0.77140100,-0.48454600,0.69102200,0.48332400,-0.72112700,-0.03836200,0.31676700
4.16000000,0.27760300,0.77756000,-0.22959400,-0.47548600,0.84736900,0.40012900,0.04635500,-0.77140100,-0.48454600,0.69102200,0.48332400,-0.72112700,-0.03836200,0.31676700
4.18000000,0.27760300,0.77756000,-0.22959400,-0.47548600,0.84736900,0.40012900,0.04635500,-0.77140100,-0.48454600,0.69102200,0.48332400,-0.72112700,-0.03836200,0.31676700
4.20000000,0.27760300,0.77756000,-0.22959400,-0.47548600,0.84736900,0.40012900,0.04635500,-0.77140100,-0.48454600,0.69102200,0.48332400,-0.72112700,-0.03836200,0.31676700
4.22000000,0.27760300,0.77756000,-0.22959400,-0.47548600,0.84736900,0.40012900,0.04635500,-0.77140100,-0.48454600,0.69102200,0.48332400,-0.72112700,-0.03836200,0.31676700
4.24000000,0.27760300,0.77756000,-0.22959400,-0.47548600,0.84736900,0.40012900,0.04635500,-0.77140100,-0.48454600,0.69102200,0.48332400,-0.72112700,-0.03836200,0.31676700
4.26000000,0.27760300,0.77756000,-0.22959400,-0.47548600,0.84736900,0.40012900,0.04635500,-0.77140100,-0.48454600,0.69102200,0.48332400,-0.72112700,-0.03836200,0.31676700
4.28000000,0.27760300,0.77756000,-0.22959400,-0.47548600,0.84736900,0.40012900,0.04635500,-0.77140100,-0.48454600,0.69102200,0.48332400,-0.72112700,-0.03836200,0.31676700
4.30000000,0.27760300,0.77756000,-0.22959400,-0.47548600,0.84736900,0.40012900,0.04635500,-0.77140100,-0.48454600,0.69102200,0.48332400,-0.72112700,-0.03836200,0.31676700
4.32000000,0.27760300,0.77756000,-0.22959400,-0.47548600,0.84736900,0.40012900,0.04635500,-0.77140100,-0.48454600,0.69102200,0.48332400,-0.72112700,-0.03836200,0.31676700
4.34000000,0.27760300,0.77756000,-0.22959400,-0.47548600,0.84736900,0.40012900,0.04635500,-0.77140100,-0.48454600,0.69102200,0.48332400,-0.72112700,-0.03836200,0.31676700
4.36000000,0.27760300,0.77756000,-0.22959400,-0.47548600,0.84736900,0.40012900,0.04635500,-0.77140100,-0.48454600,0.69102200,0.48332400,-0.72112700,-0.03836200,0.31676700
4.38000000,0.27760300,0.77756000,-0.22959400,-0.47548600,0.84736900,0.40012900,0.04635500,-0.77140100,-0.48454600,0.69102200,0.48332400,-0.72112700,-0.03836200,0.31676700
4.40000000,0.27760300,0.77756000,-0.22959400,-0.47548600,0.84736900,0.40012900,0.04635500,-0.77140100,-0.48454600,0.69102200,0.48332400,-0.72112700,-0.03836200,0.31676700
4.42000000,0.27760300,0.77756000,-0.22959400,-0.47548600,0.84736900,0.40012900,0.04635500,-0.77140100,-0.48454600,0.69102200,0.48332400,-0.72112700,-0.03836200,0.31676700
4.44000000,0.27760300,0.77756000,-0.22959400,-0.47548600,0.84736900,0.40012900,0.04635500,-0.77140100,-0.48454600,0.69102200,0.48332400,-0.72112700,-0.03836200,0.31676700
4.46000000,0.27760300,0.77756000,-0.22959400,-0.47548600,0.84736900,0.40012900,0.04635500,-0.77140100,-0.48454600,0.69102200,0.48332400,-0.72112700,-0.03836200,0.31676700
4.48000000,0.27760300,0.77756000,-0.22959400,-0.47548600,0.84736900,0.40012900,0.04635500,-0.77140100,-0.48454600,0.69102200,0.48332400,-0.72112700,-0.03836200,0.31676700
4.50000000,0.27760300,0.77756000,-0.22959400,-0.47548600,0.84736900,0.40012900,0.04635500,-0.77140100,-0.48454600,0.69102200,0.48332400,-0.72112700,-0.03836200,0.31676700
4.52000000,0.27760300,0.77756000,-0.22959400,-0.47548600,0.84736900,0.40012900,0.04635500,-0.77140100,-0.48454600,0.69102200,0.48332400,-0.72112700,-0.03836200,0.31676700
4.54000000,0.27760300,0.77756000,-0.22959400,-0.47548600,0.84736900,0.40012900,0.04635500,-0.77140100,-0.48454600,0.69102200,0.48332400,-0.72112700,-0.03836200,0.31676700
4.56000000,0.27760300,0.77756000,-0.22959400,-0.47548600,0.84736900,0.40012900,0.04635500,-0.77140100,-0.48454600,0.69102200,0.48332400,-0.72112700,-0.03836200,0.31676700
4.58000000,0.27760300,0.77756000,-0.22959400,-0.47548600,0.84736900,0.40012900,0.04635500,-0.77140100,-0.48454600,0.69102200,0.48332400,-0.72112700,-0.03836200,0.31676700
4.60000000,0.27760300,0.77756000,-0.22959400,-0.47548600,0.84736900,0.40012900,0.04635500,-0.77140100,-0.48454600,0.69102200,0.48332400,-0.72112700,-0.03836200,0.31676700
4.62000000,0.27760300,0.77756000,-0.22959400,-0.47548600,0.84736900,0.40012900,0.04635500,-0.77140100,-0.48454600,0.69102200,0.48332400,-0.72112700,-0.03836200,0.31676700
4.64000000,0.27760300,0.77756000,-0.22959400,-0.47548600,0.84736900,0.40012900,0.04635500,-0.77140100,-0.48454600,0.69102200,0.48332400,-0.72112700,-0.03836200,0.31676700
4.66000000,0.27760300,0.77756000,-0.22959400,-0.47548600,0.84736900,0.40012900,0.04635500,-0.77140100,-0.48454600,0.69102200,0.48332400,-0.72112700,-0.03836200,0.31676700
4.68000000,0.27760300,0.77756000,-0.22959400,-0.47548600,0.84736900,0.40012900,0.04635500,-0.77140100,-0.48454600,0.69102200,0.48332400,-0.72112700,-0.03836200,0.31676700
4.70000000,0.27760300,0.77756000,-0.22959400,-0.47548600,0.84736900,0.40012900,0.04635500,-0.77140100,-0.48454600,0.69102200,0.48332400,-0.72112700,-0.03836200,0.31676700
4.72000000,0.27760300,0.77756000,-0.22959400,-0.47548600,0.84736900,0.40012900,0.04635500,-0.77140100,-0.48454600,0.69102200,0.48332400,-0.72112700,-0.03836200,0.31676700
4.74000000,0.27760300,0.77756000,-0.22959400,-0.47548600,0.84736900,0.40012900,0.04635500,-0.77140100,-0.48454600,0.69102200,0.48332400,-0.72112700,-0.03836200,0.31676700
4.76000000,0.27760300,0.77756000,-0.22959400,-0.47548600,0.84736900,0.40012900,0.04635500,-0.77140100,-0.48454600,0.69102200,0.48332400,-0.72112700,-0.03836200,0.31676700
4.78000000,0.27760300,0.77756000,-0.22959400,-0.47548600,0.84736900,0.40012900,0.04635500,-0.77140100,-0.48454600,0.69102200,0.48332400,-0.72112700,-0.03836200,0.31676700
4.80000000,0.27760300,0.77756000,-0.22959400,-0.47548600,0.84736900,0.40012900,0.04635500,-0.77140100,-0.48454600,0.69102200,0.48332400,-0.72112700,-0.03836200,0.31676700
4.82000000,0.27760300,0.77756000,-0.22959400,-0.47548600,0.84736900,0.40012900,0.04635500,-0.77140100,-0.48454600,0.69102200,0.48332400,-0.72112700,-0.03836200,0.31676700
4.84000000,0.27760300,0.77756000,-0.22959400,-0.47548600,0.84736900,0.40012900,0.04635500,-0.77140100,-0.48454600,0.69102200,0.48332400,-0.72112700,-0.03836200,0.31676700
4.86000000,0.27760300,0.77756000,-0.22959400,-0.47548600,0.84736900,0.40012900,0.04635500,-0.77140100,-0.48454600,0.69102200,0.48332400,-0.72112700,-0.03836200,0.31676700
4.88000000,0.27760300,0.77756000,-0.22959400,-0.47548600,0.84736900,0.40012900,0.04635500,-0.77140100,-0.48454600,0.69102200,0.48332400,-0.72112700,-0.03836200,0.31676700
4.90000000,0.27760300,0.77756000,-0.22959400,-0.47548600,0.84736900,0.40012900,0.04635500,-0.77140100,-0.48454600,0.69102200,0.48332400,-0.72112700,-0.03836200,0.31676700
4.92000000,0.27760300,0.77756000,-0.22959400,-0.47548600,0.84736900,0.40012900,0.04635500,-0.77140100,-0.48454600,0.69102200,0.48332400,-0.72112700,-0.03836200,0.31676700
4.94000000,0.27760300,0.77756000,-0.22959400,-0.47548600,0.84736900,0.40012900,0.04635500,-0.77140100,-0.48454600,0.69102200,0.48332400,-0.72112700,-0.03836200,0.31676700
4.96000000,0.27760300,0.77756000,-0.22959400,-0.47548600,0.84736900,0.40012900,0.04635500,-0.77140100,-0.48454600,0.69102200,0.48332400,-0.72112700,-0.03836200,0.31676700
4.98000000,0.27760300,0.77756000,-0.22959400,-0.47548600,0.84736900,0.40012900,0.04635500,-0.77140100,-0.48454600,0.69102200,0.48332400,-0.72112700,-0.03836200,0.31676700
5.00000000,0.27760300,0.77756000,-0.22959400,-0.47548600,0.84736900,0.40012900,0.04635500,-0.77140100,-0.48454600,0.69102200,0.48332400,-0.72112700,-0.03836200,0.31676700
5.02000000,0.27760300,0.77756000,-0.22959400,-0.47548600,0.84736900,0.40012900,0.04635500,-0.77140100,-0.48454600,0.69102200,0.48332400,-0.72112700,-0.03836200,0.31676700
5.04000000,0.27760300,0.77756000,-0.22959400,-0.47548600,0.84736900,0.40012900,0.04635500,-0.77140100,-0.48454600,0.69102200,0.48332400,-0.72112700,-0.03836200,0.31676700
5.06000000,0.27760300,0.77756000,-0.22959400,-0.47548600,0.84736900,0.40012900,0.04635500,-0.77140100,-0.48454600,0.69102200,0.48332400,-0.72112700,-0.03836200,0.31676700
5.08000000,0.27760300,0.77756000,-0.22959400,-0.47548600,0.84736900,0.40012900,0.04635500,-0.77140100,-0.48454600,0.69102200,0.48332400,-0.72112700,-0.03836200,0.31676700
5.10000000,0.27760300,0.77756000,-0.22959400,-0.47548600,0.84736900,0.40012900,0.04635500,-0.77140100,-0.48454600,0.69102200,0.48332400,-0.72112700,-0.03836200,0.31676700
5.12000000,0.27760300,0.77756000,-0.22959400,-0.47548600,0.84736900,0.40012900,0.04635500,-0.77140100,-0.48454600,0.69102200,0.48332400,-0.72112700,-0.03836200,0.31676700
5.14000000,0.27760300,0.77756000,-0.22959400,-0.47548600,0.84736900,0.40012900,0.04635500,-0.77140100,-0.48454600,0.69102200,0.48332400,-0.72112700,-0.03836200,0.31676700
5.16000000,0.27760300,0.77756000,-0.22959400,-0.47548600,0.84736900,0.40012900,0.04635500,-0.77140100,-0.48454600,0.69102200,0.48332400,-0.72112700,-0.03836200,0.31676700
5.18000000,0.27760300,0.77756000,-0.22959400,-0.47548600,0.84736900,0.40012900,0.04635500,-0.77140100,-0.48454600,0.69102200,0.48332400,-0.72112700,-0.03836200,0.31676700
5.20000000,0.27760300,0.77756000,-0.22959400,-0.47548600,0.84736900,0.40012900,0.04635500,-0.77140100,-0.48454600,0.69102200,0.48332400,-0.72112700,-0.03836200,0.31676700
5.22000000,0.27760300,0.77756000,-0.22959400,-0.47548600,0.84736900,0.40012900,0.04635500,-0.77140100,-0.48454600,0.69102200,0.48332400,-0.72112700,-0.03836200,0.31676700
5.24000000,0.27760300,0.77756000,-0.22959400,-0.47548600,0.84736900,0.40012900,0.04635500,-0.77140100,-0.48454600,0.69102200,0.48332400,-0.72112700,-0.03836200,0.31676700
5.26000000,0.27760300,0.77756000,-0.22959400,-0.47548600,0.84736900,0.40012900,0.04635500,-0.77140100,-0.48454600,0.69102200,0.48332400,-0.72112700,-0.03836200,0.31676700
5.28000000,0.27760300,0.77756000,-0.22959400,-0.47548600,0.84736900,0.40012900,0.04635500,-0.77140100,-0.48454600,0.69102200,0.48332400,-0.72112700,-0.03836200,0.31676700
5.30000000,0.27760300,0.77756000,-0.22959400,-0.47548600,0.84736900,0.40012900,0.04635500,-0.77140100,-0.48454600,0.69102200,0.48332400,-0.72112700,-0.03836200,0.31676700
5.32000000,0.27760300,0.77756000,-0.22959400,-0.47548600,0.84736900,0.40012900,0.04635500,-0.77140100,-0.48454600,0.69102200,0.48332400,-0.72112700,-0.03836200,0.31676700
5.34000000,0.27760300,0.77756000,-0.22959400,-0.47548600,0.84736900,0.40012900,0.04635500,-0.77140100,-0.48454600,0.69102200,0.48332400,-0.72112700,-0.03836200,0.31676700
5.36000000,0.27760300,0.77756000,-0.22959400,-0.47548600,0.84736900,0.40012900,0.04635500,-0.77140100,-0.48454600,0.69102200,0.48332400,-0.72112700,-0.03836200,0.31676700
5.38000000,0.27760300,0.77756000,-0.22959400,-0.47548600,0.84736900,0.40012900,0.04635500,-0.77140100,-0.48454600,0.69102200,0.48332400,-0.72112700,-0.03836200,0.31676700
5.40000000,0.27760300,0.77756000,-0.22959400,-0.47548600,0.84736900,0.40012900,0.04635500,-0.77140100,-0.48454600,0.69102200,0.48332400,-0.72112700,-0.03836200,0.31676700
5.42000000,0.27760300,0.77756000,-0.22959400,-0.47548600,0.84736900,0.40012900,0.04635500,-0.77140100,-0.48454600,0.69102200,0.48332400,-0.72112700,-0.03836200,0.31676700
5.44000000,0.27760300,0.77756000,-0.22959400,-0.47548600,0.84736900,0.40012900,0.04635500,-0.77140100,-0.48454600,0.69102200,0.48332400,-0.72112700,-0.03836200,0.31676700
5.46000000,0.27760300,0.77756000,-0.22959400,-0.47548600,0.84736900,0.40012900,0.04635500,-0.77140100,-0.48454600,0.69102200,0.48332400,-0.72112700,-0.03836200,0.31676700
5.48000000,0.27760300,0.77756000,-0.22959400,-0.47548600,0.84736900,0.40012900,0.04635500,-0.77140100,-0.48454600,0.69102200,0.48332400,-0.72112700,-0.03836200,0.31676700
5.50000000,0.27760300,0.77756000,-0.22959400,-0.47548600,0.84736900,0.40012900,0.04635500,-0.77140100,-0.48454600,0.69102200,0.48332400,-0.72112700,-0.03836200,0.31676700
5.52000000,0.27760300,0.77756000,-0.22959400,-0.47548600,0.84736900,0.40012900,0.04635500,-0.77140100,-0.48454600,0.69102200,0.48332400,-0.72112700,-0.03836200,0.31676700
5.54000000,0.27760300,0.77756000,-0.22959400,-0.47548600,0.84736900,0.40012900,0.04635500,-0.77140100,-0.48454600,0.69102200,0.48332400,-0.72112700,-0.03836200,0.31676700
5.56000000,0.27760300,0.77756000,-0.22959400,-0.47548600,0.84736900,0.40012900,0.04635500,-0.77140100,-0.48454600,0.69102200,0.48332400,-0.72112700,-0.03836200,0.31676700
5.58000000,0.27760300,0.77756000,-0.22959400,-0.47548600,0.84736900,0.40012900,0.04635500,-0.77140100,-0.48454600,0.69102200,0.48332400,-0.72112700,-0.03836200,0.31676700
5.60000000,0.27760300,0.77756000,-0.22959400,-0.47548600,0.84736900,0.40012900,0.04635500,-0.77140100,-0.48454600,0.69102200,0.48332400,-0.72112700,-0.03836200,0.31676700
5.62000000,0.27760300,0.77756000,-0.22959400,-0.47548600,0.84736900,0.40012900,0.04635500,-0.77140100,-0.48454600,0.69102200,0.48332400,-0.72112700,-0.03836200,0.31676700
5.64000000,0.27760300,0.77756000,-0.22959400,-0.47548600,0.84736900,0.40012900,0.04635500,-0.77140100,-0.48454600,0.69102200,0.48332400,-0.72112700,-0.03836200,0.31676700
5.66000000,0.27760300,0.77756000,-0.22959400,-0.47548600,0.84736900,0.40012900,0.04635500,-0.77140100,-0.48454600,0.69102200,0.48332400,-0.72112700,-0.03836200,0.31676700
5.68000000,0.27760300,0.77756000,-0.22959400,-0.47548600,0.84736900,0.40012900,0.04635500,-0.77140100,-0.48454600,0.69102200,0.48332400,-0.72112700,-0.03836200,0.31676700
5.70000000,0.27760300,0.77756000,-0.22959400,-0.47548600,0.84736900,0.40012900,0.04635500,-0.77140100,-0.48454600,0.69102200,0.48332400,-0.72112700,-0.03836200,0.31676700
5.72000000,0.27760300,0.77756000,-0.22959400,-0.47548600,0.84736900,0.40012900,0.04635500,-0.77140100,-0.48454600,0.69102200,0.48332400,-0.72112700,-0.03836200,0.31676700
5.74000000,0.27760300,0.77756000,-0.22959400,-0.47548600,0.84736900,0.40012900,0.04635500,-0.77140100,-0.48454600,0.69102200,0.48332400,-0.72112700,-0.03836200,0.31676700
5.76000000,0.27760300,0.77756000,-0.22959400,-0.47548600,0.84736900,0.40012900,0.04635500,-0.77140100,-0.48454600,0.69102200,0.48332400,-0.72112700,-0.03836200,0.31676700
5.78000000,0.27760300,0.77756000,-0.22959400,-0.47548600,0.84736900,0.40012900,0.04635500,-0.77140100,-0.48454600,0.69102200,0.48332400,-0.72112700,-0.03836200,0.31676700
5.80000000,0.27760300,0.77756000,-0.22959400,-0.47548600,0.84736900,0.40012900,0.04635500,-0.77140100,-0.48454600,0.69102200,0.48332400,-0.72112700,-0.03836200,0.31676700
5.82000000,0.27760300,0.77756000,-0.22959400,-0.47548600,0.84736900,0.40012900,0.04635500,-0.77140100,-0.48454600,0.69102200,0.48332400,-0.72112700,-0.03836200,0.31676700
5.84000000,0.27760300,0.77756000,-0.22959400,-0.47548600,0.84736900,0.40012900,0.04635500,-0.77140100,-0.48454600,0.69102200,0.48332400,-0.72112700,-0.03836200,0.31676700
5.86000000,0.27760300,0.77756000,-0.22959400,-0.47548600,0.84736900,0.40012900,0.04635500,-0.77140100,-0.48454600,0.69102200,0.48332400,-0.72112700,-0.03836200,0.31676700
5.88000000,0.27760300,0.77756000,-0.22959400,-0.47548600,0.84736900,0.40012900,0.04635500,-0.77140100,-0.48454600,0.69102200,0.48332400,-0.72112700,-0.03836200,0.31676700
5.90000000,0.27760300,0.77756000,-0.22959400,-0.47548600,0.84736900,0.40012900,0.04635500,-0.77140100,-0.48454600,0.69102200,0.48332400,-0.72112700,-0.03836200,0.31676700
5.92000000,0.27760300,0.77756000,-0.22959400,-0.47548600,0.84736900,0.40012900,0.04635500,-0.77140100,-0.48454600,0.69102200,0.48332400,-0.72112700,-0.03836200,0.31676700
5.94000000,0.27760300,0.77756000,-0.22959400,-0.47548600,0.84736900,0.40012900,0.04635500,-0.77140100,-0.48454600,0.69102200,0.48332400,-0.72112700,-0.03836200,0.31676700
5.96000000,0.27760300,0.77756000,-0.22959400,-0.47548600,0.84736900,0.40012900,0.04635500,-0.77140100,-0.48454600,0.69102200,0.48332400,-0.72112700,-0.03836200,0.31676700
5.98000000,0.27760300,0.77756000,-0.22959400,-0.47548600,0.84736900,0.40012900,0.04635500,-0.77140100,-0.48454600,0.69102200,0.48332400,-0.72112700,-0.03836200,0.31676700
6.00000000,0.27760300,0.77756000,-0.22959400,-0.47548600,0.84736900,0.40012900,0.04635500,-0.77140100,-0.48454600,0.69102200,0.48332400,-0.72112700,-0.03836200,0.31676700
6.02000000,0.27760300,0.77756000,-0.22959400,-0.47548600,0.84736900,0.40012900,0.04635500,-0.77140100,-0.48454600,0.69102200,0.48332400,-0.72112700,-0.03836200,0.31676700
6.04000000,0.27760300,0.77756000,-0.22959400,-0.47548600,0.84736900,0.40012900,0.04635500,-0.77140100,-0.48454600,0.69102200,0.48332400,-0.72112700,-0.03836200,0.31676700
6.06000000,0.27760300,0.77756000,-0.22959400,-0.47548600,0.84736900,0.40012900,0.04635500,-0.77140100,-0.48454600,0.69102200,0.48332400,-0.72112700,-0.03836200,0.31676700
6.08000000,0.27760300,0.77756000,-0.22959400,-0.47548600,0.84736900,0.40012900,0.04635500,-0.77140100,-0.48454600,0.69102200,0.48332400,-0.72112700,-0.03836200,0.31676700
6.10000000,0.27760300,0.77756000,-0.22959400,-0.47548600,0.84736900,0.40012900,0.04635500,-0.77140100,-0.48454600,0.69102200,0.48332400,-0.72112700,-0.03836200,0.31676700
6.12000000,0.27760300,0.77756000,-0.22959400,-0.47548600,0.84736900,0.40012900,0.04635500,-0.77140100,-0.48454600,0.69102200,0.48332400,-0.72112700,-0.03836200,0.31676700
6.14000000,0.27760300,0.77756000,-0.22959400,-0.47548600,0.84736900,0.40012900,0.04635500,-0.77140100,-0.48454600,0.69102200,0.48332400,-0.72112700,-0.03836200,0.31676700
6.16000000,0.27760300,0.77756000,-0.22959400,-0.47548600,0.84736900,0.40012900,0.04635500,-0.77140100,-0.48454600,0.69102200,0.48332400,-0.72112700,-0.03836200,0.31676700
6.18000000,0.27760300,0.77756000,-0.22959400,-0.47548600,0.84736900,0.40012900,0.04635500,-0.77140100,-0.48454600,0.69102200,0.48332400,-0.72112700,-0.03836200,0.31676700
6.20000000,0.27760300,0.77756000,-0.22959400,-0.47548600,0.84736900,0.40012900,0.04635500,-0.77140100,-0.48454600,0.69102200,0.48332400,-0.72112700,-0.03836200,0.31676700
6.22000000,0.27760300,0.77756000,-0.22959400,-0.47548600,0.84736900,0.40012900,0.04635500,-0.77140100,-0.48454600,0.69102200,0.48332400,-0.72112700,-0.03836200,0.31676700
6.24000000,0.27760300,0.77756000,-0.22959400,-0.47548600,0.84736900,0.40012900,0.04635500,-0.77140100,-0.48454600,0.69102200,0.48332400,-0.72112700,-0.03836200,0.31676700
6.26000000,0.27760300,0.77756000,-0.22959400,-0.47548600,0.84736900,0.40012900,0.04635500,-0.77140100,-0.48454600,0.69102200,0.48332400,-0.72112700,-0.03836200,0.31676700
6.28000000,0.27760300,0.77756000,-0.22959400,-0.47548600,0.84736900,0.40012900,0.04635500,-0.77140100,-0.48454600,0.69102200,0.48332400,-0.72112700,-0.03836200,0.31676700
6.30000000,0.27760300,0.77756000,-0.22959400,-0.47548600,0.84736900,0.40012900,0.04635500,-0.77140100,-0.48454600,0.69102200,0.48332400,-0.72112700,-0.03836200,0.31676700
6.32000000,0.27760300,0.77756000,-0.22959400,-0.47548600,0.84736900,0.40012900,0.04635500,-0.77140100,-0.48454600,0.69102200,0.48332400,-0.72112700,-0.03836200,0.31676700
6.34000000,0.27760300,0.77756000,-0.22959400,-0.47548600,0.84736900,0.40012900,0.04635500,-0.77140100,-0.48454600,0.69102200,0.48332400,-0.72112700,-0.03836200,0.31676700
6.36000000,0.27760300,0.77756000,-0.22959400,-0.47548600,0.84736900,0.40012900,0.04635500,-0.77140100,-0.48454600,0.69102200,0.48332400,-0.72112700,-0.03836200,0.31676700
6.38000000,0.27760300,0.77756000,-0.22959400,-0.47548600,0.84736900,0.40012900,0.04635500,-0.77140100,-0.48454600,0.69102200,0.48332400,-0.72112700,-0.03836200,0.31676700
6.40000000,0.27760300,0.77756000,-0.22959400,-0.47548600,0.84736900,0.40012900,0.04635500,-0.77140100,-0.48454600,0.69102200,0.48332400,-0.72112700,-0.03836200,0.31676700
6.42000000,0.27760300,0.77756000,-0.22959400,-0.47548600,0.84736900,0.40012900,0.04635500,-0.77140100,-0.48454600,0.69102200,0.48332400,-0.72112700,-0.03836200,0.31676700
6.44000000,0.27760300,0.77756000,-0.22959400,-0.47548600,0.84736900,0.40012900,0.04635500,-0.77140100,-0.48454600,0.69102200,0.48332400,-0.72112700,-0.03836200,0.31676700
6.46000000,0.27760300,0.77756000,-0.22959400,-0.47548600,0.84736900,0.40012900,0.04635500,-0.77140100,-0.48454600,0.69102200,0.48332400,-0.72112700,-0.03836200,0.31676700
6.48000000,0.27760300,0.77756000,-0.22959400,-0.47548600,0.84736900,0.40012900,0.04635500,-0.77140100,-0.48454600,0.69102200,0.48332400,-0.72112700,-0.03836200,0.31676700
6.50000000,0.27760300,0.77756000,-0.22959400,-0.47548600,0.84736900,0.40012900,0.04635500,-0.77140100,-0.48454600,0.69102200,0.48332400,-0.72112700,-0.03836200,0.31676700
6.52000000,0.27760300,0.77756000,-0.22959400,-0.47548600,0.84736900,0.40012900,0.04635500,-0.77140100,-0.48454600,0.69102200,0.48332400,-0.72112700,-0.03836200,0.31676700
6.54000000,0.27760300,0.77756000,-0.22959400,-0.47548600,0.84736900,0.40012900,0.04635500,-0.77140100,-0.48454600,0.69102200,0.48332400,-0.72112700,-0.03836200,0.31676700
6.56000000,0.27760300,0.77756000,-0.22959400,-0.47548600,0.84736900,0.40012900,0.04635500,-0.77140100,-0.48454600,0.69102200,0.48332400,-0.72112700,-0.03836200,0.31676700
6.58000000,0.27760300,0.77756000,-0.22959400,-0.47548600,0.84736900,0.40012900,0.04635500,-0.77140100,-0.48454600,0.69102200,0.48332400,-0.72112700,-0.03836200,0.31676700
6.60000000,0.27760300,0.77756000,-0.22959400,-0.47548600,0.84736900,0.40012900,0.04635500,-0.77140100,-0.48454600,0.69102200,0.48332400,-0.72112700,-0.03836200,0.31676700
6.62000000,0.27760300,0.77756000,-0.22959400,-0.47548600,0.84736900,0.40012900,0.04635500,-0.77140100,-0.48454600,0.69102200,0.48332400,-0.72112700,-0.03836200,0.31676700
6.64000000,0.27760300,0.77756000,-0.22959400,-0.47548600,0.84736900,0.40012900,0.04635500,-0.77140100,-0.48454600,0.69102200,0.48332400,-0.72112700,-0.03836200,0.31676700
6.66000000,0.27760300,0.77756000,-0.22959400,-0.47548600,0.84736900,0.40012900,0.04635500,-0.77140100,-0.48454600,0.69102200,0.48332400,-0.72112700,-0.03836200,0.31676700
6.68000000,0.27760300,0.77756000,-0.22959400,-0.47548600,0.84736900,0.40012900,0.04635500,-0.77140100,-0.48454600,0.69102200,0.48332400,-0.72112700,-0.03836200,0.31676700
6.70000000,0.27760300,0.77756000,-0.22959400,-0.47548600,0.84736900,0.40012900,0.04635500,-0.77140100,-0.48454600,0.69102200,0.48332400,-0.72112700,-0.03836200,0.31676700
6.72000000,0.27760300,0.77756000,-0.22959400,-0.47548600,0.84736900,0.40012900,0.04635500,-0.77140100,-0.48454600,0.69102200,0.48332400,-0.72112700,-0.03836200,0.31676700
6.74000000,0.27760300,0.77756000,-0.22959400,-0.47548600,0.84736900,0.40012900,0.04635500,-0.77140100,-0.48454600,0.69102200,0.48332400,-0.72112700,-0.03836200,0.31676700
6.76000000,0.27760300,0.77756000,-0.22959400,-0.47548600,0.84736900,0.40012900,0.04635500,-0.77140100,-0.48454600,0.69102200,0.48332400,-0.72112700,-0.03836200,0.31676700
6.78000000,0.27760300,0.77756000,-0.22959400,-0.47548600,0.84736900,0.40012900,0.04635500,-0.77140100,-0.48454600,0.69102200,0.48332400,-0.72112700,-0.03836200,0.31676700
6.80000000,0.27760300,0.77756000,-0.22959400,-0.47548600,0.84736900,0.40012900,0.04635500,-0.77140100,-0.48454600,0.69102200,0.48332400,-0.72112700,-0.03836200,0.31676700
6.82000000,0.27760300,0.77756000,-0.22959400,-0.47548600,0.84736900,0.40012900,0.04635500,-0.77140100,-0.48454600,0.69102200,0.48332400,-0.72112700,-0.03836200,0.31676700
6.84000000,0.27760300,0.77756000,-0.22959400,-0.47548600,0.84736900,0.40012900,0.04635500,-0.77140100,-0.48454600,0.69102200,0.48332400,-0.72112700,-0.03836200,0.31676700
6.86000000,0.27760300,0.77756000,-0.22959400,-0.47548600,0.84736900,0.40012900,0.04635500,-0.77140100,-0.48454600,0.69102200,0.48332400,-0.72112700,-0.03836200,0.31676700
6.88000000,0.27760300,0.77756000,-0.22959400,-0.47548600,0.84736900,0.40012900,0.04635500,-0.77140100,-0.48454600,0.69102200,0.48332400,-0.72112700,-0.03836200,0.31676700
6.90000000,0.27760300,0.77756000,-0.22959400,-0.47548600,0.84736900,0.40012900,0.04635500,-0.77140100,-0.48454600,0.69102200,0.48332400,-0.72112700,-0.03836200,0.31676700
6.92000000,0.27760300,0.77756000,-0.22959400,-0.47548600,0.84736900,0.40012900,0.04635500,-0.77140100,-0.48454600,0.69102200,0.48332400,-0.72112700,-0.03836200,0.31676700
6.94000000,0.27760300,0.77756000,-0.22959400,-0.47548600,0.84736900,0.40012900,0.04635500,-0.77140100,-0.48454600,0.69102200,0.48332400,-0.72112700,-0.03836200,0.31676700
6.96000000,0.27760300,0.77756000,-0.22959400,-0.47548600,0.84736900,0.40012900,0.04635500,-0.77140100,-0.48454600,0.69102200,0.48332400,-0.72112700,-0.03836200,0.31676700
6.98000000,0.27760300,0.77756000,-0.22959400,-0.47548600,0.84736900,0.40012900,0.04635500,-0.77140100,-0.48454600,0.69102200,0.48332400,-0.72112700,-0.03836200,0.31676700
7.00000000,0.27760300,0.77756000,-0.22959400,-0.47548600,0.84736900,0.40012900,0.04635500,-0.77140100,-0.48454600,0.69102200,0.48332400,-0.72112700,-0.03836200,0.31676700
7.02000000,0.27760300,0.77756000,-0.22959400,-0.47548600,0.84736900,0.40012900,0.04635500,-0.77140100,-0.48454600,0.69102200,0.48332400,-0.72112700,-0.03836200,0.31676700
7.04000000,0.27760300,0.77756000,-0.22959400,-0.47548600,0.84736900,0.40012900,0.04635500,-0.77140100,-0.48454600,0.69102200,0.48332400,-0.72112700,-0.03836200,0.31676700
7.06000000,0.27760300,0.77756000,-0.22959400,-0.47548600,0.84736900,0.40012900,0.04635500,-0.77140100,-0.48454600,0.69102200,0.48332400,-0.72112700,-0.03836200,0.31676700
7.08000000,0.27760300,0.77756000,-0.22959400,-0.47548600,0.84736900,0.40012900,0.04635500,-0.77140100,-0.48454600,0.69102200,0.48332400,-0.72112700,-0.03836200,0.31676700
7.10000000,0.27760300,0.77756000,-0.22959400,-0.47548600,0.84736900,0.40012900,0.04635500,-0.77140100,-0.48454600,0.69102200,0.48332400,-0.72112700,-0.03836200,0.31676700
7.12000000,0.27760300,0.77756000,-0.22959400,-0.47548600,0.84736900,0.40012900,0.04635500,-0.77140100,-0.48454600,0.69102200,0.48332400,-0.72112700,-0.03836200,0.31676700
7.14000000,0.27760300,0.77756000,-0.22959400,-0.47548600,0.84736900,0.40012900,0.04635500,-0.77140100,-0.48454600,0.69102200,0.48332400,-0.72112700,-0.03836200,0.31676700
7.16000000,0.27760300,0.77756000,-0.22959400,-0.47548600,0.84736900,0.40012900,0.04635500,-0.77140100,-0.48454600,0.69102200,0.48332400,-0.72112700,-0.03836200,0.31676700
7.18000000,0.27760300,0.77756000,-0.22959400,-0.47548600,0.84736900,0.40012900,0.04635500,-0.77140100,-0.48454600,0.69102200,0.48332400,-0.72112700,-0.03836200,0.31676700
7.20000000,0.27760300,0.77756000,-0.22959400,-0.47548600,0.84736900,0.40012900,0.04635500,-0.77140100,-0.48454600,0.69102200,0.48332400,-0.72112700,-0.03836200,0.31676700
7.22000000,0.27760300,0.77756000,-0.22959400,-0.47548600,0.84736900,0.40012900,0.04635500,-0.77140100,-0.48454600,0.69102200,0.48332400,-0.72112700,-0.03836200,0.31676700
7.24000000,0.27760300,0.77756000,-0.22959400,-0.47548600,0.84736900,0.40012900,0.04635500,-0.77140100,-0.48454600,0.69102200,0.48332400,-0.72112700,-0.03836200,0.31676700
7.26000000,0.27760300,0.77756000,-0.22959400,-0.47548600,0.84736900,0.40012900,0.04635500,-0.77140100,-0.48454600,0.69102200,0.48332400,-0.72112700,-0.03836200,0.31676700
7.28000000,0.27760300,0.77756000,-0.22959400,-0.47548600,0.84736900,0.40012900,0.04635500,-0.77140100,-0.48454600,0.69102200,0.48332400,-0.72112700,-0.03836200,0.31676700
7.30000000,0.27760300,0.77756000,-0.22959400,-0.47548600,0.84736900,0.40012900,0.04635500,-0.77140100,-0.48454600,0.69102200,0.48332400,-0.72112700,-0.03836200,0.31676700
7.32000000,0.27760300,0.77756000,-0.22959400,-0.47548600,0.84736900,0.40012900,0.04635500,-0.77140100,-0.48454600,0.69102200,0.48332400,-0.72112700,-0.03836200,0.31676700
7.34000000,0.27760300,0.77756000,-0.22959400,-0.47548600,0.84736900,0.40012900,0.04635500,-0.77140100,-0.48454600,0.69102200,0.48332400,-0.72112700,-0.03836200,0.31676700
7.36000000,0.27760300,0.77756000,-0.22959400,-0.47548600,0.84736900,0.40012900,0.04635500,-0.77140100,-0.48454600,0.69102200,0.48332400,-0.72112700,-0.03836200,0.31676700
7.38000000,0.27760300,0.77756000,-0.22959400,-0.47548600,0.84736900,0.40012900,0.04635500,-0.77140100,-0.48454600,0.69102200,0.48332400,-0.72112700,-0.03836200,0.31676700
7.40000000,0.27760300,0.77756000,-0.22959400,-0.47548600,0.84736900,0.40012900,0.04635500,-0.77140100,-0.48454600,0.69102200,0.48332400,-0.72112700,-0.03836200,0.31676700
7.42000000,0.27760300,0.77756000,-0.22959400,-0.47548600,0.84736900,0.40012900,0.04635500,-0.77140100,-0.48454600,0.69102200,0.48332400,-0.72112700,-0.03836200,0.31676700
7.44000000,0.27760300,0.77756000,-0.22959400,-0.47548600,0.84736900,0.40012900,0.04635500,-0.77140100,-0.48454600,0.69102200,0.48332400,-0.72112700,-0.03836200,0.31676700
7.46000000,0.27760300,0.77756000,-0.22959400,-0.47548600,0.84736900,0.40012900,0.04635500,-0.77140100,-0.48454600,0.69102200,0.48332400,-0.72112700,-0.03836200,0.31676700
7.48000000,0.27760300,0.77756000,-0.22959400,-0.47548600,0.84736900,0.40012900,0.04635500,-0.77140100,-0.48454600,0.69102200,0.48332400,-0.72112700,-0.03836200,0.31676700
7.50000000,0.27760300,0.77756000,-0.22959400,-0.47548600,0.84736900,0.40012900,0.04635500,-0.77140100,-0.48454600,0.69102200,0.48332400,-0.72112700,-0.03836200,0.31676700
7.52000000,0.27760300,0.77756000,-0.22959400,-0.47548600,0.84736900,0.40012900,0.04635500,-0.77140100,-0.48454600,0.69102200,0.48332400,-0.72112700,-0.03836200,0.31676700
7.54000000,0.27760300,0.77756000,-0.22959400,-0.47548600,0.84736900,0.40012900,0.04635500,-0.77140100,-0.48454600,0.69102200,0.48332400,-0.72112700,-0.03836200,0.31676700
7.56000000,0.27760300,0.77756000,-0.22959400,-0.47548600,0.84736900,0.40012900,0.04635500,-0.77140100,-0.48454600,0.69102200,0.48332400,-0.72112700,-0.03836200,0.31676700
7.58000000,0.27760300,0.77756000,-0.22959400,-0.47548600,0.84736900,0.40012900,0.04635500,-0.77140100,-0.48454600,0.69102200,0.48332400,-0.72112700,-0.03836200,0.31676700
7.60000000,0.27760300,0.77756000,-0.22959400,-0.47548600,0.84736900,0.40012900,0.04635500,-0.77140100,-0.48454600,0.69102200,0.48332400,-0.72112700,-0.03836200,0.31676700
7.62000000,0.27760300,0.77756000,-0.22959400,-0.47548600,0.84736900,0.40012900,0.04635500,-0.77140100,-0.48454600,0.69102200,0.48332400,-0.72112700,-0.03836200,0.31676700
7.64000000,0.27760300,0.77756000,-0.22959400,-0.47548600,0.84736900,0.40012900,0.04635500,-0.77140100,-0.48454600,0.69102200,0.48332400,-0.72112700,-0.03836200,0.31676700
7.66000000,0.27760300,0.77756000,-0.22959400,-0.47548600,0.84736900,0.40012900,0.04635500,-0.77140100,-0.48454600,0.69102200,0.48332400,-0.72112700,-0.03836200,0.31676700
7.68000000,0.27760300,0.77756000,-0.22959400,-0.47548600,0.84736900,0.40012900,0.04635500,-0.77140100,-0.48454600,0.69102200,0.48332400,-0.72112700,-0.03836200,0.31676700
7.70000000,0.27760300,0.77756000,-0.22959400,-0.47548600,0.84736900,0.40012900,0.04635500,-0.77140100,-0.48454600,0.69102200,0.48332400,-0.72112700,-0.03836200,0.31676700
7.72000000,0.27760300,0.77756000,-0.22959400,-0.47548600,0.84736900,0.40012900,0.04635500,-0.77140100,-0.48454600,0.69102200,0.48332400,-0.72112700,-0.03836200,0.31676700
7.74000000,0.27760300,0.77756000,-0.22959400,-0.47548600,0.84736900,0.40012900,0.04635500,-0.77140100,-0.48454600,0.69102200,0.48332400,-0.72112700,-0.03836200,0.31676700
7.76000000,0.27760300,0.77756000,-0.22959400,-0.47548600,0.84736900,0.40012900,0.04635500,-0.77140100,-0.48454600,0.69102200,0.48332400,-0.72112700,-0.03836200,0.31676700
7.78000000,0.27760300,0.77756000,-0.22959400,-0.47548600,0.84736900,0.40012900,0.04635500,-0.77140100,-0.48454600,0.69102200,0.48332400,-0.72112700,-0.03836200,0.31676700
7.80000000,0.27760300,0.77756000,-0.22959400,-0.47548600,0.84736900,0.40012900,0.04635500,-0.77140100,-0.48454600,0.69102200,0.48332400,-0.72112700,-0.03836200,0.31676700
7.82000000,0.27760300,0.77756000,-0.22959400,-0.47548600,0.84736900,0.40012900,0.04635500,-0.77140100,-0.48454600,0.69102200,0.48332400,-0.72112700,-0.03836200,0.31676700
7.84000000,0.27760300,0.77756000,-0.22959400,-0.47548600,0.84736900,0.40012900,0.04635500,-0.77140100,-0.48454600,0.69102200,0.48332400,-0.72112700,-0.03836200,0.31676700
7.86000000,0.27760300,0.77756000,-0.22959400,-0.47548600,0.84736900,0.40012900,0.04635500,-0.77140100,-0.48454600,0.69102200,0.48332400,-0.72112700,-0.03836200,0.31676700
7.88000000,0.27760300,0.77756000,-0.22959400,-0.47548600,0.84736900,0.40012900,0.04635500,-0.77140100,-0.48454600,0.69102200,0.48332400,-0.72112700,-0.03836200,0.31676700
7.90000000,0.27760300,0.77756000,-0.22959400,-0.47548600,0.84736900,0.40012900,0.04635500,-0.77140100,-0.48454600,0.69102200,0.48332400,-0.72112700,-0.03836200,0.31676700
7.92000000,0.27760300,0.77756000,-0.22959400,-0.47548600,0.84736900,0.40012900,0.04635500,-0.77140100,-0.48454600,0.69102200,0.48332400,-0.72112700,-0.03836200,0.31676700
7.94000000,0.27760300,0.77756000,-0.22959400,-0.47548600,0.84736900,0.40012900,0.04635500,-0.77140100,-0.48454600,0.69102200,0.48332400,-0.72112700,-0.03836200,0.31676700
7.96000000,0.27760300,0.77756000,-0.22959400,-0.47548600,0.84736900,0.40012900,0.04635500,-0.77140100,-0.48454600,0.69102200,0.48332400,-0.72112700,-0.03836200,0.31676700
7.98000000,0.27760300,0.77756000,-0.22959400,-0.47548600,0.84736900,0.40012900,0.04635500,-0.77140100,-0.48454600,0.69102200,0.48332400,-0.72112700,-0.03836200,0.31676700
8.00000000,0.27760300,0.77756000,-0.22959400,-0.47548600,0.84736900,0.40012900,0.04635500,-0.77140100,-0.48454600,0.69102200,0.48332400,-0.72112700,-0.03836200,0.31676700
8.02000000,0.27760300,0.77756000,-0.22959400,-0.47548600,0.84736900,0.40012900,0.04635500,-0.77140100,-0.48454600,0.69102200,0.48332400,-0.72112700,-0.03836200,0.31676700
8.04000000,0.27760300,0.77756000,-0.22959400,-0.47548600,0.84736900,0.40012900,0.04635500,-0.77140100,-0.48454600,0.69102200,0.48332400,-0.72112700,-0.03836200,0.31676700
8.06000000,0.27760300,0.77756000,-0.22959400,-0.47548600,0.84736900,0.40012900,0.04635500,-0.77140100,-0.48454600,0.69102200,0.48332400,-0.72112700,-0.03836200,0.31676700
8.08000000,0.27760300,0.77756000,-0.22959400,-0.47548600,0.84736900,0.40012900,0.04635500,-0.77140100,-0.48454600,0.69102200,0.48332400,-0.72112700,-0.03836200,0.31676700
8.10000000,0.27760300,0.77756000,-0.22959400,-0.47548600,0.84736900,0.40012900,0.04635500,-0.77140100,-0.48454600,0.69102200,0.48332400,-0.72112700,-0.03836200,0.31676700
8.12000000,0.27760300,0.77756000,-0.22959400,-0.47548600,0.84736900,0.40012900,0.04635500,-0.77140100,-0.48454600,0.69102200,0.48332400,-0.72112700,-0.03836200,0.31676700
8.14000000,0.27760300,0.77756000,-0.22959400,-0.47548600,0.84736900,0.40012900,0.04635500,-0.77140100,-0.48454600,0.69102200,0.48332400,-0.72112700,-0.03836200,0.31676700
8.16000000,0.27760300,0.77756000,-0.22959400,-0.47548600,0.84736900,0.40012900,0.04635500,-0.77140100,-0.48454600,0.69102200,0.48332400,-0.72112700,-0.03836200,0.31676700
8.18000000,0.27760300,0.77756000,-0.22959400,-0.47548600,0.84736900,0.40012900,0.04635500,-0.77140100,-0.48454600,0.69102200,0.48332400,-0.72112700,-0.03836200,0.31676700
8.20000000,0.27760300,0.77756000,-0.22959400,-0.47548600,0.84736900,0.40012900,0.04635500,-0.77140100,-0.48454600,0.69102200,0.48332400,-0.72112700,-0.03836200,0.31676700
8.22000000,0.27760300,0.77756000,-0.22959400,-0.47548600,0.84736900,0.40012900,0.04635500,-0.77140100,-0.48454600,0.69102200,0.48332400,-0.72112700,-0.03836200,0.31676700
8.24000000,0.27760300,0.77756000,-0.22959400,-0.47548600,0.84736900,0.40012900,0.04635500,-0.77140100,-0.48454600,0.69102200,0.48332400,-0.72112700,-0.03836200,0.31676700
8.26000000,0.27760300,0.77756000,-0.22959400,-0.47548600,0.84736900,0.40012900,0.04635500,-0.77140100,-0.48454600,0.69102200,0.48332400,-0.72112700,-0.03836200,0.31676700
8.28000000,0.27760300,0.77756000,-0.22959400,-0.47548600,0.84736900,0.40012900,0.04635500,-0.77140100,-0.48454600,0.69102200,0.48332400,-0.72112700,-0.03836200,0.31676700
8.30000000,0.27760300,0.77756000,-0.22959400,-0.47548600,0.84736900,0.40012900,0.04635500,-0.77140100,-0.48454600,0.69102200,0.48332400,-0.72112700,-0.03836200,0.31676700
8.32000000,0.27760300,0.77756000,-0.22959400,-0.47548600,0.84736900,0.40012900,0.04635500,-0.77140100,-0.48454600,0.69102200,0.48332400,-0.72112700,-0.03836200,0.31676700
8.34000000,0.27760300,0.77756000,-0.22959400,-0.47548600,0.84736900,0.40012900,0.04635500,-0.77140100,-0.48454600,0.69102200,0.48332400,-0.72112700,-0.03836200,0.31676700
8.36000000,0.27760300,0.77756000,-0.22959400,-0.47548600,0.84736900,0.40012900,0.04635500,-0.77140100,-0.48454600,0.69102200,0.48332400,-0.72112700,-0.03836200,0.31676700
8.38000000,0.27760300,0.77756000,-0.22959400,-0.47548600,0.84736900,0.40012900,0.04635500,-0.77140100,-0.48454600,0.69102200,0.48332400,-0.72112700,-0.03836200,0.31676700
8.40000000,0.27760300,0.77756000,-0.22959400,-0.47548600,0.84736900,0.40012900,0.04635500,-0.77140100,-0.48454600,0.69102200,0.48332400,-0.72112700,-0.03836200,0.31676700
8.42000000,0.27760300,0.77756000,-0.22959400,-0.47548600,0.84736900,0.40012900,0.04635500,-0.77140100,-0.48454600,0.69102200,0.48332400,-0.72112700,-0.03836200,0.31676700
8.44000000,0.27760300,0.77756000,-0.22959400,-0.47548600,0.84736900,0.40012900,0.04635500,-0.77140100,-0.48454600,0.69102200,0.48332400,-0.72112700,-0.03836200,0.31676700
8.46000000,0.27760300,0.77756000,-0.22959400,-0.47548600,0.84736900,0.40012900,0.04635500,-0.77140100,-0.48454600,0.69102200,0.48332400,-0.72112700,-0.03836200,0.31676700
8.48000000,0.27760300,0.77756000,-0.22959400,-0.47548600,0.84736900,0.40012900,0.04635500,-0.77140100,-0.48454600,0.69102200,0.48332400,-0.72112700,-0.03836200,0.31676700
8.50000000,0.27760300,0.77756000,-0.22959400,-0.47548600,0.84736900,0.40012900,0.04635500,-0.77140100,-0.48454600,0.69102200,0.48332400,-0.72112700,-0.03836200,0.31676700
8.52000000,0.27760300,0.77756000,-0.22959400,-0.47548600,0.84736900,0.40012900,0.04635500,-0.77140100,-0.48454600,0.69102200,0.48332400,-0.72112700,-0.03836200,0.31676700
8.54000000,0.27760300,0.77756000,-0.22959400,-0.47548600,0.84736900,0.40012900,0.04635500,-0.77140100,-0.48454600,0.69102200,0.48332400,-0.72112700,-0.03836200,0.31676700
8.56000000,0.27760300,0.77756000,-0.22959400,-0.47548600,0.84736900,0.40012900,0.04635500,-0.77140100,-0.48454600,0.69102200,0.48332400,-0.72112700,-0.03836200,0.31676700
8.58000000,0.27760300,0.77756000,-0.22959400,-0.47548600,0.84736900,0.40012900,0.04635500,-0.77140100,-0.48454600,0.69102200,0.48332400,-0.72112700,-0.03836200,0.31676700
8.60000000,0.27760300,0.77756000,-0.22959400,-0.47548600,0.84736900,0.40012900,0.04635500,-0.77140100,-0.48454600,0.69102200,0.48332400,-0.72112700,-0.03836200,0.31676700
8.62000000,0.27760300,0.77756000,-0.22959400,-0.47548600,0.84736900,0.40012900,0.04635500,-0.77140100,-0.48454600,0.69102200,0.48332400,-0.72112700,-0.03836200,0.31676700
8.64000000,0.27760300,0.77756000,-0.22959400,-0.47548600,0.84736900,0.40012900,0.04635500,-0.77140100,-0.48454600,0.69102200,0.48332400,-0.72112700,-0.03836200,0.31676700
8.66000000,0.27760300,0.77756000,-0.22959400,-0.47548600,0.84736900,0.40012900,0.04635500,-0.77140100,-0.48454600,0.69102200,0.48332400,-0.72112700,-0.03836200,0.31676700
8.68000000,0.27760300,0.77756000,-0.22959400,-0.47548600,0.84736900,0.40012900,0.04635500,-0.77140100,-0.48454600,0.69102200,0.48332400,-0.72112700,-0.03836200,0.31676700
8.70000000,0.27760300,0.77756000,-0.22959400,-0.47548600,0.84736900,0.40012900,0.04635500,-0.77140100,-0.48454600,0.69102200,0.48332400,-0.72112700,-0.03836200,0.31676700
8.72000000,0.27760300,0.77756000,-0.22959400,-0.47548600,0.84736900,0.40012900,0.04635500,-0.77140100,-0.48454600,0.69102200,0.48332400,-0.72112700,-0.03836200,0.31676700
8.74000000,0.27760300,0.77756000,-0.22959400,-0.47548600,0.84736900,0.40012900,0.04635500,-0.77140100,-0.48454600,0.69102200,0.48332400,-0.72112700,-0.03836200,0.31676700
8.76000000,0.27760300,0.77756000,-0.22959400,-0.47548600,0.84736900,0.40012900,0.04635500,-0.77140100,-0.48454600,0.69102200,0.48332400,-0.72112700,-0.03836200,0.31676700
8.78000000,0.27760300,0.77756000,-0.22959400,-0.47548600,0.84736900,0.40012900,0.04635500,-0.77140100,-0.48454600,0.69102200,0.48332400,-0.72112700,-0.03836200,0.31676700
8.80000000,0.27760300,0.77756000,-0.22959400,-0.47548600,0.84736900,0.40012900,0.04635500,-0.77140100,-0.48454600,0.69102200,0.48332400,-0.72112700,-0.03836200,0.31676700
8.82000000,0.27760300,0.77756000,-0.22959400,-0.47548600,0.84736900,0.40012900,0.04635500,-0.77140100,-0.48454600,0.69102200,0.48332400,-0.72112700,-0.03836200,0.31676700
8.84000000,0.27760300,0.77756000,-0.22959400,-0.47548600,0.84736900,0.40012900,0.04635500,-0.77140100,-0.48454600,0.69102200,0.48332400,-0.72112700,-0.03836200,0.31676700
8.86000000,0.27760300,0.77756000,-0.22959400,-0.47548600,0.84736900,0.40012900,0.04635500,-0.77140100,-0.48454600,0.69102200,0.48332400,-0.72112700,-0.03836200,0.31676700
8.88000000,0.27760300,0.77756000,-0.22959400,-0.47548600,0.84736900,0.40012900,0.04635500,-0.77140100,-0.48454600,0.69102200,0.48332400,-0.72112700,-0.03836200,0.31676700
8.90000000,0.27760300,0.77756000,-0.22959400,-0.47548600,0.84736900,0.40012900,0.04635500,-0.77140100,-0.48454600,0.69102200,0.48332400,-0.72112700,-0.03836200,0.31676700
8.92000000,0.27760300,0.77756000,-0.22959400,-0.47548600,0.84736900,0.40012900,0.04635500,-0.77140100,-0.48454600,0.69102200,0.48332400,-0.72112700,-0.03836200,0.31676700
8.94000000,0.27760300,0.77756000,-0.22959400,-0.47548600,0.84736900,0.40012900,0.04635500,-0.77140100,-0.48454600,0.69102200,0.48332400,-0.72112700,-0.03836200,0.31676700
8.96000000,0.27760300,0.77756000,-0.22959400,-0.47548600,0.84736900,0.40012900,0.04635500,-0.77140100,-0.48454600,0.69102200,0.48332400,-0.72112700,-0.03836200,0.31676700
8.98000000,0.27760300,0.77756000,-0.22959400,-0.47548600,0.84736900,0.40012900,0.04635500,-0.77140100,-0.48454600,0.69102200,0.48332400,-0.72112700,-0.03836200,0.31676700
9.00000000,0.27760300,0.77756000,-0.22959400,-0.47548600,0.84736900,0.40012900,0.04635500,-0.77140100,-0.48454600,0.69102200,0.48332400,-0.72112700,-0.03836200,0.31676700
9.02000000,0.27760300,0.77756000,-0.22959400,-0.47548600,0.84736900,0.40012900,0.04635500,-0.77140100,-0.48454600,0.69102200,0.48332400,-0.72112700,-0.03836200,0.31676700
9.04000000,0.27760300,0.77756000,-0.22959400,-0.47548600,0.84736900,0.40012900,0.04635500,-0.77140100,-0.48454600,0.69102200,0.48332400,-0.72112700,-0.03836200,0.31676700
9.06000000,0.27760300,0.77756000,-0.22959400,-0.47548600,0.84736900,0.40012900,0.04635500,-0.77140100,-0.48454600,0.69102200,0.48332400,-0.72112700,-0.03836200,0.31676700
9.08000000,0.27760300,0.77756000,-0.22959400,-0.47548600,0.84736900,0.40012900,0.04635500,-0.77140100,-0.48454600,0.69102200,0.48332400,-0.72112700,-0.03836200,0.31676700
9.10000000,0.27760300,0.77756000,-0.22959400,-0.47548600,0.84736900,0.40012900,0.04635500,-0.77140100,-0.48454600,0.69102200,0.48332400,-0.72112700,-0.03836200,0.31676700
9.12000000,0.27760300,0.77756000,-0.22959400,-0.47548600,0.84736900,0.40012900,0.04635500,-0.77140100,-0.48454600,0.69102200,0.48332400,-0.72112700,-0.03836200,0.31676700
9.14000000,0.27760300,0.77756000,-0.22959400,-0.47548600,0.84736900,0.40012900,0.04635500,-0.77140100,-0.48454600,0.69102200,0.48332400,-0.72112700,-0.03836200,0.31676700
9.16000000,0.27760300,0.77756000,-0.22959400,-0.47548600,0.84736900,0.40012900,0.04635500,-0.77140100,-0.48454600,0.69102200,0.48332400,-0.72112700,-0.03836200,0.31676700
9.18000000,0.27760300,0.77756000,-0.22959400,-0.47548600,0.84736900,0.40012900,0.04635500,-0.77140100,-0.48454600,0.69102200,0.48332400,-0.72112700,-0.03836200,0.31676700
9.20000000,0.27760300,0.77756000,-0.22959400,-0.47548600,0.84736900,0.40012900,0.04635500,-0.77140100,-0.48454600,0.69102200,0.48332400,-0.72112700,-0.03836200,0.31676700
9.22000000,0.27760300,0.77756000,-0.22959400,-0.47548600,0.84736900,0.40012900,0.04635500,-0.77140100,-0.48454600,0.69102200,0.48332400,-0.72112700,-0.03836200,0.31676700
9.24000000,0.27760300,0.77756000,-0.22959400,-0.47548600,0.84736900,0.40012900,0.04635500,-0.77140100,-0.48454600,0.69102200,0.48332400,-0.72112700,-0.03836200,0.31676700
9.26000000,0.27760300,0.77756000,-0.22959400,-0.47548600,0.84736900,0.40012900,0.04635500,-0.77140100,-0.48454600,0.69102200,0.48332400,-0.72112700,-0.03836200,0.31676700
9.28000000,0.27760300,0.77756000,-0.22959400,-0.47548600,0.84736900,0.40012900,0.04635500,-0.77140100,-0.48454600,0.69102200,0.48332400,-0.72112700,-0.03836200,0.31676700
9.30000000,0.27760300,0.77756000,-0.22959400,-0.47548600,0.84736900,0.40012900,0.04635500,-0.77140100,-0.48454600,0.69102200,0.48332400,-0.72112700,-0.03836200,0.31676700
9.32000000,0.27760300,0.77756000,-0.22959400,-0.47548600,0.84736900,0.40012900,0.04635500,-0.77140100,-0.48454600,0.69102200,0.48332400,-0.72112700,-0.03836200,0.31676700
9.34000000,0.27760300,0.77756000,-0.22959400,-0.47548600,0.84736900,0.40012900,0.04635500,-0.77140100,-0.48454600,0.69102200,0.48332400,-0.72112700,-0.03836200,0.31676700
9.36000000,0.27760300,0.77756000,-0.22959400,-0.47548600,0.84736900,0.40012900,0.04635500,-0.77140100,-0.48454600,0.69102200,0.48332400,-0.72112700,-0.03836200,0.31676700
9.38000000,0.27760300,0.77756000,-0.22959400,-0.47548600,0.84736900,0.40012900,0.04635500,-0.77140100,-0.48454600,0.69102200,0.48332400,-0.72112700,-0.03836200,0.31676700
9.40000000,0.27760300,0.77756000,-0.22959400,-0.47548600,0.84736900,0.40012900,0.04635500,-0.77140100,-0.48454600,0.69102200,0.48332400,-0.72112700,-0.03836200,0.31676700
9.42000000,0.27760300,0.77756000,-0.22959400,-0.47548600,0.84736900,0.40012900,0.04635500,-0.77140100,-0.48454600,0.69102200,0.48332400,-0.72112700,-0.03836200,0.31676700
9.44000000,0.27760300,0.77756000,-0.22959400,-0.47548600,0.84736900,0.40012900,0.04635500,-0.77140100,-0.48454600,0.69102200,0.48332400,-0.72112700,-0.03836200,0.31676700
9.46000000,0.27760300,0.77756000,-0.22959400,-0.47548600,0.84736900,0.40012900,0.04635500,-0.77140100,-0.48454600,0.69102200,0.48332400,-0.72112700,-0.03836200,0.31676700
9.48000000,0.27760300,0.77756000,-0.22959400,-0.47548600,0.84736900,0.40012900,0.04635500,-0.77140100,-0.48454600,0.69102200,0.48332400,-0.72112700,-0.03836200,0.31676700
9.50000000,0.27760300,0.77756000,-0.22959400,-0.47548600,0.84736900,0.40012900,0.04635500,-0.77140100,-0.48454600,0.69102200,0.48332400,-0.72112700,-0.03836200,0.31676700
9.52000000,0.27760300,0.77756000,-0.22959400,-0.47548600,0.84736900,0.40012900,0.04635500,-0.77140100,-0.48454600,0.69102200,0.48332400,-0.72112700,-0.03836200,0.31676700
9.54000000,0.27760300,0.77756000,-0.22959400,-0.47548600,0.84736900,0.40012900,0.04635500,-0.77140100,-0.48454600,0.69102200,0.48332400,-0.72112700,-0.03836200,0.31676700
9.56000000,0.27760300,0.77756000,-0.22959400,-0.47548600,0.84736900,0.40012900,0.04635500,-0.77140100,-0.48454600,0.69102200,0.48332400,-0.72112700,-0.03836200,0.31676700
9.58000000,0.27760300,0.77756000,-0.22959400,-0.47548600,0.84736900,0.40012900,0.04635500,-0.77140100,-0.48454600,0.69102200,0.48332400,-0.72112700,-0.03836200,0.31676700
9.60000000,0.27760300,0.77756000,-0.22959400,-0.47548600,0.84736900,0.40012900,0.04635500,-0.77140100,-0.48454600,0.69102200,0.48332400,-0.72112700,-0.03836200,0.31676700
9.62000000,0.27760300,0.77756000,-0.22959400,-0.47548600,0.84736900,0.40012900,0.04635500,-0.77140100,-0.48454600,0.69102200,0.48332400,-0.72112700,-0.03836200,0.31676700
9.64000000,0.27760300,0.77756000,-0.22959400,-0.47548600,0.84736900,0.40012900,0.04635500,-0.77140100,-0.48454600,0.69102200,0.48332400,-0.72112700,-0.03836200,0.31676700
9.66000000,0.27760300,0.77756000,-0.22959400,-0.47548600,0.84736900,0.40012900,0.04635500,-0.77140100,-0.48454600,0.69102200,0.48332400,-0.72112700,-0.03836200,0.31676700
9.68000000,0.27760300,0.77756000,-0.22959400,-0.47548600,0.84736900,0.40012900,0.04635500,-0.77140100,-0.48454600,0.69102200,0.48332400,-0.72112700,-0.03836200,0.31676700
9.70000000,0.27760300,0.77756000,-0.22959400,-0.47548600,0.84736900,0.40012900,0.04635500,-0.77140100,-0.48454600,0.69102200,0.48332400,-0.72112700,-0.03836200,0.31676700
9.72000000,0.27760300,0.77756000,-0.22959400,-0.47548600,0.84736900,0.40012900,0.04635500,-0.77140100,-0.48454600,0.69102200,0.48332400,-0.72112700,-0.03836200,0.31676700
9.74000000,0.27760300,0.77756000,-0.22959400,-0.47548600,0.84736900,0.40012900,0.04635500,-0.77140100,-0.48454600,0.69102200,0.48332400,-0.72112700,-0.03836200,0.31676700
9.76000000,0.27760300,0.77756000,-0.22959400,-0.47548600,0.84736900,0.40012900,0.04635500,-0.77140100,-0.48454600,0.69102200,0.48332400,-0.72112700,-0.03836200,0.31676700
9.78000000,0.27760300,0.77756000,-0.22959400,-0.47548600,0.84736900,0.40012900,0.04635500,-0.77140100,-0.48454600,0.69102200,0.48332400,-0.72112700,-0.03836200,0.31676700
9.80000000,0.27760300,0.77756000,-0.22959400,-0.47548600,0.84736900,0.40012900,0.04635500,-0.77140100,-0.48454600,0.69102200,0.48332400,-0.72112700,-0.03836200,0.31676700
9.82000000,0.27760300,0.77756000,-0.22959400,-0.47548600,0.84736900,0.40012900,0.04635500,-0.77140100,-0.48454600,0.69102200,0.48332400,-0.72112700,-0.03836200,0.31676700
9.84000000,0.27760300,0.77756000,-0.22959400,-0.47548600,0.84736900,0.40012900,0.04635500,-0.77140100,-0.48454600,0.69102200,0.48332400,-0.72112700,-0.03836200,0.31676700
9.86000000,0.27760300,0.77756000,-0.22959400,-0.47548600,0.84736900,0.40012900,0.04635500,-0.77140100,-0.48454600,0.69102200,0.48332400,-0.72112700,-0.03836200,0.31676700
9.88000000,0.27760300,0.77756000,-0.22959400,-0.47548600,0.84736900,0.40012900,0.04635500,-0.77140100,-0.48454600,0.69102200,0.48332400,-0.72112700,-0.03836200,0.31676700
9.90000000,0.27760300,0.77756000,-0.22959400,-0.47548600,0.84736900,0.40012900,0.04635500,-0.77140100,-0.48454600,0.69102200,0.48332400,-0.72112700,-0.03836200,0.31676700
9.92000000,0.27760300,0.77756000,-0.22959400,-0.47548600,0.84736900,0.40012900,0.04635500,-0.77140100,-0.48454600,0.69102200,0.48332400,-0.72112700,-0.03836200,0.31676700
9.94000000,0.27760300,0.77756000,-0.22959400,-0.47548600,0.84736900,0.40012900,0.04635500,-0.77140100,-0.48454600,0.69102200,0.48332400,-0.72112700,-0.03836200,0.31676700
9.96000000,0.27760300,0.77756000,-0.22959400,-0.47548600,0.84736900,0.40012900,0.04635500,-0.77140100,-0.48454600,0.69102200,0.48332400,-0.72112700,-0.03836200,0.31676700
9.98000000,0.27760300,0.77756000,-0.22959400,-0.47548600,0.84736900,0.40012900,0.04635500,-0.77140100,-0.48454600,0.69102200,0.48332400,-0.72112700,-0.03836200,0.31676700
10.00000000,0.27760300,0.77756000,-0.22959400,-0.47548600,0.84736900,0.40012900,0.04635500,-0.77140100,-0.48454600,0.69102200,0.48332400,-0.72112700,-0.03836200,0.31676700
10.02000000,0.27760300,0.77756000,-0.22959400,-0.47548600,0.84736900,0.40012900,0.04635500,-0.77140100,-0.48454600,0.69102200,0.48332400,-0.72112700,-0.03836200,0.31676700
10.04000000,0.27760300,0.77756000,-0.22959400,-0.47548600,0.84736900,0.40012900,0.04635500,-0.77140100,-0.48454600,0.69102200,0.48332400,-0.72112700,-0.03836200,0.31676700
10.06000000,0.27760300,0.77756000,-0.22959400,-0.47548600,0.84736900,0.40012900,0.04635500,-0.77140100,-0.48454600,0.69102200,0.48332400,-0.72112700,-0.03836200,0.31676700
10.08000000,0.27760300,0.77756000,-0.22959400,-0.47548600,0.84736900,0.40012900,0.04635500,-0.77140100,-0.48454600,0.69102200,0.48332400,-0.72112700,-0.03836200,0.31676700
10.10000000,0.27760300,0.77756000,-0.22959400,-0.47548600,0.84736900,0.40012900,0.04635500,-0.77140100,-0.48454600,0.69102200,0.48332400,-0.72112700,-0.03836200,0.31676700
10.12000000,0.27760300,0.77756000,-0.22959400,-0.47548600,0.84736900,0.40012900,0.04635500,-0.77140100,-0.48454600,0.69102200,0.48332400,-0.72112700,-0.03836200,0.31676700
10.14000000,0.27760300,0.77756000,-0.22959400,-0.47548600,0.84736900,0.40012900,0.04635500,-0.77140100,-0.48454600,0.69102200,0.48332400,-0.72112700,-0.03836200,0.31676700
10.16000000,0.27760300,0.77756000,-0.22959400,-0.47548600,0.84736900,0.40012900,0.04635500,-0.77140100,-0.48454600,0.69102200,0.48332400,-0.72112700,-0.03836200,0.31676700
10.18000000,0.27760300,0.77756000,-0.22959400,-0.47548600,0.84736900,0.40012900,0.04635500,-0.77140100,-0.48454600,0.69102200,0.48332400,-0.72112700,-0.03836200,0.31676700
10.20000000,0.27760300,0.77756000,-0.22959400,-0.47548600,0.84736900,0.40012900,0.04635500,-0.77140100,-0.48454600,0.69102200,0.48332400,-0.72112700,-0.03836200,0.31676700
10.22000000,0.27760300,0.77756000,-0.22959400,-0.47548600,0.84736900,0.40012900,0.04635500,-0.77140100,-0.48454600,0.69102200,0.48332400,-0.72112700,-0.03836200,0.31676700
10.24000000,0.27760300,0.77756000,-0.22959400,-0.47548600,0.84736900,0.40012900,0.04635500,-0.77140100,-0.48454600,0.69102200,0.48332400,-0.72112700,-0.03836200,0.31676700
10.26000000,0.27760300,0.77756000,-0.22959400,-0.47548600,0.84736900,0.40012900,0.04635500,-0.77140100,-0.48454600,0.69102200,0.48332400,-0.72112700,-0.03836200,0.31676700
10.28000000,0.27760300,0.77756000,-0.22959400,-0.47548600,0.84736900,0.40012900,0.04635500,-0.77140100,-0.48454600,0.69102200,0.48332400,-0.72112700,-0.03836200,0.31676700
10.30000000,0.27760300,0.77756000,-0.22959400,-0.47548600,0.84736900,0.40012900,0.04635500,-0.77140100,-0.48454600,0.69102200,0.48332400,-0.72112700,-0.03836200,0.31676700
10.32000000,0.27760300,0.77756000,-0.22959400,-0.47548600,0.84736900,0.40012900,0.04635500,-0.77140100,-0.48454600,0.69102200,0.48332400,-0.72112700,-0.03836200,0.31676700
10.34000000,0.27760300,0.77756000,-0.22959400,-0.47548600,0.84736900,0.40012900,0.04635500,-0.77140100,-0.48454600,0.69102200,0.48332400,-0.72112700,-0.03836200,0.31676700
10.36000000,0.27760300,0.77756000,-0.22959400,-0.47548600,0.84736900,0.40012900,0.04635500,-0.77140100,-0.48454600,0.69102200,0.48332400,-0.72112700,-0.03836200,0.31676700
10.38000000,0.27760300,0.77756000,-0.22959400,-0.47548600,0.84736900,0.40012900,0.04635500,-0.77140100,-0.48454600,0.69102200,0.48332400,-0.72112700,-0.03836200,0.31676700
10.40000000,0.27760300,0.77756000,-0.22959400,-0.47548600,0.84736900,0.40012900,0.04635500,-0.77140100,-0.48454600,0.69102200,0.48332400,-0.72112700,-0.03836200,0.31676700
10.42000000,0.27760300,0.77756000,-0.22959400,-0.47548600,0.84736900,0.40012900,0.04635500,-0.77140100,-0.48454600,0.69102200,0.48332400,-0.72112700,-0.03836200,0.31676700
10.44000000,0.27760300,0.77756000,-0.22959400,-0.47548600,0.84736900,0.40012900,0.04635500,-0.77140100,-0.48454600,0.69102200,0.48332400,-0.72112700,-0.03836200,0.31676700
10.46000000,0.27760300,0.77756000,-0.22959400,-0.47548600,0.84736900,0.40012900,0.04635500,-0.77140100,-0.48454600,0.69102200,0.48332400,-0.72112700,-0.03836200,0.31676700
10.48000000,0.27760300,0.77756000,-0.22959400,-0.47548600,0.84736900,0.40012900,0.04635500,-0.77140100,-0.48454600,0.69102200,0.48332400,-0.72112700,-0.03836200,0.31676700
10.50000000,0.27760300,0.77756000,-0.22959400,-0.47548600,0.84736900,0.40012900,0.04635500,-0.77140100,-0.48454600,0.69102200,0.48332400,-0.72112700,-0.03836200,0.31676700
10.52000000,0.27760300,0.77756000,-0.22959400,-0.47548600,0.84736900,0.40012900,0.04635500,-0.77140100,-0.48454600,0.69102200,0.48332400,-0.72112700,-0.03836200,0.31676700
10.54000000,0.27760300,0.77756000,-0.22959400,-0.47548600,0.84736900,0.40012900,0.04635500,-0.77140100,-0.48454600,0.69102200,0.48332400,-0.72112700,-0.03836200,0.31676700
10.56000000,0.27760300,0.77756000,-0.22959400,-0.47548600,0.84736900,0.40012900,0.04635500,-0.77140100,-0.48454600,0.69102200,0.48332400,-0.72112700,-0.03836200,0.31676700
10.58000000,0.27760300,0.77756000,-0.22959400,-0.47548600,0.84736900,0.40012900,0.04635500,-0.77140100,-0.48454600,0.69102200,0.48332400,-0.72112700,-0.03836200,0.31676700
10.60000000,0.27760300,0.77756000,-0.22959400,-0.47548600,0.84736900,0.40012900,0.04635500,-0.77140100,-0.48454600,0.69102200,0.48332400,-0.72112700,-0.03836200,0.31676700
10.62000000,0.27760300,0.77756000,-0.22959400,-0.47548600,0.84736900,0.40012900,0.04635500,-0.77140100,-0.48454600,0.69102200,0.48332400,-0.72112700,-0.03836200,0.31676700
10.64000000,0.27760300,0.77756000,-0.22959400,-0.47548600,0.84736900,0.40012900,0.04635500,-0.77140100,-0.48454600,0.69102200,0.48332400,-0.72112700,-0.03836200,0.31676700
10.66000000,0.27760300,0.77756000,-0.22959400,-0.47548600,0.84736900,0.40012900,0.04635500,-0.77140100,-0.48454600,0.69102200,0.48332400,-0.72112700,-0.03836200,0.31676700
10.68000000,0.27760300,0.77756000,-0.22959400,-0.47548600,0.84736900,0.40012900,0.04635500,-0.77140100,-0.48454600,0.69102200,0.48332400,-0.72112700,-0.03836200,0.31676700
10.70000000,0.27760300,0.77756000,-0.22959400,-0.47548600,0.84736900,0.40012900,0.04635500,-0.77140100,-0.48454600,0.69102200,0.48332400,-0.72112700,-0.03836200,0.31676700
10.72000000,0.27760300,0.77756000,-0.22959400,-0.47548600,0.84736900,0.40012900,0.04635500,-0.77140100,-0.48454600,0.69102200,0.48332400,-0.72112700,-0.03836200,0.31676700
10.74000000,0.27760300,0.77756000,-0.22959400,-0.47548600,0.84736900,0.40012900,0.04635500,-0.77140100,-0.48454600,0.69102200,0.48332400,-0.72112700,-0.03836200,0.31676700
10.76000000,0.27760300,0.77756000,-0.22959400,-0.47548600,0.84736900,0.40012900,0.04635500,-0.77140100,-0.48454600,0.69102200,0.48332400,-0.72112700,-0.03836200,0.31676700
10.78000000,0.27760300,0.77756000,-0.22959400,-0.47548600,0.84736900,0.40012900,0.04635500,-0.77140100,-0.48454600,0.69102200,0.48332400,-0.72112700,-0.03836200,0.31676700
10.80000000,0.27760300,0.77756000,-0.22959400,-0.47548600,0.84736900,0.40012900,0.04635500,-0.77140100,-0.48454600,0.69102200,0.48332400,-0.72112700,-0.03836200,0.31676700
10.82000000,0.27760300,0.77756000,-0.22959400,-0.47548600,0.84736900,0.40012900,0.04635500,-0.77140100,-0.48454600,0.69102200,0.48332400,-0.72112700,-0.03836200,0.31676700
10.84000000,0.27760300,0.77756000,-0.22959400,-0.47548600,0.84736900,0.40012900,0.04635500,-0.77140100,-0.48454600,0.69102200,0.48332400,-0.72112700,-0.03836200,0.31676700
10.86000000,0.27760300,0.77756000,-0.22959400,-0.47548600,0.84736900,0.40012900,0.04635500,-0.77140100,-0.48454600,0.69102200,0.48332400,-0.72112700,-0.03836200,0.31676700
10.88000000,0.27760300,0.77756000,-0.22959400,-0.47548600,0.84736900,0.40012900,0.04635500,-0.77140100,-0.48454600,0.69102200,0.48332400,-0.72112700,-0.03836200,0.31676700
10.90000000,0.27760300,0.77756000,-0.22959400,-0.47548600,0.84736900,0.40012900,0.04635500,-0.77140100,-0.48454600,0.69102200,0.48332400,-0.72112700,-0.03836200,0.31676700
10.92000000,0.27760300,0.77756000,-0.22959400,-0.47548600,0.84736900,0.40012900,0.04635500,-0.77140100,-0.48454600,0.69102200,0.48332400,-0.72112700,-0.03836200,0.31676700
10.94000000,0.27760300,0.77756000,-0.22959400,-0.47548600,0.84736900,0.40012900,0.04635500,-0.77140100,-0.48454600,0.69102200,0.48332400,-0.72112700,-0.03836200,0.31676700
10.96000000,0.27760300,0.77756000,-0.22959400,-0.47548600,0.84736900,0.40012900,0.04635500,-0.77140100,-0.48454600,0.69102200,0.48332400,-0.72112700,-0.03836200,0.31676700
10.98000000,0.27760300,0.77756000,-0.22959400,-0.47548600,0.84736900,0.40012900,0.04635500,-0.77140100,-0.48454600,0.69102200,0.48332400,-0.72112700,-0.03836200,0.31676700
11.00000000,0.27760300,0.77756000,-0.22959400,-0.47548600,0.84736900,0.40012900,0.04635500,-0.77140100,-0.48454600,0.69102200,0.48332400,-0.72112700,-0.03836200,0.31676700
11.02000000,0.27760300,0.77756000,-0.22959400,-0.47548600,0.84736900,0.40012900,0.04635500,-0.77140100,-0.48454600,0.69102200,0.48332400,-0.72112700,-0.03836200,0.31676700
11.04000000,0.27760300,0.77756000,-0.22959400,-0.47548600,0.84736900,0.40012900,0.04635500,-0.77140100,-0.48454600,0.69102200,0.48332400,-0.72112700,-0.03836200,0.31676700
11.06000000,0.27760300,0.77756000,-0.22959400,-0.47548600,0.84736900,0.40012900,0.04635500,-0.77140100,-0.48454600,0.69102200,0.48332400,-0.72112700,-0.03836200,0.31676700
11.08000000,0.27760300,0.77756000,-0.22959400,-0.47548600,0.84736900,0.40012900,0.04635500,-0.77140100,-0.48454600,0.69102200,0.48332400,-0.72112700,-0.03836200,0.31676700
11.10000000,0.27760300,0.77756000,-0.22959400,-0.47548600,0.84736900,0.40012900,0.04635500,-0.77140100,-0.48454600,0.69102200,0.48332400,-0.72112700,-0.03836200,0.31676700
11.12000000,0.27760300,0.77756000,-0.22959400,-0.47548600,0.84736900,0.40012900,0.04635500,-0.77140100,-0.48454600,0.69102200,0.48332400,-0.72112700,-0.03836200,0.31676700
11.14000000,0.27760300,0.77756000,-0.22959400,-0.47548600,0.84736900,0.40012900,0.04635500,-0.77140100,-0.48454600,0.69102200,0.48332400,-0.72112700,-0.03836200,0.31676700
11.16000000,0.27760300,0.77756000,-0.22959400,-0.47548600,0.84736900,0.40012900,0.04635500,-0.77140100,-0.48454600,0.69102200,0.48332400,-0.72112700,-0.03836200,0.31676700
11.18000000,0.27760300,0.77756000,-0.22959400,-0.47548600,0.84736900,0.40012900,0.04635500,-0.77140100,-0.48454600,0.69102200,0.48332400,-0.72112700,-0.03836200,0.31676700
11.20000000,0.27760300,0.77756000,-0.22959400,-0.47548600,0.84736900,0.40012900,0.04635500,-0.77140100,-0.48454600,0.69102200,0.48332400,-0.72112700,-0.03836200,0.31676700
11.22000000,0.27760300,0.77756000,-0.22959400,-0.47548600,0.84736900,0.40012900,0.04635500,-0.77140100,-0.48454600,0.69102200,0.48332400,-0.72112700,-0.03836200,0.31676700
11.24000000,0.27760300,0.77756000,-0.22959400,-0.47548600,0.84736900,0.40012900,0.04635500,-0.77140100,-0.48454600,0.69102200,0.48332400,-0.72112700,-0.03836200,0.31676700
11.26000000,0.27760300,0.77756000,-0.22959400,-0.47548600,0.84736900,0.40012900,0.04635500,-0.77140100,-0.48454600,0.69102200,0.48332400,-0.72112700,-0.03836200,0.31676700
11.28000000,0.27760300,0.77756000,-0.22959400,-0.47548600,0.84736900,0.40012900,0.04635500,-0.77140100,-0.48454600,0.69102200,0.48332400,-0.72112700,-0.03836200,0.31676700
11.30000000,0.27760300,0.77756000,-0.22959400,-0.47548600,0.84736900,0.40012900,0.04635500,-0.77140100,-0.48454600,0.69102200,0.48332400,-0.72112700,-0.03836200,0.31676700
11.32000000,0.27760300,0.77756000,-0.22959400,-0.47548600,0.84736900,0.40012900,0.04635500,-0.77140100,-0.48454600,0.69102200,0.48332400,-0.72112700,-0.03836200,0.31676700
11.34000000,0.27760300,0.77756000,-0.22959400,-0.47548600,0.84736900,0.40012900,0.04635500,-0.77140100,-0.48454600,0.69102200,0.48332400,-0.72112700,-0.03836200,0.31676700
11.36000000,0.27760300,0.77756000,-0.22959400,-0.47548600,0.84736900,0.40012900,0.04635500,-0.77140100,-0.48454600,0.69102200,0.48332400,-0.72112700,-0.03836200,0.31676700
11.38000000,0.27760300,0.77756000,-0.22959400,-0.47548600,0.84736900,0.40012900,0.04635500,-0.77140100,-0.48454600,0.69102200,0.48332400,-0.72112700,-0.03836200,0.31676700
11.40000000,0.27760300,0.77756000,-0.22959400,-0.47548600,0.84736900,0.40012900,0.04635500,-0.77140100,-0.48454600,0.69102200,0.48332400,-0.72112700,-0.03836200,0.31676700
11.42000000,0.27760300,0.77756000,-0.22959400,-0.47548600,0.84736900,0.40012900,0.04635500,-0.77140100,-0.48454600,0.69102200,0.48332400,-0.72112700,-0.03836200,0.31676700
11.44000000,0.27760300,0.77756000,-0.22959400,-0.47548600,0.84736900,0.40012900,0.04635500,-0.77140100,-0.48454600,0.69102200,0.48332400,-0.72112700,-0.03836200,0.31676700
11.46000000,0.27760300,0.77756000,-0.22959400,-0.47548600,0.84736900,0.40012900,0.04635500,-0.77140100,-0.48454600,0.69102200,0.48332400,-0.72112700,-0.03836200,0.31676700
11.48000000,0.27760300,0.77756000,-0.22959400,-0.47548600,0.84736900,0.40012900,0.04635500,-0.77140100,-0.48454600,0.69102200,0.48332400,-0.72112700,-0.03836200,0.31676700
11.50000000,0.27760300,0.77756000,-0.22959400,-0.47548600,0.84736900,0.40012900,0.04635500,-0.77140100,-0.48454600,0.69102200,0.48332400,-0.72112700,-0.03836200,0.31676700
11.52000000,0.27760300,0.77756000,-0.22959400,-0.47548600,0.84736900,0.40012900,0.04635500,-0.77140100,-0.48454600,0.69102200,0.48332400,-0.72112700,-0.03836200,0.31676700
11.54000000,0.27760300,0.77756000,-0.22959400,-0.47548600,0.84736900,0.40012900,0.04635500,-0.77140100,-0.48454600,0.69102200,0.48332400,-0.72112700,-0.03836200,0.31676700
11.56000000,0.27760300,0.77756000,-0.22959400,-0.47548600,0.84736900,0.40012900,0.04635500,-0.77140100,-0.48454600,0.69102200,0.48332400,-0.72112700,-0.03836200,0.31676700
11.58000000,0.27760300,0.77756000,-0.22959400,-0.47548600,0.84736900,0.40012900,0.04635500,-0.77140100,-0.48454600,0.69102200,0.48332400,-0.72112700,-0.03836200,0.31676700
11.60000000,0.27760300,0.77756000,-0.22959400,-0.47548600,0.84736900,0.40012900,0.04635500,-0.77140100,-0.48454600,0.69102200,0.48332400,-0.72112700,-0.03836200,0.31676700
11.62000000,0.27760300,0.77756000,-0.22959400,-0.47548600,0.84736900,0.40012900,0.04635500,-0.77140100,-0.48454600,0.69102200,0.48332400,-0.72112700,-0.03836200,0.31676700
