gracetata/LocomotionHEC/legged_lab/Reference Data/ArmHack/StandPerturb/TestData/ArmOnly/poses/representative/representative_arm_pose_06_hold20s_50hz.csv
time_s,left_shoulder_pitch_joint,left_shoulder_roll_joint,left_shoulder_yaw_joint,left_elbow_joint,left_wrist_roll_joint,left_wrist_pitch_joint,left_wrist_yaw_joint,right_shoulder_pitch_joint,right_shoulder_roll_joint,right_shoulder_yaw_joint,right_elbow_joint,right_wrist_roll_joint,right_wrist_pitch_joint,right_wrist_yaw_joint
0.00000000,-0.56970600,0.83747000,-0.38469400,-0.31089500,0.51678400,0.17893600,-0.75753500,0.27857300,-0.77841100,0.22978600,-0.47596500,-0.84798000,0.40071700,-0.04658300
0.02000000,-0.56970600,0.83747000,-0.38469400,-0.31089500,0.51678400,0.17893600,-0.75753500,0.27857300,-0.77841100,0.22978600,-0.47596500,-0.84798000,0.40071700,-0.04658300
0.04000000,-0.56970600,0.83747000,-0.38469400,-0.31089500,0.51678400,0.17893600,-0.75753500,0.27857300,-0.77841100,0.22978600,-0.47596500,-0.84798000,0.40071700,-0.04658300
0.06000000,-0.56970600,0.83747000,-0.38469400,-0.31089500,0.51678400,0.17893600,-0.75753500,0.27857300,-0.77841100,0.22978600,-0.47596500,-0.84798000,0.40071700,-0.04658300
0.08000000,-0.56970600,0.83747000,-0.38469400,-0.31089500,0.51678400,0.17893600,-0.75753500,0.27857300,-0.77841100,0.22978600,-0.47596500,-0.84798000,0.40071700,-0.04658300
0.10000000,-0.56970600,0.83747000,-0.38469400,-0.31089500,0.51678400,0.17893600,-0.75753500,0.27857300,-0.77841100,0.22978600,-0.47596500,-0.84798000,0.40071700,-0.04658300
0.12000000,-0.56970600,0.83747000,-0.38469400,-0.31089500,0.51678400,0.17893600,-0.75753500,0.27857300,-0.77841100,0.22978600,-0.47596500,-0.84798000,0.40071700,-0.04658300
0.14000000,-0.56970600,0.83747000,-0.38469400,-0.31089500,0.51678400,0.17893600,-0.75753500,0.27857300,-0.77841100,0.22978600,-0.47596500,-0.84798000,0.40071700,-0.04658300
0.16000000,-0.56970600,0.83747000,-0.38469400,-0.31089500,0.51678400,0.17893600,-0.75753500,0.27857300,-0.77841100,0.22978600,-0.47596500,-0.84798000,0.40071700,-0.04658300
0.18000000,-0.56970600,0.83747000,-0.38469400,-0.31089500,0.51678400,0.17893600,-0.75753500,0.27857300,-0.77841100,0.22978600,-0.47596500,-0.84798000,0.40071700,-0.04658300
0.20000000,-0.56970600,0.83747000,-0.38469400,-0.31089500,0.51678400,0.17893600,-0.75753500,0.27857300,-0.77841100,0.22978600,-0.47596500,-0.84798000,0.40071700,-0.04658300
0.22000000,-0.56970600,0.83747000,-0.38469400,-0.31089500,0.51678400,0.17893600,-0.75753500,0.27857300,-0.77841100,0.22978600,-0.47596500,-0.84798000,0.40071700,-0.04658300
0.24000000,-0.56970600,0.83747000,-0.38469400,-0.31089500,0.51678400,0.17893600,-0.75753500,0.27857300,-0.77841100,0.22978600,-0.47596500,-0.84798000,0.40071700,-0.04658300
0.26000000,-0.56970600,0.83747000,-0.38469400,-0.31089500,0.51678400,0.17893600,-0.75753500,0.27857300,-0.77841100,0.22978600,-0.47596500,-0.84798000,0.40071700,-0.04658300
0.28000000,-0.56970600,0.83747000,-0.38469400,-0.31089500,0.51678400,0.17893600,-0.75753500,0.27857300,-0.77841100,0.22978600,-0.47596500,-0.84798000,0.40071700,-0.04658300
0.30000000,-0.56970600,0.83747000,-0.38469400,-0.31089500,0.51678400,0.17893600,-0.75753500,0.27857300,-0.77841100,0.22978600,-0.47596500,-0.84798000,0.40071700,-0.04658300
0.32000000,-0.56970600,0.83747000,-0.38469400,-0.31089500,0.51678400,0.17893600,-0.75753500,0.27857300,-0.77841100,0.22978600,-0.47596500,-0.84798000,0.40071700,-0.04658300
0.34000000,-0.56970600,0.83747000,-0.38469400,-0.31089500,0.51678400,0.17893600,-0.75753500,0.27857300,-0.77841100,0.22978600,-0.47596500,-0.84798000,0.40071700,-0.04658300
0.36000000,-0.56970600,0.83747000,-0.38469400,-0.31089500,0.51678400,0.17893600,-0.75753500,0.27857300,-0.77841100,0.22978600,-0.47596500,-0.84798000,0.40071700,-0.04658300
0.38000000,-0.56970600,0.83747000,-0.38469400,-0.31089500,0.51678400,0.17893600,-0.75753500,0.27857300,-0.77841100,0.22978600,-0.47596500,-0.84798000,0.40071700,-0.04658300
0.40000000,-0.56970600,0.83747000,-0.38469400,-0.31089500,0.51678400,0.17893600,-0.75753500,0.27857300,-0.77841100,0.22978600,-0.47596500,-0.84798000,0.40071700,-0.04658300
0.42000000,-0.56970600,0.83747000,-0.38469400,-0.31089500,0.51678400,0.17893600,-0.75753500,0.27857300,-0.77841100,0.22978600,-0.47596500,-0.84798000,0.40071700,-0.04658300
0.44000000,-0.56970600,0.83747000,-0.38469400,-0.31089500,0.51678400,0.17893600,-0.75753500,0.27857300,-0.77841100,0.22978600,-0.47596500,-0.84798000,0.40071700,-0.04658300
0.46000000,-0.56970600,0.83747000,-0.38469400,-0.31089500,0.51678400,0.17893600,-0.75753500,0.27857300,-0.77841100,0.22978600,-0.47596500,-0.84798000,0.40071700,-0.04658300
0.48000000,-0.56970600,0.83747000,-0.38469400,-0.31089500,0.51678400,0.17893600,-0.75753500,0.27857300,-0.77841100,0.22978600,-0.47596500,-0.84798000,0.40071700,-0.04658300
0.50000000,-0.56970600,0.83747000,-0.38469400,-0.31089500,0.51678400,0.17893600,-0.75753500,0.27857300,-0.77841100,0.22978600,-0.47596500,-0.84798000,0.40071700,-0.04658300
0.52000000,-0.56970600,0.83747000,-0.38469400,-0.31089500,0.51678400,0.17893600,-0.75753500,0.27857300,-0.77841100,0.22978600,-0.47596500,-0.84798000,0.40071700,-0.04658300
0.54000000,-0.56970600,0.83747000,-0.38469400,-0.31089500,0.51678400,0.17893600,-0.75753500,0.27857300,-0.77841100,0.22978600,-0.47596500,-0.84798000,0.40071700,-0.04658300
0.56000000,-0.56970600,0.83747000,-0.38469400,-0.31089500,0.51678400,0.17893600,-0.75753500,0.27857300,-0.77841100,0.22978600,-0.47596500,-0.84798000,0.40071700,-0.04658300
0.58000000,-0.56970600,0.83747000,-0.38469400,-0.31089500,0.51678400,0.17893600,-0.75753500,0.27857300,-0.77841100,0.22978600,-0.47596500,-0.84798000,0.40071700,-0.04658300
0.60000000,-0.56970600,0.83747000,-0.38469400,-0.31089500,0.51678400,0.17893600,-0.75753500,0.27857300,-0.77841100,0.22978600,-0.47596500,-0.84798000,0.40071700,-0.04658300
0.62000000,-0.56970600,0.83747000,-0.38469400,-0.31089500,0.51678400,0.17893600,-0.75753500,0.27857300,-0.77841100,0.22978600,-0.47596500,-0.84798000,0.40071700,-0.04658300
0.64000000,-0.56970600,0.83747000,-0.38469400,-0.31089500,0.51678400,0.17893600,-0.75753500,0.27857300,-0.77841100,0.22978600,-0.47596500,-0.84798000,0.40071700,-0.04658300
0.66000000,-0.56970600,0.83747000,-0.38469400,-0.31089500,0.51678400,0.17893600,-0.75753500,0.27857300,-0.77841100,0.22978600,-0.47596500,-0.84798000,0.40071700,-0.04658300
0.68000000,-0.56970600,0.83747000,-0.38469400,-0.31089500,0.51678400,0.17893600,-0.75753500,0.27857300,-0.77841100,0.22978600,-0.47596500,-0.84798000,0.40071700,-0.04658300
0.70000000,-0.56970600,0.83747000,-0.38469400,-0.31089500,0.51678400,0.17893600,-0.75753500,0.27857300,-0.77841100,0.22978600,-0.47596500,-0.84798000,0.40071700,-0.04658300
0.72000000,-0.56970600,0.83747000,-0.38469400,-0.31089500,0.51678400,0.17893600,-0.75753500,0.27857300,-0.77841100,0.22978600,-0.47596500,-0.84798000,0.40071700,-0.04658300
0.74000000,-0.56970600,0.83747000,-0.38469400,-0.31089500,0.51678400,0.17893600,-0.75753500,0.27857300,-0.77841100,0.22978600,-0.47596500,-0.84798000,0.40071700,-0.04658300
0.76000000,-0.56970600,0.83747000,-0.38469400,-0.31089500,0.51678400,0.17893600,-0.75753500,0.27857300,-0.77841100,0.22978600,-0.47596500,-0.84798000,0.40071700,-0.04658300
0.78000000,-0.56970600,0.83747000,-0.38469400,-0.31089500,0.51678400,0.17893600,-0.75753500,0.27857300,-0.77841100,0.22978600,-0.47596500,-0.84798000,0.40071700,-0.04658300
0.80000000,-0.56970600,0.83747000,-0.38469400,-0.31089500,0.51678400,0.17893600,-0.75753500,0.27857300,-0.77841100,0.22978600,-0.47596500,-0.84798000,0.40071700,-0.04658300
0.82000000,-0.56970600,0.83747000,-0.38469400,-0.31089500,0.51678400,0.17893600,-0.75753500,0.27857300,-0.77841100,0.22978600,-0.47596500,-0.84798000,0.40071700,-0.04658300
0.84000000,-0.56970600,0.83747000,-0.38469400,-0.31089500,0.51678400,0.17893600,-0.75753500,0.27857300,-0.77841100,0.22978600,-0.47596500,-0.84798000,0.40071700,-0.04658300
0.86000000,-0.56970600,0.83747000,-0.38469400,-0.31089500,0.51678400,0.17893600,-0.75753500,0.27857300,-0.77841100,0.22978600,-0.47596500,-0.84798000,0.40071700,-0.04658300
0.88000000,-0.56970600,0.83747000,-0.38469400,-0.31089500,0.51678400,0.17893600,-0.75753500,0.27857300,-0.77841100,0.22978600,-0.47596500,-0.84798000,0.40071700,-0.04658300
0.90000000,-0.56970600,0.83747000,-0.38469400,-0.31089500,0.51678400,0.17893600,-0.75753500,0.27857300,-0.77841100,0.22978600,-0.47596500,-0.84798000,0.40071700,-0.04658300
0.92000000,-0.56970600,0.83747000,-0.38469400,-0.31089500,0.51678400,0.17893600,-0.75753500,0.27857300,-0.77841100,0.22978600,-0.47596500,-0.84798000,0.40071700,-0.04658300
0.94000000,-0.56970600,0.83747000,-0.38469400,-0.31089500,0.51678400,0.17893600,-0.75753500,0.27857300,-0.77841100,0.22978600,-0.47596500,-0.84798000,0.40071700,-0.04658300
0.96000000,-0.56970600,0.83747000,-0.38469400,-0.31089500,0.51678400,0.17893600,-0.75753500,0.27857300,-0.77841100,0.22978600,-0.47596500,-0.84798000,0.40071700,-0.04658300
0.98000000,-0.56970600,0.83747000,-0.38469400,-0.31089500,0.51678400,0.17893600,-0.75753500,0.27857300,-0.77841100,0.22978600,-0.47596500,-0.84798000,0.40071700,-0.04658300
1.00000000,-0.56970600,0.83747000,-0.38469400,-0.31089500,0.51678400,0.17893600,-0.75753500,0.27857300,-0.77841100,0.22978600,-0.47596500,-0.84798000,0.40071700,-0.04658300
1.02000000,-0.56970600,0.83747000,-0.38469400,-0.31089500,0.51678400,0.17893600,-0.75753500,0.27857300,-0.77841100,0.22978600,-0.47596500,-0.84798000,0.40071700,-0.04658300
1.04000000,-0.56970600,0.83747000,-0.38469400,-0.31089500,0.51678400,0.17893600,-0.75753500,0.27857300,-0.77841100,0.22978600,-0.47596500,-0.84798000,0.40071700,-0.04658300
1.06000000,-0.56970600,0.83747000,-0.38469400,-0.31089500,0.51678400,0.17893600,-0.75753500,0.27857300,-0.77841100,0.22978600,-0.47596500,-0.84798000,0.40071700,-0.04658300
1.08000000,-0.56970600,0.83747000,-0.38469400,-0.31089500,0.51678400,0.17893600,-0.75753500,0.27857300,-0.77841100,0.22978600,-0.47596500,-0.84798000,0.40071700,-0.04658300
1.10000000,-0.56970600,0.83747000,-0.38469400,-0.31089500,0.51678400,0.17893600,-0.75753500,0.27857300,-0.77841100,0.22978600,-0.47596500,-0.84798000,0.40071700,-0.04658300
1.12000000,-0.56970600,0.83747000,-0.38469400,-0.31089500,0.51678400,0.17893600,-0.75753500,0.27857300,-0.77841100,0.22978600,-0.47596500,-0.84798000,0.40071700,-0.04658300
1.14000000,-0.56970600,0.83747000,-0.38469400,-0.31089500,0.51678400,0.17893600,-0.75753500,0.27857300,-0.77841100,0.22978600,-0.47596500,-0.84798000,0.40071700,-0.04658300
1.16000000,-0.56970600,0.83747000,-0.38469400,-0.31089500,0.51678400,0.17893600,-0.75753500,0.27857300,-0.77841100,0.22978600,-0.47596500,-0.84798000,0.40071700,-0.04658300
1.18000000,-0.56970600,0.83747000,-0.38469400,-0.31089500,0.51678400,0.17893600,-0.75753500,0.27857300,-0.77841100,0.22978600,-0.47596500,-0.84798000,0.40071700,-0.04658300
1.20000000,-0.56970600,0.83747000,-0.38469400,-0.31089500,0.51678400,0.17893600,-0.75753500,0.27857300,-0.77841100,0.22978600,-0.47596500,-0.84798000,0.40071700,-0.04658300
1.22000000,-0.56970600,0.83747000,-0.38469400,-0.31089500,0.51678400,0.17893600,-0.75753500,0.27857300,-0.77841100,0.22978600,-0.47596500,-0.84798000,0.40071700,-0.04658300
1.24000000,-0.56970600,0.83747000,-0.38469400,-0.31089500,0.51678400,0.17893600,-0.75753500,0.27857300,-0.77841100,0.22978600,-0.47596500,-0.84798000,0.40071700,-0.04658300
1.26000000,-0.56970600,0.83747000,-0.38469400,-0.31089500,0.51678400,0.17893600,-0.75753500,0.27857300,-0.77841100,0.22978600,-0.47596500,-0.84798000,0.40071700,-0.04658300
1.28000000,-0.56970600,0.83747000,-0.38469400,-0.31089500,0.51678400,0.17893600,-0.75753500,0.27857300,-0.77841100,0.22978600,-0.47596500,-0.84798000,0.40071700,-0.04658300
1.30000000,-0.56970600,0.83747000,-0.38469400,-0.31089500,0.51678400,0.17893600,-0.75753500,0.27857300,-0.77841100,0.22978600,-0.47596500,-0.84798000,0.40071700,-0.04658300
1.32000000,-0.56970600,0.83747000,-0.38469400,-0.31089500,0.51678400,0.17893600,-0.75753500,0.27857300,-0.77841100,0.22978600,-0.47596500,-0.84798000,0.40071700,-0.04658300
1.34000000,-0.56970600,0.83747000,-0.38469400,-0.31089500,0.51678400,0.17893600,-0.75753500,0.27857300,-0.77841100,0.22978600,-0.47596500,-0.84798000,0.40071700,-0.04658300
1.36000000,-0.56970600,0.83747000,-0.38469400,-0.31089500,0.51678400,0.17893600,-0.75753500,0.27857300,-0.77841100,0.22978600,-0.47596500,-0.84798000,0.40071700,-0.04658300
1.38000000,-0.56970600,0.83747000,-0.38469400,-0.31089500,0.51678400,0.17893600,-0.75753500,0.27857300,-0.77841100,0.22978600,-0.47596500,-0.84798000,0.40071700,-0.04658300
1.40000000,-0.56970600,0.83747000,-0.38469400,-0.31089500,0.51678400,0.17893600,-0.75753500,0.27857300,-0.77841100,0.22978600,-0.47596500,-0.84798000,0.40071700,-0.04658300
1.42000000,-0.56970600,0.83747000,-0.38469400,-0.31089500,0.51678400,0.17893600,-0.75753500,0.27857300,-0.77841100,0.22978600,-0.47596500,-0.84798000,0.40071700,-0.04658300
1.44000000,-0.56970600,0.83747000,-0.38469400,-0.31089500,0.51678400,0.17893600,-0.75753500,0.27857300,-0.77841100,0.22978600,-0.47596500,-0.84798000,0.40071700,-0.04658300
1.46000000,-0.56970600,0.83747000,-0.38469400,-0.31089500,0.51678400,0.17893600,-0.75753500,0.27857300,-0.77841100,0.22978600,-0.47596500,-0.84798000,0.40071700,-0.04658300
1.48000000,-0.56970600,0.83747000,-0.38469400,-0.31089500,0.51678400,0.17893600,-0.75753500,0.27857300,-0.77841100,0.22978600,-0.47596500,-0.84798000,0.40071700,-0.04658300
1.50000000,-0.56970600,0.83747000,-0.38469400,-0.31089500,0.51678400,0.17893600,-0.75753500,0.27857300,-0.77841100,0.22978600,-0.47596500,-0.84798000,0.40071700,-0.04658300
1.52000000,-0.56970600,0.83747000,-0.38469400,-0.31089500,0.51678400,0.17893600,-0.75753500,0.27857300,-0.77841100,0.22978600,-0.47596500,-0.84798000,0.40071700,-0.04658300
1.54000000,-0.56970600,0.83747000,-0.38469400,-0.31089500,0.51678400,0.17893600,-0.75753500,0.27857300,-0.77841100,0.22978600,-0.47596500,-0.84798000,0.40071700,-0.04658300
1.56000000,-0.56970600,0.83747000,-0.38469400,-0.31089500,0.51678400,0.17893600,-0.75753500,0.27857300,-0.77841100,0.22978600,-0.47596500,-0.84798000,0.40071700,-0.04658300
1.58000000,-0.56970600,0.83747000,-0.38469400,-0.31089500,0.51678400,0.17893600,-0.75753500,0.27857300,-0.77841100,0.22978600,-0.47596500,-0.84798000,0.40071700,-0.04658300
1.60000000,-0.56970600,0.83747000,-0.38469400,-0.31089500,0.51678400,0.17893600,-0.75753500,0.27857300,-0.77841100,0.22978600,-0.47596500,-0.84798000,0.40071700,-0.04658300
1.62000000,-0.56970600,0.83747000,-0.38469400,-0.31089500,0.51678400,0.17893600,-0.75753500,0.27857300,-0.77841100,0.22978600,-0.47596500,-0.84798000,0.40071700,-0.04658300
1.64000000,-0.56970600,0.83747000,-0.38469400,-0.31089500,0.51678400,0.17893600,-0.75753500,0.27857300,-0.77841100,0.22978600,-0.47596500,-0.84798000,0.40071700,-0.04658300
1.66000000,-0.56970600,0.83747000,-0.38469400,-0.31089500,0.51678400,0.17893600,-0.75753500,0.27857300,-0.77841100,0.22978600,-0.47596500,-0.84798000,0.40071700,-0.04658300
1.68000000,-0.56970600,0.83747000,-0.38469400,-0.31089500,0.51678400,0.17893600,-0.75753500,0.27857300,-0.77841100,0.22978600,-0.47596500,-0.84798000,0.40071700,-0.04658300
1.70000000,-0.56970600,0.83747000,-0.38469400,-0.31089500,0.51678400,0.17893600,-0.75753500,0.27857300,-0.77841100,0.22978600,-0.47596500,-0.84798000,0.40071700,-0.04658300
1.72000000,-0.56970600,0.83747000,-0.38469400,-0.31089500,0.51678400,0.17893600,-0.75753500,0.27857300,-0.77841100,0.22978600,-0.47596500,-0.84798000,0.40071700,-0.04658300
1.74000000,-0.56970600,0.83747000,-0.38469400,-0.31089500,0.51678400,0.17893600,-0.75753500,0.27857300,-0.77841100,0.22978600,-0.47596500,-0.84798000,0.40071700,-0.04658300
1.76000000,-0.56970600,0.83747000,-0.38469400,-0.31089500,0.51678400,0.17893600,-0.75753500,0.27857300,-0.77841100,0.22978600,-0.47596500,-0.84798000,0.40071700,-0.04658300
1.78000000,-0.56970600,0.83747000,-0.38469400,-0.31089500,0.51678400,0.17893600,-0.75753500,0.27857300,-0.77841100,0.22978600,-0.47596500,-0.84798000,0.40071700,-0.04658300
1.80000000,-0.56970600,0.83747000,-0.38469400,-0.31089500,0.51678400,0.17893600,-0.75753500,0.27857300,-0.77841100,0.22978600,-0.47596500,-0.84798000,0.40071700,-0.04658300
1.82000000,-0.56970600,0.83747000,-0.38469400,-0.31089500,0.51678400,0.17893600,-0.75753500,0.27857300,-0.77841100,0.22978600,-0.47596500,-0.84798000,0.40071700,-0.04658300
1.84000000,-0.56970600,0.83747000,-0.38469400,-0.31089500,0.51678400,0.17893600,-0.75753500,0.27857300,-0.77841100,0.22978600,-0.47596500,-0.84798000,0.40071700,-0.04658300
1.86000000,-0.56970600,0.83747000,-0.38469400,-0.31089500,0.51678400,0.17893600,-0.75753500,0.27857300,-0.77841100,0.22978600,-0.47596500,-0.84798000,0.40071700,-0.04658300
1.88000000,-0.56970600,0.83747000,-0.38469400,-0.31089500,0.51678400,0.17893600,-0.75753500,0.27857300,-0.77841100,0.22978600,-0.47596500,-0.84798000,0.40071700,-0.04658300
1.90000000,-0.56970600,0.83747000,-0.38469400,-0.31089500,0.51678400,0.17893600,-0.75753500,0.27857300,-0.77841100,0.22978600,-0.47596500,-0.84798000,0.40071700,-0.04658300
1.92000000,-0.56970600,0.83747000,-0.38469400,-0.31089500,0.51678400,0.17893600,-0.75753500,0.27857300,-0.77841100,0.22978600,-0.47596500,-0.84798000,0.40071700,-0.04658300
1.94000000,-0.56970600,0.83747000,-0.38469400,-0.31089500,0.51678400,0.17893600,-0.75753500,0.27857300,-0.77841100,0.22978600,-0.47596500,-0.84798000,0.40071700,-0.04658300
1.96000000,-0.56970600,0.83747000,-0.38469400,-0.31089500,0.51678400,0.17893600,-0.75753500,0.27857300,-0.77841100,0.22978600,-0.47596500,-0.84798000,0.40071700,-0.04658300
1.98000000,-0.56970600,0.83747000,-0.38469400,-0.31089500,0.51678400,0.17893600,-0.75753500,0.27857300,-0.77841100,0.22978600,-0.47596500,-0.84798000,0.40071700,-0.04658300
2.00000000,-0.56970600,0.83747000,-0.38469400,-0.31089500,0.51678400,0.17893600,-0.75753500,0.27857300,-0.77841100,0.22978600,-0.47596500,-0.84798000,0.40071700,-0.04658300
2.02000000,-0.56970600,0.83747000,-0.38469400,-0.31089500,0.51678400,0.17893600,-0.75753500,0.27857300,-0.77841100,0.22978600,-0.47596500,-0.84798000,0.40071700,-0.04658300
2.04000000,-0.56970600,0.83747000,-0.38469400,-0.31089500,0.51678400,0.17893600,-0.75753500,0.27857300,-0.77841100,0.22978600,-0.47596500,-0.84798000,0.40071700,-0.04658300
2.06000000,-0.56970600,0.83747000,-0.38469400,-0.31089500,0.51678400,0.17893600,-0.75753500,0.27857300,-0.77841100,0.22978600,-0.47596500,-0.84798000,0.40071700,-0.04658300
2.08000000,-0.56970600,0.83747000,-0.38469400,-0.31089500,0.51678400,0.17893600,-0.75753500,0.27857300,-0.77841100,0.22978600,-0.47596500,-0.84798000,0.40071700,-0.04658300
2.10000000,-0.56970600,0.83747000,-0.38469400,-0.31089500,0.51678400,0.17893600,-0.75753500,0.27857300,-0.77841100,0.22978600,-0.47596500,-0.84798000,0.40071700,-0.04658300
2.12000000,-0.56970600,0.83747000,-0.38469400,-0.31089500,0.51678400,0.17893600,-0.75753500,0.27857300,-0.77841100,0.22978600,-0.47596500,-0.84798000,0.40071700,-0.04658300
2.14000000,-0.56970600,0.83747000,-0.38469400,-0.31089500,0.51678400,0.17893600,-0.75753500,0.27857300,-0.77841100,0.22978600,-0.47596500,-0.84798000,0.40071700,-0.04658300
2.16000000,-0.56970600,0.83747000,-0.38469400,-0.31089500,0.51678400,0.17893600,-0.75753500,0.27857300,-0.77841100,0.22978600,-0.47596500,-0.84798000,0.40071700,-0.04658300
2.18000000,-0.56970600,0.83747000,-0.38469400,-0.31089500,0.51678400,0.17893600,-0.75753500,0.27857300,-0.77841100,0.22978600,-0.47596500,-0.84798000,0.40071700,-0.04658300
2.20000000,-0.56970600,0.83747000,-0.38469400,-0.31089500,0.51678400,0.17893600,-0.75753500,0.27857300,-0.77841100,0.22978600,-0.47596500,-0.84798000,0.40071700,-0.04658300
2.22000000,-0.56970600,0.83747000,-0.38469400,-0.31089500,0.51678400,0.17893600,-0.75753500,0.27857300,-0.77841100,0.22978600,-0.47596500,-0.84798000,0.40071700,-0.04658300
2.24000000,-0.56970600,0.83747000,-0.38469400,-0.31089500,0.51678400,0.17893600,-0.75753500,0.27857300,-0.77841100,0.22978600,-0.47596500,-0.84798000,0.40071700,-0.04658300
2.26000000,-0.56970600,0.83747000,-0.38469400,-0.31089500,0.51678400,0.17893600,-0.75753500,0.27857300,-0.77841100,0.22978600,-0.47596500,-0.84798000,0.40071700,-0.04658300
2.28000000,-0.56970600,0.83747000,-0.38469400,-0.31089500,0.51678400,0.17893600,-0.75753500,0.27857300,-0.77841100,0.22978600,-0.47596500,-0.84798000,0.40071700,-0.04658300
2.30000000,-0.56970600,0.83747000,-0.38469400,-0.31089500,0.51678400,0.17893600,-0.75753500,0.27857300,-0.77841100,0.22978600,-0.47596500,-0.84798000,0.40071700,-0.04658300
2.32000000,-0.56970600,0.83747000,-0.38469400,-0.31089500,0.51678400,0.17893600,-0.75753500,0.27857300,-0.77841100,0.22978600,-0.47596500,-0.84798000,0.40071700,-0.04658300
2.34000000,-0.56970600,0.83747000,-0.38469400,-0.31089500,0.51678400,0.17893600,-0.75753500,0.27857300,-0.77841100,0.22978600,-0.47596500,-0.84798000,0.40071700,-0.04658300
2.36000000,-0.56970600,0.83747000,-0.38469400,-0.31089500,0.51678400,0.17893600,-0.75753500,0.27857300,-0.77841100,0.22978600,-0.47596500,-0.84798000,0.40071700,-0.04658300
2.38000000,-0.56970600,0.83747000,-0.38469400,-0.31089500,0.51678400,0.17893600,-0.75753500,0.27857300,-0.77841100,0.22978600,-0.47596500,-0.84798000,0.40071700,-0.04658300
2.40000000,-0.56970600,0.83747000,-0.38469400,-0.31089500,0.51678400,0.17893600,-0.75753500,0.27857300,-0.77841100,0.22978600,-0.47596500,-0.84798000,0.40071700,-0.04658300
2.42000000,-0.56970600,0.83747000,-0.38469400,-0.31089500,0.51678400,0.17893600,-0.75753500,0.27857300,-0.77841100,0.22978600,-0.47596500,-0.84798000,0.40071700,-0.04658300
2.44000000,-0.56970600,0.83747000,-0.38469400,-0.31089500,0.51678400,0.17893600,-0.75753500,0.27857300,-0.77841100,0.22978600,-0.47596500,-0.84798000,0.40071700,-0.04658300
2.46000000,-0.56970600,0.83747000,-0.38469400,-0.31089500,0.51678400,0.17893600,-0.75753500,0.27857300,-0.77841100,0.22978600,-0.47596500,-0.84798000,0.40071700,-0.04658300
2.48000000,-0.56970600,0.83747000,-0.38469400,-0.31089500,0.51678400,0.17893600,-0.75753500,0.27857300,-0.77841100,0.22978600,-0.47596500,-0.84798000,0.40071700,-0.04658300
2.50000000,-0.56970600,0.83747000,-0.38469400,-0.31089500,0.51678400,0.17893600,-0.75753500,0.27857300,-0.77841100,0.22978600,-0.47596500,-0.84798000,0.40071700,-0.04658300
2.52000000,-0.56970600,0.83747000,-0.38469400,-0.31089500,0.51678400,0.17893600,-0.75753500,0.27857300,-0.77841100,0.22978600,-0.47596500,-0.84798000,0.40071700,-0.04658300
2.54000000,-0.56970600,0.83747000,-0.38469400,-0.31089500,0.51678400,0.17893600,-0.75753500,0.27857300,-0.77841100,0.22978600,-0.47596500,-0.84798000,0.40071700,-0.04658300
2.56000000,-0.56970600,0.83747000,-0.38469400,-0.31089500,0.51678400,0.17893600,-0.75753500,0.27857300,-0.77841100,0.22978600,-0.47596500,-0.84798000,0.40071700,-0.04658300
2.58000000,-0.56970600,0.83747000,-0.38469400,-0.31089500,0.51678400,0.17893600,-0.75753500,0.27857300,-0.77841100,0.22978600,-0.47596500,-0.84798000,0.40071700,-0.04658300
2.60000000,-0.56970600,0.83747000,-0.38469400,-0.31089500,0.51678400,0.17893600,-0.75753500,0.27857300,-0.77841100,0.22978600,-0.47596500,-0.84798000,0.40071700,-0.04658300
2.62000000,-0.56970600,0.83747000,-0.38469400,-0.31089500,0.51678400,0.17893600,-0.75753500,0.27857300,-0.77841100,0.22978600,-0.47596500,-0.84798000,0.40071700,-0.04658300
2.64000000,-0.56970600,0.83747000,-0.38469400,-0.31089500,0.51678400,0.17893600,-0.75753500,0.27857300,-0.77841100,0.22978600,-0.47596500,-0.84798000,0.40071700,-0.04658300
2.66000000,-0.56970600,0.83747000,-0.38469400,-0.31089500,0.51678400,0.17893600,-0.75753500,0.27857300,-0.77841100,0.22978600,-0.47596500,-0.84798000,0.40071700,-0.04658300
2.68000000,-0.56970600,0.83747000,-0.38469400,-0.31089500,0.51678400,0.17893600,-0.75753500,0.27857300,-0.77841100,0.22978600,-0.47596500,-0.84798000,0.40071700,-0.04658300
2.70000000,-0.56970600,0.83747000,-0.38469400,-0.31089500,0.51678400,0.17893600,-0.75753500,0.27857300,-0.77841100,0.22978600,-0.47596500,-0.84798000,0.40071700,-0.04658300
2.72000000,-0.56970600,0.83747000,-0.38469400,-0.31089500,0.51678400,0.17893600,-0.75753500,0.27857300,-0.77841100,0.22978600,-0.47596500,-0.84798000,0.40071700,-0.04658300
2.74000000,-0.56970600,0.83747000,-0.38469400,-0.31089500,0.51678400,0.17893600,-0.75753500,0.27857300,-0.77841100,0.22978600,-0.47596500,-0.84798000,0.40071700,-0.04658300
2.76000000,-0.56970600,0.83747000,-0.38469400,-0.31089500,0.51678400,0.17893600,-0.75753500,0.27857300,-0.77841100,0.22978600,-0.47596500,-0.84798000,0.40071700,-0.04658300
2.78000000,-0.56970600,0.83747000,-0.38469400,-0.31089500,0.51678400,0.17893600,-0.75753500,0.27857300,-0.77841100,0.22978600,-0.47596500,-0.84798000,0.40071700,-0.04658300
2.80000000,-0.56970600,0.83747000,-0.38469400,-0.31089500,0.51678400,0.17893600,-0.75753500,0.27857300,-0.77841100,0.22978600,-0.47596500,-0.84798000,0.40071700,-0.04658300
2.82000000,-0.56970600,0.83747000,-0.38469400,-0.31089500,0.51678400,0.17893600,-0.75753500,0.27857300,-0.77841100,0.22978600,-0.47596500,-0.84798000,0.40071700,-0.04658300
2.84000000,-0.56970600,0.83747000,-0.38469400,-0.31089500,0.51678400,0.17893600,-0.75753500,0.27857300,-0.77841100,0.22978600,-0.47596500,-0.84798000,0.40071700,-0.04658300
2.86000000,-0.56970600,0.83747000,-0.38469400,-0.31089500,0.51678400,0.17893600,-0.75753500,0.27857300,-0.77841100,0.22978600,-0.47596500,-0.84798000,0.40071700,-0.04658300
2.88000000,-0.56970600,0.83747000,-0.38469400,-0.31089500,0.51678400,0.17893600,-0.75753500,0.27857300,-0.77841100,0.22978600,-0.47596500,-0.84798000,0.40071700,-0.04658300
2.90000000,-0.56970600,0.83747000,-0.38469400,-0.31089500,0.51678400,0.17893600,-0.75753500,0.27857300,-0.77841100,0.22978600,-0.47596500,-0.84798000,0.40071700,-0.04658300
2.92000000,-0.56970600,0.83747000,-0.38469400,-0.31089500,0.51678400,0.17893600,-0.75753500,0.27857300,-0.77841100,0.22978600,-0.47596500,-0.84798000,0.40071700,-0.04658300
2.94000000,-0.56970600,0.83747000,-0.38469400,-0.31089500,0.51678400,0.17893600,-0.75753500,0.27857300,-0.77841100,0.22978600,-0.47596500,-0.84798000,0.40071700,-0.04658300
2.96000000,-0.56970600,0.83747000,-0.38469400,-0.31089500,0.51678400,0.17893600,-0.75753500,0.27857300,-0.77841100,0.22978600,-0.47596500,-0.84798000,0.40071700,-0.04658300
2.98000000,-0.56970600,0.83747000,-0.38469400,-0.31089500,0.51678400,0.17893600,-0.75753500,0.27857300,-0.77841100,0.22978600,-0.47596500,-0.84798000,0.40071700,-0.04658300
3.00000000,-0.56970600,0.83747000,-0.38469400,-0.31089500,0.51678400,0.17893600,-0.75753500,0.27857300,-0.77841100,0.22978600,-0.47596500,-0.84798000,0.40071700,-0.04658300
3.02000000,-0.56970600,0.83747000,-0.38469400,-0.31089500,0.51678400,0.17893600,-0.75753500,0.27857300,-0.77841100,0.22978600,-0.47596500,-0.84798000,0.40071700,-0.04658300
3.04000000,-0.56970600,0.83747000,-0.38469400,-0.31089500,0.51678400,0.17893600,-0.75753500,0.27857300,-0.77841100,0.22978600,-0.47596500,-0.84798000,0.40071700,-0.04658300
3.06000000,-0.56970600,0.83747000,-0.38469400,-0.31089500,0.51678400,0.17893600,-0.75753500,0.27857300,-0.77841100,0.22978600,-0.47596500,-0.84798000,0.40071700,-0.04658300
3.08000000,-0.56970600,0.83747000,-0.38469400,-0.31089500,0.51678400,0.17893600,-0.75753500,0.27857300,-0.77841100,0.22978600,-0.47596500,-0.84798000,0.40071700,-0.04658300
3.10000000,-0.56970600,0.83747000,-0.38469400,-0.31089500,0.51678400,0.17893600,-0.75753500,0.27857300,-0.77841100,0.22978600,-0.47596500,-0.84798000,0.40071700,-0.04658300
3.12000000,-0.56970600,0.83747000,-0.38469400,-0.31089500,0.51678400,0.17893600,-0.75753500,0.27857300,-0.77841100,0.22978600,-0.47596500,-0.84798000,0.40071700,-0.04658300
3.14000000,-0.56970600,0.83747000,-0.38469400,-0.31089500,0.51678400,0.17893600,-0.75753500,0.27857300,-0.77841100,0.22978600,-0.47596500,-0.84798000,0.40071700,-0.04658300
3.16000000,-0.56970600,0.83747000,-0.38469400,-0.31089500,0.51678400,0.17893600,-0.75753500,0.27857300,-0.77841100,0.22978600,-0.47596500,-0.84798000,0.40071700,-0.04658300
3.18000000,-0.56970600,0.83747000,-0.38469400,-0.31089500,0.51678400,0.17893600,-0.75753500,0.27857300,-0.77841100,0.22978600,-0.47596500,-0.84798000,0.40071700,-0.04658300
3.20000000,-0.56970600,0.83747000,-0.38469400,-0.31089500,0.51678400,0.17893600,-0.75753500,0.27857300,-0.77841100,0.22978600,-0.47596500,-0.84798000,0.40071700,-0.04658300
3.22000000,-0.56970600,0.83747000,-0.38469400,-0.31089500,0.51678400,0.17893600,-0.75753500,0.27857300,-0.77841100,0.22978600,-0.47596500,-0.84798000,0.40071700,-0.04658300
3.24000000,-0.56970600,0.83747000,-0.38469400,-0.31089500,0.51678400,0.17893600,-0.75753500,0.27857300,-0.77841100,0.22978600,-0.47596500,-0.84798000,0.40071700,-0.04658300
3.26000000,-0.56970600,0.83747000,-0.38469400,-0.31089500,0.51678400,0.17893600,-0.75753500,0.27857300,-0.77841100,0.22978600,-0.47596500,-0.84798000,0.40071700,-0.04658300
3.28000000,-0.56970600,0.83747000,-0.38469400,-0.31089500,0.51678400,0.17893600,-0.75753500,0.27857300,-0.77841100,0.22978600,-0.47596500,-0.84798000,0.40071700,-0.04658300
3.30000000,-0.56970600,0.83747000,-0.38469400,-0.31089500,0.51678400,0.17893600,-0.75753500,0.27857300,-0.77841100,0.22978600,-0.47596500,-0.84798000,0.40071700,-0.04658300
3.32000000,-0.56970600,0.83747000,-0.38469400,-0.31089500,0.51678400,0.17893600,-0.75753500,0.27857300,-0.77841100,0.22978600,-0.47596500,-0.84798000,0.40071700,-0.04658300
3.34000000,-0.56970600,0.83747000,-0.38469400,-0.31089500,0.51678400,0.17893600,-0.75753500,0.27857300,-0.77841100,0.22978600,-0.47596500,-0.84798000,0.40071700,-0.04658300
3.36000000,-0.56970600,0.83747000,-0.38469400,-0.31089500,0.51678400,0.17893600,-0.75753500,0.27857300,-0.77841100,0.22978600,-0.47596500,-0.84798000,0.40071700,-0.04658300
3.38000000,-0.56970600,0.83747000,-0.38469400,-0.31089500,0.51678400,0.17893600,-0.75753500,0.27857300,-0.77841100,0.22978600,-0.47596500,-0.84798000,0.40071700,-0.04658300
3.40000000,-0.56970600,0.83747000,-0.38469400,-0.31089500,0.51678400,0.17893600,-0.75753500,0.27857300,-0.77841100,0.22978600,-0.47596500,-0.84798000,0.40071700,-0.04658300
3.42000000,-0.56970600,0.83747000,-0.38469400,-0.31089500,0.51678400,0.17893600,-0.75753500,0.27857300,-0.77841100,0.22978600,-0.47596500,-0.84798000,0.40071700,-0.04658300
3.44000000,-0.56970600,0.83747000,-0.38469400,-0.31089500,0.51678400,0.17893600,-0.75753500,0.27857300,-0.77841100,0.22978600,-0.47596500,-0.84798000,0.40071700,-0.04658300
3.46000000,-0.56970600,0.83747000,-0.38469400,-0.31089500,0.51678400,0.17893600,-0.75753500,0.27857300,-0.77841100,0.22978600,-0.47596500,-0.84798000,0.40071700,-0.04658300
3.48000000,-0.56970600,0.83747000,-0.38469400,-0.31089500,0.51678400,0.17893600,-0.75753500,0.27857300,-0.77841100,0.22978600,-0.47596500,-0.84798000,0.40071700,-0.04658300
3.50000000,-0.56970600,0.83747000,-0.38469400,-0.31089500,0.51678400,0.17893600,-0.75753500,0.27857300,-0.77841100,0.22978600,-0.47596500,-0.84798000,0.40071700,-0.04658300
3.52000000,-0.56970600,0.83747000,-0.38469400,-0.31089500,0.51678400,0.17893600,-0.75753500,0.27857300,-0.77841100,0.22978600,-0.47596500,-0.84798000,0.40071700,-0.04658300
3.54000000,-0.56970600,0.83747000,-0.38469400,-0.31089500,0.51678400,0.17893600,-0.75753500,0.27857300,-0.77841100,0.22978600,-0.47596500,-0.84798000,0.40071700,-0.04658300
3.56000000,-0.56970600,0.83747000,-0.38469400,-0.31089500,0.51678400,0.17893600,-0.75753500,0.27857300,-0.77841100,0.22978600,-0.47596500,-0.84798000,0.40071700,-0.04658300
3.58000000,-0.56970600,0.83747000,-0.38469400,-0.31089500,0.51678400,0.17893600,-0.75753500,0.27857300,-0.77841100,0.22978600,-0.47596500,-0.84798000,0.40071700,-0.04658300
3.60000000,-0.56970600,0.83747000,-0.38469400,-0.31089500,0.51678400,0.17893600,-0.75753500,0.27857300,-0.77841100,0.22978600,-0.47596500,-0.84798000,0.40071700,-0.04658300
3.62000000,-0.56970600,0.83747000,-0.38469400,-0.31089500,0.51678400,0.17893600,-0.75753500,0.27857300,-0.77841100,0.22978600,-0.47596500,-0.84798000,0.40071700,-0.04658300
3.64000000,-0.56970600,0.83747000,-0.38469400,-0.31089500,0.51678400,0.17893600,-0.75753500,0.27857300,-0.77841100,0.22978600,-0.47596500,-0.84798000,0.40071700,-0.04658300
3.66000000,-0.56970600,0.83747000,-0.38469400,-0.31089500,0.51678400,0.17893600,-0.75753500,0.27857300,-0.77841100,0.22978600,-0.47596500,-0.84798000,0.40071700,-0.04658300
3.68000000,-0.56970600,0.83747000,-0.38469400,-0.31089500,0.51678400,0.17893600,-0.75753500,0.27857300,-0.77841100,0.22978600,-0.47596500,-0.84798000,0.40071700,-0.04658300
3.70000000,-0.56970600,0.83747000,-0.38469400,-0.31089500,0.51678400,0.17893600,-0.75753500,0.27857300,-0.77841100,0.22978600,-0.47596500,-0.84798000,0.40071700,-0.04658300
3.72000000,-0.56970600,0.83747000,-0.38469400,-0.31089500,0.51678400,0.17893600,-0.75753500,0.27857300,-0.77841100,0.22978600,-0.47596500,-0.84798000,0.40071700,-0.04658300
3.74000000,-0.56970600,0.83747000,-0.38469400,-0.31089500,0.51678400,0.17893600,-0.75753500,0.27857300,-0.77841100,0.22978600,-0.47596500,-0.84798000,0.40071700,-0.04658300
3.76000000,-0.56970600,0.83747000,-0.38469400,-0.31089500,0.51678400,0.17893600,-0.75753500,0.27857300,-0.77841100,0.22978600,-0.47596500,-0.84798000,0.40071700,-0.04658300
3.78000000,-0.56970600,0.83747000,-0.38469400,-0.31089500,0.51678400,0.17893600,-0.75753500,0.27857300,-0.77841100,0.22978600,-0.47596500,-0.84798000,0.40071700,-0.04658300
3.80000000,-0.56970600,0.83747000,-0.38469400,-0.31089500,0.51678400,0.17893600,-0.75753500,0.27857300,-0.77841100,0.22978600,-0.47596500,-0.84798000,0.40071700,-0.04658300
3.82000000,-0.56970600,0.83747000,-0.38469400,-0.31089500,0.51678400,0.17893600,-0.75753500,0.27857300,-0.77841100,0.22978600,-0.47596500,-0.84798000,0.40071700,-0.04658300
3.84000000,-0.56970600,0.83747000,-0.38469400,-0.31089500,0.51678400,0.17893600,-0.75753500,0.27857300,-0.77841100,0.22978600,-0.47596500,-0.84798000,0.40071700,-0.04658300
3.86000000,-0.56970600,0.83747000,-0.38469400,-0.31089500,0.51678400,0.17893600,-0.75753500,0.27857300,-0.77841100,0.22978600,-0.47596500,-0.84798000,0.40071700,-0.04658300
3.88000000,-0.56970600,0.83747000,-0.38469400,-0.31089500,0.51678400,0.17893600,-0.75753500,0.27857300,-0.77841100,0.22978600,-0.47596500,-0.84798000,0.40071700,-0.04658300
3.90000000,-0.56970600,0.83747000,-0.38469400,-0.31089500,0.51678400,0.17893600,-0.75753500,0.27857300,-0.77841100,0.22978600,-0.47596500,-0.84798000,0.40071700,-0.04658300
3.92000000,-0.56970600,0.83747000,-0.38469400,-0.31089500,0.51678400,0.17893600,-0.75753500,0.27857300,-0.77841100,0.22978600,-0.47596500,-0.84798000,0.40071700,-0.04658300
3.94000000,-0.56970600,0.83747000,-0.38469400,-0.31089500,0.51678400,0.17893600,-0.75753500,0.27857300,-0.77841100,0.22978600,-0.47596500,-0.84798000,0.40071700,-0.04658300
3.96000000,-0.56970600,0.83747000,-0.38469400,-0.31089500,0.51678400,0.17893600,-0.75753500,0.27857300,-0.77841100,0.22978600,-0.47596500,-0.84798000,0.40071700,-0.04658300
3.98000000,-0.56970600,0.83747000,-0.38469400,-0.31089500,0.51678400,0.17893600,-0.75753500,0.27857300,-0.77841100,0.22978600,-0.47596500,-0.84798000,0.40071700,-0.04658300
4.00000000,-0.56970600,0.83747000,-0.38469400,-0.31089500,0.51678400,0.17893600,-0.75753500,0.27857300,-0.77841100,0.22978600,-0.47596500,-0.84798000,0.40071700,-0.04658300
4.02000000,-0.56970600,0.83747000,-0.38469400,-0.31089500,0.51678400,0.17893600,-0.75753500,0.27857300,-0.77841100,0.22978600,-0.47596500,-0.84798000,0.40071700,-0.04658300
4.04000000,-0.56970600,0.83747000,-0.38469400,-0.31089500,0.51678400,0.17893600,-0.75753500,0.27857300,-0.77841100,0.22978600,-0.47596500,-0.84798000,0.40071700,-0.04658300
4.06000000,-0.56970600,0.83747000,-0.38469400,-0.31089500,0.51678400,0.17893600,-0.75753500,0.27857300,-0.77841100,0.22978600,-0.47596500,-0.84798000,0.40071700,-0.04658300
4.08000000,-0.56970600,0.83747000,-0.38469400,-0.31089500,0.51678400,0.17893600,-0.75753500,0.27857300,-0.77841100,0.22978600,-0.47596500,-0.84798000,0.40071700,-0.04658300
4.10000000,-0.56970600,0.83747000,-0.38469400,-0.31089500,0.51678400,0.17893600,-0.75753500,0.27857300,-0.77841100,0.22978600,-0.47596500,-0.84798000,0.40071700,-0.04658300
4.12000000,-0.56970600,0.83747000,-0.38469400,-0.31089500,0.51678400,0.17893600,-0.75753500,0.27857300,-0.77841100,0.22978600,-0.47596500,-0.84798000,0.40071700,-0.04658300
4.14000000,-0.56970600,0.83747000,-0.38469400,-0.31089500,0.51678400,0.17893600,-0.75753500,0.27857300,-0.77841100,0.22978600,-0.47596500,-0.84798000,0.40071700,-0.04658300
4.16000000,-0.56970600,0.83747000,-0.38469400,-0.31089500,0.51678400,0.17893600,-0.75753500,0.27857300,-0.77841100,0.22978600,-0.47596500,-0.84798000,0.40071700,-0.04658300
4.18000000,-0.56970600,0.83747000,-0.38469400,-0.31089500,0.51678400,0.17893600,-0.75753500,0.27857300,-0.77841100,0.22978600,-0.47596500,-0.84798000,0.40071700,-0.04658300
4.20000000,-0.56970600,0.83747000,-0.38469400,-0.31089500,0.51678400,0.17893600,-0.75753500,0.27857300,-0.77841100,0.22978600,-0.47596500,-0.84798000,0.40071700,-0.04658300
4.22000000,-0.56970600,0.83747000,-0.38469400,-0.31089500,0.51678400,0.17893600,-0.75753500,0.27857300,-0.77841100,0.22978600,-0.47596500,-0.84798000,0.40071700,-0.04658300
4.24000000,-0.56970600,0.83747000,-0.38469400,-0.31089500,0.51678400,0.17893600,-0.75753500,0.27857300,-0.77841100,0.22978600,-0.47596500,-0.84798000,0.40071700,-0.04658300
4.26000000,-0.56970600,0.83747000,-0.38469400,-0.31089500,0.51678400,0.17893600,-0.75753500,0.27857300,-0.77841100,0.22978600,-0.47596500,-0.84798000,0.40071700,-0.04658300
4.28000000,-0.56970600,0.83747000,-0.38469400,-0.31089500,0.51678400,0.17893600,-0.75753500,0.27857300,-0.77841100,0.22978600,-0.47596500,-0.84798000,0.40071700,-0.04658300
4.30000000,-0.56970600,0.83747000,-0.38469400,-0.31089500,0.51678400,0.17893600,-0.75753500,0.27857300,-0.77841100,0.22978600,-0.47596500,-0.84798000,0.40071700,-0.04658300
4.32000000,-0.56970600,0.83747000,-0.38469400,-0.31089500,0.51678400,0.17893600,-0.75753500,0.27857300,-0.77841100,0.22978600,-0.47596500,-0.84798000,0.40071700,-0.04658300
4.34000000,-0.56970600,0.83747000,-0.38469400,-0.31089500,0.51678400,0.17893600,-0.75753500,0.27857300,-0.77841100,0.22978600,-0.47596500,-0.84798000,0.40071700,-0.04658300
4.36000000,-0.56970600,0.83747000,-0.38469400,-0.31089500,0.51678400,0.17893600,-0.75753500,0.27857300,-0.77841100,0.22978600,-0.47596500,-0.84798000,0.40071700,-0.04658300
4.38000000,-0.56970600,0.83747000,-0.38469400,-0.31089500,0.51678400,0.17893600,-0.75753500,0.27857300,-0.77841100,0.22978600,-0.47596500,-0.84798000,0.40071700,-0.04658300
4.40000000,-0.56970600,0.83747000,-0.38469400,-0.31089500,0.51678400,0.17893600,-0.75753500,0.27857300,-0.77841100,0.22978600,-0.47596500,-0.84798000,0.40071700,-0.04658300
4.42000000,-0.56970600,0.83747000,-0.38469400,-0.31089500,0.51678400,0.17893600,-0.75753500,0.27857300,-0.77841100,0.22978600,-0.47596500,-0.84798000,0.40071700,-0.04658300
4.44000000,-0.56970600,0.83747000,-0.38469400,-0.31089500,0.51678400,0.17893600,-0.75753500,0.27857300,-0.77841100,0.22978600,-0.47596500,-0.84798000,0.40071700,-0.04658300
4.46000000,-0.56970600,0.83747000,-0.38469400,-0.31089500,0.51678400,0.17893600,-0.75753500,0.27857300,-0.77841100,0.22978600,-0.47596500,-0.84798000,0.40071700,-0.04658300
4.48000000,-0.56970600,0.83747000,-0.38469400,-0.31089500,0.51678400,0.17893600,-0.75753500,0.27857300,-0.77841100,0.22978600,-0.47596500,-0.84798000,0.40071700,-0.04658300
4.50000000,-0.56970600,0.83747000,-0.38469400,-0.31089500,0.51678400,0.17893600,-0.75753500,0.27857300,-0.77841100,0.22978600,-0.47596500,-0.84798000,0.40071700,-0.04658300
4.52000000,-0.56970600,0.83747000,-0.38469400,-0.31089500,0.51678400,0.17893600,-0.75753500,0.27857300,-0.77841100,0.22978600,-0.47596500,-0.84798000,0.40071700,-0.04658300
4.54000000,-0.56970600,0.83747000,-0.38469400,-0.31089500,0.51678400,0.17893600,-0.75753500,0.27857300,-0.77841100,0.22978600,-0.47596500,-0.84798000,0.40071700,-0.04658300
4.56000000,-0.56970600,0.83747000,-0.38469400,-0.31089500,0.51678400,0.17893600,-0.75753500,0.27857300,-0.77841100,0.22978600,-0.47596500,-0.84798000,0.40071700,-0.04658300
4.58000000,-0.56970600,0.83747000,-0.38469400,-0.31089500,0.51678400,0.17893600,-0.75753500,0.27857300,-0.77841100,0.22978600,-0.47596500,-0.84798000,0.40071700,-0.04658300
4.60000000,-0.56970600,0.83747000,-0.38469400,-0.31089500,0.51678400,0.17893600,-0.75753500,0.27857300,-0.77841100,0.22978600,-0.47596500,-0.84798000,0.40071700,-0.04658300
4.62000000,-0.56970600,0.83747000,-0.38469400,-0.31089500,0.51678400,0.17893600,-0.75753500,0.27857300,-0.77841100,0.22978600,-0.47596500,-0.84798000,0.40071700,-0.04658300
4.64000000,-0.56970600,0.83747000,-0.38469400,-0.31089500,0.51678400,0.17893600,-0.75753500,0.27857300,-0.77841100,0.22978600,-0.47596500,-0.84798000,0.40071700,-0.04658300
4.66000000,-0.56970600,0.83747000,-0.38469400,-0.31089500,0.51678400,0.17893600,-0.75753500,0.27857300,-0.77841100,0.22978600,-0.47596500,-0.84798000,0.40071700,-0.04658300
4.68000000,-0.56970600,0.83747000,-0.38469400,-0.31089500,0.51678400,0.17893600,-0.75753500,0.27857300,-0.77841100,0.22978600,-0.47596500,-0.84798000,0.40071700,-0.04658300
4.70000000,-0.56970600,0.83747000,-0.38469400,-0.31089500,0.51678400,0.17893600,-0.75753500,0.27857300,-0.77841100,0.22978600,-0.47596500,-0.84798000,0.40071700,-0.04658300
4.72000000,-0.56970600,0.83747000,-0.38469400,-0.31089500,0.51678400,0.17893600,-0.75753500,0.27857300,-0.77841100,0.22978600,-0.47596500,-0.84798000,0.40071700,-0.04658300
4.74000000,-0.56970600,0.83747000,-0.38469400,-0.31089500,0.51678400,0.17893600,-0.75753500,0.27857300,-0.77841100,0.22978600,-0.47596500,-0.84798000,0.40071700,-0.04658300
4.76000000,-0.56970600,0.83747000,-0.38469400,-0.31089500,0.51678400,0.17893600,-0.75753500,0.27857300,-0.77841100,0.22978600,-0.47596500,-0.84798000,0.40071700,-0.04658300
4.78000000,-0.56970600,0.83747000,-0.38469400,-0.31089500,0.51678400,0.17893600,-0.75753500,0.27857300,-0.77841100,0.22978600,-0.47596500,-0.84798000,0.40071700,-0.04658300
4.80000000,-0.56970600,0.83747000,-0.38469400,-0.31089500,0.51678400,0.17893600,-0.75753500,0.27857300,-0.77841100,0.22978600,-0.47596500,-0.84798000,0.40071700,-0.04658300
4.82000000,-0.56970600,0.83747000,-0.38469400,-0.31089500,0.51678400,0.17893600,-0.75753500,0.27857300,-0.77841100,0.22978600,-0.47596500,-0.84798000,0.40071700,-0.04658300
4.84000000,-0.56970600,0.83747000,-0.38469400,-0.31089500,0.51678400,0.17893600,-0.75753500,0.27857300,-0.77841100,0.22978600,-0.47596500,-0.84798000,0.40071700,-0.04658300
4.86000000,-0.56970600,0.83747000,-0.38469400,-0.31089500,0.51678400,0.17893600,-0.75753500,0.27857300,-0.77841100,0.22978600,-0.47596500,-0.84798000,0.40071700,-0.04658300
4.88000000,-0.56970600,0.83747000,-0.38469400,-0.31089500,0.51678400,0.17893600,-0.75753500,0.27857300,-0.77841100,0.22978600,-0.47596500,-0.84798000,0.40071700,-0.04658300
4.90000000,-0.56970600,0.83747000,-0.38469400,-0.31089500,0.51678400,0.17893600,-0.75753500,0.27857300,-0.77841100,0.22978600,-0.47596500,-0.84798000,0.40071700,-0.04658300
4.92000000,-0.56970600,0.83747000,-0.38469400,-0.31089500,0.51678400,0.17893600,-0.75753500,0.27857300,-0.77841100,0.22978600,-0.47596500,-0.84798000,0.40071700,-0.04658300
4.94000000,-0.56970600,0.83747000,-0.38469400,-0.31089500,0.51678400,0.17893600,-0.75753500,0.27857300,-0.77841100,0.22978600,-0.47596500,-0.84798000,0.40071700,-0.04658300
4.96000000,-0.56970600,0.83747000,-0.38469400,-0.31089500,0.51678400,0.17893600,-0.75753500,0.27857300,-0.77841100,0.22978600,-0.47596500,-0.84798000,0.40071700,-0.04658300
4.98000000,-0.56970600,0.83747000,-0.38469400,-0.31089500,0.51678400,0.17893600,-0.75753500,0.27857300,-0.77841100,0.22978600,-0.47596500,-0.84798000,0.40071700,-0.04658300
5.00000000,-0.56970600,0.83747000,-0.38469400,-0.31089500,0.51678400,0.17893600,-0.75753500,0.27857300,-0.77841100,0.22978600,-0.47596500,-0.84798000,0.40071700,-0.04658300
5.02000000,-0.56970600,0.83747000,-0.38469400,-0.31089500,0.51678400,0.17893600,-0.75753500,0.27857300,-0.77841100,0.22978600,-0.47596500,-0.84798000,0.40071700,-0.04658300
5.04000000,-0.56970600,0.83747000,-0.38469400,-0.31089500,0.51678400,0.17893600,-0.75753500,0.27857300,-0.77841100,0.22978600,-0.47596500,-0.84798000,0.40071700,-0.04658300
5.06000000,-0.56970600,0.83747000,-0.38469400,-0.31089500,0.51678400,0.17893600,-0.75753500,0.27857300,-0.77841100,0.22978600,-0.47596500,-0.84798000,0.40071700,-0.04658300
5.08000000,-0.56970600,0.83747000,-0.38469400,-0.31089500,0.51678400,0.17893600,-0.75753500,0.27857300,-0.77841100,0.22978600,-0.47596500,-0.84798000,0.40071700,-0.04658300
5.10000000,-0.56970600,0.83747000,-0.38469400,-0.31089500,0.51678400,0.17893600,-0.75753500,0.27857300,-0.77841100,0.22978600,-0.47596500,-0.84798000,0.40071700,-0.04658300
5.12000000,-0.56970600,0.83747000,-0.38469400,-0.31089500,0.51678400,0.17893600,-0.75753500,0.27857300,-0.77841100,0.22978600,-0.47596500,-0.84798000,0.40071700,-0.04658300
5.14000000,-0.56970600,0.83747000,-0.38469400,-0.31089500,0.51678400,0.17893600,-0.75753500,0.27857300,-0.77841100,0.22978600,-0.47596500,-0.84798000,0.40071700,-0.04658300
5.16000000,-0.56970600,0.83747000,-0.38469400,-0.31089500,0.51678400,0.17893600,-0.75753500,0.27857300,-0.77841100,0.22978600,-0.47596500,-0.84798000,0.40071700,-0.04658300
5.18000000,-0.56970600,0.83747000,-0.38469400,-0.31089500,0.51678400,0.17893600,-0.75753500,0.27857300,-0.77841100,0.22978600,-0.47596500,-0.84798000,0.40071700,-0.04658300
5.20000000,-0.56970600,0.83747000,-0.38469400,-0.31089500,0.51678400,0.17893600,-0.75753500,0.27857300,-0.77841100,0.22978600,-0.47596500,-0.84798000,0.40071700,-0.04658300
5.22000000,-0.56970600,0.83747000,-0.38469400,-0.31089500,0.51678400,0.17893600,-0.75753500,0.27857300,-0.77841100,0.22978600,-0.47596500,-0.84798000,0.40071700,-0.04658300
5.24000000,-0.56970600,0.83747000,-0.38469400,-0.31089500,0.51678400,0.17893600,-0.75753500,0.27857300,-0.77841100,0.22978600,-0.47596500,-0.84798000,0.40071700,-0.04658300
5.26000000,-0.56970600,0.83747000,-0.38469400,-0.31089500,0.51678400,0.17893600,-0.75753500,0.27857300,-0.77841100,0.22978600,-0.47596500,-0.84798000,0.40071700,-0.04658300
5.28000000,-0.56970600,0.83747000,-0.38469400,-0.31089500,0.51678400,0.17893600,-0.75753500,0.27857300,-0.77841100,0.22978600,-0.47596500,-0.84798000,0.40071700,-0.04658300
5.30000000,-0.56970600,0.83747000,-0.38469400,-0.31089500,0.51678400,0.17893600,-0.75753500,0.27857300,-0.77841100,0.22978600,-0.47596500,-0.84798000,0.40071700,-0.04658300
5.32000000,-0.56970600,0.83747000,-0.38469400,-0.31089500,0.51678400,0.17893600,-0.75753500,0.27857300,-0.77841100,0.22978600,-0.47596500,-0.84798000,0.40071700,-0.04658300
5.34000000,-0.56970600,0.83747000,-0.38469400,-0.31089500,0.51678400,0.17893600,-0.75753500,0.27857300,-0.77841100,0.22978600,-0.47596500,-0.84798000,0.40071700,-0.04658300
5.36000000,-0.56970600,0.83747000,-0.38469400,-0.31089500,0.51678400,0.17893600,-0.75753500,0.27857300,-0.77841100,0.22978600,-0.47596500,-0.84798000,0.40071700,-0.04658300
5.38000000,-0.56970600,0.83747000,-0.38469400,-0.31089500,0.51678400,0.17893600,-0.75753500,0.27857300,-0.77841100,0.22978600,-0.47596500,-0.84798000,0.40071700,-0.04658300
5.40000000,-0.56970600,0.83747000,-0.38469400,-0.31089500,0.51678400,0.17893600,-0.75753500,0.27857300,-0.77841100,0.22978600,-0.47596500,-0.84798000,0.40071700,-0.04658300
5.42000000,-0.56970600,0.83747000,-0.38469400,-0.31089500,0.51678400,0.17893600,-0.75753500,0.27857300,-0.77841100,0.22978600,-0.47596500,-0.84798000,0.40071700,-0.04658300
5.44000000,-0.56970600,0.83747000,-0.38469400,-0.31089500,0.51678400,0.17893600,-0.75753500,0.27857300,-0.77841100,0.22978600,-0.47596500,-0.84798000,0.40071700,-0.04658300
5.46000000,-0.56970600,0.83747000,-0.38469400,-0.31089500,0.51678400,0.17893600,-0.75753500,0.27857300,-0.77841100,0.22978600,-0.47596500,-0.84798000,0.40071700,-0.04658300
5.48000000,-0.56970600,0.83747000,-0.38469400,-0.31089500,0.51678400,0.17893600,-0.75753500,0.27857300,-0.77841100,0.22978600,-0.47596500,-0.84798000,0.40071700,-0.04658300
5.50000000,-0.56970600,0.83747000,-0.38469400,-0.31089500,0.51678400,0.17893600,-0.75753500,0.27857300,-0.77841100,0.22978600,-0.47596500,-0.84798000,0.40071700,-0.04658300
5.52000000,-0.56970600,0.83747000,-0.38469400,-0.31089500,0.51678400,0.17893600,-0.75753500,0.27857300,-0.77841100,0.22978600,-0.47596500,-0.84798000,0.40071700,-0.04658300
5.54000000,-0.56970600,0.83747000,-0.38469400,-0.31089500,0.51678400,0.17893600,-0.75753500,0.27857300,-0.77841100,0.22978600,-0.47596500,-0.84798000,0.40071700,-0.04658300
5.56000000,-0.56970600,0.83747000,-0.38469400,-0.31089500,0.51678400,0.17893600,-0.75753500,0.27857300,-0.77841100,0.22978600,-0.47596500,-0.84798000,0.40071700,-0.04658300
5.58000000,-0.56970600,0.83747000,-0.38469400,-0.31089500,0.51678400,0.17893600,-0.75753500,0.27857300,-0.77841100,0.22978600,-0.47596500,-0.84798000,0.40071700,-0.04658300
5.60000000,-0.56970600,0.83747000,-0.38469400,-0.31089500,0.51678400,0.17893600,-0.75753500,0.27857300,-0.77841100,0.22978600,-0.47596500,-0.84798000,0.40071700,-0.04658300
5.62000000,-0.56970600,0.83747000,-0.38469400,-0.31089500,0.51678400,0.17893600,-0.75753500,0.27857300,-0.77841100,0.22978600,-0.47596500,-0.84798000,0.40071700,-0.04658300
5.64000000,-0.56970600,0.83747000,-0.38469400,-0.31089500,0.51678400,0.17893600,-0.75753500,0.27857300,-0.77841100,0.22978600,-0.47596500,-0.84798000,0.40071700,-0.04658300
5.66000000,-0.56970600,0.83747000,-0.38469400,-0.31089500,0.51678400,0.17893600,-0.75753500,0.27857300,-0.77841100,0.22978600,-0.47596500,-0.84798000,0.40071700,-0.04658300
5.68000000,-0.56970600,0.83747000,-0.38469400,-0.31089500,0.51678400,0.17893600,-0.75753500,0.27857300,-0.77841100,0.22978600,-0.47596500,-0.84798000,0.40071700,-0.04658300
5.70000000,-0.56970600,0.83747000,-0.38469400,-0.31089500,0.51678400,0.17893600,-0.75753500,0.27857300,-0.77841100,0.22978600,-0.47596500,-0.84798000,0.40071700,-0.04658300
5.72000000,-0.56970600,0.83747000,-0.38469400,-0.31089500,0.51678400,0.17893600,-0.75753500,0.27857300,-0.77841100,0.22978600,-0.47596500,-0.84798000,0.40071700,-0.04658300
5.74000000,-0.56970600,0.83747000,-0.38469400,-0.31089500,0.51678400,0.17893600,-0.75753500,0.27857300,-0.77841100,0.22978600,-0.47596500,-0.84798000,0.40071700,-0.04658300
5.76000000,-0.56970600,0.83747000,-0.38469400,-0.31089500,0.51678400,0.17893600,-0.75753500,0.27857300,-0.77841100,0.22978600,-0.47596500,-0.84798000,0.40071700,-0.04658300
5.78000000,-0.56970600,0.83747000,-0.38469400,-0.31089500,0.51678400,0.17893600,-0.75753500,0.27857300,-0.77841100,0.22978600,-0.47596500,-0.84798000,0.40071700,-0.04658300
5.80000000,-0.56970600,0.83747000,-0.38469400,-0.31089500,0.51678400,0.17893600,-0.75753500,0.27857300,-0.77841100,0.22978600,-0.47596500,-0.84798000,0.40071700,-0.04658300
5.82000000,-0.56970600,0.83747000,-0.38469400,-0.31089500,0.51678400,0.17893600,-0.75753500,0.27857300,-0.77841100,0.22978600,-0.47596500,-0.84798000,0.40071700,-0.04658300
5.84000000,-0.56970600,0.83747000,-0.38469400,-0.31089500,0.51678400,0.17893600,-0.75753500,0.27857300,-0.77841100,0.22978600,-0.47596500,-0.84798000,0.40071700,-0.04658300
5.86000000,-0.56970600,0.83747000,-0.38469400,-0.31089500,0.51678400,0.17893600,-0.75753500,0.27857300,-0.77841100,0.22978600,-0.47596500,-0.84798000,0.40071700,-0.04658300
5.88000000,-0.56970600,0.83747000,-0.38469400,-0.31089500,0.51678400,0.17893600,-0.75753500,0.27857300,-0.77841100,0.22978600,-0.47596500,-0.84798000,0.40071700,-0.04658300
5.90000000,-0.56970600,0.83747000,-0.38469400,-0.31089500,0.51678400,0.17893600,-0.75753500,0.27857300,-0.77841100,0.22978600,-0.47596500,-0.84798000,0.40071700,-0.04658300
5.92000000,-0.56970600,0.83747000,-0.38469400,-0.31089500,0.51678400,0.17893600,-0.75753500,0.27857300,-0.77841100,0.22978600,-0.47596500,-0.84798000,0.40071700,-0.04658300
5.94000000,-0.56970600,0.83747000,-0.38469400,-0.31089500,0.51678400,0.17893600,-0.75753500,0.27857300,-0.77841100,0.22978600,-0.47596500,-0.84798000,0.40071700,-0.04658300
5.96000000,-0.56970600,0.83747000,-0.38469400,-0.31089500,0.51678400,0.17893600,-0.75753500,0.27857300,-0.77841100,0.22978600,-0.47596500,-0.84798000,0.40071700,-0.04658300
5.98000000,-0.56970600,0.83747000,-0.38469400,-0.31089500,0.51678400,0.17893600,-0.75753500,0.27857300,-0.77841100,0.22978600,-0.47596500,-0.84798000,0.40071700,-0.04658300
6.00000000,-0.56970600,0.83747000,-0.38469400,-0.31089500,0.51678400,0.17893600,-0.75753500,0.27857300,-0.77841100,0.22978600,-0.47596500,-0.84798000,0.40071700,-0.04658300
6.02000000,-0.56970600,0.83747000,-0.38469400,-0.31089500,0.51678400,0.17893600,-0.75753500,0.27857300,-0.77841100,0.22978600,-0.47596500,-0.84798000,0.40071700,-0.04658300
6.04000000,-0.56970600,0.83747000,-0.38469400,-0.31089500,0.51678400,0.17893600,-0.75753500,0.27857300,-0.77841100,0.22978600,-0.47596500,-0.84798000,0.40071700,-0.04658300
6.06000000,-0.56970600,0.83747000,-0.38469400,-0.31089500,0.51678400,0.17893600,-0.75753500,0.27857300,-0.77841100,0.22978600,-0.47596500,-0.84798000,0.40071700,-0.04658300
6.08000000,-0.56970600,0.83747000,-0.38469400,-0.31089500,0.51678400,0.17893600,-0.75753500,0.27857300,-0.77841100,0.22978600,-0.47596500,-0.84798000,0.40071700,-0.04658300
6.10000000,-0.56970600,0.83747000,-0.38469400,-0.31089500,0.51678400,0.17893600,-0.75753500,0.27857300,-0.77841100,0.22978600,-0.47596500,-0.84798000,0.40071700,-0.04658300
6.12000000,-0.56970600,0.83747000,-0.38469400,-0.31089500,0.51678400,0.17893600,-0.75753500,0.27857300,-0.77841100,0.22978600,-0.47596500,-0.84798000,0.40071700,-0.04658300
6.14000000,-0.56970600,0.83747000,-0.38469400,-0.31089500,0.51678400,0.17893600,-0.75753500,0.27857300,-0.77841100,0.22978600,-0.47596500,-0.84798000,0.40071700,-0.04658300
6.16000000,-0.56970600,0.83747000,-0.38469400,-0.31089500,0.51678400,0.17893600,-0.75753500,0.27857300,-0.77841100,0.22978600,-0.47596500,-0.84798000,0.40071700,-0.04658300
6.18000000,-0.56970600,0.83747000,-0.38469400,-0.31089500,0.51678400,0.17893600,-0.75753500,0.27857300,-0.77841100,0.22978600,-0.47596500,-0.84798000,0.40071700,-0.04658300
6.20000000,-0.56970600,0.83747000,-0.38469400,-0.31089500,0.51678400,0.17893600,-0.75753500,0.27857300,-0.77841100,0.22978600,-0.47596500,-0.84798000,0.40071700,-0.04658300
6.22000000,-0.56970600,0.83747000,-0.38469400,-0.31089500,0.51678400,0.17893600,-0.75753500,0.27857300,-0.77841100,0.22978600,-0.47596500,-0.84798000,0.40071700,-0.04658300
6.24000000,-0.56970600,0.83747000,-0.38469400,-0.31089500,0.51678400,0.17893600,-0.75753500,0.27857300,-0.77841100,0.22978600,-0.47596500,-0.84798000,0.40071700,-0.04658300
6.26000000,-0.56970600,0.83747000,-0.38469400,-0.31089500,0.51678400,0.17893600,-0.75753500,0.27857300,-0.77841100,0.22978600,-0.47596500,-0.84798000,0.40071700,-0.04658300
6.28000000,-0.56970600,0.83747000,-0.38469400,-0.31089500,0.51678400,0.17893600,-0.75753500,0.27857300,-0.77841100,0.22978600,-0.47596500,-0.84798000,0.40071700,-0.04658300
6.30000000,-0.56970600,0.83747000,-0.38469400,-0.31089500,0.51678400,0.17893600,-0.75753500,0.27857300,-0.77841100,0.22978600,-0.47596500,-0.84798000,0.40071700,-0.04658300
6.32000000,-0.56970600,0.83747000,-0.38469400,-0.31089500,0.51678400,0.17893600,-0.75753500,0.27857300,-0.77841100,0.22978600,-0.47596500,-0.84798000,0.40071700,-0.04658300
6.34000000,-0.56970600,0.83747000,-0.38469400,-0.31089500,0.51678400,0.17893600,-0.75753500,0.27857300,-0.77841100,0.22978600,-0.47596500,-0.84798000,0.40071700,-0.04658300
6.36000000,-0.56970600,0.83747000,-0.38469400,-0.31089500,0.51678400,0.17893600,-0.75753500,0.27857300,-0.77841100,0.22978600,-0.47596500,-0.84798000,0.40071700,-0.04658300
6.38000000,-0.56970600,0.83747000,-0.38469400,-0.31089500,0.51678400,0.17893600,-0.75753500,0.27857300,-0.77841100,0.22978600,-0.47596500,-0.84798000,0.40071700,-0.04658300
6.40000000,-0.56970600,0.83747000,-0.38469400,-0.31089500,0.51678400,0.17893600,-0.75753500,0.27857300,-0.77841100,0.22978600,-0.47596500,-0.84798000,0.40071700,-0.04658300
6.42000000,-0.56970600,0.83747000,-0.38469400,-0.31089500,0.51678400,0.17893600,-0.75753500,0.27857300,-0.77841100,0.22978600,-0.47596500,-0.84798000,0.40071700,-0.04658300
6.44000000,-0.56970600,0.83747000,-0.38469400,-0.31089500,0.51678400,0.17893600,-0.75753500,0.27857300,-0.77841100,0.22978600,-0.47596500,-0.84798000,0.40071700,-0.04658300
6.46000000,-0.56970600,0.83747000,-0.38469400,-0.31089500,0.51678400,0.17893600,-0.75753500,0.27857300,-0.77841100,0.22978600,-0.47596500,-0.84798000,0.40071700,-0.04658300
6.48000000,-0.56970600,0.83747000,-0.38469400,-0.31089500,0.51678400,0.17893600,-0.75753500,0.27857300,-0.77841100,0.22978600,-0.47596500,-0.84798000,0.40071700,-0.04658300
6.50000000,-0.56970600,0.83747000,-0.38469400,-0.31089500,0.51678400,0.17893600,-0.75753500,0.27857300,-0.77841100,0.22978600,-0.47596500,-0.84798000,0.40071700,-0.04658300
6.52000000,-0.56970600,0.83747000,-0.38469400,-0.31089500,0.51678400,0.17893600,-0.75753500,0.27857300,-0.77841100,0.22978600,-0.47596500,-0.84798000,0.40071700,-0.04658300
6.54000000,-0.56970600,0.83747000,-0.38469400,-0.31089500,0.51678400,0.17893600,-0.75753500,0.27857300,-0.77841100,0.22978600,-0.47596500,-0.84798000,0.40071700,-0.04658300
6.56000000,-0.56970600,0.83747000,-0.38469400,-0.31089500,0.51678400,0.17893600,-0.75753500,0.27857300,-0.77841100,0.22978600,-0.47596500,-0.84798000,0.40071700,-0.04658300
6.58000000,-0.56970600,0.83747000,-0.38469400,-0.31089500,0.51678400,0.17893600,-0.75753500,0.27857300,-0.77841100,0.22978600,-0.47596500,-0.84798000,0.40071700,-0.04658300
6.60000000,-0.56970600,0.83747000,-0.38469400,-0.31089500,0.51678400,0.17893600,-0.75753500,0.27857300,-0.77841100,0.22978600,-0.47596500,-0.84798000,0.40071700,-0.04658300
6.62000000,-0.56970600,0.83747000,-0.38469400,-0.31089500,0.51678400,0.17893600,-0.75753500,0.27857300,-0.77841100,0.22978600,-0.47596500,-0.84798000,0.40071700,-0.04658300
6.64000000,-0.56970600,0.83747000,-0.38469400,-0.31089500,0.51678400,0.17893600,-0.75753500,0.27857300,-0.77841100,0.22978600,-0.47596500,-0.84798000,0.40071700,-0.04658300
6.66000000,-0.56970600,0.83747000,-0.38469400,-0.31089500,0.51678400,0.17893600,-0.75753500,0.27857300,-0.77841100,0.22978600,-0.47596500,-0.84798000,0.40071700,-0.04658300
6.68000000,-0.56970600,0.83747000,-0.38469400,-0.31089500,0.51678400,0.17893600,-0.75753500,0.27857300,-0.77841100,0.22978600,-0.47596500,-0.84798000,0.40071700,-0.04658300
6.70000000,-0.56970600,0.83747000,-0.38469400,-0.31089500,0.51678400,0.17893600,-0.75753500,0.27857300,-0.77841100,0.22978600,-0.47596500,-0.84798000,0.40071700,-0.04658300
6.72000000,-0.56970600,0.83747000,-0.38469400,-0.31089500,0.51678400,0.17893600,-0.75753500,0.27857300,-0.77841100,0.22978600,-0.47596500,-0.84798000,0.40071700,-0.04658300
6.74000000,-0.56970600,0.83747000,-0.38469400,-0.31089500,0.51678400,0.17893600,-0.75753500,0.27857300,-0.77841100,0.22978600,-0.47596500,-0.84798000,0.40071700,-0.04658300
6.76000000,-0.56970600,0.83747000,-0.38469400,-0.31089500,0.51678400,0.17893600,-0.75753500,0.27857300,-0.77841100,0.22978600,-0.47596500,-0.84798000,0.40071700,-0.04658300
6.78000000,-0.56970600,0.83747000,-0.38469400,-0.31089500,0.51678400,0.17893600,-0.75753500,0.27857300,-0.77841100,0.22978600,-0.47596500,-0.84798000,0.40071700,-0.04658300
6.80000000,-0.56970600,0.83747000,-0.38469400,-0.31089500,0.51678400,0.17893600,-0.75753500,0.27857300,-0.77841100,0.22978600,-0.47596500,-0.84798000,0.40071700,-0.04658300
6.82000000,-0.56970600,0.83747000,-0.38469400,-0.31089500,0.51678400,0.17893600,-0.75753500,0.27857300,-0.77841100,0.22978600,-0.47596500,-0.84798000,0.40071700,-0.04658300
6.84000000,-0.56970600,0.83747000,-0.38469400,-0.31089500,0.51678400,0.17893600,-0.75753500,0.27857300,-0.77841100,0.22978600,-0.47596500,-0.84798000,0.40071700,-0.04658300
6.86000000,-0.56970600,0.83747000,-0.38469400,-0.31089500,0.51678400,0.17893600,-0.75753500,0.27857300,-0.77841100,0.22978600,-0.47596500,-0.84798000,0.40071700,-0.04658300
6.88000000,-0.56970600,0.83747000,-0.38469400,-0.31089500,0.51678400,0.17893600,-0.75753500,0.27857300,-0.77841100,0.22978600,-0.47596500,-0.84798000,0.40071700,-0.04658300
6.90000000,-0.56970600,0.83747000,-0.38469400,-0.31089500,0.51678400,0.17893600,-0.75753500,0.27857300,-0.77841100,0.22978600,-0.47596500,-0.84798000,0.40071700,-0.04658300
6.92000000,-0.56970600,0.83747000,-0.38469400,-0.31089500,0.51678400,0.17893600,-0.75753500,0.27857300,-0.77841100,0.22978600,-0.47596500,-0.84798000,0.40071700,-0.04658300
6.94000000,-0.56970600,0.83747000,-0.38469400,-0.31089500,0.51678400,0.17893600,-0.75753500,0.27857300,-0.77841100,0.22978600,-0.47596500,-0.84798000,0.40071700,-0.04658300
6.96000000,-0.56970600,0.83747000,-0.38469400,-0.31089500,0.51678400,0.17893600,-0.75753500,0.27857300,-0.77841100,0.22978600,-0.47596500,-0.84798000,0.40071700,-0.04658300
6.98000000,-0.56970600,0.83747000,-0.38469400,-0.31089500,0.51678400,0.17893600,-0.75753500,0.27857300,-0.77841100,0.22978600,-0.47596500,-0.84798000,0.40071700,-0.04658300
7.00000000,-0.56970600,0.83747000,-0.38469400,-0.31089500,0.51678400,0.17893600,-0.75753500,0.27857300,-0.77841100,0.22978600,-0.47596500,-0.84798000,0.40071700,-0.04658300
7.02000000,-0.56970600,0.83747000,-0.38469400,-0.31089500,0.51678400,0.17893600,-0.75753500,0.27857300,-0.77841100,0.22978600,-0.47596500,-0.84798000,0.40071700,-0.04658300
7.04000000,-0.56970600,0.83747000,-0.38469400,-0.31089500,0.51678400,0.17893600,-0.75753500,0.27857300,-0.77841100,0.22978600,-0.47596500,-0.84798000,0.40071700,-0.04658300
7.06000000,-0.56970600,0.83747000,-0.38469400,-0.31089500,0.51678400,0.17893600,-0.75753500,0.27857300,-0.77841100,0.22978600,-0.47596500,-0.84798000,0.40071700,-0.04658300
7.08000000,-0.56970600,0.83747000,-0.38469400,-0.31089500,0.51678400,0.17893600,-0.75753500,0.27857300,-0.77841100,0.22978600,-0.47596500,-0.84798000,0.40071700,-0.04658300
7.10000000,-0.56970600,0.83747000,-0.38469400,-0.31089500,0.51678400,0.17893600,-0.75753500,0.27857300,-0.77841100,0.22978600,-0.47596500,-0.84798000,0.40071700,-0.04658300
7.12000000,-0.56970600,0.83747000,-0.38469400,-0.31089500,0.51678400,0.17893600,-0.75753500,0.27857300,-0.77841100,0.22978600,-0.47596500,-0.84798000,0.40071700,-0.04658300
7.14000000,-0.56970600,0.83747000,-0.38469400,-0.31089500,0.51678400,0.17893600,-0.75753500,0.27857300,-0.77841100,0.22978600,-0.47596500,-0.84798000,0.40071700,-0.04658300
7.16000000,-0.56970600,0.83747000,-0.38469400,-0.31089500,0.51678400,0.17893600,-0.75753500,0.27857300,-0.77841100,0.22978600,-0.47596500,-0.84798000,0.40071700,-0.04658300
7.18000000,-0.56970600,0.83747000,-0.38469400,-0.31089500,0.51678400,0.17893600,-0.75753500,0.27857300,-0.77841100,0.22978600,-0.47596500,-0.84798000,0.40071700,-0.04658300
7.20000000,-0.56970600,0.83747000,-0.38469400,-0.31089500,0.51678400,0.17893600,-0.75753500,0.27857300,-0.77841100,0.22978600,-0.47596500,-0.84798000,0.40071700,-0.04658300
7.22000000,-0.56970600,0.83747000,-0.38469400,-0.31089500,0.51678400,0.17893600,-0.75753500,0.27857300,-0.77841100,0.22978600,-0.47596500,-0.84798000,0.40071700,-0.04658300
7.24000000,-0.56970600,0.83747000,-0.38469400,-0.31089500,0.51678400,0.17893600,-0.75753500,0.27857300,-0.77841100,0.22978600,-0.47596500,-0.84798000,0.40071700,-0.04658300
7.26000000,-0.56970600,0.83747000,-0.38469400,-0.31089500,0.51678400,0.17893600,-0.75753500,0.27857300,-0.77841100,0.22978600,-0.47596500,-0.84798000,0.40071700,-0.04658300
7.28000000,-0.56970600,0.83747000,-0.38469400,-0.31089500,0.51678400,0.17893600,-0.75753500,0.27857300,-0.77841100,0.22978600,-0.47596500,-0.84798000,0.40071700,-0.04658300
7.30000000,-0.56970600,0.83747000,-0.38469400,-0.31089500,0.51678400,0.17893600,-0.75753500,0.27857300,-0.77841100,0.22978600,-0.47596500,-0.84798000,0.40071700,-0.04658300
7.32000000,-0.56970600,0.83747000,-0.38469400,-0.31089500,0.51678400,0.17893600,-0.75753500,0.27857300,-0.77841100,0.22978600,-0.47596500,-0.84798000,0.40071700,-0.04658300
7.34000000,-0.56970600,0.83747000,-0.38469400,-0.31089500,0.51678400,0.17893600,-0.75753500,0.27857300,-0.77841100,0.22978600,-0.47596500,-0.84798000,0.40071700,-0.04658300
7.36000000,-0.56970600,0.83747000,-0.38469400,-0.31089500,0.51678400,0.17893600,-0.75753500,0.27857300,-0.77841100,0.22978600,-0.47596500,-0.84798000,0.40071700,-0.04658300
7.38000000,-0.56970600,0.83747000,-0.38469400,-0.31089500,0.51678400,0.17893600,-0.75753500,0.27857300,-0.77841100,0.22978600,-0.47596500,-0.84798000,0.40071700,-0.04658300
7.40000000,-0.56970600,0.83747000,-0.38469400,-0.31089500,0.51678400,0.17893600,-0.75753500,0.27857300,-0.77841100,0.22978600,-0.47596500,-0.84798000,0.40071700,-0.04658300
7.42000000,-0.56970600,0.83747000,-0.38469400,-0.31089500,0.51678400,0.17893600,-0.75753500,0.27857300,-0.77841100,0.22978600,-0.47596500,-0.84798000,0.40071700,-0.04658300
7.44000000,-0.56970600,0.83747000,-0.38469400,-0.31089500,0.51678400,0.17893600,-0.75753500,0.27857300,-0.77841100,0.22978600,-0.47596500,-0.84798000,0.40071700,-0.04658300
7.46000000,-0.56970600,0.83747000,-0.38469400,-0.31089500,0.51678400,0.17893600,-0.75753500,0.27857300,-0.77841100,0.22978600,-0.47596500,-0.84798000,0.40071700,-0.04658300
7.48000000,-0.56970600,0.83747000,-0.38469400,-0.31089500,0.51678400,0.17893600,-0.75753500,0.27857300,-0.77841100,0.22978600,-0.47596500,-0.84798000,0.40071700,-0.04658300
7.50000000,-0.56970600,0.83747000,-0.38469400,-0.31089500,0.51678400,0.17893600,-0.75753500,0.27857300,-0.77841100,0.22978600,-0.47596500,-0.84798000,0.40071700,-0.04658300
7.52000000,-0.56970600,0.83747000,-0.38469400,-0.31089500,0.51678400,0.17893600,-0.75753500,0.27857300,-0.77841100,0.22978600,-0.47596500,-0.84798000,0.40071700,-0.04658300
7.54000000,-0.56970600,0.83747000,-0.38469400,-0.31089500,0.51678400,0.17893600,-0.75753500,0.27857300,-0.77841100,0.22978600,-0.47596500,-0.84798000,0.40071700,-0.04658300
7.56000000,-0.56970600,0.83747000,-0.38469400,-0.31089500,0.51678400,0.17893600,-0.75753500,0.27857300,-0.77841100,0.22978600,-0.47596500,-0.84798000,0.40071700,-0.04658300
7.58000000,-0.56970600,0.83747000,-0.38469400,-0.31089500,0.51678400,0.17893600,-0.75753500,0.27857300,-0.77841100,0.22978600,-0.47596500,-0.84798000,0.40071700,-0.04658300
7.60000000,-0.56970600,0.83747000,-0.38469400,-0.31089500,0.51678400,0.17893600,-0.75753500,0.27857300,-0.77841100,0.22978600,-0.47596500,-0.84798000,0.40071700,-0.04658300
7.62000000,-0.56970600,0.83747000,-0.38469400,-0.31089500,0.51678400,0.17893600,-0.75753500,0.27857300,-0.77841100,0.22978600,-0.47596500,-0.84798000,0.40071700,-0.04658300
7.64000000,-0.56970600,0.83747000,-0.38469400,-0.31089500,0.51678400,0.17893600,-0.75753500,0.27857300,-0.77841100,0.22978600,-0.47596500,-0.84798000,0.40071700,-0.04658300
7.66000000,-0.56970600,0.83747000,-0.38469400,-0.31089500,0.51678400,0.17893600,-0.75753500,0.27857300,-0.77841100,0.22978600,-0.47596500,-0.84798000,0.40071700,-0.04658300
7.68000000,-0.56970600,0.83747000,-0.38469400,-0.31089500,0.51678400,0.17893600,-0.75753500,0.27857300,-0.77841100,0.22978600,-0.47596500,-0.84798000,0.40071700,-0.04658300
7.70000000,-0.56970600,0.83747000,-0.38469400,-0.31089500,0.51678400,0.17893600,-0.75753500,0.27857300,-0.77841100,0.22978600,-0.47596500,-0.84798000,0.40071700,-0.04658300
7.72000000,-0.56970600,0.83747000,-0.38469400,-0.31089500,0.51678400,0.17893600,-0.75753500,0.27857300,-0.77841100,0.22978600,-0.47596500,-0.84798000,0.40071700,-0.04658300
7.74000000,-0.56970600,0.83747000,-0.38469400,-0.31089500,0.51678400,0.17893600,-0.75753500,0.27857300,-0.77841100,0.22978600,-0.47596500,-0.84798000,0.40071700,-0.04658300
7.76000000,-0.56970600,0.83747000,-0.38469400,-0.31089500,0.51678400,0.17893600,-0.75753500,0.27857300,-0.77841100,0.22978600,-0.47596500,-0.84798000,0.40071700,-0.04658300
7.78000000,-0.56970600,0.83747000,-0.38469400,-0.31089500,0.51678400,0.17893600,-0.75753500,0.27857300,-0.77841100,0.22978600,-0.47596500,-0.84798000,0.40071700,-0.04658300
7.80000000,-0.56970600,0.83747000,-0.38469400,-0.31089500,0.51678400,0.17893600,-0.75753500,0.27857300,-0.77841100,0.22978600,-0.47596500,-0.84798000,0.40071700,-0.04658300
7.82000000,-0.56970600,0.83747000,-0.38469400,-0.31089500,0.51678400,0.17893600,-0.75753500,0.27857300,-0.77841100,0.22978600,-0.47596500,-0.84798000,0.40071700,-0.04658300
7.84000000,-0.56970600,0.83747000,-0.38469400,-0.31089500,0.51678400,0.17893600,-0.75753500,0.27857300,-0.77841100,0.22978600,-0.47596500,-0.84798000,0.40071700,-0.04658300
7.86000000,-0.56970600,0.83747000,-0.38469400,-0.31089500,0.51678400,0.17893600,-0.75753500,0.27857300,-0.77841100,0.22978600,-0.47596500,-0.84798000,0.40071700,-0.04658300
7.88000000,-0.56970600,0.83747000,-0.38469400,-0.31089500,0.51678400,0.17893600,-0.75753500,0.27857300,-0.77841100,0.22978600,-0.47596500,-0.84798000,0.40071700,-0.04658300
7.90000000,-0.56970600,0.83747000,-0.38469400,-0.31089500,0.51678400,0.17893600,-0.75753500,0.27857300,-0.77841100,0.22978600,-0.47596500,-0.84798000,0.40071700,-0.04658300
7.92000000,-0.56970600,0.83747000,-0.38469400,-0.31089500,0.51678400,0.17893600,-0.75753500,0.27857300,-0.77841100,0.22978600,-0.47596500,-0.84798000,0.40071700,-0.04658300
7.94000000,-0.56970600,0.83747000,-0.38469400,-0.31089500,0.51678400,0.17893600,-0.75753500,0.27857300,-0.77841100,0.22978600,-0.47596500,-0.84798000,0.40071700,-0.04658300
7.96000000,-0.56970600,0.83747000,-0.38469400,-0.31089500,0.51678400,0.17893600,-0.75753500,0.27857300,-0.77841100,0.22978600,-0.47596500,-0.84798000,0.40071700,-0.04658300
7.98000000,-0.56970600,0.83747000,-0.38469400,-0.31089500,0.51678400,0.17893600,-0.75753500,0.27857300,-0.77841100,0.22978600,-0.47596500,-0.84798000,0.40071700,-0.04658300
8.00000000,-0.56970600,0.83747000,-0.38469400,-0.31089500,0.51678400,0.17893600,-0.75753500,0.27857300,-0.77841100,0.22978600,-0.47596500,-0.84798000,0.40071700,-0.04658300
8.02000000,-0.56970600,0.83747000,-0.38469400,-0.31089500,0.51678400,0.17893600,-0.75753500,0.27857300,-0.77841100,0.22978600,-0.47596500,-0.84798000,0.40071700,-0.04658300
8.04000000,-0.56970600,0.83747000,-0.38469400,-0.31089500,0.51678400,0.17893600,-0.75753500,0.27857300,-0.77841100,0.22978600,-0.47596500,-0.84798000,0.40071700,-0.04658300
8.06000000,-0.56970600,0.83747000,-0.38469400,-0.31089500,0.51678400,0.17893600,-0.75753500,0.27857300,-0.77841100,0.22978600,-0.47596500,-0.84798000,0.40071700,-0.04658300
8.08000000,-0.56970600,0.83747000,-0.38469400,-0.31089500,0.51678400,0.17893600,-0.75753500,0.27857300,-0.77841100,0.22978600,-0.47596500,-0.84798000,0.40071700,-0.04658300
8.10000000,-0.56970600,0.83747000,-0.38469400,-0.31089500,0.51678400,0.17893600,-0.75753500,0.27857300,-0.77841100,0.22978600,-0.47596500,-0.84798000,0.40071700,-0.04658300
8.12000000,-0.56970600,0.83747000,-0.38469400,-0.31089500,0.51678400,0.17893600,-0.75753500,0.27857300,-0.77841100,0.22978600,-0.47596500,-0.84798000,0.40071700,-0.04658300
8.14000000,-0.56970600,0.83747000,-0.38469400,-0.31089500,0.51678400,0.17893600,-0.75753500,0.27857300,-0.77841100,0.22978600,-0.47596500,-0.84798000,0.40071700,-0.04658300
8.16000000,-0.56970600,0.83747000,-0.38469400,-0.31089500,0.51678400,0.17893600,-0.75753500,0.27857300,-0.77841100,0.22978600,-0.47596500,-0.84798000,0.40071700,-0.04658300
8.18000000,-0.56970600,0.83747000,-0.38469400,-0.31089500,0.51678400,0.17893600,-0.75753500,0.27857300,-0.77841100,0.22978600,-0.47596500,-0.84798000,0.40071700,-0.04658300
8.20000000,-0.56970600,0.83747000,-0.38469400,-0.31089500,0.51678400,0.17893600,-0.75753500,0.27857300,-0.77841100,0.22978600,-0.47596500,-0.84798000,0.40071700,-0.04658300
8.22000000,-0.56970600,0.83747000,-0.38469400,-0.31089500,0.51678400,0.17893600,-0.75753500,0.27857300,-0.77841100,0.22978600,-0.47596500,-0.84798000,0.40071700,-0.04658300
8.24000000,-0.56970600,0.83747000,-0.38469400,-0.31089500,0.51678400,0.17893600,-0.75753500,0.27857300,-0.77841100,0.22978600,-0.47596500,-0.84798000,0.40071700,-0.04658300
8.26000000,-0.56970600,0.83747000,-0.38469400,-0.31089500,0.51678400,0.17893600,-0.75753500,0.27857300,-0.77841100,0.22978600,-0.47596500,-0.84798000,0.40071700,-0.04658300
8.28000000,-0.56970600,0.83747000,-0.38469400,-0.31089500,0.51678400,0.17893600,-0.75753500,0.27857300,-0.77841100,0.22978600,-0.47596500,-0.84798000,0.40071700,-0.04658300
8.30000000,-0.56970600,0.83747000,-0.38469400,-0.31089500,0.51678400,0.17893600,-0.75753500,0.27857300,-0.77841100,0.22978600,-0.47596500,-0.84798000,0.40071700,-0.04658300
8.32000000,-0.56970600,0.83747000,-0.38469400,-0.31089500,0.51678400,0.17893600,-0.75753500,0.27857300,-0.77841100,0.22978600,-0.47596500,-0.84798000,0.40071700,-0.04658300
8.34000000,-0.56970600,0.83747000,-0.38469400,-0.31089500,0.51678400,0.17893600,-0.75753500,0.27857300,-0.77841100,0.22978600,-0.47596500,-0.84798000,0.40071700,-0.04658300
8.36000000,-0.56970600,0.83747000,-0.38469400,-0.31089500,0.51678400,0.17893600,-0.75753500,0.27857300,-0.77841100,0.22978600,-0.47596500,-0.84798000,0.40071700,-0.04658300
8.38000000,-0.56970600,0.83747000,-0.38469400,-0.31089500,0.51678400,0.17893600,-0.75753500,0.27857300,-0.77841100,0.22978600,-0.47596500,-0.84798000,0.40071700,-0.04658300
8.40000000,-0.56970600,0.83747000,-0.38469400,-0.31089500,0.51678400,0.17893600,-0.75753500,0.27857300,-0.77841100,0.22978600,-0.47596500,-0.84798000,0.40071700,-0.04658300
8.42000000,-0.56970600,0.83747000,-0.38469400,-0.31089500,0.51678400,0.17893600,-0.75753500,0.27857300,-0.77841100,0.22978600,-0.47596500,-0.84798000,0.40071700,-0.04658300
8.44000000,-0.56970600,0.83747000,-0.38469400,-0.31089500,0.51678400,0.17893600,-0.75753500,0.27857300,-0.77841100,0.22978600,-0.47596500,-0.84798000,0.40071700,-0.04658300
8.46000000,-0.56970600,0.83747000,-0.38469400,-0.31089500,0.51678400,0.17893600,-0.75753500,0.27857300,-0.77841100,0.22978600,-0.47596500,-0.84798000,0.40071700,-0.04658300
8.48000000,-0.56970600,0.83747000,-0.38469400,-0.31089500,0.51678400,0.17893600,-0.75753500,0.27857300,-0.77841100,0.22978600,-0.47596500,-0.84798000,0.40071700,-0.04658300
8.50000000,-0.56970600,0.83747000,-0.38469400,-0.31089500,0.51678400,0.17893600,-0.75753500,0.27857300,-0.77841100,0.22978600,-0.47596500,-0.84798000,0.40071700,-0.04658300
8.52000000,-0.56970600,0.83747000,-0.38469400,-0.31089500,0.51678400,0.17893600,-0.75753500,0.27857300,-0.77841100,0.22978600,-0.47596500,-0.84798000,0.40071700,-0.04658300
8.54000000,-0.56970600,0.83747000,-0.38469400,-0.31089500,0.51678400,0.17893600,-0.75753500,0.27857300,-0.77841100,0.22978600,-0.47596500,-0.84798000,0.40071700,-0.04658300
8.56000000,-0.56970600,0.83747000,-0.38469400,-0.31089500,0.51678400,0.17893600,-0.75753500,0.27857300,-0.77841100,0.22978600,-0.47596500,-0.84798000,0.40071700,-0.04658300
8.58000000,-0.56970600,0.83747000,-0.38469400,-0.31089500,0.51678400,0.17893600,-0.75753500,0.27857300,-0.77841100,0.22978600,-0.47596500,-0.84798000,0.40071700,-0.04658300
8.60000000,-0.56970600,0.83747000,-0.38469400,-0.31089500,0.51678400,0.17893600,-0.75753500,0.27857300,-0.77841100,0.22978600,-0.47596500,-0.84798000,0.40071700,-0.04658300
8.62000000,-0.56970600,0.83747000,-0.38469400,-0.31089500,0.51678400,0.17893600,-0.75753500,0.27857300,-0.77841100,0.22978600,-0.47596500,-0.84798000,0.40071700,-0.04658300
8.64000000,-0.56970600,0.83747000,-0.38469400,-0.31089500,0.51678400,0.17893600,-0.75753500,0.27857300,-0.77841100,0.22978600,-0.47596500,-0.84798000,0.40071700,-0.04658300
8.66000000,-0.56970600,0.83747000,-0.38469400,-0.31089500,0.51678400,0.17893600,-0.75753500,0.27857300,-0.77841100,0.22978600,-0.47596500,-0.84798000,0.40071700,-0.04658300
8.68000000,-0.56970600,0.83747000,-0.38469400,-0.31089500,0.51678400,0.17893600,-0.75753500,0.27857300,-0.77841100,0.22978600,-0.47596500,-0.84798000,0.40071700,-0.04658300
8.70000000,-0.56970600,0.83747000,-0.38469400,-0.31089500,0.51678400,0.17893600,-0.75753500,0.27857300,-0.77841100,0.22978600,-0.47596500,-0.84798000,0.40071700,-0.04658300
8.72000000,-0.56970600,0.83747000,-0.38469400,-0.31089500,0.51678400,0.17893600,-0.75753500,0.27857300,-0.77841100,0.22978600,-0.47596500,-0.84798000,0.40071700,-0.04658300
8.74000000,-0.56970600,0.83747000,-0.38469400,-0.31089500,0.51678400,0.17893600,-0.75753500,0.27857300,-0.77841100,0.22978600,-0.47596500,-0.84798000,0.40071700,-0.04658300
8.76000000,-0.56970600,0.83747000,-0.38469400,-0.31089500,0.51678400,0.17893600,-0.75753500,0.27857300,-0.77841100,0.22978600,-0.47596500,-0.84798000,0.40071700,-0.04658300
8.78000000,-0.56970600,0.83747000,-0.38469400,-0.31089500,0.51678400,0.17893600,-0.75753500,0.27857300,-0.77841100,0.22978600,-0.47596500,-0.84798000,0.40071700,-0.04658300
8.80000000,-0.56970600,0.83747000,-0.38469400,-0.31089500,0.51678400,0.17893600,-0.75753500,0.27857300,-0.77841100,0.22978600,-0.47596500,-0.84798000,0.40071700,-0.04658300
8.82000000,-0.56970600,0.83747000,-0.38469400,-0.31089500,0.51678400,0.17893600,-0.75753500,0.27857300,-0.77841100,0.22978600,-0.47596500,-0.84798000,0.40071700,-0.04658300
8.84000000,-0.56970600,0.83747000,-0.38469400,-0.31089500,0.51678400,0.17893600,-0.75753500,0.27857300,-0.77841100,0.22978600,-0.47596500,-0.84798000,0.40071700,-0.04658300
8.86000000,-0.56970600,0.83747000,-0.38469400,-0.31089500,0.51678400,0.17893600,-0.75753500,0.27857300,-0.77841100,0.22978600,-0.47596500,-0.84798000,0.40071700,-0.04658300
8.88000000,-0.56970600,0.83747000,-0.38469400,-0.31089500,0.51678400,0.17893600,-0.75753500,0.27857300,-0.77841100,0.22978600,-0.47596500,-0.84798000,0.40071700,-0.04658300
8.90000000,-0.56970600,0.83747000,-0.38469400,-0.31089500,0.51678400,0.17893600,-0.75753500,0.27857300,-0.77841100,0.22978600,-0.47596500,-0.84798000,0.40071700,-0.04658300
8.92000000,-0.56970600,0.83747000,-0.38469400,-0.31089500,0.51678400,0.17893600,-0.75753500,0.27857300,-0.77841100,0.22978600,-0.47596500,-0.84798000,0.40071700,-0.04658300
8.94000000,-0.56970600,0.83747000,-0.38469400,-0.31089500,0.51678400,0.17893600,-0.75753500,0.27857300,-0.77841100,0.22978600,-0.47596500,-0.84798000,0.40071700,-0.04658300
8.96000000,-0.56970600,0.83747000,-0.38469400,-0.31089500,0.51678400,0.17893600,-0.75753500,0.27857300,-0.77841100,0.22978600,-0.47596500,-0.84798000,0.40071700,-0.04658300
8.98000000,-0.56970600,0.83747000,-0.38469400,-0.31089500,0.51678400,0.17893600,-0.75753500,0.27857300,-0.77841100,0.22978600,-0.47596500,-0.84798000,0.40071700,-0.04658300
9.00000000,-0.56970600,0.83747000,-0.38469400,-0.31089500,0.51678400,0.17893600,-0.75753500,0.27857300,-0.77841100,0.22978600,-0.47596500,-0.84798000,0.40071700,-0.04658300
9.02000000,-0.56970600,0.83747000,-0.38469400,-0.31089500,0.51678400,0.17893600,-0.75753500,0.27857300,-0.77841100,0.22978600,-0.47596500,-0.84798000,0.40071700,-0.04658300
9.04000000,-0.56970600,0.83747000,-0.38469400,-0.31089500,0.51678400,0.17893600,-0.75753500,0.27857300,-0.77841100,0.22978600,-0.47596500,-0.84798000,0.40071700,-0.04658300
9.06000000,-0.56970600,0.83747000,-0.38469400,-0.31089500,0.51678400,0.17893600,-0.75753500,0.27857300,-0.77841100,0.22978600,-0.47596500,-0.84798000,0.40071700,-0.04658300
9.08000000,-0.56970600,0.83747000,-0.38469400,-0.31089500,0.51678400,0.17893600,-0.75753500,0.27857300,-0.77841100,0.22978600,-0.47596500,-0.84798000,0.40071700,-0.04658300
9.10000000,-0.56970600,0.83747000,-0.38469400,-0.31089500,0.51678400,0.17893600,-0.75753500,0.27857300,-0.77841100,0.22978600,-0.47596500,-0.84798000,0.40071700,-0.04658300
9.12000000,-0.56970600,0.83747000,-0.38469400,-0.31089500,0.51678400,0.17893600,-0.75753500,0.27857300,-0.77841100,0.22978600,-0.47596500,-0.84798000,0.40071700,-0.04658300
9.14000000,-0.56970600,0.83747000,-0.38469400,-0.31089500,0.51678400,0.17893600,-0.75753500,0.27857300,-0.77841100,0.22978600,-0.47596500,-0.84798000,0.40071700,-0.04658300
9.16000000,-0.56970600,0.83747000,-0.38469400,-0.31089500,0.51678400,0.17893600,-0.75753500,0.27857300,-0.77841100,0.22978600,-0.47596500,-0.84798000,0.40071700,-0.04658300
9.18000000,-0.56970600,0.83747000,-0.38469400,-0.31089500,0.51678400,0.17893600,-0.75753500,0.27857300,-0.77841100,0.22978600,-0.47596500,-0.84798000,0.40071700,-0.04658300
9.20000000,-0.56970600,0.83747000,-0.38469400,-0.31089500,0.51678400,0.17893600,-0.75753500,0.27857300,-0.77841100,0.22978600,-0.47596500,-0.84798000,0.40071700,-0.04658300
9.22000000,-0.56970600,0.83747000,-0.38469400,-0.31089500,0.51678400,0.17893600,-0.75753500,0.27857300,-0.77841100,0.22978600,-0.47596500,-0.84798000,0.40071700,-0.04658300
9.24000000,-0.56970600,0.83747000,-0.38469400,-0.31089500,0.51678400,0.17893600,-0.75753500,0.27857300,-0.77841100,0.22978600,-0.47596500,-0.84798000,0.40071700,-0.04658300
9.26000000,-0.56970600,0.83747000,-0.38469400,-0.31089500,0.51678400,0.17893600,-0.75753500,0.27857300,-0.77841100,0.22978600,-0.47596500,-0.84798000,0.40071700,-0.04658300
9.28000000,-0.56970600,0.83747000,-0.38469400,-0.31089500,0.51678400,0.17893600,-0.75753500,0.27857300,-0.77841100,0.22978600,-0.47596500,-0.84798000,0.40071700,-0.04658300
9.30000000,-0.56970600,0.83747000,-0.38469400,-0.31089500,0.51678400,0.17893600,-0.75753500,0.27857300,-0.77841100,0.22978600,-0.47596500,-0.84798000,0.40071700,-0.04658300
9.32000000,-0.56970600,0.83747000,-0.38469400,-0.31089500,0.51678400,0.17893600,-0.75753500,0.27857300,-0.77841100,0.22978600,-0.47596500,-0.84798000,0.40071700,-0.04658300
9.34000000,-0.56970600,0.83747000,-0.38469400,-0.31089500,0.51678400,0.17893600,-0.75753500,0.27857300,-0.77841100,0.22978600,-0.47596500,-0.84798000,0.40071700,-0.04658300
9.36000000,-0.56970600,0.83747000,-0.38469400,-0.31089500,0.51678400,0.17893600,-0.75753500,0.27857300,-0.77841100,0.22978600,-0.47596500,-0.84798000,0.40071700,-0.04658300
9.38000000,-0.56970600,0.83747000,-0.38469400,-0.31089500,0.51678400,0.17893600,-0.75753500,0.27857300,-0.77841100,0.22978600,-0.47596500,-0.84798000,0.40071700,-0.04658300
9.40000000,-0.56970600,0.83747000,-0.38469400,-0.31089500,0.51678400,0.17893600,-0.75753500,0.27857300,-0.77841100,0.22978600,-0.47596500,-0.84798000,0.40071700,-0.04658300
9.42000000,-0.56970600,0.83747000,-0.38469400,-0.31089500,0.51678400,0.17893600,-0.75753500,0.27857300,-0.77841100,0.22978600,-0.47596500,-0.84798000,0.40071700,-0.04658300
9.44000000,-0.56970600,0.83747000,-0.38469400,-0.31089500,0.51678400,0.17893600,-0.75753500,0.27857300,-0.77841100,0.22978600,-0.47596500,-0.84798000,0.40071700,-0.04658300
9.46000000,-0.56970600,0.83747000,-0.38469400,-0.31089500,0.51678400,0.17893600,-0.75753500,0.27857300,-0.77841100,0.22978600,-0.47596500,-0.84798000,0.40071700,-0.04658300
9.48000000,-0.56970600,0.83747000,-0.38469400,-0.31089500,0.51678400,0.17893600,-0.75753500,0.27857300,-0.77841100,0.22978600,-0.47596500,-0.84798000,0.40071700,-0.04658300
9.50000000,-0.56970600,0.83747000,-0.38469400,-0.31089500,0.51678400,0.17893600,-0.75753500,0.27857300,-0.77841100,0.22978600,-0.47596500,-0.84798000,0.40071700,-0.04658300
9.52000000,-0.56970600,0.83747000,-0.38469400,-0.31089500,0.51678400,0.17893600,-0.75753500,0.27857300,-0.77841100,0.22978600,-0.47596500,-0.84798000,0.40071700,-0.04658300
9.54000000,-0.56970600,0.83747000,-0.38469400,-0.31089500,0.51678400,0.17893600,-0.75753500,0.27857300,-0.77841100,0.22978600,-0.47596500,-0.84798000,0.40071700,-0.04658300
9.56000000,-0.56970600,0.83747000,-0.38469400,-0.31089500,0.51678400,0.17893600,-0.75753500,0.27857300,-0.77841100,0.22978600,-0.47596500,-0.84798000,0.40071700,-0.04658300
9.58000000,-0.56970600,0.83747000,-0.38469400,-0.31089500,0.51678400,0.17893600,-0.75753500,0.27857300,-0.77841100,0.22978600,-0.47596500,-0.84798000,0.40071700,-0.04658300
9.60000000,-0.56970600,0.83747000,-0.38469400,-0.31089500,0.51678400,0.17893600,-0.75753500,0.27857300,-0.77841100,0.22978600,-0.47596500,-0.84798000,0.40071700,-0.04658300
9.62000000,-0.56970600,0.83747000,-0.38469400,-0.31089500,0.51678400,0.17893600,-0.75753500,0.27857300,-0.77841100,0.22978600,-0.47596500,-0.84798000,0.40071700,-0.04658300
9.64000000,-0.56970600,0.83747000,-0.38469400,-0.31089500,0.51678400,0.17893600,-0.75753500,0.27857300,-0.77841100,0.22978600,-0.47596500,-0.84798000,0.40071700,-0.04658300
9.66000000,-0.56970600,0.83747000,-0.38469400,-0.31089500,0.51678400,0.17893600,-0.75753500,0.27857300,-0.77841100,0.22978600,-0.47596500,-0.84798000,0.40071700,-0.04658300
9.68000000,-0.56970600,0.83747000,-0.38469400,-0.31089500,0.51678400,0.17893600,-0.75753500,0.27857300,-0.77841100,0.22978600,-0.47596500,-0.84798000,0.40071700,-0.04658300
9.70000000,-0.56970600,0.83747000,-0.38469400,-0.31089500,0.51678400,0.17893600,-0.75753500,0.27857300,-0.77841100,0.22978600,-0.47596500,-0.84798000,0.40071700,-0.04658300
9.72000000,-0.56970600,0.83747000,-0.38469400,-0.31089500,0.51678400,0.17893600,-0.75753500,0.27857300,-0.77841100,0.22978600,-0.47596500,-0.84798000,0.40071700,-0.04658300
9.74000000,-0.56970600,0.83747000,-0.38469400,-0.31089500,0.51678400,0.17893600,-0.75753500,0.27857300,-0.77841100,0.22978600,-0.47596500,-0.84798000,0.40071700,-0.04658300
9.76000000,-0.56970600,0.83747000,-0.38469400,-0.31089500,0.51678400,0.17893600,-0.75753500,0.27857300,-0.77841100,0.22978600,-0.47596500,-0.84798000,0.40071700,-0.04658300
9.78000000,-0.56970600,0.83747000,-0.38469400,-0.31089500,0.51678400,0.17893600,-0.75753500,0.27857300,-0.77841100,0.22978600,-0.47596500,-0.84798000,0.40071700,-0.04658300
9.80000000,-0.56970600,0.83747000,-0.38469400,-0.31089500,0.51678400,0.17893600,-0.75753500,0.27857300,-0.77841100,0.22978600,-0.47596500,-0.84798000,0.40071700,-0.04658300
9.82000000,-0.56970600,0.83747000,-0.38469400,-0.31089500,0.51678400,0.17893600,-0.75753500,0.27857300,-0.77841100,0.22978600,-0.47596500,-0.84798000,0.40071700,-0.04658300
9.84000000,-0.56970600,0.83747000,-0.38469400,-0.31089500,0.51678400,0.17893600,-0.75753500,0.27857300,-0.77841100,0.22978600,-0.47596500,-0.84798000,0.40071700,-0.04658300
9.86000000,-0.56970600,0.83747000,-0.38469400,-0.31089500,0.51678400,0.17893600,-0.75753500,0.27857300,-0.77841100,0.22978600,-0.47596500,-0.84798000,0.40071700,-0.04658300
9.88000000,-0.56970600,0.83747000,-0.38469400,-0.31089500,0.51678400,0.17893600,-0.75753500,0.27857300,-0.77841100,0.22978600,-0.47596500,-0.84798000,0.40071700,-0.04658300
9.90000000,-0.56970600,0.83747000,-0.38469400,-0.31089500,0.51678400,0.17893600,-0.75753500,0.27857300,-0.77841100,0.22978600,-0.47596500,-0.84798000,0.40071700,-0.04658300
9.92000000,-0.56970600,0.83747000,-0.38469400,-0.31089500,0.51678400,0.17893600,-0.75753500,0.27857300,-0.77841100,0.22978600,-0.47596500,-0.84798000,0.40071700,-0.04658300
9.94000000,-0.56970600,0.83747000,-0.38469400,-0.31089500,0.51678400,0.17893600,-0.75753500,0.27857300,-0.77841100,0.22978600,-0.47596500,-0.84798000,0.40071700,-0.04658300
9.96000000,-0.56970600,0.83747000,-0.38469400,-0.31089500,0.51678400,0.17893600,-0.75753500,0.27857300,-0.77841100,0.22978600,-0.47596500,-0.84798000,0.40071700,-0.04658300
9.98000000,-0.56970600,0.83747000,-0.38469400,-0.31089500,0.51678400,0.17893600,-0.75753500,0.27857300,-0.77841100,0.22978600,-0.47596500,-0.84798000,0.40071700,-0.04658300
10.00000000,-0.56970600,0.83747000,-0.38469400,-0.31089500,0.51678400,0.17893600,-0.75753500,0.27857300,-0.77841100,0.22978600,-0.47596500,-0.84798000,0.40071700,-0.04658300
10.02000000,-0.56970600,0.83747000,-0.38469400,-0.31089500,0.51678400,0.17893600,-0.75753500,0.27857300,-0.77841100,0.22978600,-0.47596500,-0.84798000,0.40071700,-0.04658300
10.04000000,-0.56970600,0.83747000,-0.38469400,-0.31089500,0.51678400,0.17893600,-0.75753500,0.27857300,-0.77841100,0.22978600,-0.47596500,-0.84798000,0.40071700,-0.04658300
10.06000000,-0.56970600,0.83747000,-0.38469400,-0.31089500,0.51678400,0.17893600,-0.75753500,0.27857300,-0.77841100,0.22978600,-0.47596500,-0.84798000,0.40071700,-0.04658300
10.08000000,-0.56970600,0.83747000,-0.38469400,-0.31089500,0.51678400,0.17893600,-0.75753500,0.27857300,-0.77841100,0.22978600,-0.47596500,-0.84798000,0.40071700,-0.04658300
10.10000000,-0.56970600,0.83747000,-0.38469400,-0.31089500,0.51678400,0.17893600,-0.75753500,0.27857300,-0.77841100,0.22978600,-0.47596500,-0.84798000,0.40071700,-0.04658300
10.12000000,-0.56970600,0.83747000,-0.38469400,-0.31089500,0.51678400,0.17893600,-0.75753500,0.27857300,-0.77841100,0.22978600,-0.47596500,-0.84798000,0.40071700,-0.04658300
10.14000000,-0.56970600,0.83747000,-0.38469400,-0.31089500,0.51678400,0.17893600,-0.75753500,0.27857300,-0.77841100,0.22978600,-0.47596500,-0.84798000,0.40071700,-0.04658300
10.16000000,-0.56970600,0.83747000,-0.38469400,-0.31089500,0.51678400,0.17893600,-0.75753500,0.27857300,-0.77841100,0.22978600,-0.47596500,-0.84798000,0.40071700,-0.04658300
10.18000000,-0.56970600,0.83747000,-0.38469400,-0.31089500,0.51678400,0.17893600,-0.75753500,0.27857300,-0.77841100,0.22978600,-0.47596500,-0.84798000,0.40071700,-0.04658300
10.20000000,-0.56970600,0.83747000,-0.38469400,-0.31089500,0.51678400,0.17893600,-0.75753500,0.27857300,-0.77841100,0.22978600,-0.47596500,-0.84798000,0.40071700,-0.04658300
10.22000000,-0.56970600,0.83747000,-0.38469400,-0.31089500,0.51678400,0.17893600,-0.75753500,0.27857300,-0.77841100,0.22978600,-0.47596500,-0.84798000,0.40071700,-0.04658300
10.24000000,-0.56970600,0.83747000,-0.38469400,-0.31089500,0.51678400,0.17893600,-0.75753500,0.27857300,-0.77841100,0.22978600,-0.47596500,-0.84798000,0.40071700,-0.04658300
10.26000000,-0.56970600,0.83747000,-0.38469400,-0.31089500,0.51678400,0.17893600,-0.75753500,0.27857300,-0.77841100,0.22978600,-0.47596500,-0.84798000,0.40071700,-0.04658300
10.28000000,-0.56970600,0.83747000,-0.38469400,-0.31089500,0.51678400,0.17893600,-0.75753500,0.27857300,-0.77841100,0.22978600,-0.47596500,-0.84798000,0.40071700,-0.04658300
10.30000000,-0.56970600,0.83747000,-0.38469400,-0.31089500,0.51678400,0.17893600,-0.75753500,0.27857300,-0.77841100,0.22978600,-0.47596500,-0.84798000,0.40071700,-0.04658300
10.32000000,-0.56970600,0.83747000,-0.38469400,-0.31089500,0.51678400,0.17893600,-0.75753500,0.27857300,-0.77841100,0.22978600,-0.47596500,-0.84798000,0.40071700,-0.04658300
10.34000000,-0.56970600,0.83747000,-0.38469400,-0.31089500,0.51678400,0.17893600,-0.75753500,0.27857300,-0.77841100,0.22978600,-0.47596500,-0.84798000,0.40071700,-0.04658300
10.36000000,-0.56970600,0.83747000,-0.38469400,-0.31089500,0.51678400,0.17893600,-0.75753500,0.27857300,-0.77841100,0.22978600,-0.47596500,-0.84798000,0.40071700,-0.04658300
10.38000000,-0.56970600,0.83747000,-0.38469400,-0.31089500,0.51678400,0.17893600,-0.75753500,0.27857300,-0.77841100,0.22978600,-0.47596500,-0.84798000,0.40071700,-0.04658300
10.40000000,-0.56970600,0.83747000,-0.38469400,-0.31089500,0.51678400,0.17893600,-0.75753500,0.27857300,-0.77841100,0.22978600,-0.47596500,-0.84798000,0.40071700,-0.04658300
10.42000000,-0.56970600,0.83747000,-0.38469400,-0.31089500,0.51678400,0.17893600,-0.75753500,0.27857300,-0.77841100,0.22978600,-0.47596500,-0.84798000,0.40071700,-0.04658300
10.44000000,-0.56970600,0.83747000,-0.38469400,-0.31089500,0.51678400,0.17893600,-0.75753500,0.27857300,-0.77841100,0.22978600,-0.47596500,-0.84798000,0.40071700,-0.04658300
10.46000000,-0.56970600,0.83747000,-0.38469400,-0.31089500,0.51678400,0.17893600,-0.75753500,0.27857300,-0.77841100,0.22978600,-0.47596500,-0.84798000,0.40071700,-0.04658300
10.48000000,-0.56970600,0.83747000,-0.38469400,-0.31089500,0.51678400,0.17893600,-0.75753500,0.27857300,-0.77841100,0.22978600,-0.47596500,-0.84798000,0.40071700,-0.04658300
10.50000000,-0.56970600,0.83747000,-0.38469400,-0.31089500,0.51678400,0.17893600,-0.75753500,0.27857300,-0.77841100,0.22978600,-0.47596500,-0.84798000,0.40071700,-0.04658300
10.52000000,-0.56970600,0.83747000,-0.38469400,-0.31089500,0.51678400,0.17893600,-0.75753500,0.27857300,-0.77841100,0.22978600,-0.47596500,-0.84798000,0.40071700,-0.04658300
10.54000000,-0.56970600,0.83747000,-0.38469400,-0.31089500,0.51678400,0.17893600,-0.75753500,0.27857300,-0.77841100,0.22978600,-0.47596500,-0.84798000,0.40071700,-0.04658300
10.56000000,-0.56970600,0.83747000,-0.38469400,-0.31089500,0.51678400,0.17893600,-0.75753500,0.27857300,-0.77841100,0.22978600,-0.47596500,-0.84798000,0.40071700,-0.04658300
10.58000000,-0.56970600,0.83747000,-0.38469400,-0.31089500,0.51678400,0.17893600,-0.75753500,0.27857300,-0.77841100,0.22978600,-0.47596500,-0.84798000,0.40071700,-0.04658300
10.60000000,-0.56970600,0.83747000,-0.38469400,-0.31089500,0.51678400,0.17893600,-0.75753500,0.27857300,-0.77841100,0.22978600,-0.47596500,-0.84798000,0.40071700,-0.04658300
10.62000000,-0.56970600,0.83747000,-0.38469400,-0.31089500,0.51678400,0.17893600,-0.75753500,0.27857300,-0.77841100,0.22978600,-0.47596500,-0.84798000,0.40071700,-0.04658300
10.64000000,-0.56970600,0.83747000,-0.38469400,-0.31089500,0.51678400,0.17893600,-0.75753500,0.27857300,-0.77841100,0.22978600,-0.47596500,-0.84798000,0.40071700,-0.04658300
10.66000000,-0.56970600,0.83747000,-0.38469400,-0.31089500,0.51678400,0.17893600,-0.75753500,0.27857300,-0.77841100,0.22978600,-0.47596500,-0.84798000,0.40071700,-0.04658300
10.68000000,-0.56970600,0.83747000,-0.38469400,-0.31089500,0.51678400,0.17893600,-0.75753500,0.27857300,-0.77841100,0.22978600,-0.47596500,-0.84798000,0.40071700,-0.04658300
10.70000000,-0.56970600,0.83747000,-0.38469400,-0.31089500,0.51678400,0.17893600,-0.75753500,0.27857300,-0.77841100,0.22978600,-0.47596500,-0.84798000,0.40071700,-0.04658300
10.72000000,-0.56970600,0.83747000,-0.38469400,-0.31089500,0.51678400,0.17893600,-0.75753500,0.27857300,-0.77841100,0.22978600,-0.47596500,-0.84798000,0.40071700,-0.04658300
10.74000000,-0.56970600,0.83747000,-0.38469400,-0.31089500,0.51678400,0.17893600,-0.75753500,0.27857300,-0.77841100,0.22978600,-0.47596500,-0.84798000,0.40071700,-0.04658300
10.76000000,-0.56970600,0.83747000,-0.38469400,-0.31089500,0.51678400,0.17893600,-0.75753500,0.27857300,-0.77841100,0.22978600,-0.47596500,-0.84798000,0.40071700,-0.04658300
10.78000000,-0.56970600,0.83747000,-0.38469400,-0.31089500,0.51678400,0.17893600,-0.75753500,0.27857300,-0.77841100,0.22978600,-0.47596500,-0.84798000,0.40071700,-0.04658300
10.80000000,-0.56970600,0.83747000,-0.38469400,-0.31089500,0.51678400,0.17893600,-0.75753500,0.27857300,-0.77841100,0.22978600,-0.47596500,-0.84798000,0.40071700,-0.04658300
10.82000000,-0.56970600,0.83747000,-0.38469400,-0.31089500,0.51678400,0.17893600,-0.75753500,0.27857300,-0.77841100,0.22978600,-0.47596500,-0.84798000,0.40071700,-0.04658300
10.84000000,-0.56970600,0.83747000,-0.38469400,-0.31089500,0.51678400,0.17893600,-0.75753500,0.27857300,-0.77841100,0.22978600,-0.47596500,-0.84798000,0.40071700,-0.04658300
10.86000000,-0.56970600,0.83747000,-0.38469400,-0.31089500,0.51678400,0.17893600,-0.75753500,0.27857300,-0.77841100,0.22978600,-0.47596500,-0.84798000,0.40071700,-0.04658300
10.88000000,-0.56970600,0.83747000,-0.38469400,-0.31089500,0.51678400,0.17893600,-0.75753500,0.27857300,-0.77841100,0.22978600,-0.47596500,-0.84798000,0.40071700,-0.04658300
10.90000000,-0.56970600,0.83747000,-0.38469400,-0.31089500,0.51678400,0.17893600,-0.75753500,0.27857300,-0.77841100,0.22978600,-0.47596500,-0.84798000,0.40071700,-0.04658300
10.92000000,-0.56970600,0.83747000,-0.38469400,-0.31089500,0.51678400,0.17893600,-0.75753500,0.27857300,-0.77841100,0.22978600,-0.47596500,-0.84798000,0.40071700,-0.04658300
10.94000000,-0.56970600,0.83747000,-0.38469400,-0.31089500,0.51678400,0.17893600,-0.75753500,0.27857300,-0.77841100,0.22978600,-0.47596500,-0.84798000,0.40071700,-0.04658300
10.96000000,-0.56970600,0.83747000,-0.38469400,-0.31089500,0.51678400,0.17893600,-0.75753500,0.27857300,-0.77841100,0.22978600,-0.47596500,-0.84798000,0.40071700,-0.04658300
10.98000000,-0.56970600,0.83747000,-0.38469400,-0.31089500,0.51678400,0.17893600,-0.75753500,0.27857300,-0.77841100,0.22978600,-0.47596500,-0.84798000,0.40071700,-0.04658300
11.00000000,-0.56970600,0.83747000,-0.38469400,-0.31089500,0.51678400,0.17893600,-0.75753500,0.27857300,-0.77841100,0.22978600,-0.47596500,-0.84798000,0.40071700,-0.04658300
11.02000000,-0.56970600,0.83747000,-0.38469400,-0.31089500,0.51678400,0.17893600,-0.75753500,0.27857300,-0.77841100,0.22978600,-0.47596500,-0.84798000,0.40071700,-0.04658300
11.04000000,-0.56970600,0.83747000,-0.38469400,-0.31089500,0.51678400,0.17893600,-0.75753500,0.27857300,-0.77841100,0.22978600,-0.47596500,-0.84798000,0.40071700,-0.04658300
11.06000000,-0.56970600,0.83747000,-0.38469400,-0.31089500,0.51678400,0.17893600,-0.75753500,0.27857300,-0.77841100,0.22978600,-0.47596500,-0.84798000,0.40071700,-0.04658300
11.08000000,-0.56970600,0.83747000,-0.38469400,-0.31089500,0.51678400,0.17893600,-0.75753500,0.27857300,-0.77841100,0.22978600,-0.47596500,-0.84798000,0.40071700,-0.04658300
11.10000000,-0.56970600,0.83747000,-0.38469400,-0.31089500,0.51678400,0.17893600,-0.75753500,0.27857300,-0.77841100,0.22978600,-0.47596500,-0.84798000,0.40071700,-0.04658300
11.12000000,-0.56970600,0.83747000,-0.38469400,-0.31089500,0.51678400,0.17893600,-0.75753500,0.27857300,-0.77841100,0.22978600,-0.47596500,-0.84798000,0.40071700,-0.04658300
11.14000000,-0.56970600,0.83747000,-0.38469400,-0.31089500,0.51678400,0.17893600,-0.75753500,0.27857300,-0.77841100,0.22978600,-0.47596500,-0.84798000,0.40071700,-0.04658300
11.16000000,-0.56970600,0.83747000,-0.38469400,-0.31089500,0.51678400,0.17893600,-0.75753500,0.27857300,-0.77841100,0.22978600,-0.47596500,-0.84798000,0.40071700,-0.04658300
11.18000000,-0.56970600,0.83747000,-0.38469400,-0.31089500,0.51678400,0.17893600,-0.75753500,0.27857300,-0.77841100,0.22978600,-0.47596500,-0.84798000,0.40071700,-0.04658300
11.20000000,-0.56970600,0.83747000,-0.38469400,-0.31089500,0.51678400,0.17893600,-0.75753500,0.27857300,-0.77841100,0.22978600,-0.47596500,-0.84798000,0.40071700,-0.04658300
11.22000000,-0.56970600,0.83747000,-0.38469400,-0.31089500,0.51678400,0.17893600,-0.75753500,0.27857300,-0.77841100,0.22978600,-0.47596500,-0.84798000,0.40071700,-0.04658300
11.24000000,-0.56970600,0.83747000,-0.38469400,-0.31089500,0.51678400,0.17893600,-0.75753500,0.27857300,-0.77841100,0.22978600,-0.47596500,-0.84798000,0.40071700,-0.04658300
11.26000000,-0.56970600,0.83747000,-0.38469400,-0.31089500,0.51678400,0.17893600,-0.75753500,0.27857300,-0.77841100,0.22978600,-0.47596500,-0.84798000,0.40071700,-0.04658300
11.28000000,-0.56970600,0.83747000,-0.38469400,-0.31089500,0.51678400,0.17893600,-0.75753500,0.27857300,-0.77841100,0.22978600,-0.47596500,-0.84798000,0.40071700,-0.04658300
11.30000000,-0.56970600,0.83747000,-0.38469400,-0.31089500,0.51678400,0.17893600,-0.75753500,0.27857300,-0.77841100,0.22978600,-0.47596500,-0.84798000,0.40071700,-0.04658300
11.32000000,-0.56970600,0.83747000,-0.38469400,-0.31089500,0.51678400,0.17893600,-0.75753500,0.27857300,-0.77841100,0.22978600,-0.47596500,-0.84798000,0.40071700,-0.04658300
11.34000000,-0.56970600,0.83747000,-0.38469400,-0.31089500,0.51678400,0.17893600,-0.75753500,0.27857300,-0.77841100,0.22978600,-0.47596500,-0.84798000,0.40071700,-0.04658300
11.36000000,-0.56970600,0.83747000,-0.38469400,-0.31089500,0.51678400,0.17893600,-0.75753500,0.27857300,-0.77841100,0.22978600,-0.47596500,-0.84798000,0.40071700,-0.04658300
11.38000000,-0.56970600,0.83747000,-0.38469400,-0.31089500,0.51678400,0.17893600,-0.75753500,0.27857300,-0.77841100,0.22978600,-0.47596500,-0.84798000,0.40071700,-0.04658300
11.40000000,-0.56970600,0.83747000,-0.38469400,-0.31089500,0.51678400,0.17893600,-0.75753500,0.27857300,-0.77841100,0.22978600,-0.47596500,-0.84798000,0.40071700,-0.04658300
11.42000000,-0.56970600,0.83747000,-0.38469400,-0.31089500,0.51678400,0.17893600,-0.75753500,0.27857300,-0.77841100,0.22978600,-0.47596500,-0.84798000,0.40071700,-0.04658300
11.44000000,-0.56970600,0.83747000,-0.38469400,-0.31089500,0.51678400,0.17893600,-0.75753500,0.27857300,-0.77841100,0.22978600,-0.47596500,-0.84798000,0.40071700,-0.04658300
11.46000000,-0.56970600,0.83747000,-0.38469400,-0.31089500,0.51678400,0.17893600,-0.75753500,0.27857300,-0.77841100,0.22978600,-0.47596500,-0.84798000,0.40071700,-0.04658300
11.48000000,-0.56970600,0.83747000,-0.38469400,-0.31089500,0.51678400,0.17893600,-0.75753500,0.27857300,-0.77841100,0.22978600,-0.47596500,-0.84798000,0.40071700,-0.04658300
