gracetata/LocomotionHEC/legged_lab/Reference Data/ArmHack/StandPerturb/TestData/ArmOnly/poses/representative/representative_arm_pose_02_hold20s_50hz.csv
time_s,left_shoulder_pitch_joint,left_shoulder_roll_joint,left_shoulder_yaw_joint,left_elbow_joint,left_wrist_roll_joint,left_wrist_pitch_joint,left_wrist_yaw_joint,right_shoulder_pitch_joint,right_shoulder_roll_joint,right_shoulder_yaw_joint,right_elbow_joint,right_wrist_roll_joint,right_wrist_pitch_joint,right_wrist_yaw_joint
0.00000000,0.24318400,0.32195600,-0.10706700,0.73631100,0.06639300,0.04969900,0.00659100,0.25242400,-0.31495700,0.11346700,0.69877600,-0.06790300,0.05015400,-0.00154600
0.02000000,0.24318400,0.32195600,-0.10706700,0.73631100,0.06639300,0.04969900,0.00659100,0.25242400,-0.31495700,0.11346700,0.69877600,-0.06790300,0.05015400,-0.00154600
0.04000000,0.24318400,0.32195600,-0.10706700,0.73631100,0.06639300,0.04969900,0.00659100,0.25242400,-0.31495700,0.11346700,0.69877600,-0.06790300,0.05015400,-0.00154600
0.06000000,0.24318400,0.32195600,-0.10706700,0.73631100,0.06639300,0.04969900,0.00659100,0.25242400,-0.31495700,0.11346700,0.69877600,-0.06790300,0.05015400,-0.00154600
0.08000000,0.24318400,0.32195600,-0.10706700,0.73631100,0.06639300,0.04969900,0.00659100,0.25242400,-0.31495700,0.11346700,0.69877600,-0.06790300,0.05015400,-0.00154600
0.10000000,0.24318400,0.32195600,-0.10706700,0.73631100,0.06639300,0.04969900,0.00659100,0.25242400,-0.31495700,0.11346700,0.69877600,-0.06790300,0.05015400,-0.00154600
0.12000000,0.24318400,0.32195600,-0.10706700,0.73631100,0.06639300,0.04969900,0.00659100,0.25242400,-0.31495700,0.11346700,0.69877600,-0.06790300,0.05015400,-0.00154600
0.14000000,0.24318400,0.32195600,-0.10706700,0.73631100,0.06639300,0.04969900,0.00659100,0.25242400,-0.31495700,0.11346700,0.69877600,-0.06790300,0.05015400,-0.00154600
0.16000000,0.24318400,0.32195600,-0.10706700,0.73631100,0.06639300,0.04969900,0.00659100,0.25242400,-0.31495700,0.11346700,0.69877600,-0.06790300,0.05015400,-0.00154600
0.18000000,0.24318400,0.32195600,-0.10706700,0.73631100,0.06639300,0.04969900,0.00659100,0.25242400,-0.31495700,0.11346700,0.69877600,-0.06790300,0.05015400,-0.00154600
0.20000000,0.24318400,0.32195600,-0.10706700,0.73631100,0.06639300,0.04969900,0.00659100,0.25242400,-0.31495700,0.11346700,0.69877600,-0.06790300,0.05015400,-0.00154600
0.22000000,0.24318400,0.32195600,-0.10706700,0.73631100,0.06639300,0.04969900,0.00659100,0.25242400,-0.31495700,0.11346700,0.69877600,-0.06790300,0.05015400,-0.00154600
0.24000000,0.24318400,0.32195600,-0.10706700,0.73631100,0.06639300,0.04969900,0.00659100,0.25242400,-0.31495700,0.11346700,0.69877600,-0.06790300,0.05015400,-0.00154600
0.26000000,0.24318400,0.32195600,-0.10706700,0.73631100,0.06639300,0.04969900,0.00659100,0.25242400,-0.31495700,0.11346700,0.69877600,-0.06790300,0.05015400,-0.00154600
0.28000000,0.24318400,0.32195600,-0.10706700,0.73631100,0.06639300,0.04969900,0.00659100,0.25242400,-0.31495700,0.11346700,0.69877600,-0.06790300,0.05015400,-0.00154600
0.30000000,0.24318400,0.32195600,-0.10706700,0.73631100,0.06639300,0.04969900,0.00659100,0.25242400,-0.31495700,0.11346700,0.69877600,-0.06790300,0.05015400,-0.00154600
0.32000000,0.24318400,0.32195600,-0.10706700,0.73631100,0.06639300,0.04969900,0.00659100,0.25242400,-0.31495700,0.11346700,0.69877600,-0.06790300,0.05015400,-0.00154600
0.34000000,0.24318400,0.32195600,-0.10706700,0.73631100,0.06639300,0.04969900,0.00659100,0.25242400,-0.31495700,0.11346700,0.69877600,-0.06790300,0.05015400,-0.00154600
0.36000000,0.24318400,0.32195600,-0.10706700,0.73631100,0.06639300,0.04969900,0.00659100,0.25242400,-0.31495700,0.11346700,0.69877600,-0.06790300,0.05015400,-0.00154600
0.38000000,0.24318400,0.32195600,-0.10706700,0.73631100,0.06639300,0.04969900,0.00659100,0.25242400,-0.31495700,0.11346700,0.69877600,-0.06790300,0.05015400,-0.00154600
0.40000000,0.24318400,0.32195600,-0.10706700,0.73631100,0.06639300,0.04969900,0.00659100,0.25242400,-0.31495700,0.11346700,0.69877600,-0.06790300,0.05015400,-0.00154600
0.42000000,0.24318400,0.32195600,-0.10706700,0.73631100,0.06639300,0.04969900,0.00659100,0.25242400,-0.31495700,0.11346700,0.69877600,-0.06790300,0.05015400,-0.00154600
0.44000000,0.24318400,0.32195600,-0.10706700,0.73631100,0.06639300,0.04969900,0.00659100,0.25242400,-0.31495700,0.11346700,0.69877600,-0.06790300,0.05015400,-0.00154600
0.46000000,0.24318400,0.32195600,-0.10706700,0.73631100,0.06639300,0.04969900,0.00659100,0.25242400,-0.31495700,0.11346700,0.69877600,-0.06790300,0.05015400,-0.00154600
0.48000000,0.24318400,0.32195600,-0.10706700,0.73631100,0.06639300,0.04969900,0.00659100,0.25242400,-0.31495700,0.11346700,0.69877600,-0.06790300,0.05015400,-0.00154600
0.50000000,0.24318400,0.32195600,-0.10706700,0.73631100,0.06639300,0.04969900,0.00659100,0.25242400,-0.31495700,0.11346700,0.69877600,-0.06790300,0.05015400,-0.00154600
0.52000000,0.24318400,0.32195600,-0.10706700,0.73631100,0.06639300,0.04969900,0.00659100,0.25242400,-0.31495700,0.11346700,0.69877600,-0.06790300,0.05015400,-0.00154600
0.54000000,0.24318400,0.32195600,-0.10706700,0.73631100,0.06639300,0.04969900,0.00659100,0.25242400,-0.31495700,0.11346700,0.69877600,-0.06790300,0.05015400,-0.00154600
0.56000000,0.24318400,0.32195600,-0.10706700,0.73631100,0.06639300,0.04969900,0.00659100,0.25242400,-0.31495700,0.11346700,0.69877600,-0.06790300,0.05015400,-0.00154600
0.58000000,0.24318400,0.32195600,-0.10706700,0.73631100,0.06639300,0.04969900,0.00659100,0.25242400,-0.31495700,0.11346700,0.69877600,-0.06790300,0.05015400,-0.00154600
0.60000000,0.24318400,0.32195600,-0.10706700,0.73631100,0.06639300,0.04969900,0.00659100,0.25242400,-0.31495700,0.11346700,0.69877600,-0.06790300,0.05015400,-0.00154600
0.62000000,0.24318400,0.32195600,-0.10706700,0.73631100,0.06639300,0.04969900,0.00659100,0.25242400,-0.31495700,0.11346700,0.69877600,-0.06790300,0.05015400,-0.00154600
0.64000000,0.24318400,0.32195600,-0.10706700,0.73631100,0.06639300,0.04969900,0.00659100,0.25242400,-0.31495700,0.11346700,0.69877600,-0.06790300,0.05015400,-0.00154600
0.66000000,0.24318400,0.32195600,-0.10706700,0.73631100,0.06639300,0.04969900,0.00659100,0.25242400,-0.31495700,0.11346700,0.69877600,-0.06790300,0.05015400,-0.00154600
0.68000000,0.24318400,0.32195600,-0.10706700,0.73631100,0.06639300,0.04969900,0.00659100,0.25242400,-0.31495700,0.11346700,0.69877600,-0.06790300,0.05015400,-0.00154600
0.70000000,0.24318400,0.32195600,-0.10706700,0.73631100,0.06639300,0.04969900,0.00659100,0.25242400,-0.31495700,0.11346700,0.69877600,-0.06790300,0.05015400,-0.00154600
0.72000000,0.24318400,0.32195600,-0.10706700,0.73631100,0.06639300,0.04969900,0.00659100,0.25242400,-0.31495700,0.11346700,0.69877600,-0.06790300,0.05015400,-0.00154600
0.74000000,0.24318400,0.32195600,-0.10706700,0.73631100,0.06639300,0.04969900,0.00659100,0.25242400,-0.31495700,0.11346700,0.69877600,-0.06790300,0.05015400,-0.00154600
0.76000000,0.24318400,0.32195600,-0.10706700,0.73631100,0.06639300,0.04969900,0.00659100,0.25242400,-0.31495700,0.11346700,0.69877600,-0.06790300,0.05015400,-0.00154600
0.78000000,0.24318400,0.32195600,-0.10706700,0.73631100,0.06639300,0.04969900,0.00659100,0.25242400,-0.31495700,0.11346700,0.69877600,-0.06790300,0.05015400,-0.00154600
0.80000000,0.24318400,0.32195600,-0.10706700,0.73631100,0.06639300,0.04969900,0.00659100,0.25242400,-0.31495700,0.11346700,0.69877600,-0.06790300,0.05015400,-0.00154600
0.82000000,0.24318400,0.32195600,-0.10706700,0.73631100,0.06639300,0.04969900,0.00659100,0.25242400,-0.31495700,0.11346700,0.69877600,-0.06790300,0.05015400,-0.00154600
0.84000000,0.24318400,0.32195600,-0.10706700,0.73631100,0.06639300,0.04969900,0.00659100,0.25242400,-0.31495700,0.11346700,0.69877600,-0.06790300,0.05015400,-0.00154600
0.86000000,0.24318400,0.32195600,-0.10706700,0.73631100,0.06639300,0.04969900,0.00659100,0.25242400,-0.31495700,0.11346700,0.69877600,-0.06790300,0.05015400,-0.00154600
0.88000000,0.24318400,0.32195600,-0.10706700,0.73631100,0.06639300,0.04969900,0.00659100,0.25242400,-0.31495700,0.11346700,0.69877600,-0.06790300,0.05015400,-0.00154600
0.90000000,0.24318400,0.32195600,-0.10706700,0.73631100,0.06639300,0.04969900,0.00659100,0.25242400,-0.31495700,0.11346700,0.69877600,-0.06790300,0.05015400,-0.00154600
0.92000000,0.24318400,0.32195600,-0.10706700,0.73631100,0.06639300,0.04969900,0.00659100,0.25242400,-0.31495700,0.11346700,0.69877600,-0.06790300,0.05015400,-0.00154600
0.94000000,0.24318400,0.32195600,-0.10706700,0.73631100,0.06639300,0.04969900,0.00659100,0.25242400,-0.31495700,0.11346700,0.69877600,-0.06790300,0.05015400,-0.00154600
0.96000000,0.24318400,0.32195600,-0.10706700,0.73631100,0.06639300,0.04969900,0.00659100,0.25242400,-0.31495700,0.11346700,0.69877600,-0.06790300,0.05015400,-0.00154600
0.98000000,0.24318400,0.32195600,-0.10706700,0.73631100,0.06639300,0.04969900,0.00659100,0.25242400,-0.31495700,0.11346700,0.69877600,-0.06790300,0.05015400,-0.00154600
1.00000000,0.24318400,0.32195600,-0.10706700,0.73631100,0.06639300,0.04969900,0.00659100,0.25242400,-0.31495700,0.11346700,0.69877600,-0.06790300,0.05015400,-0.00154600
1.02000000,0.24318400,0.32195600,-0.10706700,0.73631100,0.06639300,0.04969900,0.00659100,0.25242400,-0.31495700,0.11346700,0.69877600,-0.06790300,0.05015400,-0.00154600
1.04000000,0.24318400,0.32195600,-0.10706700,0.73631100,0.06639300,0.04969900,0.00659100,0.25242400,-0.31495700,0.11346700,0.69877600,-0.06790300,0.05015400,-0.00154600
1.06000000,0.24318400,0.32195600,-0.10706700,0.73631100,0.06639300,0.04969900,0.00659100,0.25242400,-0.31495700,0.11346700,0.69877600,-0.06790300,0.05015400,-0.00154600
1.08000000,0.24318400,0.32195600,-0.10706700,0.73631100,0.06639300,0.04969900,0.00659100,0.25242400,-0.31495700,0.11346700,0.69877600,-0.06790300,0.05015400,-0.00154600
1.10000000,0.24318400,0.32195600,-0.10706700,0.73631100,0.06639300,0.04969900,0.00659100,0.25242400,-0.31495700,0.11346700,0.69877600,-0.06790300,0.05015400,-0.00154600
1.12000000,0.24318400,0.32195600,-0.10706700,0.73631100,0.06639300,0.04969900,0.00659100,0.25242400,-0.31495700,0.11346700,0.69877600,-0.06790300,0.05015400,-0.00154600
1.14000000,0.24318400,0.32195600,-0.10706700,0.73631100,0.06639300,0.04969900,0.00659100,0.25242400,-0.31495700,0.11346700,0.69877600,-0.06790300,0.05015400,-0.00154600
1.16000000,0.24318400,0.32195600,-0.10706700,0.73631100,0.06639300,0.04969900,0.00659100,0.25242400,-0.31495700,0.11346700,0.69877600,-0.06790300,0.05015400,-0.00154600
1.18000000,0.24318400,0.32195600,-0.10706700,0.73631100,0.06639300,0.04969900,0.00659100,0.25242400,-0.31495700,0.11346700,0.69877600,-0.06790300,0.05015400,-0.00154600
1.20000000,0.24318400,0.32195600,-0.10706700,0.73631100,0.06639300,0.04969900,0.00659100,0.25242400,-0.31495700,0.11346700,0.69877600,-0.06790300,0.05015400,-0.00154600
1.22000000,0.24318400,0.32195600,-0.10706700,0.73631100,0.06639300,0.04969900,0.00659100,0.25242400,-0.31495700,0.11346700,0.69877600,-0.06790300,0.05015400,-0.00154600
1.24000000,0.24318400,0.32195600,-0.10706700,0.73631100,0.06639300,0.04969900,0.00659100,0.25242400,-0.31495700,0.11346700,0.69877600,-0.06790300,0.05015400,-0.00154600
1.26000000,0.24318400,0.32195600,-0.10706700,0.73631100,0.06639300,0.04969900,0.00659100,0.25242400,-0.31495700,0.11346700,0.69877600,-0.06790300,0.05015400,-0.00154600
1.28000000,0.24318400,0.32195600,-0.10706700,0.73631100,0.06639300,0.04969900,0.00659100,0.25242400,-0.31495700,0.11346700,0.69877600,-0.06790300,0.05015400,-0.00154600
1.30000000,0.24318400,0.32195600,-0.10706700,0.73631100,0.06639300,0.04969900,0.00659100,0.25242400,-0.31495700,0.11346700,0.69877600,-0.06790300,0.05015400,-0.00154600
1.32000000,0.24318400,0.32195600,-0.10706700,0.73631100,0.06639300,0.04969900,0.00659100,0.25242400,-0.31495700,0.11346700,0.69877600,-0.06790300,0.05015400,-0.00154600
1.34000000,0.24318400,0.32195600,-0.10706700,0.73631100,0.06639300,0.04969900,0.00659100,0.25242400,-0.31495700,0.11346700,0.69877600,-0.06790300,0.05015400,-0.00154600
1.36000000,0.24318400,0.32195600,-0.10706700,0.73631100,0.06639300,0.04969900,0.00659100,0.25242400,-0.31495700,0.11346700,0.69877600,-0.06790300,0.05015400,-0.00154600
1.38000000,0.24318400,0.32195600,-0.10706700,0.73631100,0.06639300,0.04969900,0.00659100,0.25242400,-0.31495700,0.11346700,0.69877600,-0.06790300,0.05015400,-0.00154600
1.40000000,0.24318400,0.32195600,-0.10706700,0.73631100,0.06639300,0.04969900,0.00659100,0.25242400,-0.31495700,0.11346700,0.69877600,-0.06790300,0.05015400,-0.00154600
1.42000000,0.24318400,0.32195600,-0.10706700,0.73631100,0.06639300,0.04969900,0.00659100,0.25242400,-0.31495700,0.11346700,0.69877600,-0.06790300,0.05015400,-0.00154600
1.44000000,0.24318400,0.32195600,-0.10706700,0.73631100,0.06639300,0.04969900,0.00659100,0.25242400,-0.31495700,0.11346700,0.69877600,-0.06790300,0.05015400,-0.00154600
1.46000000,0.24318400,0.32195600,-0.10706700,0.73631100,0.06639300,0.04969900,0.00659100,0.25242400,-0.31495700,0.11346700,0.69877600,-0.06790300,0.05015400,-0.00154600
1.48000000,0.24318400,0.32195600,-0.10706700,0.73631100,0.06639300,0.04969900,0.00659100,0.25242400,-0.31495700,0.11346700,0.69877600,-0.06790300,0.05015400,-0.00154600
1.50000000,0.24318400,0.32195600,-0.10706700,0.73631100,0.06639300,0.04969900,0.00659100,0.25242400,-0.31495700,0.11346700,0.69877600,-0.06790300,0.05015400,-0.00154600
1.52000000,0.24318400,0.32195600,-0.10706700,0.73631100,0.06639300,0.04969900,0.00659100,0.25242400,-0.31495700,0.11346700,0.69877600,-0.06790300,0.05015400,-0.00154600
1.54000000,0.24318400,0.32195600,-0.10706700,0.73631100,0.06639300,0.04969900,0.00659100,0.25242400,-0.31495700,0.11346700,0.69877600,-0.06790300,0.05015400,-0.00154600
1.56000000,0.24318400,0.32195600,-0.10706700,0.73631100,0.06639300,0.04969900,0.00659100,0.25242400,-0.31495700,0.11346700,0.69877600,-0.06790300,0.05015400,-0.00154600
1.58000000,0.24318400,0.32195600,-0.10706700,0.73631100,0.06639300,0.04969900,0.00659100,0.25242400,-0.31495700,0.11346700,0.69877600,-0.06790300,0.05015400,-0.00154600
1.60000000,0.24318400,0.32195600,-0.10706700,0.73631100,0.06639300,0.04969900,0.00659100,0.25242400,-0.31495700,0.11346700,0.69877600,-0.06790300,0.05015400,-0.00154600
1.62000000,0.24318400,0.32195600,-0.10706700,0.73631100,0.06639300,0.04969900,0.00659100,0.25242400,-0.31495700,0.11346700,0.69877600,-0.06790300,0.05015400,-0.00154600
1.64000000,0.24318400,0.32195600,-0.10706700,0.73631100,0.06639300,0.04969900,0.00659100,0.25242400,-0.31495700,0.11346700,0.69877600,-0.06790300,0.05015400,-0.00154600
1.66000000,0.24318400,0.32195600,-0.10706700,0.73631100,0.06639300,0.04969900,0.00659100,0.25242400,-0.31495700,0.11346700,0.69877600,-0.06790300,0.05015400,-0.00154600
1.68000000,0.24318400,0.32195600,-0.10706700,0.73631100,0.06639300,0.04969900,0.00659100,0.25242400,-0.31495700,0.11346700,0.69877600,-0.06790300,0.05015400,-0.00154600
1.70000000,0.24318400,0.32195600,-0.10706700,0.73631100,0.06639300,0.04969900,0.00659100,0.25242400,-0.31495700,0.11346700,0.69877600,-0.06790300,0.05015400,-0.00154600
1.72000000,0.24318400,0.32195600,-0.10706700,0.73631100,0.06639300,0.04969900,0.00659100,0.25242400,-0.31495700,0.11346700,0.69877600,-0.06790300,0.05015400,-0.00154600
1.74000000,0.24318400,0.32195600,-0.10706700,0.73631100,0.06639300,0.04969900,0.00659100,0.25242400,-0.31495700,0.11346700,0.69877600,-0.06790300,0.05015400,-0.00154600
1.76000000,0.24318400,0.32195600,-0.10706700,0.73631100,0.06639300,0.04969900,0.00659100,0.25242400,-0.31495700,0.11346700,0.69877600,-0.06790300,0.05015400,-0.00154600
1.78000000,0.24318400,0.32195600,-0.10706700,0.73631100,0.06639300,0.04969900,0.00659100,0.25242400,-0.31495700,0.11346700,0.69877600,-0.06790300,0.05015400,-0.00154600
1.80000000,0.24318400,0.32195600,-0.10706700,0.73631100,0.06639300,0.04969900,0.00659100,0.25242400,-0.31495700,0.11346700,0.69877600,-0.06790300,0.05015400,-0.00154600
1.82000000,0.24318400,0.32195600,-0.10706700,0.73631100,0.06639300,0.04969900,0.00659100,0.25242400,-0.31495700,0.11346700,0.69877600,-0.06790300,0.05015400,-0.00154600
1.84000000,0.24318400,0.32195600,-0.10706700,0.73631100,0.06639300,0.04969900,0.00659100,0.25242400,-0.31495700,0.11346700,0.69877600,-0.06790300,0.05015400,-0.00154600
1.86000000,0.24318400,0.32195600,-0.10706700,0.73631100,0.06639300,0.04969900,0.00659100,0.25242400,-0.31495700,0.11346700,0.69877600,-0.06790300,0.05015400,-0.00154600
1.88000000,0.24318400,0.32195600,-0.10706700,0.73631100,0.06639300,0.04969900,0.00659100,0.25242400,-0.31495700,0.11346700,0.69877600,-0.06790300,0.05015400,-0.00154600
1.90000000,0.24318400,0.32195600,-0.10706700,0.73631100,0.06639300,0.04969900,0.00659100,0.25242400,-0.31495700,0.11346700,0.69877600,-0.06790300,0.05015400,-0.00154600
1.92000000,0.24318400,0.32195600,-0.10706700,0.73631100,0.06639300,0.04969900,0.00659100,0.25242400,-0.31495700,0.11346700,0.69877600,-0.06790300,0.05015400,-0.00154600
1.94000000,0.24318400,0.32195600,-0.10706700,0.73631100,0.06639300,0.04969900,0.00659100,0.25242400,-0.31495700,0.11346700,0.69877600,-0.06790300,0.05015400,-0.00154600
1.96000000,0.24318400,0.32195600,-0.10706700,0.73631100,0.06639300,0.04969900,0.00659100,0.25242400,-0.31495700,0.11346700,0.69877600,-0.06790300,0.05015400,-0.00154600
1.98000000,0.24318400,0.32195600,-0.10706700,0.73631100,0.06639300,0.04969900,0.00659100,0.25242400,-0.31495700,0.11346700,0.69877600,-0.06790300,0.05015400,-0.00154600
2.00000000,0.24318400,0.32195600,-0.10706700,0.73631100,0.06639300,0.04969900,0.00659100,0.25242400,-0.31495700,0.11346700,0.69877600,-0.06790300,0.05015400,-0.00154600
2.02000000,0.24318400,0.32195600,-0.10706700,0.73631100,0.06639300,0.04969900,0.00659100,0.25242400,-0.31495700,0.11346700,0.69877600,-0.06790300,0.05015400,-0.00154600
2.04000000,0.24318400,0.32195600,-0.10706700,0.73631100,0.06639300,0.04969900,0.00659100,0.25242400,-0.31495700,0.11346700,0.69877600,-0.06790300,0.05015400,-0.00154600
2.06000000,0.24318400,0.32195600,-0.10706700,0.73631100,0.06639300,0.04969900,0.00659100,0.25242400,-0.31495700,0.11346700,0.69877600,-0.06790300,0.05015400,-0.00154600
2.08000000,0.24318400,0.32195600,-0.10706700,0.73631100,0.06639300,0.04969900,0.00659100,0.25242400,-0.31495700,0.11346700,0.69877600,-0.06790300,0.05015400,-0.00154600
2.10000000,0.24318400,0.32195600,-0.10706700,0.73631100,0.06639300,0.04969900,0.00659100,0.25242400,-0.31495700,0.11346700,0.69877600,-0.06790300,0.05015400,-0.00154600
2.12000000,0.24318400,0.32195600,-0.10706700,0.73631100,0.06639300,0.04969900,0.00659100,0.25242400,-0.31495700,0.11346700,0.69877600,-0.06790300,0.05015400,-0.00154600
2.14000000,0.24318400,0.32195600,-0.10706700,0.73631100,0.06639300,0.04969900,0.00659100,0.25242400,-0.31495700,0.11346700,0.69877600,-0.06790300,0.05015400,-0.00154600
2.16000000,0.24318400,0.32195600,-0.10706700,0.73631100,0.06639300,0.04969900,0.00659100,0.25242400,-0.31495700,0.11346700,0.69877600,-0.06790300,0.05015400,-0.00154600
2.18000000,0.24318400,0.32195600,-0.10706700,0.73631100,0.06639300,0.04969900,0.00659100,0.25242400,-0.31495700,0.11346700,0.69877600,-0.06790300,0.05015400,-0.00154600
2.20000000,0.24318400,0.32195600,-0.10706700,0.73631100,0.06639300,0.04969900,0.00659100,0.25242400,-0.31495700,0.11346700,0.69877600,-0.06790300,0.05015400,-0.00154600
2.22000000,0.24318400,0.32195600,-0.10706700,0.73631100,0.06639300,0.04969900,0.00659100,0.25242400,-0.31495700,0.11346700,0.69877600,-0.06790300,0.05015400,-0.00154600
2.24000000,0.24318400,0.32195600,-0.10706700,0.73631100,0.06639300,0.04969900,0.00659100,0.25242400,-0.31495700,0.11346700,0.69877600,-0.06790300,0.05015400,-0.00154600
2.26000000,0.24318400,0.32195600,-0.10706700,0.73631100,0.06639300,0.04969900,0.00659100,0.25242400,-0.31495700,0.11346700,0.69877600,-0.06790300,0.05015400,-0.00154600
2.28000000,0.24318400,0.32195600,-0.10706700,0.73631100,0.06639300,0.04969900,0.00659100,0.25242400,-0.31495700,0.11346700,0.69877600,-0.06790300,0.05015400,-0.00154600
2.30000000,0.24318400,0.32195600,-0.10706700,0.73631100,0.06639300,0.04969900,0.00659100,0.25242400,-0.31495700,0.11346700,0.69877600,-0.06790300,0.05015400,-0.00154600
2.32000000,0.24318400,0.32195600,-0.10706700,0.73631100,0.06639300,0.04969900,0.00659100,0.25242400,-0.31495700,0.11346700,0.69877600,-0.06790300,0.05015400,-0.00154600
2.34000000,0.24318400,0.32195600,-0.10706700,0.73631100,0.06639300,0.04969900,0.00659100,0.25242400,-0.31495700,0.11346700,0.69877600,-0.06790300,0.05015400,-0.00154600
2.36000000,0.24318400,0.32195600,-0.10706700,0.73631100,0.06639300,0.04969900,0.00659100,0.25242400,-0.31495700,0.11346700,0.69877600,-0.06790300,0.05015400,-0.00154600
2.38000000,0.24318400,0.32195600,-0.10706700,0.73631100,0.06639300,0.04969900,0.00659100,0.25242400,-0.31495700,0.11346700,0.69877600,-0.06790300,0.05015400,-0.00154600
2.40000000,0.24318400,0.32195600,-0.10706700,0.73631100,0.06639300,0.04969900,0.00659100,0.25242400,-0.31495700,0.11346700,0.69877600,-0.06790300,0.05015400,-0.00154600
2.42000000,0.24318400,0.32195600,-0.10706700,0.73631100,0.06639300,0.04969900,0.00659100,0.25242400,-0.31495700,0.11346700,0.69877600,-0.06790300,0.05015400,-0.00154600
2.44000000,0.24318400,0.32195600,-0.10706700,0.73631100,0.06639300,0.04969900,0.00659100,0.25242400,-0.31495700,0.11346700,0.69877600,-0.06790300,0.05015400,-0.00154600
2.46000000,0.24318400,0.32195600,-0.10706700,0.73631100,0.06639300,0.04969900,0.00659100,0.25242400,-0.31495700,0.11346700,0.69877600,-0.06790300,0.05015400,-0.00154600
2.48000000,0.24318400,0.32195600,-0.10706700,0.73631100,0.06639300,0.04969900,0.00659100,0.25242400,-0.31495700,0.11346700,0.69877600,-0.06790300,0.05015400,-0.00154600
2.50000000,0.24318400,0.32195600,-0.10706700,0.73631100,0.06639300,0.04969900,0.00659100,0.25242400,-0.31495700,0.11346700,0.69877600,-0.06790300,0.05015400,-0.00154600
2.52000000,0.24318400,0.32195600,-0.10706700,0.73631100,0.06639300,0.04969900,0.00659100,0.25242400,-0.31495700,0.11346700,0.69877600,-0.06790300,0.05015400,-0.00154600
2.54000000,0.24318400,0.32195600,-0.10706700,0.73631100,0.06639300,0.04969900,0.00659100,0.25242400,-0.31495700,0.11346700,0.69877600,-0.06790300,0.05015400,-0.00154600
2.56000000,0.24318400,0.32195600,-0.10706700,0.73631100,0.06639300,0.04969900,0.00659100,0.25242400,-0.31495700,0.11346700,0.69877600,-0.06790300,0.05015400,-0.00154600
2.58000000,0.24318400,0.32195600,-0.10706700,0.73631100,0.06639300,0.04969900,0.00659100,0.25242400,-0.31495700,0.11346700,0.69877600,-0.06790300,0.05015400,-0.00154600
2.60000000,0.24318400,0.32195600,-0.10706700,0.73631100,0.06639300,0.04969900,0.00659100,0.25242400,-0.31495700,0.11346700,0.69877600,-0.06790300,0.05015400,-0.00154600
2.62000000,0.24318400,0.32195600,-0.10706700,0.73631100,0.06639300,0.04969900,0.00659100,0.25242400,-0.31495700,0.11346700,0.69877600,-0.06790300,0.05015400,-0.00154600
2.64000000,0.24318400,0.32195600,-0.10706700,0.73631100,0.06639300,0.04969900,0.00659100,0.25242400,-0.31495700,0.11346700,0.69877600,-0.06790300,0.05015400,-0.00154600
2.66000000,0.24318400,0.32195600,-0.10706700,0.73631100,0.06639300,0.04969900,0.00659100,0.25242400,-0.31495700,0.11346700,0.69877600,-0.06790300,0.05015400,-0.00154600
2.68000000,0.24318400,0.32195600,-0.10706700,0.73631100,0.06639300,0.04969900,0.00659100,0.25242400,-0.31495700,0.11346700,0.69877600,-0.06790300,0.05015400,-0.00154600
2.70000000,0.24318400,0.32195600,-0.10706700,0.73631100,0.06639300,0.04969900,0.00659100,0.25242400,-0.31495700,0.11346700,0.69877600,-0.06790300,0.05015400,-0.00154600
2.72000000,0.24318400,0.32195600,-0.10706700,0.73631100,0.06639300,0.04969900,0.00659100,0.25242400,-0.31495700,0.11346700,0.69877600,-0.06790300,0.05015400,-0.00154600
2.74000000,0.24318400,0.32195600,-0.10706700,0.73631100,0.06639300,0.04969900,0.00659100,0.25242400,-0.31495700,0.11346700,0.69877600,-0.06790300,0.05015400,-0.00154600
2.76000000,0.24318400,0.32195600,-0.10706700,0.73631100,0.06639300,0.04969900,0.00659100,0.25242400,-0.31495700,0.11346700,0.69877600,-0.06790300,0.05015400,-0.00154600
2.78000000,0.24318400,0.32195600,-0.10706700,0.73631100,0.06639300,0.04969900,0.00659100,0.25242400,-0.31495700,0.11346700,0.69877600,-0.06790300,0.05015400,-0.00154600
2.80000000,0.24318400,0.32195600,-0.10706700,0.73631100,0.06639300,0.04969900,0.00659100,0.25242400,-0.31495700,0.11346700,0.69877600,-0.06790300,0.05015400,-0.00154600
2.82000000,0.24318400,0.32195600,-0.10706700,0.73631100,0.06639300,0.04969900,0.00659100,0.25242400,-0.31495700,0.11346700,0.69877600,-0.06790300,0.05015400,-0.00154600
2.84000000,0.24318400,0.32195600,-0.10706700,0.73631100,0.06639300,0.04969900,0.00659100,0.25242400,-0.31495700,0.11346700,0.69877600,-0.06790300,0.05015400,-0.00154600
2.86000000,0.24318400,0.32195600,-0.10706700,0.73631100,0.06639300,0.04969900,0.00659100,0.25242400,-0.31495700,0.11346700,0.69877600,-0.06790300,0.05015400,-0.00154600
2.88000000,0.24318400,0.32195600,-0.10706700,0.73631100,0.06639300,0.04969900,0.00659100,0.25242400,-0.31495700,0.11346700,0.69877600,-0.06790300,0.05015400,-0.00154600
2.90000000,0.24318400,0.32195600,-0.10706700,0.73631100,0.06639300,0.04969900,0.00659100,0.25242400,-0.31495700,0.11346700,0.69877600,-0.06790300,0.05015400,-0.00154600
2.92000000,0.24318400,0.32195600,-0.10706700,0.73631100,0.06639300,0.04969900,0.00659100,0.25242400,-0.31495700,0.11346700,0.69877600,-0.06790300,0.05015400,-0.00154600
2.94000000,0.24318400,0.32195600,-0.10706700,0.73631100,0.06639300,0.04969900,0.00659100,0.25242400,-0.31495700,0.11346700,0.69877600,-0.06790300,0.05015400,-0.00154600
2.96000000,0.24318400,0.32195600,-0.10706700,0.73631100,0.06639300,0.04969900,0.00659100,0.25242400,-0.31495700,0.11346700,0.69877600,-0.06790300,0.05015400,-0.00154600
2.98000000,0.24318400,0.32195600,-0.10706700,0.73631100,0.06639300,0.04969900,0.00659100,0.25242400,-0.31495700,0.11346700,0.69877600,-0.06790300,0.05015400,-0.00154600
3.00000000,0.24318400,0.32195600,-0.10706700,0.73631100,0.06639300,0.04969900,0.00659100,0.25242400,-0.31495700,0.11346700,0.69877600,-0.06790300,0.05015400,-0.00154600
3.02000000,0.24318400,0.32195600,-0.10706700,0.73631100,0.06639300,0.04969900,0.00659100,0.25242400,-0.31495700,0.11346700,0.69877600,-0.06790300,0.05015400,-0.00154600
3.04000000,0.24318400,0.32195600,-0.10706700,0.73631100,0.06639300,0.04969900,0.00659100,0.25242400,-0.31495700,0.11346700,0.69877600,-0.06790300,0.05015400,-0.00154600
3.06000000,0.24318400,0.32195600,-0.10706700,0.73631100,0.06639300,0.04969900,0.00659100,0.25242400,-0.31495700,0.11346700,0.69877600,-0.06790300,0.05015400,-0.00154600
3.08000000,0.24318400,0.32195600,-0.10706700,0.73631100,0.06639300,0.04969900,0.00659100,0.25242400,-0.31495700,0.11346700,0.69877600,-0.06790300,0.05015400,-0.00154600
3.10000000,0.24318400,0.32195600,-0.10706700,0.73631100,0.06639300,0.04969900,0.00659100,0.25242400,-0.31495700,0.11346700,0.69877600,-0.06790300,0.05015400,-0.00154600
3.12000000,0.24318400,0.32195600,-0.10706700,0.73631100,0.06639300,0.04969900,0.00659100,0.25242400,-0.31495700,0.11346700,0.69877600,-0.06790300,0.05015400,-0.00154600
3.14000000,0.24318400,0.32195600,-0.10706700,0.73631100,0.06639300,0.04969900,0.00659100,0.25242400,-0.31495700,0.11346700,0.69877600,-0.06790300,0.05015400,-0.00154600
3.16000000,0.24318400,0.32195600,-0.10706700,0.73631100,0.06639300,0.04969900,0.00659100,0.25242400,-0.31495700,0.11346700,0.69877600,-0.06790300,0.05015400,-0.00154600
3.18000000,0.24318400,0.32195600,-0.10706700,0.73631100,0.06639300,0.04969900,0.00659100,0.25242400,-0.31495700,0.11346700,0.69877600,-0.06790300,0.05015400,-0.00154600
3.20000000,0.24318400,0.32195600,-0.10706700,0.73631100,0.06639300,0.04969900,0.00659100,0.25242400,-0.31495700,0.11346700,0.69877600,-0.06790300,0.05015400,-0.00154600
3.22000000,0.24318400,0.32195600,-0.10706700,0.73631100,0.06639300,0.04969900,0.00659100,0.25242400,-0.31495700,0.11346700,0.69877600,-0.06790300,0.05015400,-0.00154600
3.24000000,0.24318400,0.32195600,-0.10706700,0.73631100,0.06639300,0.04969900,0.00659100,0.25242400,-0.31495700,0.11346700,0.69877600,-0.06790300,0.05015400,-0.00154600
3.26000000,0.24318400,0.32195600,-0.10706700,0.73631100,0.06639300,0.04969900,0.00659100,0.25242400,-0.31495700,0.11346700,0.69877600,-0.06790300,0.05015400,-0.00154600
3.28000000,0.24318400,0.32195600,-0.10706700,0.73631100,0.06639300,0.04969900,0.00659100,0.25242400,-0.31495700,0.11346700,0.69877600,-0.06790300,0.05015400,-0.00154600
3.30000000,0.24318400,0.32195600,-0.10706700,0.73631100,0.06639300,0.04969900,0.00659100,0.25242400,-0.31495700,0.11346700,0.69877600,-0.06790300,0.05015400,-0.00154600
3.32000000,0.24318400,0.32195600,-0.10706700,0.73631100,0.06639300,0.04969900,0.00659100,0.25242400,-0.31495700,0.11346700,0.69877600,-0.06790300,0.05015400,-0.00154600
3.34000000,0.24318400,0.32195600,-0.10706700,0.73631100,0.06639300,0.04969900,0.00659100,0.25242400,-0.31495700,0.11346700,0.69877600,-0.06790300,0.05015400,-0.00154600
3.36000000,0.24318400,0.32195600,-0.10706700,0.73631100,0.06639300,0.04969900,0.00659100,0.25242400,-0.31495700,0.11346700,0.69877600,-0.06790300,0.05015400,-0.00154600
3.38000000,0.24318400,0.32195600,-0.10706700,0.73631100,0.06639300,0.04969900,0.00659100,0.25242400,-0.31495700,0.11346700,0.69877600,-0.06790300,0.05015400,-0.00154600
3.40000000,0.24318400,0.32195600,-0.10706700,0.73631100,0.06639300,0.04969900,0.00659100,0.25242400,-0.31495700,0.11346700,0.69877600,-0.06790300,0.05015400,-0.00154600
3.42000000,0.24318400,0.32195600,-0.10706700,0.73631100,0.06639300,0.04969900,0.00659100,0.25242400,-0.31495700,0.11346700,0.69877600,-0.06790300,0.05015400,-0.00154600
3.44000000,0.24318400,0.32195600,-0.10706700,0.73631100,0.06639300,0.04969900,0.00659100,0.25242400,-0.31495700,0.11346700,0.69877600,-0.06790300,0.05015400,-0.00154600
3.46000000,0.24318400,0.32195600,-0.10706700,0.73631100,0.06639300,0.04969900,0.00659100,0.25242400,-0.31495700,0.11346700,0.69877600,-0.06790300,0.05015400,-0.00154600
3.48000000,0.24318400,0.32195600,-0.10706700,0.73631100,0.06639300,0.04969900,0.00659100,0.25242400,-0.31495700,0.11346700,0.69877600,-0.06790300,0.05015400,-0.00154600
3.50000000,0.24318400,0.32195600,-0.10706700,0.73631100,0.06639300,0.04969900,0.00659100,0.25242400,-0.31495700,0.11346700,0.69877600,-0.06790300,0.05015400,-0.00154600
3.52000000,0.24318400,0.32195600,-0.10706700,0.73631100,0.06639300,0.04969900,0.00659100,0.25242400,-0.31495700,0.11346700,0.69877600,-0.06790300,0.05015400,-0.00154600
3.54000000,0.24318400,0.32195600,-0.10706700,0.73631100,0.06639300,0.04969900,0.00659100,0.25242400,-0.31495700,0.11346700,0.69877600,-0.06790300,0.05015400,-0.00154600
3.56000000,0.24318400,0.32195600,-0.10706700,0.73631100,0.06639300,0.04969900,0.00659100,0.25242400,-0.31495700,0.11346700,0.69877600,-0.06790300,0.05015400,-0.00154600
3.58000000,0.24318400,0.32195600,-0.10706700,0.73631100,0.06639300,0.04969900,0.00659100,0.25242400,-0.31495700,0.11346700,0.69877600,-0.06790300,0.05015400,-0.00154600
3.60000000,0.24318400,0.32195600,-0.10706700,0.73631100,0.06639300,0.04969900,0.00659100,0.25242400,-0.31495700,0.11346700,0.69877600,-0.06790300,0.05015400,-0.00154600
3.62000000,0.24318400,0.32195600,-0.10706700,0.73631100,0.06639300,0.04969900,0.00659100,0.25242400,-0.31495700,0.11346700,0.69877600,-0.06790300,0.05015400,-0.00154600
3.64000000,0.24318400,0.32195600,-0.10706700,0.73631100,0.06639300,0.04969900,0.00659100,0.25242400,-0.31495700,0.11346700,0.69877600,-0.06790300,0.05015400,-0.00154600
3.66000000,0.24318400,0.32195600,-0.10706700,0.73631100,0.06639300,0.04969900,0.00659100,0.25242400,-0.31495700,0.11346700,0.69877600,-0.06790300,0.05015400,-0.00154600
3.68000000,0.24318400,0.32195600,-0.10706700,0.73631100,0.06639300,0.04969900,0.00659100,0.25242400,-0.31495700,0.11346700,0.69877600,-0.06790300,0.05015400,-0.00154600
3.70000000,0.24318400,0.32195600,-0.10706700,0.73631100,0.06639300,0.04969900,0.00659100,0.25242400,-0.31495700,0.11346700,0.69877600,-0.06790300,0.05015400,-0.00154600
3.72000000,0.24318400,0.32195600,-0.10706700,0.73631100,0.06639300,0.04969900,0.00659100,0.25242400,-0.31495700,0.11346700,0.69877600,-0.06790300,0.05015400,-0.00154600
3.74000000,0.24318400,0.32195600,-0.10706700,0.73631100,0.06639300,0.04969900,0.00659100,0.25242400,-0.31495700,0.11346700,0.69877600,-0.06790300,0.05015400,-0.00154600
3.76000000,0.24318400,0.32195600,-0.10706700,0.73631100,0.06639300,0.04969900,0.00659100,0.25242400,-0.31495700,0.11346700,0.69877600,-0.06790300,0.05015400,-0.00154600
3.78000000,0.24318400,0.32195600,-0.10706700,0.73631100,0.06639300,0.04969900,0.00659100,0.25242400,-0.31495700,0.11346700,0.69877600,-0.06790300,0.05015400,-0.00154600
3.80000000,0.24318400,0.32195600,-0.10706700,0.73631100,0.06639300,0.04969900,0.00659100,0.25242400,-0.31495700,0.11346700,0.69877600,-0.06790300,0.05015400,-0.00154600
3.82000000,0.24318400,0.32195600,-0.10706700,0.73631100,0.06639300,0.04969900,0.00659100,0.25242400,-0.31495700,0.11346700,0.69877600,-0.06790300,0.05015400,-0.00154600
3.84000000,0.24318400,0.32195600,-0.10706700,0.73631100,0.06639300,0.04969900,0.00659100,0.25242400,-0.31495700,0.11346700,0.69877600,-0.06790300,0.05015400,-0.00154600
3.86000000,0.24318400,0.32195600,-0.10706700,0.73631100,0.06639300,0.04969900,0.00659100,0.25242400,-0.31495700,0.11346700,0.69877600,-0.06790300,0.05015400,-0.00154600
3.88000000,0.24318400,0.32195600,-0.10706700,0.73631100,0.06639300,0.04969900,0.00659100,0.25242400,-0.31495700,0.11346700,0.69877600,-0.06790300,0.05015400,-0.00154600
3.90000000,0.24318400,0.32195600,-0.10706700,0.73631100,0.06639300,0.04969900,0.00659100,0.25242400,-0.31495700,0.11346700,0.69877600,-0.06790300,0.05015400,-0.00154600
3.92000000,0.24318400,0.32195600,-0.10706700,0.73631100,0.06639300,0.04969900,0.00659100,0.25242400,-0.31495700,0.11346700,0.69877600,-0.06790300,0.05015400,-0.00154600
3.94000000,0.24318400,0.32195600,-0.10706700,0.73631100,0.06639300,0.04969900,0.00659100,0.25242400,-0.31495700,0.11346700,0.69877600,-0.06790300,0.05015400,-0.00154600
3.96000000,0.24318400,0.32195600,-0.10706700,0.73631100,0.06639300,0.04969900,0.00659100,0.25242400,-0.31495700,0.11346700,0.69877600,-0.06790300,0.05015400,-0.00154600
3.98000000,0.24318400,0.32195600,-0.10706700,0.73631100,0.06639300,0.04969900,0.00659100,0.25242400,-0.31495700,0.11346700,0.69877600,-0.06790300,0.05015400,-0.00154600
4.00000000,0.24318400,0.32195600,-0.10706700,0.73631100,0.06639300,0.04969900,0.00659100,0.25242400,-0.31495700,0.11346700,0.69877600,-0.06790300,0.05015400,-0.00154600
4.02000000,0.24318400,0.32195600,-0.10706700,0.73631100,0.06639300,0.04969900,0.00659100,0.25242400,-0.31495700,0.11346700,0.69877600,-0.06790300,0.05015400,-0.00154600
4.04000000,0.24318400,0.32195600,-0.10706700,0.73631100,0.06639300,0.04969900,0.00659100,0.25242400,-0.31495700,0.11346700,0.69877600,-0.06790300,0.05015400,-0.00154600
4.06000000,0.24318400,0.32195600,-0.10706700,0.73631100,0.06639300,0.04969900,0.00659100,0.25242400,-0.31495700,0.11346700,0.69877600,-0.06790300,0.05015400,-0.00154600
4.08000000,0.24318400,0.32195600,-0.10706700,0.73631100,0.06639300,0.04969900,0.00659100,0.25242400,-0.31495700,0.11346700,0.69877600,-0.06790300,0.05015400,-0.00154600
4.10000000,0.24318400,0.32195600,-0.10706700,0.73631100,0.06639300,0.04969900,0.00659100,0.25242400,-0.31495700,0.11346700,0.69877600,-0.06790300,0.05015400,-0.00154600
4.12000000,0.24318400,0.32195600,-0.10706700,0.73631100,0.06639300,0.04969900,0.00659100,0.25242400,-0.31495700,0.11346700,0.69877600,-0.06790300,0.05015400,-0.00154600
4.14000000,0.24318400,0.32195600,-0.10706700,0.73631100,0.06639300,0.04969900,0.00659100,0.25242400,-0.31495700,0.11346700,0.69877600,-0.06790300,0.05015400,-0.00154600
4.16000000,0.24318400,0.32195600,-0.10706700,0.73631100,0.06639300,0.04969900,0.00659100,0.25242400,-0.31495700,0.11346700,0.69877600,-0.06790300,0.05015400,-0.00154600
4.18000000,0.24318400,0.32195600,-0.10706700,0.73631100,0.06639300,0.04969900,0.00659100,0.25242400,-0.31495700,0.11346700,0.69877600,-0.06790300,0.05015400,-0.00154600
4.20000000,0.24318400,0.32195600,-0.10706700,0.73631100,0.06639300,0.04969900,0.00659100,0.25242400,-0.31495700,0.11346700,0.69877600,-0.06790300,0.05015400,-0.00154600
4.22000000,0.24318400,0.32195600,-0.10706700,0.73631100,0.06639300,0.04969900,0.00659100,0.25242400,-0.31495700,0.11346700,0.69877600,-0.06790300,0.05015400,-0.00154600
4.24000000,0.24318400,0.32195600,-0.10706700,0.73631100,0.06639300,0.04969900,0.00659100,0.25242400,-0.31495700,0.11346700,0.69877600,-0.06790300,0.05015400,-0.00154600
4.26000000,0.24318400,0.32195600,-0.10706700,0.73631100,0.06639300,0.04969900,0.00659100,0.25242400,-0.31495700,0.11346700,0.69877600,-0.06790300,0.05015400,-0.00154600
4.28000000,0.24318400,0.32195600,-0.10706700,0.73631100,0.06639300,0.04969900,0.00659100,0.25242400,-0.31495700,0.11346700,0.69877600,-0.06790300,0.05015400,-0.00154600
4.30000000,0.24318400,0.32195600,-0.10706700,0.73631100,0.06639300,0.04969900,0.00659100,0.25242400,-0.31495700,0.11346700,0.69877600,-0.06790300,0.05015400,-0.00154600
4.32000000,0.24318400,0.32195600,-0.10706700,0.73631100,0.06639300,0.04969900,0.00659100,0.25242400,-0.31495700,0.11346700,0.69877600,-0.06790300,0.05015400,-0.00154600
4.34000000,0.24318400,0.32195600,-0.10706700,0.73631100,0.06639300,0.04969900,0.00659100,0.25242400,-0.31495700,0.11346700,0.69877600,-0.06790300,0.05015400,-0.00154600
4.36000000,0.24318400,0.32195600,-0.10706700,0.73631100,0.06639300,0.04969900,0.00659100,0.25242400,-0.31495700,0.11346700,0.69877600,-0.06790300,0.05015400,-0.00154600
4.38000000,0.24318400,0.32195600,-0.10706700,0.73631100,0.06639300,0.04969900,0.00659100,0.25242400,-0.31495700,0.11346700,0.69877600,-0.06790300,0.05015400,-0.00154600
4.40000000,0.24318400,0.32195600,-0.10706700,0.73631100,0.06639300,0.04969900,0.00659100,0.25242400,-0.31495700,0.11346700,0.69877600,-0.06790300,0.05015400,-0.00154600
4.42000000,0.24318400,0.32195600,-0.10706700,0.73631100,0.06639300,0.04969900,0.00659100,0.25242400,-0.31495700,0.11346700,0.69877600,-0.06790300,0.05015400,-0.00154600
4.44000000,0.24318400,0.32195600,-0.10706700,0.73631100,0.06639300,0.04969900,0.00659100,0.25242400,-0.31495700,0.11346700,0.69877600,-0.06790300,0.05015400,-0.00154600
4.46000000,0.24318400,0.32195600,-0.10706700,0.73631100,0.06639300,0.04969900,0.00659100,0.25242400,-0.31495700,0.11346700,0.69877600,-0.06790300,0.05015400,-0.00154600
4.48000000,0.24318400,0.32195600,-0.10706700,0.73631100,0.06639300,0.04969900,0.00659100,0.25242400,-0.31495700,0.11346700,0.69877600,-0.06790300,0.05015400,-0.00154600
4.50000000,0.24318400,0.32195600,-0.10706700,0.73631100,0.06639300,0.04969900,0.00659100,0.25242400,-0.31495700,0.11346700,0.69877600,-0.06790300,0.05015400,-0.00154600
4.52000000,0.24318400,0.32195600,-0.10706700,0.73631100,0.06639300,0.04969900,0.00659100,0.25242400,-0.31495700,0.11346700,0.69877600,-0.06790300,0.05015400,-0.00154600
4.54000000,0.24318400,0.32195600,-0.10706700,0.73631100,0.06639300,0.04969900,0.00659100,0.25242400,-0.31495700,0.11346700,0.69877600,-0.06790300,0.05015400,-0.00154600
4.56000000,0.24318400,0.32195600,-0.10706700,0.73631100,0.06639300,0.04969900,0.00659100,0.25242400,-0.31495700,0.11346700,0.69877600,-0.06790300,0.05015400,-0.00154600
4.58000000,0.24318400,0.32195600,-0.10706700,0.73631100,0.06639300,0.04969900,0.00659100,0.25242400,-0.31495700,0.11346700,0.69877600,-0.06790300,0.05015400,-0.00154600
4.60000000,0.24318400,0.32195600,-0.10706700,0.73631100,0.06639300,0.04969900,0.00659100,0.25242400,-0.31495700,0.11346700,0.69877600,-0.06790300,0.05015400,-0.00154600
4.62000000,0.24318400,0.32195600,-0.10706700,0.73631100,0.06639300,0.04969900,0.00659100,0.25242400,-0.31495700,0.11346700,0.69877600,-0.06790300,0.05015400,-0.00154600
4.64000000,0.24318400,0.32195600,-0.10706700,0.73631100,0.06639300,0.04969900,0.00659100,0.25242400,-0.31495700,0.11346700,0.69877600,-0.06790300,0.05015400,-0.00154600
4.66000000,0.24318400,0.32195600,-0.10706700,0.73631100,0.06639300,0.04969900,0.00659100,0.25242400,-0.31495700,0.11346700,0.69877600,-0.06790300,0.05015400,-0.00154600
4.68000000,0.24318400,0.32195600,-0.10706700,0.73631100,0.06639300,0.04969900,0.00659100,0.25242400,-0.31495700,0.11346700,0.69877600,-0.06790300,0.05015400,-0.00154600
4.70000000,0.24318400,0.32195600,-0.10706700,0.73631100,0.06639300,0.04969900,0.00659100,0.25242400,-0.31495700,0.11346700,0.69877600,-0.06790300,0.05015400,-0.00154600
4.72000000,0.24318400,0.32195600,-0.10706700,0.73631100,0.06639300,0.04969900,0.00659100,0.25242400,-0.31495700,0.11346700,0.69877600,-0.06790300,0.05015400,-0.00154600
4.74000000,0.24318400,0.32195600,-0.10706700,0.73631100,0.06639300,0.04969900,0.00659100,0.25242400,-0.31495700,0.11346700,0.69877600,-0.06790300,0.05015400,-0.00154600
4.76000000,0.24318400,0.32195600,-0.10706700,0.73631100,0.06639300,0.04969900,0.00659100,0.25242400,-0.31495700,0.11346700,0.69877600,-0.06790300,0.05015400,-0.00154600
4.78000000,0.24318400,0.32195600,-0.10706700,0.73631100,0.06639300,0.04969900,0.00659100,0.25242400,-0.31495700,0.11346700,0.69877600,-0.06790300,0.05015400,-0.00154600
4.80000000,0.24318400,0.32195600,-0.10706700,0.73631100,0.06639300,0.04969900,0.00659100,0.25242400,-0.31495700,0.11346700,0.69877600,-0.06790300,0.05015400,-0.00154600
4.82000000,0.24318400,0.32195600,-0.10706700,0.73631100,0.06639300,0.04969900,0.00659100,0.25242400,-0.31495700,0.11346700,0.69877600,-0.06790300,0.05015400,-0.00154600
4.84000000,0.24318400,0.32195600,-0.10706700,0.73631100,0.06639300,0.04969900,0.00659100,0.25242400,-0.31495700,0.11346700,0.69877600,-0.06790300,0.05015400,-0.00154600
4.86000000,0.24318400,0.32195600,-0.10706700,0.73631100,0.06639300,0.04969900,0.00659100,0.25242400,-0.31495700,0.11346700,0.69877600,-0.06790300,0.05015400,-0.00154600
4.88000000,0.24318400,0.32195600,-0.10706700,0.73631100,0.06639300,0.04969900,0.00659100,0.25242400,-0.31495700,0.11346700,0.69877600,-0.06790300,0.05015400,-0.00154600
4.90000000,0.24318400,0.32195600,-0.10706700,0.73631100,0.06639300,0.04969900,0.00659100,0.25242400,-0.31495700,0.11346700,0.69877600,-0.06790300,0.05015400,-0.00154600
4.92000000,0.24318400,0.32195600,-0.10706700,0.73631100,0.06639300,0.04969900,0.00659100,0.25242400,-0.31495700,0.11346700,0.69877600,-0.06790300,0.05015400,-0.00154600
4.94000000,0.24318400,0.32195600,-0.10706700,0.73631100,0.06639300,0.04969900,0.00659100,0.25242400,-0.31495700,0.11346700,0.69877600,-0.06790300,0.05015400,-0.00154600
4.96000000,0.24318400,0.32195600,-0.10706700,0.73631100,0.06639300,0.04969900,0.00659100,0.25242400,-0.31495700,0.11346700,0.69877600,-0.06790300,0.05015400,-0.00154600
4.98000000,0.24318400,0.32195600,-0.10706700,0.73631100,0.06639300,0.04969900,0.00659100,0.25242400,-0.31495700,0.11346700,0.69877600,-0.06790300,0.05015400,-0.00154600
5.00000000,0.24318400,0.32195600,-0.10706700,0.73631100,0.06639300,0.04969900,0.00659100,0.25242400,-0.31495700,0.11346700,0.69877600,-0.06790300,0.05015400,-0.00154600
5.02000000,0.24318400,0.32195600,-0.10706700,0.73631100,0.06639300,0.04969900,0.00659100,0.25242400,-0.31495700,0.11346700,0.69877600,-0.06790300,0.05015400,-0.00154600
5.04000000,0.24318400,0.32195600,-0.10706700,0.73631100,0.06639300,0.04969900,0.00659100,0.25242400,-0.31495700,0.11346700,0.69877600,-0.06790300,0.05015400,-0.00154600
5.06000000,0.24318400,0.32195600,-0.10706700,0.73631100,0.06639300,0.04969900,0.00659100,0.25242400,-0.31495700,0.11346700,0.69877600,-0.06790300,0.05015400,-0.00154600
5.08000000,0.24318400,0.32195600,-0.10706700,0.73631100,0.06639300,0.04969900,0.00659100,0.25242400,-0.31495700,0.11346700,0.69877600,-0.06790300,0.05015400,-0.00154600
5.10000000,0.24318400,0.32195600,-0.10706700,0.73631100,0.06639300,0.04969900,0.00659100,0.25242400,-0.31495700,0.11346700,0.69877600,-0.06790300,0.05015400,-0.00154600
5.12000000,0.24318400,0.32195600,-0.10706700,0.73631100,0.06639300,0.04969900,0.00659100,0.25242400,-0.31495700,0.11346700,0.69877600,-0.06790300,0.05015400,-0.00154600
5.14000000,0.24318400,0.32195600,-0.10706700,0.73631100,0.06639300,0.04969900,0.00659100,0.25242400,-0.31495700,0.11346700,0.69877600,-0.06790300,0.05015400,-0.00154600
5.16000000,0.24318400,0.32195600,-0.10706700,0.73631100,0.06639300,0.04969900,0.00659100,0.25242400,-0.31495700,0.11346700,0.69877600,-0.06790300,0.05015400,-0.00154600
5.18000000,0.24318400,0.32195600,-0.10706700,0.73631100,0.06639300,0.04969900,0.00659100,0.25242400,-0.31495700,0.11346700,0.69877600,-0.06790300,0.05015400,-0.00154600
5.20000000,0.24318400,0.32195600,-0.10706700,0.73631100,0.06639300,0.04969900,0.00659100,0.25242400,-0.31495700,0.11346700,0.69877600,-0.06790300,0.05015400,-0.00154600
5.22000000,0.24318400,0.32195600,-0.10706700,0.73631100,0.06639300,0.04969900,0.00659100,0.25242400,-0.31495700,0.11346700,0.69877600,-0.06790300,0.05015400,-0.00154600
5.24000000,0.24318400,0.32195600,-0.10706700,0.73631100,0.06639300,0.04969900,0.00659100,0.25242400,-0.31495700,0.11346700,0.69877600,-0.06790300,0.05015400,-0.00154600
5.26000000,0.24318400,0.32195600,-0.10706700,0.73631100,0.06639300,0.04969900,0.00659100,0.25242400,-0.31495700,0.11346700,0.69877600,-0.06790300,0.05015400,-0.00154600
5.28000000,0.24318400,0.32195600,-0.10706700,0.73631100,0.06639300,0.04969900,0.00659100,0.25242400,-0.31495700,0.11346700,0.69877600,-0.06790300,0.05015400,-0.00154600
5.30000000,0.24318400,0.32195600,-0.10706700,0.73631100,0.06639300,0.04969900,0.00659100,0.25242400,-0.31495700,0.11346700,0.69877600,-0.06790300,0.05015400,-0.00154600
5.32000000,0.24318400,0.32195600,-0.10706700,0.73631100,0.06639300,0.04969900,0.00659100,0.25242400,-0.31495700,0.11346700,0.69877600,-0.06790300,0.05015400,-0.00154600
5.34000000,0.24318400,0.32195600,-0.10706700,0.73631100,0.06639300,0.04969900,0.00659100,0.25242400,-0.31495700,0.11346700,0.69877600,-0.06790300,0.05015400,-0.00154600
5.36000000,0.24318400,0.32195600,-0.10706700,0.73631100,0.06639300,0.04969900,0.00659100,0.25242400,-0.31495700,0.11346700,0.69877600,-0.06790300,0.05015400,-0.00154600
5.38000000,0.24318400,0.32195600,-0.10706700,0.73631100,0.06639300,0.04969900,0.00659100,0.25242400,-0.31495700,0.11346700,0.69877600,-0.06790300,0.05015400,-0.00154600
5.40000000,0.24318400,0.32195600,-0.10706700,0.73631100,0.06639300,0.04969900,0.00659100,0.25242400,-0.31495700,0.11346700,0.69877600,-0.06790300,0.05015400,-0.00154600
5.42000000,0.24318400,0.32195600,-0.10706700,0.73631100,0.06639300,0.04969900,0.00659100,0.25242400,-0.31495700,0.11346700,0.69877600,-0.06790300,0.05015400,-0.00154600
5.44000000,0.24318400,0.32195600,-0.10706700,0.73631100,0.06639300,0.04969900,0.00659100,0.25242400,-0.31495700,0.11346700,0.69877600,-0.06790300,0.05015400,-0.00154600
5.46000000,0.24318400,0.32195600,-0.10706700,0.73631100,0.06639300,0.04969900,0.00659100,0.25242400,-0.31495700,0.11346700,0.69877600,-0.06790300,0.05015400,-0.00154600
5.48000000,0.24318400,0.32195600,-0.10706700,0.73631100,0.06639300,0.04969900,0.00659100,0.25242400,-0.31495700,0.11346700,0.69877600,-0.06790300,0.05015400,-0.00154600
5.50000000,0.24318400,0.32195600,-0.10706700,0.73631100,0.06639300,0.04969900,0.00659100,0.25242400,-0.31495700,0.11346700,0.69877600,-0.06790300,0.05015400,-0.00154600
5.52000000,0.24318400,0.32195600,-0.10706700,0.73631100,0.06639300,0.04969900,0.00659100,0.25242400,-0.31495700,0.11346700,0.69877600,-0.06790300,0.05015400,-0.00154600
5.54000000,0.24318400,0.32195600,-0.10706700,0.73631100,0.06639300,0.04969900,0.00659100,0.25242400,-0.31495700,0.11346700,0.69877600,-0.06790300,0.05015400,-0.00154600
5.56000000,0.24318400,0.32195600,-0.10706700,0.73631100,0.06639300,0.04969900,0.00659100,0.25242400,-0.31495700,0.11346700,0.69877600,-0.06790300,0.05015400,-0.00154600
5.58000000,0.24318400,0.32195600,-0.10706700,0.73631100,0.06639300,0.04969900,0.00659100,0.25242400,-0.31495700,0.11346700,0.69877600,-0.06790300,0.05015400,-0.00154600
5.60000000,0.24318400,0.32195600,-0.10706700,0.73631100,0.06639300,0.04969900,0.00659100,0.25242400,-0.31495700,0.11346700,0.69877600,-0.06790300,0.05015400,-0.00154600
5.62000000,0.24318400,0.32195600,-0.10706700,0.73631100,0.06639300,0.04969900,0.00659100,0.25242400,-0.31495700,0.11346700,0.69877600,-0.06790300,0.05015400,-0.00154600
5.64000000,0.24318400,0.32195600,-0.10706700,0.73631100,0.06639300,0.04969900,0.00659100,0.25242400,-0.31495700,0.11346700,0.69877600,-0.06790300,0.05015400,-0.00154600
5.66000000,0.24318400,0.32195600,-0.10706700,0.73631100,0.06639300,0.04969900,0.00659100,0.25242400,-0.31495700,0.11346700,0.69877600,-0.06790300,0.05015400,-0.00154600
5.68000000,0.24318400,0.32195600,-0.10706700,0.73631100,0.06639300,0.04969900,0.00659100,0.25242400,-0.31495700,0.11346700,0.69877600,-0.06790300,0.05015400,-0.00154600
5.70000000,0.24318400,0.32195600,-0.10706700,0.73631100,0.06639300,0.04969900,0.00659100,0.25242400,-0.31495700,0.11346700,0.69877600,-0.06790300,0.05015400,-0.00154600
5.72000000,0.24318400,0.32195600,-0.10706700,0.73631100,0.06639300,0.04969900,0.00659100,0.25242400,-0.31495700,0.11346700,0.69877600,-0.06790300,0.05015400,-0.00154600
5.74000000,0.24318400,0.32195600,-0.10706700,0.73631100,0.06639300,0.04969900,0.00659100,0.25242400,-0.31495700,0.11346700,0.69877600,-0.06790300,0.05015400,-0.00154600
5.76000000,0.24318400,0.32195600,-0.10706700,0.73631100,0.06639300,0.04969900,0.00659100,0.25242400,-0.31495700,0.11346700,0.69877600,-0.06790300,0.05015400,-0.00154600
5.78000000,0.24318400,0.32195600,-0.10706700,0.73631100,0.06639300,0.04969900,0.00659100,0.25242400,-0.31495700,0.11346700,0.69877600,-0.06790300,0.05015400,-0.00154600
5.80000000,0.24318400,0.32195600,-0.10706700,0.73631100,0.06639300,0.04969900,0.00659100,0.25242400,-0.31495700,0.11346700,0.69877600,-0.06790300,0.05015400,-0.00154600
5.82000000,0.24318400,0.32195600,-0.10706700,0.73631100,0.06639300,0.04969900,0.00659100,0.25242400,-0.31495700,0.11346700,0.69877600,-0.06790300,0.05015400,-0.00154600
5.84000000,0.24318400,0.32195600,-0.10706700,0.73631100,0.06639300,0.04969900,0.00659100,0.25242400,-0.31495700,0.11346700,0.69877600,-0.06790300,0.05015400,-0.00154600
5.86000000,0.24318400,0.32195600,-0.10706700,0.73631100,0.06639300,0.04969900,0.00659100,0.25242400,-0.31495700,0.11346700,0.69877600,-0.06790300,0.05015400,-0.00154600
5.88000000,0.24318400,0.32195600,-0.10706700,0.73631100,0.06639300,0.04969900,0.00659100,0.25242400,-0.31495700,0.11346700,0.69877600,-0.06790300,0.05015400,-0.00154600
5.90000000,0.24318400,0.32195600,-0.10706700,0.73631100,0.06639300,0.04969900,0.00659100,0.25242400,-0.31495700,0.11346700,0.69877600,-0.06790300,0.05015400,-0.00154600
5.92000000,0.24318400,0.32195600,-0.10706700,0.73631100,0.06639300,0.04969900,0.00659100,0.25242400,-0.31495700,0.11346700,0.69877600,-0.06790300,0.05015400,-0.00154600
5.94000000,0.24318400,0.32195600,-0.10706700,0.73631100,0.06639300,0.04969900,0.00659100,0.25242400,-0.31495700,0.11346700,0.69877600,-0.06790300,0.05015400,-0.00154600
5.96000000,0.24318400,0.32195600,-0.10706700,0.73631100,0.06639300,0.04969900,0.00659100,0.25242400,-0.31495700,0.11346700,0.69877600,-0.06790300,0.05015400,-0.00154600
5.98000000,0.24318400,0.32195600,-0.10706700,0.73631100,0.06639300,0.04969900,0.00659100,0.25242400,-0.31495700,0.11346700,0.69877600,-0.06790300,0.05015400,-0.00154600
6.00000000,0.24318400,0.32195600,-0.10706700,0.73631100,0.06639300,0.04969900,0.00659100,0.25242400,-0.31495700,0.11346700,0.69877600,-0.06790300,0.05015400,-0.00154600
6.02000000,0.24318400,0.32195600,-0.10706700,0.73631100,0.06639300,0.04969900,0.00659100,0.25242400,-0.31495700,0.11346700,0.69877600,-0.06790300,0.05015400,-0.00154600
6.04000000,0.24318400,0.32195600,-0.10706700,0.73631100,0.06639300,0.04969900,0.00659100,0.25242400,-0.31495700,0.11346700,0.69877600,-0.06790300,0.05015400,-0.00154600
6.06000000,0.24318400,0.32195600,-0.10706700,0.73631100,0.06639300,0.04969900,0.00659100,0.25242400,-0.31495700,0.11346700,0.69877600,-0.06790300,0.05015400,-0.00154600
6.08000000,0.24318400,0.32195600,-0.10706700,0.73631100,0.06639300,0.04969900,0.00659100,0.25242400,-0.31495700,0.11346700,0.69877600,-0.06790300,0.05015400,-0.00154600
6.10000000,0.24318400,0.32195600,-0.10706700,0.73631100,0.06639300,0.04969900,0.00659100,0.25242400,-0.31495700,0.11346700,0.69877600,-0.06790300,0.05015400,-0.00154600
6.12000000,0.24318400,0.32195600,-0.10706700,0.73631100,0.06639300,0.04969900,0.00659100,0.25242400,-0.31495700,0.11346700,0.69877600,-0.06790300,0.05015400,-0.00154600
6.14000000,0.24318400,0.32195600,-0.10706700,0.73631100,0.06639300,0.04969900,0.00659100,0.25242400,-0.31495700,0.11346700,0.69877600,-0.06790300,0.05015400,-0.00154600
6.16000000,0.24318400,0.32195600,-0.10706700,0.73631100,0.06639300,0.04969900,0.00659100,0.25242400,-0.31495700,0.11346700,0.69877600,-0.06790300,0.05015400,-0.00154600
6.18000000,0.24318400,0.32195600,-0.10706700,0.73631100,0.06639300,0.04969900,0.00659100,0.25242400,-0.31495700,0.11346700,0.69877600,-0.06790300,0.05015400,-0.00154600
6.20000000,0.24318400,0.32195600,-0.10706700,0.73631100,0.06639300,0.04969900,0.00659100,0.25242400,-0.31495700,0.11346700,0.69877600,-0.06790300,0.05015400,-0.00154600
6.22000000,0.24318400,0.32195600,-0.10706700,0.73631100,0.06639300,0.04969900,0.00659100,0.25242400,-0.31495700,0.11346700,0.69877600,-0.06790300,0.05015400,-0.00154600
6.24000000,0.24318400,0.32195600,-0.10706700,0.73631100,0.06639300,0.04969900,0.00659100,0.25242400,-0.31495700,0.11346700,0.69877600,-0.06790300,0.05015400,-0.00154600
6.26000000,0.24318400,0.32195600,-0.10706700,0.73631100,0.06639300,0.04969900,0.00659100,0.25242400,-0.31495700,0.11346700,0.69877600,-0.06790300,0.05015400,-0.00154600
6.28000000,0.24318400,0.32195600,-0.10706700,0.73631100,0.06639300,0.04969900,0.00659100,0.25242400,-0.31495700,0.11346700,0.69877600,-0.06790300,0.05015400,-0.00154600
6.30000000,0.24318400,0.32195600,-0.10706700,0.73631100,0.06639300,0.04969900,0.00659100,0.25242400,-0.31495700,0.11346700,0.69877600,-0.06790300,0.05015400,-0.00154600
6.32000000,0.24318400,0.32195600,-0.10706700,0.73631100,0.06639300,0.04969900,0.00659100,0.25242400,-0.31495700,0.11346700,0.69877600,-0.06790300,0.05015400,-0.00154600
6.34000000,0.24318400,0.32195600,-0.10706700,0.73631100,0.06639300,0.04969900,0.00659100,0.25242400,-0.31495700,0.11346700,0.69877600,-0.06790300,0.05015400,-0.00154600
6.36000000,0.24318400,0.32195600,-0.10706700,0.73631100,0.06639300,0.04969900,0.00659100,0.25242400,-0.31495700,0.11346700,0.69877600,-0.06790300,0.05015400,-0.00154600
6.38000000,0.24318400,0.32195600,-0.10706700,0.73631100,0.06639300,0.04969900,0.00659100,0.25242400,-0.31495700,0.11346700,0.69877600,-0.06790300,0.05015400,-0.00154600
6.40000000,0.24318400,0.32195600,-0.10706700,0.73631100,0.06639300,0.04969900,0.00659100,0.25242400,-0.31495700,0.11346700,0.69877600,-0.06790300,0.05015400,-0.00154600
6.42000000,0.24318400,0.32195600,-0.10706700,0.73631100,0.06639300,0.04969900,0.00659100,0.25242400,-0.31495700,0.11346700,0.69877600,-0.06790300,0.05015400,-0.00154600
6.44000000,0.24318400,0.32195600,-0.10706700,0.73631100,0.06639300,0.04969900,0.00659100,0.25242400,-0.31495700,0.11346700,0.69877600,-0.06790300,0.05015400,-0.00154600
6.46000000,0.24318400,0.32195600,-0.10706700,0.73631100,0.06639300,0.04969900,0.00659100,0.25242400,-0.31495700,0.11346700,0.69877600,-0.06790300,0.05015400,-0.00154600
6.48000000,0.24318400,0.32195600,-0.10706700,0.73631100,0.06639300,0.04969900,0.00659100,0.25242400,-0.31495700,0.11346700,0.69877600,-0.06790300,0.05015400,-0.00154600
6.50000000,0.24318400,0.32195600,-0.10706700,0.73631100,0.06639300,0.04969900,0.00659100,0.25242400,-0.31495700,0.11346700,0.69877600,-0.06790300,0.05015400,-0.00154600
6.52000000,0.24318400,0.32195600,-0.10706700,0.73631100,0.06639300,0.04969900,0.00659100,0.25242400,-0.31495700,0.11346700,0.69877600,-0.06790300,0.05015400,-0.00154600
6.54000000,0.24318400,0.32195600,-0.10706700,0.73631100,0.06639300,0.04969900,0.00659100,0.25242400,-0.31495700,0.11346700,0.69877600,-0.06790300,0.05015400,-0.00154600
6.56000000,0.24318400,0.32195600,-0.10706700,0.73631100,0.06639300,0.04969900,0.00659100,0.25242400,-0.31495700,0.11346700,0.69877600,-0.06790300,0.05015400,-0.00154600
6.58000000,0.24318400,0.32195600,-0.10706700,0.73631100,0.06639300,0.04969900,0.00659100,0.25242400,-0.31495700,0.11346700,0.69877600,-0.06790300,0.05015400,-0.00154600
6.60000000,0.24318400,0.32195600,-0.10706700,0.73631100,0.06639300,0.04969900,0.00659100,0.25242400,-0.31495700,0.11346700,0.69877600,-0.06790300,0.05015400,-0.00154600
6.62000000,0.24318400,0.32195600,-0.10706700,0.73631100,0.06639300,0.04969900,0.00659100,0.25242400,-0.31495700,0.11346700,0.69877600,-0.06790300,0.05015400,-0.00154600
6.64000000,0.24318400,0.32195600,-0.10706700,0.73631100,0.06639300,0.04969900,0.00659100,0.25242400,-0.31495700,0.11346700,0.69877600,-0.06790300,0.05015400,-0.00154600
6.66000000,0.24318400,0.32195600,-0.10706700,0.73631100,0.06639300,0.04969900,0.00659100,0.25242400,-0.31495700,0.11346700,0.69877600,-0.06790300,0.05015400,-0.00154600
6.68000000,0.24318400,0.32195600,-0.10706700,0.73631100,0.06639300,0.04969900,0.00659100,0.25242400,-0.31495700,0.11346700,0.69877600,-0.06790300,0.05015400,-0.00154600
6.70000000,0.24318400,0.32195600,-0.10706700,0.73631100,0.06639300,0.04969900,0.00659100,0.25242400,-0.31495700,0.11346700,0.69877600,-0.06790300,0.05015400,-0.00154600
6.72000000,0.24318400,0.32195600,-0.10706700,0.73631100,0.06639300,0.04969900,0.00659100,0.25242400,-0.31495700,0.11346700,0.69877600,-0.06790300,0.05015400,-0.00154600
6.74000000,0.24318400,0.32195600,-0.10706700,0.73631100,0.06639300,0.04969900,0.00659100,0.25242400,-0.31495700,0.11346700,0.69877600,-0.06790300,0.05015400,-0.00154600
6.76000000,0.24318400,0.32195600,-0.10706700,0.73631100,0.06639300,0.04969900,0.00659100,0.25242400,-0.31495700,0.11346700,0.69877600,-0.06790300,0.05015400,-0.00154600
6.78000000,0.24318400,0.32195600,-0.10706700,0.73631100,0.06639300,0.04969900,0.00659100,0.25242400,-0.31495700,0.11346700,0.69877600,-0.06790300,0.05015400,-0.00154600
6.80000000,0.24318400,0.32195600,-0.10706700,0.73631100,0.06639300,0.04969900,0.00659100,0.25242400,-0.31495700,0.11346700,0.69877600,-0.06790300,0.05015400,-0.00154600
6.82000000,0.24318400,0.32195600,-0.10706700,0.73631100,0.06639300,0.04969900,0.00659100,0.25242400,-0.31495700,0.11346700,0.69877600,-0.06790300,0.05015400,-0.00154600
6.84000000,0.24318400,0.32195600,-0.10706700,0.73631100,0.06639300,0.04969900,0.00659100,0.25242400,-0.31495700,0.11346700,0.69877600,-0.06790300,0.05015400,-0.00154600
6.86000000,0.24318400,0.32195600,-0.10706700,0.73631100,0.06639300,0.04969900,0.00659100,0.25242400,-0.31495700,0.11346700,0.69877600,-0.06790300,0.05015400,-0.00154600
6.88000000,0.24318400,0.32195600,-0.10706700,0.73631100,0.06639300,0.04969900,0.00659100,0.25242400,-0.31495700,0.11346700,0.69877600,-0.06790300,0.05015400,-0.00154600
6.90000000,0.24318400,0.32195600,-0.10706700,0.73631100,0.06639300,0.04969900,0.00659100,0.25242400,-0.31495700,0.11346700,0.69877600,-0.06790300,0.05015400,-0.00154600
6.92000000,0.24318400,0.32195600,-0.10706700,0.73631100,0.06639300,0.04969900,0.00659100,0.25242400,-0.31495700,0.11346700,0.69877600,-0.06790300,0.05015400,-0.00154600
6.94000000,0.24318400,0.32195600,-0.10706700,0.73631100,0.06639300,0.04969900,0.00659100,0.25242400,-0.31495700,0.11346700,0.69877600,-0.06790300,0.05015400,-0.00154600
6.96000000,0.24318400,0.32195600,-0.10706700,0.73631100,0.06639300,0.04969900,0.00659100,0.25242400,-0.31495700,0.11346700,0.69877600,-0.06790300,0.05015400,-0.00154600
6.98000000,0.24318400,0.32195600,-0.10706700,0.73631100,0.06639300,0.04969900,0.00659100,0.25242400,-0.31495700,0.11346700,0.69877600,-0.06790300,0.05015400,-0.00154600
7.00000000,0.24318400,0.32195600,-0.10706700,0.73631100,0.06639300,0.04969900,0.00659100,0.25242400,-0.31495700,0.11346700,0.69877600,-0.06790300,0.05015400,-0.00154600
7.02000000,0.24318400,0.32195600,-0.10706700,0.73631100,0.06639300,0.04969900,0.00659100,0.25242400,-0.31495700,0.11346700,0.69877600,-0.06790300,0.05015400,-0.00154600
7.04000000,0.24318400,0.32195600,-0.10706700,0.73631100,0.06639300,0.04969900,0.00659100,0.25242400,-0.31495700,0.11346700,0.69877600,-0.06790300,0.05015400,-0.00154600
7.06000000,0.24318400,0.32195600,-0.10706700,0.73631100,0.06639300,0.04969900,0.00659100,0.25242400,-0.31495700,0.11346700,0.69877600,-0.06790300,0.05015400,-0.00154600
7.08000000,0.24318400,0.32195600,-0.10706700,0.73631100,0.06639300,0.04969900,0.00659100,0.25242400,-0.31495700,0.11346700,0.69877600,-0.06790300,0.05015400,-0.00154600
7.10000000,0.24318400,0.32195600,-0.10706700,0.73631100,0.06639300,0.04969900,0.00659100,0.25242400,-0.31495700,0.11346700,0.69877600,-0.06790300,0.05015400,-0.00154600
7.12000000,0.24318400,0.32195600,-0.10706700,0.73631100,0.06639300,0.04969900,0.00659100,0.25242400,-0.31495700,0.11346700,0.69877600,-0.06790300,0.05015400,-0.00154600
7.14000000,0.24318400,0.32195600,-0.10706700,0.73631100,0.06639300,0.04969900,0.00659100,0.25242400,-0.31495700,0.11346700,0.69877600,-0.06790300,0.05015400,-0.00154600
7.16000000,0.24318400,0.32195600,-0.10706700,0.73631100,0.06639300,0.04969900,0.00659100,0.25242400,-0.31495700,0.11346700,0.69877600,-0.06790300,0.05015400,-0.00154600
7.18000000,0.24318400,0.32195600,-0.10706700,0.73631100,0.06639300,0.04969900,0.00659100,0.25242400,-0.31495700,0.11346700,0.69877600,-0.06790300,0.05015400,-0.00154600
7.20000000,0.24318400,0.32195600,-0.10706700,0.73631100,0.06639300,0.04969900,0.00659100,0.25242400,-0.31495700,0.11346700,0.69877600,-0.06790300,0.05015400,-0.00154600
7.22000000,0.24318400,0.32195600,-0.10706700,0.73631100,0.06639300,0.04969900,0.00659100,0.25242400,-0.31495700,0.11346700,0.69877600,-0.06790300,0.05015400,-0.00154600
7.24000000,0.24318400,0.32195600,-0.10706700,0.73631100,0.06639300,0.04969900,0.00659100,0.25242400,-0.31495700,0.11346700,0.69877600,-0.06790300,0.05015400,-0.00154600
7.26000000,0.24318400,0.32195600,-0.10706700,0.73631100,0.06639300,0.04969900,0.00659100,0.25242400,-0.31495700,0.11346700,0.69877600,-0.06790300,0.05015400,-0.00154600
7.28000000,0.24318400,0.32195600,-0.10706700,0.73631100,0.06639300,0.04969900,0.00659100,0.25242400,-0.31495700,0.11346700,0.69877600,-0.06790300,0.05015400,-0.00154600
7.30000000,0.24318400,0.32195600,-0.10706700,0.73631100,0.06639300,0.04969900,0.00659100,0.25242400,-0.31495700,0.11346700,0.69877600,-0.06790300,0.05015400,-0.00154600
7.32000000,0.24318400,0.32195600,-0.10706700,0.73631100,0.06639300,0.04969900,0.00659100,0.25242400,-0.31495700,0.11346700,0.69877600,-0.06790300,0.05015400,-0.00154600
7.34000000,0.24318400,0.32195600,-0.10706700,0.73631100,0.06639300,0.04969900,0.00659100,0.25242400,-0.31495700,0.11346700,0.69877600,-0.06790300,0.05015400,-0.00154600
7.36000000,0.24318400,0.32195600,-0.10706700,0.73631100,0.06639300,0.04969900,0.00659100,0.25242400,-0.31495700,0.11346700,0.69877600,-0.06790300,0.05015400,-0.00154600
7.38000000,0.24318400,0.32195600,-0.10706700,0.73631100,0.06639300,0.04969900,0.00659100,0.25242400,-0.31495700,0.11346700,0.69877600,-0.06790300,0.05015400,-0.00154600
7.40000000,0.24318400,0.32195600,-0.10706700,0.73631100,0.06639300,0.04969900,0.00659100,0.25242400,-0.31495700,0.11346700,0.69877600,-0.06790300,0.05015400,-0.00154600
7.42000000,0.24318400,0.32195600,-0.10706700,0.73631100,0.06639300,0.04969900,0.00659100,0.25242400,-0.31495700,0.11346700,0.69877600,-0.06790300,0.05015400,-0.00154600
7.44000000,0.24318400,0.32195600,-0.10706700,0.73631100,0.06639300,0.04969900,0.00659100,0.25242400,-0.31495700,0.11346700,0.69877600,-0.06790300,0.05015400,-0.00154600
7.46000000,0.24318400,0.32195600,-0.10706700,0.73631100,0.06639300,0.04969900,0.00659100,0.25242400,-0.31495700,0.11346700,0.69877600,-0.06790300,0.05015400,-0.00154600
7.48000000,0.24318400,0.32195600,-0.10706700,0.73631100,0.06639300,0.04969900,0.00659100,0.25242400,-0.31495700,0.11346700,0.69877600,-0.06790300,0.05015400,-0.00154600
7.50000000,0.24318400,0.32195600,-0.10706700,0.73631100,0.06639300,0.04969900,0.00659100,0.25242400,-0.31495700,0.11346700,0.69877600,-0.06790300,0.05015400,-0.00154600
7.52000000,0.24318400,0.32195600,-0.10706700,0.73631100,0.06639300,0.04969900,0.00659100,0.25242400,-0.31495700,0.11346700,0.69877600,-0.06790300,0.05015400,-0.00154600
7.54000000,0.24318400,0.32195600,-0.10706700,0.73631100,0.06639300,0.04969900,0.00659100,0.25242400,-0.31495700,0.11346700,0.69877600,-0.06790300,0.05015400,-0.00154600
7.56000000,0.24318400,0.32195600,-0.10706700,0.73631100,0.06639300,0.04969900,0.00659100,0.25242400,-0.31495700,0.11346700,0.69877600,-0.06790300,0.05015400,-0.00154600
7.58000000,0.24318400,0.32195600,-0.10706700,0.73631100,0.06639300,0.04969900,0.00659100,0.25242400,-0.31495700,0.11346700,0.69877600,-0.06790300,0.05015400,-0.00154600
7.60000000,0.24318400,0.32195600,-0.10706700,0.73631100,0.06639300,0.04969900,0.00659100,0.25242400,-0.31495700,0.11346700,0.69877600,-0.06790300,0.05015400,-0.00154600
7.62000000,0.24318400,0.32195600,-0.10706700,0.73631100,0.06639300,0.04969900,0.00659100,0.25242400,-0.31495700,0.11346700,0.69877600,-0.06790300,0.05015400,-0.00154600
7.64000000,0.24318400,0.32195600,-0.10706700,0.73631100,0.06639300,0.04969900,0.00659100,0.25242400,-0.31495700,0.11346700,0.69877600,-0.06790300,0.05015400,-0.00154600
7.66000000,0.24318400,0.32195600,-0.10706700,0.73631100,0.06639300,0.04969900,0.00659100,0.25242400,-0.31495700,0.11346700,0.69877600,-0.06790300,0.05015400,-0.00154600
7.68000000,0.24318400,0.32195600,-0.10706700,0.73631100,0.06639300,0.04969900,0.00659100,0.25242400,-0.31495700,0.11346700,0.69877600,-0.06790300,0.05015400,-0.00154600
7.70000000,0.24318400,0.32195600,-0.10706700,0.73631100,0.06639300,0.04969900,0.00659100,0.25242400,-0.31495700,0.11346700,0.69877600,-0.06790300,0.05015400,-0.00154600
7.72000000,0.24318400,0.32195600,-0.10706700,0.73631100,0.06639300,0.04969900,0.00659100,0.25242400,-0.31495700,0.11346700,0.69877600,-0.06790300,0.05015400,-0.00154600
7.74000000,0.24318400,0.32195600,-0.10706700,0.73631100,0.06639300,0.04969900,0.00659100,0.25242400,-0.31495700,0.11346700,0.69877600,-0.06790300,0.05015400,-0.00154600
7.76000000,0.24318400,0.32195600,-0.10706700,0.73631100,0.06639300,0.04969900,0.00659100,0.25242400,-0.31495700,0.11346700,0.69877600,-0.06790300,0.05015400,-0.00154600
7.78000000,0.24318400,0.32195600,-0.10706700,0.73631100,0.06639300,0.04969900,0.00659100,0.25242400,-0.31495700,0.11346700,0.69877600,-0.06790300,0.05015400,-0.00154600
7.80000000,0.24318400,0.32195600,-0.10706700,0.73631100,0.06639300,0.04969900,0.00659100,0.25242400,-0.31495700,0.11346700,0.69877600,-0.06790300,0.05015400,-0.00154600
7.82000000,0.24318400,0.32195600,-0.10706700,0.73631100,0.06639300,0.04969900,0.00659100,0.25242400,-0.31495700,0.11346700,0.69877600,-0.06790300,0.05015400,-0.00154600
7.84000000,0.24318400,0.32195600,-0.10706700,0.73631100,0.06639300,0.04969900,0.00659100,0.25242400,-0.31495700,0.11346700,0.69877600,-0.06790300,0.05015400,-0.00154600
7.86000000,0.24318400,0.32195600,-0.10706700,0.73631100,0.06639300,0.04969900,0.00659100,0.25242400,-0.31495700,0.11346700,0.69877600,-0.06790300,0.05015400,-0.00154600
7.88000000,0.24318400,0.32195600,-0.10706700,0.73631100,0.06639300,0.04969900,0.00659100,0.25242400,-0.31495700,0.11346700,0.69877600,-0.06790300,0.05015400,-0.00154600
7.90000000,0.24318400,0.32195600,-0.10706700,0.73631100,0.06639300,0.04969900,0.00659100,0.25242400,-0.31495700,0.11346700,0.69877600,-0.06790300,0.05015400,-0.00154600
7.92000000,0.24318400,0.32195600,-0.10706700,0.73631100,0.06639300,0.04969900,0.00659100,0.25242400,-0.31495700,0.11346700,0.69877600,-0.06790300,0.05015400,-0.00154600
7.94000000,0.24318400,0.32195600,-0.10706700,0.73631100,0.06639300,0.04969900,0.00659100,0.25242400,-0.31495700,0.11346700,0.69877600,-0.06790300,0.05015400,-0.00154600
7.96000000,0.24318400,0.32195600,-0.10706700,0.73631100,0.06639300,0.04969900,0.00659100,0.25242400,-0.31495700,0.11346700,0.69877600,-0.06790300,0.05015400,-0.00154600
7.98000000,0.24318400,0.32195600,-0.10706700,0.73631100,0.06639300,0.04969900,0.00659100,0.25242400,-0.31495700,0.11346700,0.69877600,-0.06790300,0.05015400,-0.00154600
8.00000000,0.24318400,0.32195600,-0.10706700,0.73631100,0.06639300,0.04969900,0.00659100,0.25242400,-0.31495700,0.11346700,0.69877600,-0.06790300,0.05015400,-0.00154600
8.02000000,0.24318400,0.32195600,-0.10706700,0.73631100,0.06639300,0.04969900,0.00659100,0.25242400,-0.31495700,0.11346700,0.69877600,-0.06790300,0.05015400,-0.00154600
8.04000000,0.24318400,0.32195600,-0.10706700,0.73631100,0.06639300,0.04969900,0.00659100,0.25242400,-0.31495700,0.11346700,0.69877600,-0.06790300,0.05015400,-0.00154600
8.06000000,0.24318400,0.32195600,-0.10706700,0.73631100,0.06639300,0.04969900,0.00659100,0.25242400,-0.31495700,0.11346700,0.69877600,-0.06790300,0.05015400,-0.00154600
8.08000000,0.24318400,0.32195600,-0.10706700,0.73631100,0.06639300,0.04969900,0.00659100,0.25242400,-0.31495700,0.11346700,0.69877600,-0.06790300,0.05015400,-0.00154600
8.10000000,0.24318400,0.32195600,-0.10706700,0.73631100,0.06639300,0.04969900,0.00659100,0.25242400,-0.31495700,0.11346700,0.69877600,-0.06790300,0.05015400,-0.00154600
8.12000000,0.24318400,0.32195600,-0.10706700,0.73631100,0.06639300,0.04969900,0.00659100,0.25242400,-0.31495700,0.11346700,0.69877600,-0.06790300,0.05015400,-0.00154600
8.14000000,0.24318400,0.32195600,-0.10706700,0.73631100,0.06639300,0.04969900,0.00659100,0.25242400,-0.31495700,0.11346700,0.69877600,-0.06790300,0.05015400,-0.00154600
8.16000000,0.24318400,0.32195600,-0.10706700,0.73631100,0.06639300,0.04969900,0.00659100,0.25242400,-0.31495700,0.11346700,0.69877600,-0.06790300,0.05015400,-0.00154600
8.18000000,0.24318400,0.32195600,-0.10706700,0.73631100,0.06639300,0.04969900,0.00659100,0.25242400,-0.31495700,0.11346700,0.69877600,-0.06790300,0.05015400,-0.00154600
8.20000000,0.24318400,0.32195600,-0.10706700,0.73631100,0.06639300,0.04969900,0.00659100,0.25242400,-0.31495700,0.11346700,0.69877600,-0.06790300,0.05015400,-0.00154600
8.22000000,0.24318400,0.32195600,-0.10706700,0.73631100,0.06639300,0.04969900,0.00659100,0.25242400,-0.31495700,0.11346700,0.69877600,-0.06790300,0.05015400,-0.00154600
8.24000000,0.24318400,0.32195600,-0.10706700,0.73631100,0.06639300,0.04969900,0.00659100,0.25242400,-0.31495700,0.11346700,0.69877600,-0.06790300,0.05015400,-0.00154600
8.26000000,0.24318400,0.32195600,-0.10706700,0.73631100,0.06639300,0.04969900,0.00659100,0.25242400,-0.31495700,0.11346700,0.69877600,-0.06790300,0.05015400,-0.00154600
8.28000000,0.24318400,0.32195600,-0.10706700,0.73631100,0.06639300,0.04969900,0.00659100,0.25242400,-0.31495700,0.11346700,0.69877600,-0.06790300,0.05015400,-0.00154600
8.30000000,0.24318400,0.32195600,-0.10706700,0.73631100,0.06639300,0.04969900,0.00659100,0.25242400,-0.31495700,0.11346700,0.69877600,-0.06790300,0.05015400,-0.00154600
8.32000000,0.24318400,0.32195600,-0.10706700,0.73631100,0.06639300,0.04969900,0.00659100,0.25242400,-0.31495700,0.11346700,0.69877600,-0.06790300,0.05015400,-0.00154600
8.34000000,0.24318400,0.32195600,-0.10706700,0.73631100,0.06639300,0.04969900,0.00659100,0.25242400,-0.31495700,0.11346700,0.69877600,-0.06790300,0.05015400,-0.00154600
8.36000000,0.24318400,0.32195600,-0.10706700,0.73631100,0.06639300,0.04969900,0.00659100,0.25242400,-0.31495700,0.11346700,0.69877600,-0.06790300,0.05015400,-0.00154600
8.38000000,0.24318400,0.32195600,-0.10706700,0.73631100,0.06639300,0.04969900,0.00659100,0.25242400,-0.31495700,0.11346700,0.69877600,-0.06790300,0.05015400,-0.00154600
8.40000000,0.24318400,0.32195600,-0.10706700,0.73631100,0.06639300,0.04969900,0.00659100,0.25242400,-0.31495700,0.11346700,0.69877600,-0.06790300,0.05015400,-0.00154600
8.42000000,0.24318400,0.32195600,-0.10706700,0.73631100,0.06639300,0.04969900,0.00659100,0.25242400,-0.31495700,0.11346700,0.69877600,-0.06790300,0.05015400,-0.00154600
8.44000000,0.24318400,0.32195600,-0.10706700,0.73631100,0.06639300,0.04969900,0.00659100,0.25242400,-0.31495700,0.11346700,0.69877600,-0.06790300,0.05015400,-0.00154600
8.46000000,0.24318400,0.32195600,-0.10706700,0.73631100,0.06639300,0.04969900,0.00659100,0.25242400,-0.31495700,0.11346700,0.69877600,-0.06790300,0.05015400,-0.00154600
8.48000000,0.24318400,0.32195600,-0.10706700,0.73631100,0.06639300,0.04969900,0.00659100,0.25242400,-0.31495700,0.11346700,0.69877600,-0.06790300,0.05015400,-0.00154600
8.50000000,0.24318400,0.32195600,-0.10706700,0.73631100,0.06639300,0.04969900,0.00659100,0.25242400,-0.31495700,0.11346700,0.69877600,-0.06790300,0.05015400,-0.00154600
8.52000000,0.24318400,0.32195600,-0.10706700,0.73631100,0.06639300,0.04969900,0.00659100,0.25242400,-0.31495700,0.11346700,0.69877600,-0.06790300,0.05015400,-0.00154600
8.54000000,0.24318400,0.32195600,-0.10706700,0.73631100,0.06639300,0.04969900,0.00659100,0.25242400,-0.31495700,0.11346700,0.69877600,-0.06790300,0.05015400,-0.00154600
8.56000000,0.24318400,0.32195600,-0.10706700,0.73631100,0.06639300,0.04969900,0.00659100,0.25242400,-0.31495700,0.11346700,0.69877600,-0.06790300,0.05015400,-0.00154600
8.58000000,0.24318400,0.32195600,-0.10706700,0.73631100,0.06639300,0.04969900,0.00659100,0.25242400,-0.31495700,0.11346700,0.69877600,-0.06790300,0.05015400,-0.00154600
8.60000000,0.24318400,0.32195600,-0.10706700,0.73631100,0.06639300,0.04969900,0.00659100,0.25242400,-0.31495700,0.11346700,0.69877600,-0.06790300,0.05015400,-0.00154600
8.62000000,0.24318400,0.32195600,-0.10706700,0.73631100,0.06639300,0.04969900,0.00659100,0.25242400,-0.31495700,0.11346700,0.69877600,-0.06790300,0.05015400,-0.00154600
8.64000000,0.24318400,0.32195600,-0.10706700,0.73631100,0.06639300,0.04969900,0.00659100,0.25242400,-0.31495700,0.11346700,0.69877600,-0.06790300,0.05015400,-0.00154600
8.66000000,0.24318400,0.32195600,-0.10706700,0.73631100,0.06639300,0.04969900,0.00659100,0.25242400,-0.31495700,0.11346700,0.69877600,-0.06790300,0.05015400,-0.00154600
8.68000000,0.24318400,0.32195600,-0.10706700,0.73631100,0.06639300,0.04969900,0.00659100,0.25242400,-0.31495700,0.11346700,0.69877600,-0.06790300,0.05015400,-0.00154600
8.70000000,0.24318400,0.32195600,-0.10706700,0.73631100,0.06639300,0.04969900,0.00659100,0.25242400,-0.31495700,0.11346700,0.69877600,-0.06790300,0.05015400,-0.00154600
8.72000000,0.24318400,0.32195600,-0.10706700,0.73631100,0.06639300,0.04969900,0.00659100,0.25242400,-0.31495700,0.11346700,0.69877600,-0.06790300,0.05015400,-0.00154600
8.74000000,0.24318400,0.32195600,-0.10706700,0.73631100,0.06639300,0.04969900,0.00659100,0.25242400,-0.31495700,0.11346700,0.69877600,-0.06790300,0.05015400,-0.00154600
8.76000000,0.24318400,0.32195600,-0.10706700,0.73631100,0.06639300,0.04969900,0.00659100,0.25242400,-0.31495700,0.11346700,0.69877600,-0.06790300,0.05015400,-0.00154600
8.78000000,0.24318400,0.32195600,-0.10706700,0.73631100,0.06639300,0.04969900,0.00659100,0.25242400,-0.31495700,0.11346700,0.69877600,-0.06790300,0.05015400,-0.00154600
8.80000000,0.24318400,0.32195600,-0.10706700,0.73631100,0.06639300,0.04969900,0.00659100,0.25242400,-0.31495700,0.11346700,0.69877600,-0.06790300,0.05015400,-0.00154600
8.82000000,0.24318400,0.32195600,-0.10706700,0.73631100,0.06639300,0.04969900,0.00659100,0.25242400,-0.31495700,0.11346700,0.69877600,-0.06790300,0.05015400,-0.00154600
8.84000000,0.24318400,0.32195600,-0.10706700,0.73631100,0.06639300,0.04969900,0.00659100,0.25242400,-0.31495700,0.11346700,0.69877600,-0.06790300,0.05015400,-0.00154600
8.86000000,0.24318400,0.32195600,-0.10706700,0.73631100,0.06639300,0.04969900,0.00659100,0.25242400,-0.31495700,0.11346700,0.69877600,-0.06790300,0.05015400,-0.00154600
8.88000000,0.24318400,0.32195600,-0.10706700,0.73631100,0.06639300,0.04969900,0.00659100,0.25242400,-0.31495700,0.11346700,0.69877600,-0.06790300,0.05015400,-0.00154600
8.90000000,0.24318400,0.32195600,-0.10706700,0.73631100,0.06639300,0.04969900,0.00659100,0.25242400,-0.31495700,0.11346700,0.69877600,-0.06790300,0.05015400,-0.00154600
8.92000000,0.24318400,0.32195600,-0.10706700,0.73631100,0.06639300,0.04969900,0.00659100,0.25242400,-0.31495700,0.11346700,0.69877600,-0.06790300,0.05015400,-0.00154600
8.94000000,0.24318400,0.32195600,-0.10706700,0.73631100,0.06639300,0.04969900,0.00659100,0.25242400,-0.31495700,0.11346700,0.69877600,-0.06790300,0.05015400,-0.00154600
8.96000000,0.24318400,0.32195600,-0.10706700,0.73631100,0.06639300,0.04969900,0.00659100,0.25242400,-0.31495700,0.11346700,0.69877600,-0.06790300,0.05015400,-0.00154600
8.98000000,0.24318400,0.32195600,-0.10706700,0.73631100,0.06639300,0.04969900,0.00659100,0.25242400,-0.31495700,0.11346700,0.69877600,-0.06790300,0.05015400,-0.00154600
9.00000000,0.24318400,0.32195600,-0.10706700,0.73631100,0.06639300,0.04969900,0.00659100,0.25242400,-0.31495700,0.11346700,0.69877600,-0.06790300,0.05015400,-0.00154600
9.02000000,0.24318400,0.32195600,-0.10706700,0.73631100,0.06639300,0.04969900,0.00659100,0.25242400,-0.31495700,0.11346700,0.69877600,-0.06790300,0.05015400,-0.00154600
9.04000000,0.24318400,0.32195600,-0.10706700,0.73631100,0.06639300,0.04969900,0.00659100,0.25242400,-0.31495700,0.11346700,0.69877600,-0.06790300,0.05015400,-0.00154600
9.06000000,0.24318400,0.32195600,-0.10706700,0.73631100,0.06639300,0.04969900,0.00659100,0.25242400,-0.31495700,0.11346700,0.69877600,-0.06790300,0.05015400,-0.00154600
9.08000000,0.24318400,0.32195600,-0.10706700,0.73631100,0.06639300,0.04969900,0.00659100,0.25242400,-0.31495700,0.11346700,0.69877600,-0.06790300,0.05015400,-0.00154600
9.10000000,0.24318400,0.32195600,-0.10706700,0.73631100,0.06639300,0.04969900,0.00659100,0.25242400,-0.31495700,0.11346700,0.69877600,-0.06790300,0.05015400,-0.00154600
9.12000000,0.24318400,0.32195600,-0.10706700,0.73631100,0.06639300,0.04969900,0.00659100,0.25242400,-0.31495700,0.11346700,0.69877600,-0.06790300,0.05015400,-0.00154600
9.14000000,0.24318400,0.32195600,-0.10706700,0.73631100,0.06639300,0.04969900,0.00659100,0.25242400,-0.31495700,0.11346700,0.69877600,-0.06790300,0.05015400,-0.00154600
9.16000000,0.24318400,0.32195600,-0.10706700,0.73631100,0.06639300,0.04969900,0.00659100,0.25242400,-0.31495700,0.11346700,0.69877600,-0.06790300,0.05015400,-0.00154600
9.18000000,0.24318400,0.32195600,-0.10706700,0.73631100,0.06639300,0.04969900,0.00659100,0.25242400,-0.31495700,0.11346700,0.69877600,-0.06790300,0.05015400,-0.00154600
9.20000000,0.24318400,0.32195600,-0.10706700,0.73631100,0.06639300,0.04969900,0.00659100,0.25242400,-0.31495700,0.11346700,0.69877600,-0.06790300,0.05015400,-0.00154600
9.22000000,0.24318400,0.32195600,-0.10706700,0.73631100,0.06639300,0.04969900,0.00659100,0.25242400,-0.31495700,0.11346700,0.69877600,-0.06790300,0.05015400,-0.00154600
9.24000000,0.24318400,0.32195600,-0.10706700,0.73631100,0.06639300,0.04969900,0.00659100,0.25242400,-0.31495700,0.11346700,0.69877600,-0.06790300,0.05015400,-0.00154600
9.26000000,0.24318400,0.32195600,-0.10706700,0.73631100,0.06639300,0.04969900,0.00659100,0.25242400,-0.31495700,0.11346700,0.69877600,-0.06790300,0.05015400,-0.00154600
9.28000000,0.24318400,0.32195600,-0.10706700,0.73631100,0.06639300,0.04969900,0.00659100,0.25242400,-0.31495700,0.11346700,0.69877600,-0.06790300,0.05015400,-0.00154600
9.30000000,0.24318400,0.32195600,-0.10706700,0.73631100,0.06639300,0.04969900,0.00659100,0.25242400,-0.31495700,0.11346700,0.69877600,-0.06790300,0.05015400,-0.00154600
9.32000000,0.24318400,0.32195600,-0.10706700,0.73631100,0.06639300,0.04969900,0.00659100,0.25242400,-0.31495700,0.11346700,0.69877600,-0.06790300,0.05015400,-0.00154600
9.34000000,0.24318400,0.32195600,-0.10706700,0.73631100,0.06639300,0.04969900,0.00659100,0.25242400,-0.31495700,0.11346700,0.69877600,-0.06790300,0.05015400,-0.00154600
9.36000000,0.24318400,0.32195600,-0.10706700,0.73631100,0.06639300,0.04969900,0.00659100,0.25242400,-0.31495700,0.11346700,0.69877600,-0.06790300,0.05015400,-0.00154600
9.38000000,0.24318400,0.32195600,-0.10706700,0.73631100,0.06639300,0.04969900,0.00659100,0.25242400,-0.31495700,0.11346700,0.69877600,-0.06790300,0.05015400,-0.00154600
9.40000000,0.24318400,0.32195600,-0.10706700,0.73631100,0.06639300,0.04969900,0.00659100,0.25242400,-0.31495700,0.11346700,0.69877600,-0.06790300,0.05015400,-0.00154600
9.42000000,0.24318400,0.32195600,-0.10706700,0.73631100,0.06639300,0.04969900,0.00659100,0.25242400,-0.31495700,0.11346700,0.69877600,-0.06790300,0.05015400,-0.00154600
9.44000000,0.24318400,0.32195600,-0.10706700,0.73631100,0.06639300,0.04969900,0.00659100,0.25242400,-0.31495700,0.11346700,0.69877600,-0.06790300,0.05015400,-0.00154600
9.46000000,0.24318400,0.32195600,-0.10706700,0.73631100,0.06639300,0.04969900,0.00659100,0.25242400,-0.31495700,0.11346700,0.69877600,-0.06790300,0.05015400,-0.00154600
9.48000000,0.24318400,0.32195600,-0.10706700,0.73631100,0.06639300,0.04969900,0.00659100,0.25242400,-0.31495700,0.11346700,0.69877600,-0.06790300,0.05015400,-0.00154600
9.50000000,0.24318400,0.32195600,-0.10706700,0.73631100,0.06639300,0.04969900,0.00659100,0.25242400,-0.31495700,0.11346700,0.69877600,-0.06790300,0.05015400,-0.00154600
9.52000000,0.24318400,0.32195600,-0.10706700,0.73631100,0.06639300,0.04969900,0.00659100,0.25242400,-0.31495700,0.11346700,0.69877600,-0.06790300,0.05015400,-0.00154600
9.54000000,0.24318400,0.32195600,-0.10706700,0.73631100,0.06639300,0.04969900,0.00659100,0.25242400,-0.31495700,0.11346700,0.69877600,-0.06790300,0.05015400,-0.00154600
9.56000000,0.24318400,0.32195600,-0.10706700,0.73631100,0.06639300,0.04969900,0.00659100,0.25242400,-0.31495700,0.11346700,0.69877600,-0.06790300,0.05015400,-0.00154600
9.58000000,0.24318400,0.32195600,-0.10706700,0.73631100,0.06639300,0.04969900,0.00659100,0.25242400,-0.31495700,0.11346700,0.69877600,-0.06790300,0.05015400,-0.00154600
9.60000000,0.24318400,0.32195600,-0.10706700,0.73631100,0.06639300,0.04969900,0.00659100,0.25242400,-0.31495700,0.11346700,0.69877600,-0.06790300,0.05015400,-0.00154600
9.62000000,0.24318400,0.32195600,-0.10706700,0.73631100,0.06639300,0.04969900,0.00659100,0.25242400,-0.31495700,0.11346700,0.69877600,-0.06790300,0.05015400,-0.00154600
9.64000000,0.24318400,0.32195600,-0.10706700,0.73631100,0.06639300,0.04969900,0.00659100,0.25242400,-0.31495700,0.11346700,0.69877600,-0.06790300,0.05015400,-0.00154600
9.66000000,0.24318400,0.32195600,-0.10706700,0.73631100,0.06639300,0.04969900,0.00659100,0.25242400,-0.31495700,0.11346700,0.69877600,-0.06790300,0.05015400,-0.00154600
9.68000000,0.24318400,0.32195600,-0.10706700,0.73631100,0.06639300,0.04969900,0.00659100,0.25242400,-0.31495700,0.11346700,0.69877600,-0.06790300,0.05015400,-0.00154600
9.70000000,0.24318400,0.32195600,-0.10706700,0.73631100,0.06639300,0.04969900,0.00659100,0.25242400,-0.31495700,0.11346700,0.69877600,-0.06790300,0.05015400,-0.00154600
9.72000000,0.24318400,0.32195600,-0.10706700,0.73631100,0.06639300,0.04969900,0.00659100,0.25242400,-0.31495700,0.11346700,0.69877600,-0.06790300,0.05015400,-0.00154600
9.74000000,0.24318400,0.32195600,-0.10706700,0.73631100,0.06639300,0.04969900,0.00659100,0.25242400,-0.31495700,0.11346700,0.69877600,-0.06790300,0.05015400,-0.00154600
9.76000000,0.24318400,0.32195600,-0.10706700,0.73631100,0.06639300,0.04969900,0.00659100,0.25242400,-0.31495700,0.11346700,0.69877600,-0.06790300,0.05015400,-0.00154600
9.78000000,0.24318400,0.32195600,-0.10706700,0.73631100,0.06639300,0.04969900,0.00659100,0.25242400,-0.31495700,0.11346700,0.69877600,-0.06790300,0.05015400,-0.00154600
9.80000000,0.24318400,0.32195600,-0.10706700,0.73631100,0.06639300,0.04969900,0.00659100,0.25242400,-0.31495700,0.11346700,0.69877600,-0.06790300,0.05015400,-0.00154600
9.82000000,0.24318400,0.32195600,-0.10706700,0.73631100,0.06639300,0.04969900,0.00659100,0.25242400,-0.31495700,0.11346700,0.69877600,-0.06790300,0.05015400,-0.00154600
9.84000000,0.24318400,0.32195600,-0.10706700,0.73631100,0.06639300,0.04969900,0.00659100,0.25242400,-0.31495700,0.11346700,0.69877600,-0.06790300,0.05015400,-0.00154600
9.86000000,0.24318400,0.32195600,-0.10706700,0.73631100,0.06639300,0.04969900,0.00659100,0.25242400,-0.31495700,0.11346700,0.69877600,-0.06790300,0.05015400,-0.00154600
9.88000000,0.24318400,0.32195600,-0.10706700,0.73631100,0.06639300,0.04969900,0.00659100,0.25242400,-0.31495700,0.11346700,0.69877600,-0.06790300,0.05015400,-0.00154600
9.90000000,0.24318400,0.32195600,-0.10706700,0.73631100,0.06639300,0.04969900,0.00659100,0.25242400,-0.31495700,0.11346700,0.69877600,-0.06790300,0.05015400,-0.00154600
9.92000000,0.24318400,0.32195600,-0.10706700,0.73631100,0.06639300,0.04969900,0.00659100,0.25242400,-0.31495700,0.11346700,0.69877600,-0.06790300,0.05015400,-0.00154600
9.94000000,0.24318400,0.32195600,-0.10706700,0.73631100,0.06639300,0.04969900,0.00659100,0.25242400,-0.31495700,0.11346700,0.69877600,-0.06790300,0.05015400,-0.00154600
9.96000000,0.24318400,0.32195600,-0.10706700,0.73631100,0.06639300,0.04969900,0.00659100,0.25242400,-0.31495700,0.11346700,0.69877600,-0.06790300,0.05015400,-0.00154600
9.98000000,0.24318400,0.32195600,-0.10706700,0.73631100,0.06639300,0.04969900,0.00659100,0.25242400,-0.31495700,0.11346700,0.69877600,-0.06790300,0.05015400,-0.00154600
10.00000000,0.24318400,0.32195600,-0.10706700,0.73631100,0.06639300,0.04969900,0.00659100,0.25242400,-0.31495700,0.11346700,0.69877600,-0.06790300,0.05015400,-0.00154600
10.02000000,0.24318400,0.32195600,-0.10706700,0.73631100,0.06639300,0.04969900,0.00659100,0.25242400,-0.31495700,0.11346700,0.69877600,-0.06790300,0.05015400,-0.00154600
10.04000000,0.24318400,0.32195600,-0.10706700,0.73631100,0.06639300,0.04969900,0.00659100,0.25242400,-0.31495700,0.11346700,0.69877600,-0.06790300,0.05015400,-0.00154600
10.06000000,0.24318400,0.32195600,-0.10706700,0.73631100,0.06639300,0.04969900,0.00659100,0.25242400,-0.31495700,0.11346700,0.69877600,-0.06790300,0.05015400,-0.00154600
10.08000000,0.24318400,0.32195600,-0.10706700,0.73631100,0.06639300,0.04969900,0.00659100,0.25242400,-0.31495700,0.11346700,0.69877600,-0.06790300,0.05015400,-0.00154600
10.10000000,0.24318400,0.32195600,-0.10706700,0.73631100,0.06639300,0.04969900,0.00659100,0.25242400,-0.31495700,0.11346700,0.69877600,-0.06790300,0.05015400,-0.00154600
10.12000000,0.24318400,0.32195600,-0.10706700,0.73631100,0.06639300,0.04969900,0.00659100,0.25242400,-0.31495700,0.11346700,0.69877600,-0.06790300,0.05015400,-0.00154600
10.14000000,0.24318400,0.32195600,-0.10706700,0.73631100,0.06639300,0.04969900,0.00659100,0.25242400,-0.31495700,0.11346700,0.69877600,-0.06790300,0.05015400,-0.00154600
10.16000000,0.24318400,0.32195600,-0.10706700,0.73631100,0.06639300,0.04969900,0.00659100,0.25242400,-0.31495700,0.11346700,0.69877600,-0.06790300,0.05015400,-0.00154600
10.18000000,0.24318400,0.32195600,-0.10706700,0.73631100,0.06639300,0.04969900,0.00659100,0.25242400,-0.31495700,0.11346700,0.69877600,-0.06790300,0.05015400,-0.00154600
10.20000000,0.24318400,0.32195600,-0.10706700,0.73631100,0.06639300,0.04969900,0.00659100,0.25242400,-0.31495700,0.11346700,0.69877600,-0.06790300,0.05015400,-0.00154600
10.22000000,0.24318400,0.32195600,-0.10706700,0.73631100,0.06639300,0.04969900,0.00659100,0.25242400,-0.31495700,0.11346700,0.69877600,-0.06790300,0.05015400,-0.00154600
10.24000000,0.24318400,0.32195600,-0.10706700,0.73631100,0.06639300,0.04969900,0.00659100,0.25242400,-0.31495700,0.11346700,0.69877600,-0.06790300,0.05015400,-0.00154600
10.26000000,0.24318400,0.32195600,-0.10706700,0.73631100,0.06639300,0.04969900,0.00659100,0.25242400,-0.31495700,0.11346700,0.69877600,-0.06790300,0.05015400,-0.00154600
10.28000000,0.24318400,0.32195600,-0.10706700,0.73631100,0.06639300,0.04969900,0.00659100,0.25242400,-0.31495700,0.11346700,0.69877600,-0.06790300,0.05015400,-0.00154600
10.30000000,0.24318400,0.32195600,-0.10706700,0.73631100,0.06639300,0.04969900,0.00659100,0.25242400,-0.31495700,0.11346700,0.69877600,-0.06790300,0.05015400,-0.00154600
10.32000000,0.24318400,0.32195600,-0.10706700,0.73631100,0.06639300,0.04969900,0.00659100,0.25242400,-0.31495700,0.11346700,0.69877600,-0.06790300,0.05015400,-0.00154600
10.34000000,0.24318400,0.32195600,-0.10706700,0.73631100,0.06639300,0.04969900,0.00659100,0.25242400,-0.31495700,0.11346700,0.69877600,-0.06790300,0.05015400,-0.00154600
10.36000000,0.24318400,0.32195600,-0.10706700,0.73631100,0.06639300,0.04969900,0.00659100,0.25242400,-0.31495700,0.11346700,0.69877600,-0.06790300,0.05015400,-0.00154600
10.38000000,0.24318400,0.32195600,-0.10706700,0.73631100,0.06639300,0.04969900,0.00659100,0.25242400,-0.31495700,0.11346700,0.69877600,-0.06790300,0.05015400,-0.00154600
10.40000000,0.24318400,0.32195600,-0.10706700,0.73631100,0.06639300,0.04969900,0.00659100,0.25242400,-0.31495700,0.11346700,0.69877600,-0.06790300,0.05015400,-0.00154600
10.42000000,0.24318400,0.32195600,-0.10706700,0.73631100,0.06639300,0.04969900,0.00659100,0.25242400,-0.31495700,0.11346700,0.69877600,-0.06790300,0.05015400,-0.00154600
10.44000000,0.24318400,0.32195600,-0.10706700,0.73631100,0.06639300,0.04969900,0.00659100,0.25242400,-0.31495700,0.11346700,0.69877600,-0.06790300,0.05015400,-0.00154600
10.46000000,0.24318400,0.32195600,-0.10706700,0.73631100,0.06639300,0.04969900,0.00659100,0.25242400,-0.31495700,0.11346700,0.69877600,-0.06790300,0.05015400,-0.00154600
10.48000000,0.24318400,0.32195600,-0.10706700,0.73631100,0.06639300,0.04969900,0.00659100,0.25242400,-0.31495700,0.11346700,0.69877600,-0.06790300,0.05015400,-0.00154600
10.50000000,0.24318400,0.32195600,-0.10706700,0.73631100,0.06639300,0.04969900,0.00659100,0.25242400,-0.31495700,0.11346700,0.69877600,-0.06790300,0.05015400,-0.00154600
10.52000000,0.24318400,0.32195600,-0.10706700,0.73631100,0.06639300,0.04969900,0.00659100,0.25242400,-0.31495700,0.11346700,0.69877600,-0.06790300,0.05015400,-0.00154600
10.54000000,0.24318400,0.32195600,-0.10706700,0.73631100,0.06639300,0.04969900,0.00659100,0.25242400,-0.31495700,0.11346700,0.69877600,-0.06790300,0.05015400,-0.00154600
10.56000000,0.24318400,0.32195600,-0.10706700,0.73631100,0.06639300,0.04969900,0.00659100,0.25242400,-0.31495700,0.11346700,0.69877600,-0.06790300,0.05015400,-0.00154600
10.58000000,0.24318400,0.32195600,-0.10706700,0.73631100,0.06639300,0.04969900,0.00659100,0.25242400,-0.31495700,0.11346700,0.69877600,-0.06790300,0.05015400,-0.00154600
10.60000000,0.24318400,0.32195600,-0.10706700,0.73631100,0.06639300,0.04969900,0.00659100,0.25242400,-0.31495700,0.11346700,0.69877600,-0.06790300,0.05015400,-0.00154600
10.62000000,0.24318400,0.32195600,-0.10706700,0.73631100,0.06639300,0.04969900,0.00659100,0.25242400,-0.31495700,0.11346700,0.69877600,-0.06790300,0.05015400,-0.00154600
10.64000000,0.24318400,0.32195600,-0.10706700,0.73631100,0.06639300,0.04969900,0.00659100,0.25242400,-0.31495700,0.11346700,0.69877600,-0.06790300,0.05015400,-0.00154600
10.66000000,0.24318400,0.32195600,-0.10706700,0.73631100,0.06639300,0.04969900,0.00659100,0.25242400,-0.31495700,0.11346700,0.69877600,-0.06790300,0.05015400,-0.00154600
10.68000000,0.24318400,0.32195600,-0.10706700,0.73631100,0.06639300,0.04969900,0.00659100,0.25242400,-0.31495700,0.11346700,0.69877600,-0.06790300,0.05015400,-0.00154600
10.70000000,0.24318400,0.32195600,-0.10706700,0.73631100,0.06639300,0.04969900,0.00659100,0.25242400,-0.31495700,0.11346700,0.69877600,-0.06790300,0.05015400,-0.00154600
10.72000000,0.24318400,0.32195600,-0.10706700,0.73631100,0.06639300,0.04969900,0.00659100,0.25242400,-0.31495700,0.11346700,0.69877600,-0.06790300,0.05015400,-0.00154600
10.74000000,0.24318400,0.32195600,-0.10706700,0.73631100,0.06639300,0.04969900,0.00659100,0.25242400,-0.31495700,0.11346700,0.69877600,-0.06790300,0.05015400,-0.00154600
10.76000000,0.24318400,0.32195600,-0.10706700,0.73631100,0.06639300,0.04969900,0.00659100,0.25242400,-0.31495700,0.11346700,0.69877600,-0.06790300,0.05015400,-0.00154600
10.78000000,0.24318400,0.32195600,-0.10706700,0.73631100,0.06639300,0.04969900,0.00659100,0.25242400,-0.31495700,0.11346700,0.69877600,-0.06790300,0.05015400,-0.00154600
10.80000000,0.24318400,0.32195600,-0.10706700,0.73631100,0.06639300,0.04969900,0.00659100,0.25242400,-0.31495700,0.11346700,0.69877600,-0.06790300,0.05015400,-0.00154600
10.82000000,0.24318400,0.32195600,-0.10706700,0.73631100,0.06639300,0.04969900,0.00659100,0.25242400,-0.31495700,0.11346700,0.69877600,-0.06790300,0.05015400,-0.00154600
10.84000000,0.24318400,0.32195600,-0.10706700,0.73631100,0.06639300,0.04969900,0.00659100,0.25242400,-0.31495700,0.11346700,0.69877600,-0.06790300,0.05015400,-0.00154600
10.86000000,0.24318400,0.32195600,-0.10706700,0.73631100,0.06639300,0.04969900,0.00659100,0.25242400,-0.31495700,0.11346700,0.69877600,-0.06790300,0.05015400,-0.00154600
10.88000000,0.24318400,0.32195600,-0.10706700,0.73631100,0.06639300,0.04969900,0.00659100,0.25242400,-0.31495700,0.11346700,0.69877600,-0.06790300,0.05015400,-0.00154600
10.90000000,0.24318400,0.32195600,-0.10706700,0.73631100,0.06639300,0.04969900,0.00659100,0.25242400,-0.31495700,0.11346700,0.69877600,-0.06790300,0.05015400,-0.00154600
10.92000000,0.24318400,0.32195600,-0.10706700,0.73631100,0.06639300,0.04969900,0.00659100,0.25242400,-0.31495700,0.11346700,0.69877600,-0.06790300,0.05015400,-0.00154600
10.94000000,0.24318400,0.32195600,-0.10706700,0.73631100,0.06639300,0.04969900,0.00659100,0.25242400,-0.31495700,0.11346700,0.69877600,-0.06790300,0.05015400,-0.00154600
10.96000000,0.24318400,0.32195600,-0.10706700,0.73631100,0.06639300,0.04969900,0.00659100,0.25242400,-0.31495700,0.11346700,0.69877600,-0.06790300,0.05015400,-0.00154600
10.98000000,0.24318400,0.32195600,-0.10706700,0.73631100,0.06639300,0.04969900,0.00659100,0.25242400,-0.31495700,0.11346700,0.69877600,-0.06790300,0.05015400,-0.00154600
11.00000000,0.24318400,0.32195600,-0.10706700,0.73631100,0.06639300,0.04969900,0.00659100,0.25242400,-0.31495700,0.11346700,0.69877600,-0.06790300,0.05015400,-0.00154600
11.02000000,0.24318400,0.32195600,-0.10706700,0.73631100,0.06639300,0.04969900,0.00659100,0.25242400,-0.31495700,0.11346700,0.69877600,-0.06790300,0.05015400,-0.00154600
11.04000000,0.24318400,0.32195600,-0.10706700,0.73631100,0.06639300,0.04969900,0.00659100,0.25242400,-0.31495700,0.11346700,0.69877600,-0.06790300,0.05015400,-0.00154600
11.06000000,0.24318400,0.32195600,-0.10706700,0.73631100,0.06639300,0.04969900,0.00659100,0.25242400,-0.31495700,0.11346700,0.69877600,-0.06790300,0.05015400,-0.00154600
11.08000000,0.24318400,0.32195600,-0.10706700,0.73631100,0.06639300,0.04969900,0.00659100,0.25242400,-0.31495700,0.11346700,0.69877600,-0.06790300,0.05015400,-0.00154600
11.10000000,0.24318400,0.32195600,-0.10706700,0.73631100,0.06639300,0.04969900,0.00659100,0.25242400,-0.31495700,0.11346700,0.69877600,-0.06790300,0.05015400,-0.00154600
11.12000000,0.24318400,0.32195600,-0.10706700,0.73631100,0.06639300,0.04969900,0.00659100,0.25242400,-0.31495700,0.11346700,0.69877600,-0.06790300,0.05015400,-0.00154600
11.14000000,0.24318400,0.32195600,-0.10706700,0.73631100,0.06639300,0.04969900,0.00659100,0.25242400,-0.31495700,0.11346700,0.69877600,-0.06790300,0.05015400,-0.00154600
11.16000000,0.24318400,0.32195600,-0.10706700,0.73631100,0.06639300,0.04969900,0.00659100,0.25242400,-0.31495700,0.11346700,0.69877600,-0.06790300,0.05015400,-0.00154600
11.18000000,0.24318400,0.32195600,-0.10706700,0.73631100,0.06639300,0.04969900,0.00659100,0.25242400,-0.31495700,0.11346700,0.69877600,-0.06790300,0.05015400,-0.00154600
11.20000000,0.24318400,0.32195600,-0.10706700,0.73631100,0.06639300,0.04969900,0.00659100,0.25242400,-0.31495700,0.11346700,0.69877600,-0.06790300,0.05015400,-0.00154600
11.22000000,0.24318400,0.32195600,-0.10706700,0.73631100,0.06639300,0.04969900,0.00659100,0.25242400,-0.31495700,0.11346700,0.69877600,-0.06790300,0.05015400,-0.00154600
11.24000000,0.24318400,0.32195600,-0.10706700,0.73631100,0.06639300,0.04969900,0.00659100,0.25242400,-0.31495700,0.11346700,0.69877600,-0.06790300,0.05015400,-0.00154600
11.26000000,0.24318400,0.32195600,-0.10706700,0.73631100,0.06639300,0.04969900,0.00659100,0.25242400,-0.31495700,0.11346700,0.69877600,-0.06790300,0.05015400,-0.00154600
11.28000000,0.24318400,0.32195600,-0.10706700,0.73631100,0.06639300,0.04969900,0.00659100,0.25242400,-0.31495700,0.11346700,0.69877600,-0.06790300,0.05015400,-0.00154600
11.30000000,0.24318400,0.32195600,-0.10706700,0.73631100,0.06639300,0.04969900,0.00659100,0.25242400,-0.31495700,0.11346700,0.69877600,-0.06790300,0.05015400,-0.00154600
11.32000000,0.24318400,0.32195600,-0.10706700,0.73631100,0.06639300,0.04969900,0.00659100,0.25242400,-0.31495700,0.11346700,0.69877600,-0.06790300,0.05015400,-0.00154600
11.34000000,0.24318400,0.32195600,-0.10706700,0.73631100,0.06639300,0.04969900,0.00659100,0.25242400,-0.31495700,0.11346700,0.69877600,-0.06790300,0.05015400,-0.00154600
11.36000000,0.24318400,0.32195600,-0.10706700,0.73631100,0.06639300,0.04969900,0.00659100,0.25242400,-0.31495700,0.11346700,0.69877600,-0.06790300,0.05015400,-0.00154600
11.38000000,0.24318400,0.32195600,-0.10706700,0.73631100,0.06639300,0.04969900,0.00659100,0.25242400,-0.31495700,0.11346700,0.69877600,-0.06790300,0.05015400,-0.00154600
11.40000000,0.24318400,0.32195600,-0.10706700,0.73631100,0.06639300,0.04969900,0.00659100,0.25242400,-0.31495700,0.11346700,0.69877600,-0.06790300,0.05015400,-0.00154600
11.42000000,0.24318400,0.32195600,-0.10706700,0.73631100,0.06639300,0.04969900,0.00659100,0.25242400,-0.31495700,0.11346700,0.69877600,-0.06790300,0.05015400,-0.00154600
11.44000000,0.24318400,0.32195600,-0.10706700,0.73631100,0.06639300,0.04969900,0.00659100,0.25242400,-0.31495700,0.11346700,0.69877600,-0.06790300,0.05015400,-0.00154600
11.46000000,0.24318400,0.32195600,-0.10706700,0.73631100,0.06639300,0.04969900,0.00659100,0.25242400,-0.31495700,0.11346700,0.69877600,-0.06790300,0.05015400,-0.00154600
11.48000000,0.24318400,0.32195600,-0.10706700,0.73631100,0.06639300,0.04969900,0.00659100,0.25242400,-0.31495700,0.11346700,0.69877600,-0.06790300,0.05015400,-0.00154600
11.50000000,0.24318400,0.32195600,-0.10706700,0.73631100,0.06639300,0.04969900,0.00659100,0.25242400,-0.31495700,0.11346700,0.69877600,-0.06790300,0.05015400,-0.00154600
11.52000000,0.24318400,0.32195600,-0.10706700,0.73631100,0.06639300,0.04969900,0.00659100,0.25242400,-0.31495700,0.11346700,0.69877600,-0.06790300,0.05015400,-0.00154600
11.54000000,0.24318400,0.32195600,-0.10706700,0.73631100,0.06639300,0.04969900,0.00659100,0.25242400,-0.31495700,0.11346700,0.69877600,-0.06790300,0.05015400,-0.00154600
11.56000000,0.24318400,0.32195600,-0.10706700,0.73631100,0.06639300,0.04969900,0.00659100,0.25242400,-0.31495700,0.11346700,0.69877600,-0.06790300,0.05015400,-0.00154600
11.58000000,0.24318400,0.32195600,-0.10706700,0.73631100,0.06639300,0.04969900,0.00659100,0.25242400,-0.31495700,0.11346700,0.69877600,-0.06790300,0.05015400,-0.00154600
11.60000000,0.24318400,0.32195600,-0.10706700,0.73631100,0.06639300,0.04969900,0.00659100,0.25242400,-0.31495700,0.11346700,0.69877600,-0.06790300,0.05015400,-0.00154600
11.62000000,0.24318400,0.32195600,-0.10706700,0.73631100,0.06639300,0.04969900,0.00659100,0.25242400,-0.31495700,0.11346700,0.69877600,-0.06790300,0.05015400,-0.00154600
11.64000000,0.24318400,0.32195600,-0.10706700,0.73631100,0.06639300,0.04969900,0.00659100,0.25242400,-0.31495700,0.11346700,0.69877600,-0.06790300,0.05015400,-0.00154600
11.66000000,0.24318400,0.32195600,-0.10706700,0.73631100,0.06639300,0.04969900,0.00659100,0.25242400,-0.31495700,0.11346700,0.69877600,-0.06790300,0.05015400,-0.00154600
11.68000000,0.24318400,0.32195600,-0.10706700,0.73631100,0.06639300,0.04969900,0.00659100,0.25242400,-0.31495700,0.11346700,0.69877600,-0.06790300,0.05015400,-0.00154600
11.70000000,0.24318400,0.32195600,-0.10706700,0.73631100,0.06639300,0.04969900,0.00659100,0.25242400,-0.31495700,0.11346700,0.69877600,-0.06790300,0.05015400,-0.00154600
11.72000000,0.24318400,0.32195600,-0.10706700,0.73631100,0.06639300,0.04969900,0.00659100,0.25242400,-0.31495700,0.11346700,0.69877600,-0.06790300,0.05015400,-0.00154600
11.74000000,0.24318400,0.32195600,-0.10706700,0.73631100,0.06639300,0.04969900,0.00659100,0.25242400,-0.31495700,0.11346700,0.69877600,-0.06790300,0.05015400,-0.00154600
11.76000000,0.24318400,0.32195600,-0.10706700,0.73631100,0.06639300,0.04969900,0.00659100,0.25242400,-0.31495700,0.11346700,0.69877600,-0.06790300,0.05015400,-0.00154600
